;FLAVOR:RepRap
;TIME:724
;Filament used: 0.506366m
;Layer height: 0.2
;MINX:115.207
;MINY:90.207
;MINZ:0.36
;MAXX:134.792
;MAXY:109.791
;MAXZ:36.11
;Generated with Cura_SteamEngine 4.8.0
T0
M190 S60
M104 S215
M109 S215
M82 ;absolute extrusion mode
;Craftbot Start Script
G28 X0Y0 ;home xy
G28 Z0 ;home z
G91 ;relative movements
G0 F100 ;speed 100mm/sec
G0 X15 Y15 Z0.4 E12 ;purge nozzle - move to xy15
G90 ;Absolute movements
M83 ;relative extrusion mode
G1 F1500 E-6.5
;LAYER_COUNT:174
;LAYER:-6
M107
G0 F7200 X117.899 Y93.569 Z0.36
;TYPE:SUPPORT-INTERFACE
G1 F1500 E6.5
G1 F1350 X118.102 Y93.335 E0.03709
G1 X118.296 Y93.139 E0.03302
G1 X118.523 Y92.938 E0.0363
G1 X118.857 Y92.68 E0.05053
G1 X118.989 Y92.585 E0.01947
G1 X120.444 Y91.613 E0.20952
G1 X120.603 Y91.513 E0.02249
G1 X120.905 Y91.337 E0.04185
G1 X121.164 Y91.209 E0.03459
G1 X121.424 Y91.099 E0.0338
G1 X121.713 Y90.999 E0.03662
G1 X122.113 Y90.889 E0.04967
G1 X122.298 Y90.845 E0.02277
G1 X124.015 Y90.505 E0.20958
G1 X124.16 Y90.48 E0.01762
G1 X124.532 Y90.431 E0.04493
G1 X124.825 Y90.41 E0.03517
G1 X125.113 Y90.408 E0.03448
G1 X125.403 Y90.426 E0.03479
G1 X125.84 Y90.481 E0.05274
G1 X125.985 Y90.505 E0.0176
G1 X127.725 Y90.851 E0.21242
G1 X127.863 Y90.883 E0.01696
G1 X128.242 Y90.983 E0.04693
G1 X128.508 Y91.072 E0.03359
G1 X128.758 Y91.173 E0.03228
G1 X129.049 Y91.315 E0.03877
G1 X129.397 Y91.514 E0.048
G1 X129.56 Y91.615 E0.02296
G1 X131.008 Y92.583 E0.20855
G1 X131.152 Y92.686 E0.0212
G1 X131.43 Y92.898 E0.04186
G1 X131.664 Y93.101 E0.03709
G1 X131.86 Y93.295 E0.03302
G1 X132.061 Y93.522 E0.0363
G1 X132.319 Y93.856 E0.05053
G1 X132.414 Y93.988 E0.01947
G1 X133.373 Y95.422 E0.20656
G1 X133.486 Y95.602 E0.02545
G1 X133.665 Y95.91 E0.04265
G1 X133.79 Y96.162 E0.03368
G1 X133.901 Y96.424 E0.03407
G1 X134.002 Y96.715 E0.03688
G1 X134.117 Y97.137 E0.05237
G1 X134.147 Y97.264 E0.01563
G1 X134.494 Y99.003 E0.21233
G1 X134.517 Y99.139 E0.01652
G1 X134.569 Y99.524 E0.04652
G1 X134.59 Y99.821 E0.03565
G1 X134.592 Y100.108 E0.03437
G1 X134.575 Y100.399 E0.0349
G1 X134.522 Y100.815 E0.05021
G1 X134.493 Y100.996 E0.02195
G1 X134.147 Y102.733 E0.21207
G1 X134.116 Y102.87 E0.01682
G1 X134.023 Y103.219 E0.04325
G1 X133.927 Y103.503 E0.0359
G1 X133.818 Y103.775 E0.03509
G1 X133.689 Y104.04 E0.03529
G1 X133.47 Y104.423 E0.05283
G1 X133.407 Y104.526 E0.01446
G1 X132.399 Y106.035 E0.21729
G1 X132.333 Y106.126 E0.01346
G1 X132.094 Y106.439 E0.04715
G1 X131.909 Y106.652 E0.03378
G1 X131.708 Y106.856 E0.03429
G1 X131.472 Y107.065 E0.03775
G1 X131.162 Y107.305 E0.04694
G1 X131.001 Y107.42 E0.02369
G1 X129.548 Y108.391 E0.20925
G1 X129.409 Y108.478 E0.01963
G1 X129.087 Y108.665 E0.04459
G1 X128.834 Y108.79 E0.03379
G1 X128.562 Y108.905 E0.03536
G1 X128.293 Y108.998 E0.03408
G1 X127.893 Y109.107 E0.04964
G1 X127.7 Y109.153 E0.02376
G1 X126 Y109.492 E0.20756
G1 X125.837 Y109.519 E0.01978
G1 X125.476 Y109.569 E0.04364
G1 X125.174 Y109.59 E0.03625
G1 X124.892 Y109.592 E0.03377
G1 X124.601 Y109.574 E0.03491
G1 X124.163 Y109.518 E0.05287
G1 X123.993 Y109.491 E0.02061
G1 X122.283 Y109.149 E0.2088
G1 X122.107 Y109.109 E0.02161
G1 X121.778 Y109.021 E0.04078
G1 X121.492 Y108.925 E0.03612
G1 X121.223 Y108.816 E0.03475
G1 X120.954 Y108.685 E0.03583
G1 X120.603 Y108.483 E0.04849
G1 X120.446 Y108.386 E0.0221
G1 X118.99 Y107.415 E0.20955
G1 X118.858 Y107.321 E0.0194
G1 X118.558 Y107.091 E0.04526
G1 X118.346 Y106.908 E0.03353
G1 X118.144 Y106.709 E0.03395
G1 X117.931 Y106.468 E0.03851
G1 X117.674 Y106.136 E0.05027
G1 X117.595 Y106.025 E0.01631
G1 X116.599 Y104.534 E0.2147
G1 X116.52 Y104.408 E0.01781
G1 X116.336 Y104.091 E0.04389
G1 X116.206 Y103.828 E0.03513
G1 X116.1 Y103.58 E0.03229
G1 X115.996 Y103.279 E0.03813
G1 X115.89 Y102.887 E0.04862
G1 X115.846 Y102.7 E0.023
G1 X115.507 Y100.996 E0.20803
G1 X115.478 Y100.827 E0.02053
G1 X115.431 Y100.469 E0.04323
G1 X115.41 Y100.177 E0.03505
G1 X115.408 Y99.884 E0.03508
G1 X115.425 Y99.599 E0.03419
G1 X115.478 Y99.183 E0.05021
G1 X115.508 Y98.997 E0.02256
G1 X115.853 Y97.265 E0.21146
G1 X115.884 Y97.128 E0.01682
G1 X115.977 Y96.779 E0.04325
G1 X116.077 Y96.482 E0.03752
G1 X116.184 Y96.218 E0.03411
G1 X116.306 Y95.967 E0.03342
G1 X116.522 Y95.59 E0.05202
G1 X116.608 Y95.451 E0.01957
G1 X117.584 Y93.991 E0.21028
G1 X117.687 Y93.847 E0.0212
G1 X117.899 Y93.569 E0.04186
G0 F7200 X118.4 Y93.046
G1 F1350 X118.4 Y106.954 E1.6653
G0 F7200 X120 Y108.088
G1 F1350 X120 Y91.909 E1.93722
G0 F7200 X121.6 Y91.038
G1 F1350 X121.6 Y108.961 E2.14604
G0 F7200 X123.2 Y109.332
G1 F1350 X123.2 Y90.666 E2.235
G0 F7200 X124.8 Y90.411
G1 F1350 X124.8 Y109.586 E2.29595
G0 F7200 X126.4 Y109.413
G1 F1350 X126.4 Y90.588 E2.25404
G0 F7200 X128 Y90.92
G1 F1350 X128 Y109.078 E2.17418
G0 F7200 X129.6 Y108.357
G1 F1350 X129.6 Y91.642 E2.0014
G0 F7200 X131.2 Y92.723
G1 F1350 X131.2 Y107.276 E1.74253
G0 F7200 X132.8 Y105.435
G1 F1350 X132.8 Y94.566 E1.30142
G0 F7200 X134.4 Y98.532
G1 F1350 X134.4 Y101.463 E0.35095
G0 F7200 X116.8 Y104.834
G1 F1350 X116.8 Y95.163 E1.15797
G0 F600 X116.8 Y95.163 Z0.66
G0 F7200 X115.99 Y103.263
;TIME_ELAPSED:15.104670
;LAYER:-5
;TYPE:SUPPORT
G1 F1350 X121.734 Y109.006 E0.81047
G1 X121.491 Y108.924 E0.02559
G1 X121.222 Y108.815 E0.02896
G1 X120.953 Y108.685 E0.02981
G1 X120.602 Y108.482 E0.04046
G1 X120.445 Y108.386 E0.01836
G1 X118.989 Y107.415 E0.17462
G1 X118.856 Y107.321 E0.01625
G1 X118.557 Y107.09 E0.0377
G1 X118.344 Y106.908 E0.02796
G1 X118.143 Y106.709 E0.02822
G1 X117.93 Y106.468 E0.03209
G1 X117.673 Y106.136 E0.04189
G1 X117.594 Y106.025 E0.01359
G1 X116.598 Y104.533 E0.179
G1 X116.519 Y104.407 E0.01484
G1 X116.335 Y104.091 E0.03649
G1 X116.205 Y103.828 E0.02927
G1 X116.099 Y103.58 E0.02691
G1 X115.995 Y103.278 E0.03187
G0 F7200 X121.734 Y109.006
G1 F1350 X121.777 Y109.021 E0.00454
G1 X122.106 Y109.109 E0.03398
G1 X122.282 Y109.149 E0.01801
G1 X123.542 Y109.4 E0.12819
G1 X115.597 Y101.454 E1.1212
G1 X115.505 Y100.996 E0.04661
G1 X115.476 Y100.827 E0.01711
G1 X115.43 Y100.469 E0.03602
G1 X115.409 Y100.177 E0.02921
G1 X115.407 Y99.883 E0.02934
G1 X115.409 Y99.852 E0.0031
G1 X125.146 Y109.59 E1.37407
G1 X125.173 Y109.59 E0.00269
G1 X125.474 Y109.569 E0.03011
G1 X125.836 Y109.518 E0.03648
G1 X125.998 Y109.491 E0.01639
G1 X126.385 Y109.414 E0.03937
G1 X115.583 Y98.613 E1.52421
G1 X115.818 Y97.433 E0.12005
G1 X127.564 Y109.179 E1.65749
G1 X127.699 Y109.153 E0.01372
G1 X127.892 Y109.107 E0.0198
G1 X128.292 Y108.998 E0.04137
G1 X128.561 Y108.905 E0.0284
G1 X128.66 Y108.861 E0.01081
G1 X116.134 Y96.335 E1.76755
G1 X116.183 Y96.217 E0.01275
G1 X116.304 Y95.967 E0.02771
G1 X116.521 Y95.589 E0.04349
G1 X116.607 Y95.45 E0.01631
G1 X116.63 Y95.416 E0.0041
G1 X129.58 Y108.367 E1.82746
G1 X130.428 Y107.801 E0.10173
G1 X117.196 Y94.569 E1.86718
G1 X117.583 Y93.991 E0.06941
G1 X117.686 Y93.847 E0.01767
G1 X117.773 Y93.731 E0.01447
G1 X131.265 Y107.223 E1.90387
G1 X131.471 Y107.065 E0.0259
G1 X131.707 Y106.855 E0.03152
G1 X131.908 Y106.652 E0.0285
G1 X132.001 Y106.545 E0.01415
G1 X118.454 Y92.998 E1.91163
G1 X118.522 Y92.937 E0.00912
G1 X118.856 Y92.68 E0.04205
G1 X118.988 Y92.585 E0.01623
G1 X119.268 Y92.398 E0.0336
G1 X132.601 Y105.731 E1.88143
G1 X133.168 Y104.883 E0.10179
G1 X120.116 Y91.831 E1.84178
G1 X120.442 Y91.612 E0.03919
G1 X120.602 Y91.513 E0.01877
G1 X120.903 Y91.336 E0.03484
G1 X120.992 Y91.293 E0.00986
G1 X133.704 Y104.006 E1.79387
G1 X133.817 Y103.774 E0.02575
G1 X133.926 Y103.502 E0.02924
G1 X134.022 Y103.219 E0.02982
G1 X134.087 Y102.975 E0.0252
G1 X122.026 Y90.913 E1.70201
G1 X122.112 Y90.889 E0.00891
G1 X122.296 Y90.844 E0.0189
G1 X123.194 Y90.667 E0.09133
G1 X134.331 Y101.804 E1.57155
G1 X134.491 Y100.996 E0.08219
G1 X134.521 Y100.815 E0.01831
G1 X134.548 Y100.607 E0.02093
G1 X124.39 Y90.449 E1.4334
G1 X124.531 Y90.43 E0.0142
G1 X124.824 Y90.409 E0.02931
G1 X125.112 Y90.407 E0.02874
G1 X125.402 Y90.426 E0.029
G1 X125.836 Y90.481 E0.04365
G1 X134.519 Y99.164 E1.22527
G1 X134.516 Y99.138 E0.00261
G1 X134.493 Y99.003 E0.01366
G1 X134.174 Y97.405 E0.1626
G1 X127.595 Y90.825 E0.92844
G1 X127.723 Y90.851 E0.01303
G1 X127.861 Y90.883 E0.01414
G1 X128.241 Y90.982 E0.03918
G1 X128.507 Y91.071 E0.02799
G1 X128.757 Y91.172 E0.0269
G1 X129.047 Y91.315 E0.03226
G1 X129.396 Y91.513 E0.04004
G1 X129.559 Y91.614 E0.01913
G1 X130.281 Y92.097 E0.08668
G1 X132.902 Y94.718 E0.36985
G0 F7200 X132.413 Y93.987
G1 F1350 X132.318 Y93.855 E0.01623
G1 X132.06 Y93.521 E0.04211
G1 X131.859 Y93.294 E0.03025
G1 X131.663 Y93.1 E0.02752
G1 X131.429 Y92.897 E0.03091
G1 X131.151 Y92.686 E0.03482
G1 X131.007 Y92.582 E0.01772
G1 X130.281 Y92.097 E0.08712
G0 F600 X130.281 Y92.097 Z0.86
G0 F7200 X126.024 Y90.308
;TIME_ELAPSED:29.649154
;LAYER:-4
;TYPE:SUPPORT-INTERFACE
G1 F1800 X125.857 Y90.28 E0.00563
G1 X125.109 Y90.207 E0.025
G1 X124.513 Y90.231 E0.01984
G1 X123.989 Y90.305 E0.0176
G1 X123.511 Y90.4 E0.01621
G1 X126.487 Y90.4 E0.09898
G1 X127.77 Y90.655 E0.04351
G1 X128.281 Y90.785 E0.01754
G1 X128.322 Y90.8 E0.00145
G1 X121.717 Y90.8 E0.21968
G1 X121.352 Y90.911 E0.01269
G1 X120.812 Y91.16 E0.01978
G1 X120.745 Y91.2 E0.0026
G1 X129.234 Y91.2 E0.28235
G1 X129.505 Y91.345 E0.01022
G1 X129.671 Y91.447 E0.00648
G1 X129.9 Y91.6 E0.00916
G1 X120.101 Y91.6 E0.32592
G1 X119.503 Y92 E0.02393
G1 X130.498 Y92 E0.3657
G1 X131.097 Y92.4 E0.02396
G1 X118.904 Y92.4 E0.40554
G1 X118.878 Y92.417 E0.00103
G1 X118.729 Y92.526 E0.00614
G1 X118.395 Y92.8 E0.01437
G1 X131.621 Y92.8 E0.4399
G1 X132.001 Y93.151 E0.01721
G1 X132.042 Y93.2 E0.00213
G1 X117.967 Y93.2 E0.46814
G1 X117.742 Y93.444 E0.01104
G1 X117.626 Y93.6 E0.00647
G1 X132.369 Y93.6 E0.49035
G1 X132.473 Y93.727 E0.00546
G1 X132.581 Y93.876 E0.00612
G1 X132.664 Y94 E0.00496
G1 X117.338 Y94 E0.50974
G1 X117.07 Y94.4 E0.01601
G1 X132.932 Y94.4 E0.52757
G1 X133.2 Y94.8 E0.01601
G1 X116.803 Y94.8 E0.54537
G1 X116.535 Y95.2 E0.01601
G1 X133.467 Y95.2 E0.56316
G1 X133.543 Y95.314 E0.00456
G1 X133.715 Y95.6 E0.0111
G1 X116.29 Y95.6 E0.57956
G1 X116.076 Y96 E0.01509
G1 X133.927 Y96 E0.59373
G1 X134.087 Y96.35 E0.0128
G1 X134.103 Y96.4 E0.00175
G1 X115.905 Y96.4 E0.60527
G1 X115.788 Y96.715 E0.01118
G1 X115.767 Y96.8 E0.00291
G1 X134.224 Y96.8 E0.61388
G1 X134.308 Y97.077 E0.00963
G1 X134.337 Y97.2 E0.0042
G1 X115.664 Y97.2 E0.62107
G1 X115.658 Y97.221 E0.00073
G1 X115.583 Y97.6 E0.01285
G1 X134.418 Y97.6 E0.62645
G1 X134.498 Y98 E0.01357
G1 X115.503 Y98 E0.63178
G1 X115.424 Y98.4 E0.01356
G1 X134.578 Y98.4 E0.63706
G1 X134.658 Y98.8 E0.01357
G1 X115.344 Y98.8 E0.64239
G1 X115.309 Y98.972 E0.00584
G1 X115.28 Y99.151 E0.00603
G1 X115.276 Y99.2 E0.00164
G1 X134.724 Y99.2 E0.64684
G1 X134.77 Y99.522 E0.01082
G1 X134.773 Y99.6 E0.0026
G1 X115.237 Y99.6 E0.64977
G1 X115.208 Y99.896 E0.00989
G1 X115.211 Y100 E0.00346
G1 X134.789 Y100 E0.65117
G1 X134.792 Y100.101 E0.00336
G1 X134.763 Y100.4 E0.00999
G1 X115.227 Y100.4 E0.64977
G1 X115.23 Y100.476 E0.00253
G1 X115.276 Y100.8 E0.01088
G1 X134.724 Y100.8 E0.64684
G1 X134.72 Y100.846 E0.00154
G1 X134.691 Y101.025 E0.00603
G1 X134.656 Y101.2 E0.00594
G1 X115.343 Y101.2 E0.64235
G1 X115.423 Y101.6 E0.01357
G1 X134.576 Y101.6 E0.63703
G1 X134.496 Y102 E0.01357
G1 X115.503 Y102 E0.63171
G1 X115.582 Y102.4 E0.01356
G1 X134.416 Y102.4 E0.62642
G1 X134.342 Y102.776 E0.01275
G1 X134.335 Y102.8 E0.00083
G1 X115.664 Y102.8 E0.621
G1 X115.699 Y102.946 E0.00499
G1 X115.776 Y103.2 E0.00883
G1 X134.233 Y103.2 E0.61388
G1 X134.212 Y103.282 E0.00282
G1 X134.095 Y103.6 E0.01127
G1 X115.897 Y103.6 E0.60527
G1 X115.911 Y103.644 E0.00154
G1 X116.075 Y104 E0.01304
G1 X133.922 Y104 E0.59359
G1 X133.708 Y104.4 E0.01509
G1 X116.287 Y104.4 E0.57942
G1 X116.436 Y104.65 E0.00968
G1 X116.536 Y104.8 E0.006
G1 X133.464 Y104.8 E0.56303
G1 X133.196 Y105.2 E0.01601
G1 X116.803 Y105.2 E0.54523
G1 X117.07 Y105.6 E0.016
G1 X132.929 Y105.6 E0.52747
G1 X132.661 Y106 E0.01601
G1 X117.337 Y106 E0.50968
G1 X117.425 Y106.131 E0.00525
G1 X117.516 Y106.258 E0.0052
G1 X117.632 Y106.4 E0.0061
G1 X132.373 Y106.4 E0.49029
G1 X132.257 Y106.555 E0.00644
G1 X132.03 Y106.8 E0.01111
G1 X117.961 Y106.8 E0.46794
G1 X118.003 Y106.851 E0.0022
G1 X118.38 Y107.2 E0.01709
G1 X131.619 Y107.2 E0.44033
G1 X131.599 Y107.218 E0.00089
G1 X131.107 Y107.589 E0.02049
G1 X131.09 Y107.6 E0.00067
G1 X118.908 Y107.6 E0.40517
G1 X119.508 Y108 E0.02398
G1 X130.491 Y108 E0.3653
G1 X129.893 Y108.4 E0.02393
G1 X120.108 Y108.4 E0.32545
G1 X120.333 Y108.55 E0.00899
G1 X120.498 Y108.653 E0.00647
G1 X120.773 Y108.8 E0.01037
G1 X129.249 Y108.8 E0.28191
G1 X129.187 Y108.837 E0.0024
G1 X128.634 Y109.091 E0.02024
G1 X128.273 Y109.2 E0.01254
G1 X121.689 Y109.2 E0.21898
G1 X121.722 Y109.212 E0.00117
G1 X122.237 Y109.343 E0.01767
G1 X123.522 Y109.6 E0.04359
G1 X126.476 Y109.6 E0.09825
G1 X126.026 Y109.69 E0.01526
G1 X125.486 Y109.768 E0.01815
G1 X124.897 Y109.791 E0.01961
G1 X124.138 Y109.716 E0.02537
G1 X123.968 Y109.689 E0.00573
G0 F600 X123.968 Y109.689 Z1.06
G0 F7200 X132 Y93.151
;TIME_ELAPSED:56.053389
;LAYER:-3
;TYPE:SUPPORT-INTERFACE
G1 F1800 X132 Y106.834 E0.4551
G1 X131.85 Y106.996 E0.00734
G1 X131.6 Y107.218 E0.01112
G1 X131.6 Y92.782 E0.48014
G1 X131.555 Y92.74 E0.00205
G1 X131.2 Y92.476 E0.01471
G1 X131.2 Y107.519 E0.50033
G1 X131.107 Y107.589 E0.00387
G1 X130.799 Y107.795 E0.01232
G1 X130.799 Y92.203 E0.51859
G1 X130.399 Y91.935 E0.01601
G1 X130.399 Y108.062 E0.53639
G1 X129.999 Y108.329 E0.016
G1 X129.999 Y91.668 E0.55415
G1 X129.67 Y91.447 E0.01318
G1 X129.599 Y91.404 E0.00276
G1 X129.599 Y108.592 E0.57168
G1 X129.199 Y108.83 E0.01548
G1 X129.199 Y91.182 E0.58697
G1 X128.842 Y90.991 E0.01347
G1 X128.799 Y90.976 E0.00151
G1 X128.799 Y109.015 E0.59998
G1 X128.633 Y109.091 E0.00607
G1 X128.399 Y109.162 E0.00813
G1 X128.399 Y90.829 E0.60976
G1 X128.28 Y90.785 E0.00422
G1 X127.999 Y90.714 E0.00964
G1 X127.999 Y109.283 E0.61761
G1 X127.951 Y109.297 E0.00166
G1 X127.74 Y109.347 E0.00721
G1 X127.599 Y109.376 E0.00479
G1 X127.599 Y90.622 E0.62376
G1 X127.199 Y90.542 E0.01357
G1 X127.199 Y109.456 E0.62908
G1 X126.799 Y109.536 E0.01357
G1 X126.799 Y90.463 E0.63437
G1 X126.399 Y90.383 E0.01357
G1 X126.399 Y109.616 E0.63969
G1 X126.025 Y109.69 E0.01268
G1 X125.999 Y109.694 E0.00087
G1 X125.999 Y90.304 E0.64491
G1 X125.856 Y90.28 E0.00482
G1 X125.599 Y90.255 E0.00859
G1 X125.599 Y109.752 E0.64847
G1 X125.485 Y109.768 E0.00383
G1 X125.199 Y109.78 E0.00952
G1 X125.199 Y90.216 E0.6507
G1 X125.108 Y90.207 E0.00304
G1 X124.799 Y90.219 E0.01029
G1 X124.799 Y109.781 E0.65063
G1 X124.399 Y109.741 E0.01337
G1 X124.399 Y90.246 E0.64841
G1 X123.999 Y90.303 E0.01344
G1 X123.999 Y109.694 E0.64495
G1 X123.967 Y109.689 E0.00108
G1 X123.599 Y109.615 E0.01248
G1 X123.599 Y90.382 E0.63969
G1 X123.199 Y90.461 E0.01356
G1 X123.199 Y109.535 E0.6344
G1 X122.799 Y109.455 E0.01357
G1 X122.799 Y90.541 E0.62908
G1 X122.399 Y90.62 E0.01356
G1 X122.399 Y109.375 E0.62379
G1 X122.236 Y109.343 E0.00552
G1 X121.999 Y109.282 E0.00814
G1 X121.999 Y90.713 E0.61761
G1 X121.599 Y90.835 E0.01391
G1 X121.599 Y109.167 E0.60972
G1 X121.199 Y109.02 E0.01417
G1 X121.199 Y90.981 E0.59998
G1 X120.811 Y91.16 E0.01421
G1 X120.799 Y91.167 E0.00046
G1 X120.799 Y108.814 E0.58694
G1 X120.497 Y108.653 E0.01138
G1 X120.399 Y108.591 E0.00386
G1 X120.399 Y91.404 E0.57164
G1 X120.341 Y91.439 E0.00225
G1 X119.999 Y91.667 E0.01367
G1 X119.999 Y108.328 E0.55415
G1 X119.599 Y108.061 E0.016
G1 X119.599 Y91.934 E0.53639
G1 X119.199 Y92.201 E0.016
G1 X119.199 Y107.794 E0.51863
G1 X118.883 Y107.584 E0.01262
G1 X118.799 Y107.521 E0.00349
G1 X118.799 Y92.473 E0.5005
G1 X118.728 Y92.525 E0.00293
G1 X118.399 Y92.794 E0.01413
G1 X118.399 Y107.216 E0.47968
G1 X118.002 Y106.85 E0.01796
G1 X117.999 Y106.846 E0.00017
G1 X117.999 Y93.163 E0.4551
G1 X117.741 Y93.443 E0.01266
G1 X117.599 Y93.633 E0.00789
G1 X117.599 Y106.359 E0.42327
G1 X117.515 Y106.257 E0.00439
G1 X117.424 Y106.13 E0.0052
G1 X117.199 Y105.793 E0.01348
G1 X117.199 Y94.204 E0.38545
G1 X116.799 Y94.802 E0.02393
G1 X116.799 Y105.194 E0.34564
G1 X116.435 Y104.649 E0.0218
G1 X116.399 Y104.588 E0.00236
G1 X116.399 Y95.405 E0.30543
G1 X116.348 Y95.489 E0.00327
G1 X116.001 Y96.135 E0.02439
