; #disp params :
; Printmode:0
; Layer:175
; Zmax:120.127 mm
; Xmax:149.501 mm
; Ymax:36 mm
; Xmin:109.32 mm
; Ymin:0.3 mm
; E0diam:0.4 mm
; E0len:0.624557 m
; E0temp:215 C
; Bedtemp:215 C
; Time:18.2925 min
; #params end
; GCode generated by CraftWare

G28 X Y ; home horizontally
G28 Z ; home vertically


M104 S215 ;set head temp (no wait)
M190 S60 ;set bed temp (wait)
M109 S215 ;set head temp (wait)

; ------------------------------------
; Raft Layer #0
; ------------------------------------
M106 S0 ;turn off fan
G21 ; mm
G90 ; abs
G92 E0 ;reset extr
G0 F600 Z0.300
;segType:Raft
G0 F3000 E-1.00000
G0 F600 Z2.300
G0 X136.948 Y120.064 F5400
G0 F600 Z0.300
G0 F3000 E0.00000
G1 X121.946 Y120.064 E0.74842 F600
G1 X120.321 Y119.689 E0.83162
G1 X119.634 Y119.377 E0.86932
G1 X119.133 Y119.002 E0.90050
G1 X118.508 Y118.627 E0.93687
G1 X111.008 Y111.126 E1.46608
G1 X110.571 Y110.564 E1.50162
G1 X110.195 Y109.939 E1.53799
G1 X109.758 Y109.376 E1.57356
G1 X109.633 Y109.001 E1.59328
G1 X109.633 Y108.501 E1.61823
G1 X109.383 Y107.751 E1.65767
G1 X109.383 Y92.749 E2.40609
G1 X109.445 Y92.312 E2.42815
G0 X109.508 Y92.249 F5400
G1 X109.508 Y91.749 E2.45310 F600
G1 X109.758 Y90.999 E2.49254
G1 X110.070 Y90.311 E2.53024
G1 X110.446 Y89.686 E2.56661
G1 X110.883 Y89.124 E2.60214
G1 X118.383 Y81.623 E3.13135
G1 X118.946 Y81.186 E3.16693
G1 X119.571 Y80.811 E3.20329
G1 X119.821 Y80.561 E3.22093
G1 X120.946 Y80.186 E3.28010
G1 X121.446 Y80.186 E3.30505
G1 X121.821 Y80.061 E3.32477
G1 X129.072 Y80.061 E3.68650
G0 X129.322 Y80.061 F5400
G1 X136.323 Y80.061 E4.03576 F600
G1 X137.260 Y80.123 E4.08266
G1 X138.511 Y80.373 E4.14626
G1 X139.761 Y81.123 E4.21899
G1 X140.323 Y81.561 E4.25453
G1 X147.824 Y89.061 E4.78374
G1 X148.261 Y89.624 E4.81931
G1 X148.636 Y90.249 E4.85568
G1 X148.886 Y90.499 E4.87332
G1 X149.136 Y91.249 E4.91277
G1 X149.261 Y92.124 E4.95687
G1 X149.386 Y92.499 E4.97659
G1 X149.386 Y94.000 E5.05143
G0 X149.386 Y94.125 F5400
G1 X149.386 Y107.626 E5.72500 F600
G1 X149.011 Y109.251 E5.80821
G1 X148.886 Y109.626 E5.82794
G1 X147.574 Y111.314 E5.93462
G1 X140.573 Y118.314 E6.42855
G1 X139.448 Y119.189 E6.49966
G1 X138.823 Y119.564 E6.53602
G1 X138.073 Y119.814 E6.57547
G1 X137.010 Y120.002 E6.62929
G0 X137.260 Y119.627 F5400
G1 X137.260 Y80.623 E8.57517 F600
G0 X134.593 Y80.498 F5400
G1 X134.593 Y119.752 E10.53352 F600
G0 X131.926 Y119.752 F5400
G1 X131.926 Y80.498 E12.49188 F600
G0 X129.260 Y80.498 F5400
G1 X129.260 Y119.752 E14.45023 F600
G0 X126.593 Y119.752 F5400
G1 X126.593 Y80.498 E16.40858 F600
G0 X123.926 Y80.498 F5400
G1 X123.926 Y119.752 E18.36694 F600
G0 X121.260 Y119.502 F5400
G1 X121.260 Y80.623 E20.30658 F600
G0 X118.593 Y82.124 F5400
G1 X118.593 Y118.127 E22.10278 F600
G0 X115.926 Y115.501 F5400
G1 X115.926 Y84.749 E23.63703 F600
G0 X113.260 Y87.374 F5400
G1 X113.260 Y112.876 E24.90934 F600
G0 X110.593 Y109.751 F5400
G1 X110.593 Y90.374 E25.87604 F600
G0 X139.926 Y81.873 F5400
G1 X139.926 Y118.377 E27.69718 F600
G0 X142.593 Y115.751 F5400
G1 X142.593 Y84.499 E29.25638 F600
G0 X145.260 Y87.124 F5400
G1 X145.260 Y113.126 E30.55364 F600
G0 X147.926 Y110.126 F5400
G1 X147.926 Y89.999 E31.55776 F600



; ------------------------------------
; Raft Layer #1
; ------------------------------------
G92 E0 ;reset extr
G0 F600 Z0.600
;segType:Raft
G0 X148.688 Y90.249 F7200
G1 X119.561 Y119.377 E2.05508 F1800
G0 X118.425 Y118.627 F7200
G1 X147.927 Y89.124 E4.13662 F1800
G0 X146.917 Y88.249 F7200
G1 X117.540 Y117.626 E6.20935 F1800
G0 X116.529 Y116.751 F7200
G1 X146.031 Y87.249 E8.29089 F1800
G0 X145.021 Y86.374 F7200
G1 X115.644 Y115.751 E10.36361 F1800
G0 X114.758 Y114.751 F7200
G1 X144.135 Y85.374 E12.43633 F1800
G0 X143.260 Y84.363 F7200
G1 X113.758 Y113.866 E14.51788 F1800
G0 X112.883 Y112.855 F7200
G1 X142.260 Y83.478 E16.59060 F1800
G0 X141.385 Y82.467 F7200
G1 X111.883 Y111.970 E18.67214 F1800
G0 X111.008 Y110.959 F7200
G1 X140.385 Y81.582 E20.74486 F1800
G0 X139.260 Y80.821 F7200
G1 X110.258 Y109.824 E22.79112 F1800
G0 X109.633 Y108.563 F7200
G1 X137.885 Y80.311 E24.78447 F1800
G0 X136.135 Y80.175 F7200
G1 X109.508 Y106.802 E26.66315 F1800
G0 X109.508 Y104.917 F7200
G1 X134.260 Y80.165 E28.40953 F1800
G0 X132.384 Y80.154 F7200
G1 X109.508 Y103.031 E30.02360 F1800
G0 X109.508 Y101.145 F7200
G1 X130.509 Y80.144 E31.50538 F1800
G0 X128.634 Y80.133 F7200
G1 X109.508 Y99.260 E32.85486 F1800
G0 X109.508 Y97.374 F7200
G1 X126.759 Y80.123 E34.07203 F1800
G0 X124.884 Y80.112 F7200
G1 X109.508 Y95.489 E35.15690 F1800
G0 X109.508 Y93.603 F7200
G1 X123.009 Y80.102 E36.10948 F1800
G0 X120.884 Y80.341 F7200
G1 X109.758 Y91.467 E36.89446 F1800
G0 X120.947 Y119.877 F7200
G1 X149.198 Y91.624 E38.88780 F1800
G0 X149.459 Y93.249 F7200
G1 X122.582 Y120.127 E40.78412 F1800
G0 X124.468 Y120.127 F7200
G1 X149.469 Y95.125 E42.54814 F1800
G0 X149.480 Y97.000 F7200
G1 X126.353 Y120.127 E44.17986 F1800
G0 X128.239 Y120.127 F7200
G1 X149.490 Y98.875 E45.67928 F1800
G0 X149.501 Y100.750 F7200
G1 X130.125 Y120.127 E47.04639 F1800
G0 X132.010 Y120.127 F7200
G1 X149.386 Y102.750 E48.27239 F1800
G0 X149.397 Y104.625 F7200
G1 X133.896 Y120.127 E49.36608 F1800
G0 X135.781 Y120.127 F7200
G1 X149.407 Y106.501 E50.32747 F1800
G0 X149.168 Y108.626 F7200
G1 X137.917 Y119.877 E51.12128 F1800



; ------------------------------------
; Raft Layer #2
; ------------------------------------
G92 E0 ;reset extr
G0 F600 Z0.800
;segType:Raft
G0 F3000 E-1.00000
G0 F600 Z2.800
G0 X120.446 Y119.788 F7200
G0 F600 Z0.800
G0 F3000 E0.00000
G1 X138.198 Y119.788 E0.59042 F2400
G1 X139.073 Y119.388 E0.62242
G1 X119.571 Y119.388 E1.27105
G1 X119.071 Y118.988 E1.29234
G1 X139.573 Y118.988 E1.97423
G1 X140.198 Y118.588 E1.99891
G1 X118.446 Y118.588 E2.72238
G1 X117.946 Y118.188 E2.74368
G1 X140.698 Y118.188 E3.50041
G1 X141.073 Y117.788 E3.51865
G1 X117.571 Y117.788 E4.30033
G1 X117.196 Y117.388 E4.31857
G1 X141.448 Y117.388 E5.12519
G1 X141.823 Y116.988 E5.14343
G1 X116.821 Y116.988 E5.97500
G1 X116.446 Y116.588 E5.99324
G1 X142.198 Y116.588 E6.84976
G1 X142.698 Y116.188 E6.87106
G1 X115.946 Y116.188 E7.76084
G1 X115.571 Y115.788 E7.77908
G1 X143.073 Y115.788 E8.69381
G1 X143.448 Y115.388 E8.71204
G1 X115.196 Y115.388 E9.65172
G1 X114.821 Y114.988 E9.66996
G1 X143.823 Y114.988 E10.63458
G1 X144.198 Y114.588 E10.65282
G1 X114.446 Y114.588 E11.64239
G1 X113.946 Y114.188 E11.66369
G1 X144.698 Y114.188 E12.68652
G1 X145.073 Y113.788 E12.70476
G1 X113.571 Y113.788 E13.75254
G1 X113.196 Y113.388 E13.77078
G1 X145.448 Y113.388 E14.84351
G1 X145.823 Y112.988 E14.86175
G1 X112.821 Y112.988 E15.95942
G1 X112.446 Y112.588 E15.97766
G1 X146.198 Y112.588 E17.10028
G1 X146.699 Y112.188 E17.12158
G1 X111.946 Y112.188 E18.27746
G1 X111.571 Y111.788 E18.29570
G1 X147.074 Y111.788 E19.47653
G1 X147.449 Y111.388 E19.49477
G1 X111.196 Y111.388 E20.70055
G1 X110.821 Y110.988 E20.71879
G1 X147.824 Y110.988 E21.94952
G1 X148.074 Y110.588 E21.96521
G1 X110.571 Y110.588 E23.21256
G1 X110.195 Y110.188 E23.23080
G1 X148.449 Y110.188 E24.50311
G1 X148.699 Y109.788 E24.51880
G1 X109.945 Y109.788 E25.80773
G1 X109.695 Y109.388 E25.82342
G1 X148.949 Y109.388 E27.12899
G1 X149.074 Y108.988 E27.14293
G1 X109.570 Y108.988 E28.45682
G1 X109.570 Y108.588 E28.47012
G1 X149.074 Y108.588 E29.78400
G1 X149.199 Y108.188 E29.79794
G1 X109.445 Y108.188 E31.12014
G1 X109.320 Y107.788 E31.13408
G1 X149.324 Y107.788 E32.46460
G1 X149.324 Y107.388 E32.47790
G1 X109.320 Y107.388 E33.80842
G1 X109.320 Y106.988 E33.82173
G1 X149.324 Y106.988 E35.15224
G1 X149.324 Y106.588 E35.16555
G1 X109.320 Y106.588 E36.49606
G1 X109.320 Y106.188 E36.50937
G1 X149.324 Y106.188 E37.83989
G1 X149.324 Y105.788 E37.85319
G1 X109.320 Y105.788 E39.18371
G1 X109.320 Y105.388 E39.19702
G1 X149.324 Y105.388 E40.52753
G1 X149.324 Y104.988 E40.54084
G1 X109.320 Y104.988 E41.87135
G1 X109.320 Y104.588 E41.88466
G1 X149.324 Y104.588 E43.21518
G1 X149.324 Y104.188 E43.22848
G1 X109.320 Y104.188 E44.55900
G1 X109.320 Y103.788 E44.57231
G1 X149.324 Y103.788 E45.90282
G1 X149.324 Y103.388 E45.91613
G1 X109.320 Y103.388 E47.24665
G1 X109.320 Y102.988 E47.25995
G1 X149.324 Y102.988 E48.59047
G1 X149.324 Y102.588 E48.60377
G1 X109.320 Y102.588 E49.93429
G1 X109.320 Y102.188 E49.94760
G1 X149.324 Y102.188 E51.27811
G1 X149.324 Y101.788 E51.29142
G1 X109.320 Y101.788 E52.62194
G1 X109.320 Y101.388 E52.63524
G1 X149.324 Y101.388 E53.96576
G1 X149.324 Y100.988 E53.97906
G1 X109.320 Y100.988 E55.30958
G1 X109.320 Y100.588 E55.32289
G1 X149.324 Y100.588 E56.65340
G1 X149.324 Y100.188 E56.66671
G1 X109.320 Y100.188 E57.99723
G1 X109.320 Y99.788 E58.01053
G1 X149.324 Y99.788 E59.34105
G1 X149.324 Y99.388 E59.35435
G1 X109.320 Y99.388 E60.68487
G1 X109.320 Y98.988 E60.69818
G1 X149.324 Y98.988 E62.02869
G1 X149.324 Y98.588 E62.04200
G1 X109.320 Y98.588 E63.37252
G1 X109.320 Y98.188 E63.38582
G1 X149.324 Y98.188 E64.71633
G1 X149.324 Y97.788 E64.72964
G1 X109.320 Y97.788 E66.06015
G1 X109.320 Y97.388 E66.07346
G1 X149.324 Y97.388 E67.40397
G1 X149.324 Y96.988 E67.41728
G1 X109.320 Y96.988 E68.74779
G1 X109.320 Y96.588 E68.76110
G1 X149.324 Y96.588 E70.09161
G1 X149.324 Y96.188 E70.10491
G1 X109.320 Y96.188 E71.43543
G1 X109.320 Y95.788 E71.44873
G1 X149.324 Y95.788 E72.77925
G1 X149.324 Y95.388 E72.79255
G1 X109.320 Y95.388 E74.12306
G1 X109.320 Y94.988 E74.13637
G1 X149.324 Y94.988 E75.46688
G1 X149.324 Y94.588 E75.48019
G1 X109.320 Y94.588 E76.81070
G1 X109.320 Y94.188 E76.82401
G1 X149.324 Y94.188 E78.15452
G1 X149.324 Y93.788 E78.16783
G1 X109.320 Y93.788 E79.49834
G1 X109.320 Y93.388 E79.51164
G1 X149.324 Y93.388 E80.84216
G1 X149.324 Y92.988 E80.85546
G1 X109.320 Y92.988 E82.18598
G1 X109.320 Y92.588 E82.19928
G1 X149.324 Y92.588 E83.52980
G1 X149.199 Y92.188 E83.54373
G1 X109.445 Y92.188 E84.86593
G1 X109.445 Y91.788 E84.87923
G1 X149.199 Y91.788 E86.20143
G1 X149.074 Y91.388 E86.21537
G1 X109.570 Y91.388 E87.52926
G1 X109.695 Y90.987 E87.54320
G1 X148.949 Y90.987 E88.84877
G1 X148.824 Y90.587 E88.86271
G1 X109.820 Y90.587 E90.15997
G1 X110.070 Y90.188 E90.17565
G1 X148.574 Y90.188 E91.45628
G1 X148.324 Y89.788 E91.47196
G1 X110.320 Y89.788 E92.73595
G1 X110.571 Y89.388 E92.75164
G1 X148.074 Y89.388 E93.99900
G1 X147.699 Y88.987 E94.01723
G1 X110.946 Y88.987 E95.23965
G1 X111.321 Y88.587 E95.25788
G1 X147.324 Y88.587 E96.45535
G1 X146.949 Y88.187 E96.47358
G1 X111.696 Y88.187 E97.64610
G1 X112.196 Y87.787 E97.66740
G1 X146.449 Y87.787 E98.80665
G1 X146.073 Y87.388 E98.82488
G1 X112.571 Y87.388 E99.93919
G1 X112.946 Y86.987 E99.95743
G1 X145.698 Y86.987 E101.04679
G1 X145.323 Y86.587 E101.06503
G1 X113.321 Y86.587 E102.12944
G1 X113.696 Y86.187 E102.14767
G1 X144.948 Y86.187 E103.18714
G1 X144.448 Y85.787 E103.20844
G1 X114.196 Y85.787 E104.21465
G1 X114.571 Y85.387 E104.23288
G1 X144.073 Y85.387 E105.21413
G1 X143.698 Y84.987 E105.23237
G1 X114.946 Y84.987 E106.18867
G1 X115.321 Y84.587 E106.20691
G1 X143.323 Y84.587 E107.13827
G1 X142.948 Y84.187 E107.15650
G1 X115.696 Y84.187 E108.06292
G1 X116.196 Y83.787 E108.08422
G1 X142.448 Y83.787 E108.95737
G1 X142.073 Y83.387 E108.97561
G1 X116.571 Y83.387 E109.82381
G1 X116.946 Y82.987 E109.84205
G1 X141.698 Y82.987 E110.66531
G1 X141.323 Y82.587 E110.68354
G1 X117.321 Y82.587 E111.48185
G1 X117.696 Y82.187 E111.50008
G1 X140.948 Y82.187 E112.27345
G1 X140.448 Y81.787 E112.29475
G1 X118.196 Y81.787 E113.03484
G1 X118.571 Y81.387 E113.05308
G1 X140.073 Y81.387 E113.76823
G1 X139.448 Y80.987 E113.79291
G1 X119.196 Y80.987 E114.46648
G1 X119.696 Y80.587 E114.48779
G1 X138.948 Y80.587 E115.12810
G0 X137.823 Y80.187 F7200
G1 X120.821 Y80.187 E115.69357 F2400



; ------------------------------------
; Raft Layer #3
; ------------------------------------
M106 S255 ;set fan speed
G92 E0 ;reset extr
G0 F600 Z1.000
;segType:Raft
G0 F3000 E-1.00000
G0 F600 Z3.000
G0 X148.860 Y90.499 F7200
G0 F600 Z1.000
G0 F3000 E0.00000
G1 X148.860 Y109.751 E0.64031 F2400
G1 X148.460 Y110.251 E0.66161
G1 X148.460 Y89.999 E1.33518
G1 X148.060 Y89.374 E1.35986
G1 X148.060 Y110.751 E2.07086
G1 X147.660 Y111.251 E2.09216
G1 X147.660 Y88.999 E2.83226
G1 X147.260 Y88.499 E2.85356
G1 X147.260 Y111.751 E3.62692
G1 X146.860 Y112.126 E3.64516
G1 X146.860 Y88.124 E4.44347
G1 X146.460 Y87.749 E4.46170
G1 X146.460 Y112.501 E5.28496
G1 X146.060 Y112.876 E5.30320
G1 X146.060 Y87.374 E6.15140
G1 X145.660 Y86.999 E6.16964
G1 X145.660 Y113.251 E7.04279
G1 X145.260 Y113.751 E7.06409
G1 X145.260 Y86.499 E7.97050
G1 X144.860 Y86.124 E7.98874
G1 X144.860 Y114.126 E8.92010
G1 X144.460 Y114.501 E8.93834
G1 X144.460 Y85.749 E9.89465
G1 X144.060 Y85.374 E9.91288
G1 X144.060 Y114.876 E10.89414
G1 X143.660 Y115.251 E10.91238
G1 X143.660 Y84.999 E11.91858
G1 X143.260 Y84.499 E11.93988
G1 X143.260 Y115.751 E12.97934
G1 X142.860 Y116.126 E12.99758
G1 X142.860 Y84.124 E14.06199
G1 X142.460 Y83.749 E14.08023
G1 X142.460 Y116.501 E15.16959
G1 X142.060 Y116.876 E15.18783
G1 X142.060 Y83.374 E16.30214
G1 X141.660 Y82.999 E16.32037
G1 X141.660 Y117.251 E17.45963
G1 X141.260 Y117.751 E17.48093
G1 X141.260 Y82.499 E18.65344
G1 X140.860 Y82.124 E18.67168
G1 X140.860 Y118.127 E19.86915
G1 X140.460 Y118.502 E19.88739
G1 X140.460 Y81.748 E21.10980
G1 X140.060 Y81.373 E21.12803
G1 X140.060 Y118.752 E22.37124
G1 X139.660 Y119.002 E22.38693
G1 X139.660 Y81.123 E23.64676
G1 X139.260 Y80.873 E23.66245
G1 X139.260 Y119.377 E24.94307
G1 X138.860 Y119.627 E24.95876
G1 X138.860 Y80.623 E26.25602
G1 X138.460 Y80.373 E26.27170
G1 X138.460 Y119.752 E27.58143
G1 X138.060 Y119.877 E27.59537
G1 X138.060 Y80.373 E28.90925
G1 X137.660 Y80.248 E28.92319
G1 X137.660 Y119.877 E30.24124
G1 X137.260 Y120.002 E30.25517
G1 X137.260 Y80.123 E31.58153
G1 X136.860 Y80.123 E31.59484
G1 X136.860 Y120.127 E32.92535
G1 X136.460 Y120.127 E32.93866
G1 X136.460 Y80.123 E34.26917
G1 X136.060 Y80.123 E34.28248
G1 X136.060 Y120.127 E35.61300
G1 X135.660 Y120.127 E35.62630
G1 X135.660 Y80.123 E36.95682
G1 X135.260 Y80.123 E36.97012
G1 X135.260 Y120.127 E38.30064
G1 X134.860 Y120.127 E38.31395
G1 X134.860 Y80.123 E39.64446
G1 X134.460 Y80.123 E39.65777
G1 X134.460 Y120.127 E40.98829
G1 X134.060 Y120.127 E41.00159
G1 X134.060 Y80.123 E42.33211
G1 X133.660 Y80.123 E42.34542
G1 X133.660 Y120.127 E43.67593
G1 X133.260 Y120.127 E43.68924
G1 X133.260 Y80.123 E45.01976
G1 X132.860 Y80.123 E45.03306
G1 X132.860 Y120.127 E46.36358
G1 X132.460 Y120.127 E46.37688
G1 X132.460 Y80.123 E47.70740
G1 X132.060 Y80.123 E47.72071
G1 X132.060 Y120.127 E49.05122
G1 X131.660 Y120.127 E49.06453
G1 X131.660 Y80.123 E50.39504
G1 X131.260 Y80.123 E50.40835
G1 X131.260 Y120.127 E51.73887
G1 X130.860 Y120.127 E51.75217
G1 X130.860 Y80.123 E53.08269
G1 X130.460 Y80.123 E53.09600
G1 X130.460 Y120.127 E54.42651
G1 X130.060 Y120.127 E54.43982
G1 X130.060 Y80.123 E55.77033
G1 X129.660 Y80.123 E55.78364
G1 X129.660 Y120.127 E57.11416
G1 X129.260 Y120.127 E57.12746
G1 X129.260 Y80.123 E58.45798
G1 X128.860 Y80.123 E58.47129
G1 X128.860 Y120.127 E59.80180
G1 X128.460 Y120.127 E59.81511
G1 X128.460 Y80.123 E61.14562
G1 X128.060 Y80.123 E61.15893
G1 X128.060 Y120.127 E62.48945
G1 X127.660 Y120.127 E62.50275
G1 X127.660 Y80.123 E63.83327
G1 X127.260 Y80.123 E63.84658
G1 X127.260 Y120.127 E65.17709
G1 X126.860 Y120.127 E65.19039
G1 X126.860 Y80.123 E66.52091
G1 X126.460 Y80.123 E66.53421
G1 X126.460 Y120.127 E67.86473
G1 X126.060 Y120.127 E67.87803
G1 X126.060 Y80.123 E69.20854
G1 X125.660 Y80.123 E69.22185
G1 X125.660 Y120.127 E70.55236
G1 X125.260 Y120.127 E70.56567
G1 X125.260 Y80.123 E71.89618
G1 X124.860 Y80.123 E71.90949
G1 X124.860 Y120.127 E73.24000
G1 X124.460 Y120.127 E73.25331
G1 X124.460 Y80.123 E74.58382
G1 X124.060 Y80.123 E74.59712
G1 X124.060 Y120.127 E75.92764
G1 X123.660 Y120.127 E75.94094
G1 X123.660 Y80.123 E77.27146
G1 X123.260 Y80.123 E77.28476
G1 X123.260 Y120.127 E78.61528
G1 X122.860 Y120.127 E78.62858
G1 X122.860 Y80.123 E79.95909
G1 X122.460 Y80.123 E79.97240
G1 X122.460 Y120.127 E81.30291
G1 X122.060 Y120.127 E81.31622
G1 X122.060 Y80.123 E82.64673
G1 X121.660 Y80.123 E82.66004
G1 X121.660 Y120.002 E83.98639
G1 X121.260 Y120.002 E83.99969
G1 X121.260 Y80.248 E85.32190
G1 X120.860 Y80.373 E85.33584
G1 X120.860 Y119.877 E86.64973
G1 X120.460 Y119.752 E86.66367
G1 X120.460 Y80.373 E87.97340
G1 X120.060 Y80.498 E87.98734
G1 X120.060 Y119.752 E89.29291
G1 X119.660 Y119.502 E89.30859
G1 X119.660 Y80.748 E90.59753
G1 X119.260 Y80.998 E90.61322
G1 X119.260 Y119.252 E91.88553
G1 X118.860 Y118.877 E91.90376
G1 X118.860 Y81.373 E93.15112
G1 X118.460 Y81.623 E93.16681
G1 X118.460 Y118.627 E94.39754
G1 X118.060 Y118.252 E94.41577
G1 X118.060 Y81.999 E95.62155
G1 X117.660 Y82.374 E95.63979
G1 X117.660 Y117.876 E96.82062
G1 X117.260 Y117.501 E96.83885
G1 X117.260 Y82.749 E97.99474
G1 X116.860 Y83.249 E98.01604
G1 X116.860 Y117.001 E99.13866
G1 X116.460 Y116.626 E99.15689
G1 X116.460 Y83.624 E100.25457
G1 X116.060 Y83.999 E100.27280
G1 X116.060 Y116.251 E101.34554
G1 X115.660 Y115.876 E101.36377
G1 X115.660 Y84.374 E102.41155
G1 X115.260 Y84.749 E102.42979
G1 X115.260 Y115.501 E103.45262
G1 X114.860 Y115.001 E103.47392
G1 X114.860 Y85.249 E104.46349
G1 X114.460 Y85.624 E104.48173
G1 X114.460 Y114.626 E105.44635
G1 X114.060 Y114.251 E105.46458
G1 X114.060 Y85.999 E106.40426
G1 X113.660 Y86.374 E106.42249
G1 X113.660 Y113.876 E107.33723
G1 X113.260 Y113.501 E107.35546
G1 X113.260 Y86.749 E108.24525
G1 X112.860 Y87.249 E108.26655
G1 X112.860 Y113.001 E109.12307
G1 X112.460 Y112.626 E109.14130
G1 X112.460 Y87.624 E109.97288
G1 X112.060 Y87.999 E109.99111
G1 X112.060 Y112.251 E110.79774
G1 X111.660 Y111.876 E110.81597
G1 X111.660 Y88.374 E111.59765
G1 X111.260 Y88.749 E111.61588
G1 X111.260 Y111.501 E112.37261
G1 X110.860 Y111.001 E112.39391
G1 X110.860 Y89.249 E113.11738
G1 X110.460 Y89.749 E113.13868
G1 X110.460 Y110.376 E113.82473
G1 X110.060 Y109.876 E113.84603
G1 X110.060 Y90.374 E114.49466
G1 X109.660 Y91.124 E114.52293
G1 X109.660 Y109.126 E115.12167
G0 X149.260 Y108.501 F7200
G1 X149.260 Y91.749 E115.67882 F2400


; ------------------------------------
; Layer #0
; ------------------------------------
G21 ; mm
G90 ; abs
G92 E0 ;reset extr
G0 F600 Z1.450
;segType:InnerHair
G0 X131.904 Y103.161 F5400
G1 X131.789 Y103.196 E0.00289 F2400
G1 X131.675 Y103.231 E0.00646
G1 X131.561 Y103.265 E0.01072
G0 X131.545 Y103.270 F5400
G0 X131.669 Y103.233
G0 X131.793 Y103.195
G0 X131.917 Y103.157
G1 X132.310 Y102.904 E0.01839 F2400
G1 X132.380 Y102.812 E0.02038
G1 X132.445 Y102.716 E0.02237
G1 X132.510 Y102.619 E0.02435
G1 X132.576 Y102.523 E0.02631
G1 X132.641 Y102.427 E0.02825
G1 X132.706 Y102.330 E0.03018
G1 X132.772 Y102.234 E0.03210
G1 X132.837 Y102.138 E0.03400
G1 X132.899 Y102.038 E0.03598
G1 X132.956 Y101.934 E0.03821
G1 X133.013 Y101.829 E0.04066
G1 X133.070 Y101.724 E0.04331
G1 X133.127 Y101.620 E0.04618
G1 X133.184 Y101.515 E0.04926
G1 X133.169 Y101.543 E0.05007
G1 X133.205 Y101.429 E0.05286
G1 X133.231 Y101.315 E0.05553
G1 X133.256 Y101.201 E0.05815
G1 X133.282 Y101.086 E0.06071
G1 X133.307 Y100.972 E0.06322
G1 X133.333 Y100.858 E0.06567
G1 X133.358 Y100.743 E0.06807
G1 X133.376 Y100.629 E0.07053
G1 X133.392 Y100.515 E0.07311
G1 X133.408 Y100.401 E0.07581
G1 X133.424 Y100.286 E0.07865
G1 X133.440 Y100.172 E0.08160
G1 X133.456 Y100.058 E0.08469
G1 X133.456 Y99.943 E0.08774
G1 X133.440 Y99.829 E0.09070
G1 X133.424 Y99.715 E0.09353
G1 X133.408 Y99.601 E0.09624
G1 X133.392 Y99.486 E0.09882
G1 X133.376 Y99.372 E0.10128
G1 X133.359 Y99.258 E0.10365
G1 X133.333 Y99.143 E0.10610
G1 X133.308 Y99.029 E0.10861
G1 X133.282 Y98.915 E0.11117
G1 X133.257 Y98.801 E0.11378
G1 X133.231 Y98.686 E0.11645
G0 X133.205 Y98.572 F5400
G0 X133.170 Y98.458
G1 X133.203 Y98.507 E0.11796 F2400
G1 X133.142 Y98.406 E0.12084
G1 X133.085 Y98.302 E0.12355
G1 X133.028 Y98.197 E0.12605
G1 X132.971 Y98.093 E0.12833
G1 X132.914 Y97.988 E0.13041
G1 X132.854 Y97.886 E0.13233
G1 X132.789 Y97.790 E0.13424
G1 X132.723 Y97.694 E0.13617
G1 X132.658 Y97.597 E0.13811
G1 X132.592 Y97.501 E0.14007
G1 X132.527 Y97.405 E0.14204
G1 X132.462 Y97.309 E0.14403
G1 X132.396 Y97.212 E0.14604
G1 X132.331 Y97.116 E0.14806
G1 X132.250 Y97.036 E0.14964
G0 X131.949 Y96.852 F5400
G0 X131.825 Y96.814
G0 X131.701 Y96.777
G0 X131.577 Y96.739
G1 X131.561 Y96.734 E0.15024 F2400
G1 X131.675 Y96.769 E0.15382
G1 X131.789 Y96.803 E0.15671
G1 X131.904 Y96.838 E0.15892
G0 X131.206 Y96.789 F5400
;segType:HShell
G1 X130.630 Y96.214 E0.18599 F2400
G0 X129.924 Y96.074 F5400
G1 X130.640 Y96.789 E0.21964 F2400
G0 X130.074 Y96.789 F5400
G1 X129.295 Y96.009 E0.25632 F2400
G0 X128.823 Y96.103 F5400
G1 X129.509 Y96.789 E0.28860 F2400
G0 X128.943 Y96.789 F5400
G1 X128.351 Y96.197 E0.31646 F2400
G0 X128.358 Y96.487 F5400
G1 X127.680 Y96.657 E0.37463 F2400
G0 X127.143 Y96.158 F5400
;segType:Perimeter
G1 X127.671 Y95.557 E0.40124 F1200
G1 X129.448 Y95.204 E0.46149
G1 X131.283 Y95.568 E0.52374
G1 X132.839 Y96.608 E0.58598
G1 X133.879 Y98.164 E0.64821
G1 X134.243 Y100.000 E0.71046
G1 X133.879 Y101.835 E0.77271
G1 X132.839 Y103.391 E0.83495
G1 X131.283 Y104.431 E0.89718
G1 X129.448 Y104.796 E0.95944
G1 X127.612 Y104.431 E1.02169
G1 X126.056 Y103.391 E1.08393
G1 X125.016 Y101.835 E1.14616
G1 X124.651 Y100.000 E1.20842
G1 X125.016 Y98.164 E1.27068
G1 X126.056 Y96.608 E1.33291
G1 X127.562 Y95.602 E1.39315
G0 X127.671 Y95.557 F5400
G0 X129.240 Y95.245
G0 X129.448 Y95.612
G0 X128.769 Y95.746
;segType:Loop
G1 X129.448 Y95.612 E1.41617 F2400
G1 X131.127 Y95.945 E1.47313
G1 X132.551 Y96.896 E1.53007
G1 X133.502 Y98.320 E1.58701
G1 X133.835 Y100.000 E1.64397
G1 X133.502 Y101.679 E1.70093
G1 X132.551 Y103.103 E1.75787
G1 X131.127 Y104.054 E1.81482
G1 X129.448 Y104.388 E1.87178
G1 X127.768 Y104.054 E1.92874
G1 X126.344 Y103.103 E1.98568
G1 X125.393 Y101.679 E2.04263
G1 X125.059 Y100.000 E2.09959
G1 X125.393 Y98.320 E2.15655
G1 X126.345 Y96.896 E2.21349
G1 X127.768 Y95.945 E2.27043
G1 X128.572 Y95.785 E2.29772
G0 F3000 E1.29772
G0 X128.206 Y97.149 F5400
G0 X126.908 Y97.149
G0 X126.277 Y98.065
G0 X126.009 Y98.684
G0 X125.848 Y99.331
G0 X125.793 Y100.000
G0 X125.848 Y100.668
G0 X126.009 Y101.315
G0 X126.277 Y101.934
G0 X126.740 Y102.607
G0 X126.567 Y103.251
G0 X126.644 Y102.964
G0 F3000 E2.29772
;segType:InnerHair
G1 X126.563 Y102.884 E2.29968 F2400
G1 X126.498 Y102.788 E2.30165
G1 X126.432 Y102.692 E2.30362
G1 X126.367 Y102.595 E2.30557
G1 X126.302 Y102.499 E2.30750
G1 X126.236 Y102.403 E2.30942
G1 X126.171 Y102.306 E2.31132
G1 X126.106 Y102.210 E2.31321
G1 X126.040 Y102.114 E2.31508
G1 X125.980 Y102.012 E2.31710
G1 X125.923 Y101.908 E2.31936
G1 X125.866 Y101.803 E2.32183
G1 X125.809 Y101.698 E2.32451
G1 X125.752 Y101.594 E2.32741
G1 X125.691 Y101.493 E2.33037
G1 X125.725 Y101.543 E2.33189
G1 X125.689 Y101.429 E2.33465
G1 X125.663 Y101.315 E2.33730
G1 X125.637 Y101.201 E2.33989
G1 X125.612 Y101.086 E2.34242
G1 X125.586 Y100.972 E2.34490
G1 X125.561 Y100.858 E2.34733
G1 X125.535 Y100.743 E2.34971
G1 X125.517 Y100.629 E2.35215
G1 X125.501 Y100.515 E2.35471
G1 X125.485 Y100.401 E2.35739
G1 X125.469 Y100.286 E2.36020
G1 X125.453 Y100.172 E2.36314
G1 X125.437 Y100.058 E2.36620
G1 X125.437 Y99.943 E2.36924
G1 X125.453 Y99.829 E2.37218
G1 X125.469 Y99.715 E2.37499
G1 X125.485 Y99.601 E2.37768
G1 X125.501 Y99.486 E2.38024
G1 X125.517 Y99.372 E2.38267
G1 X125.535 Y99.258 E2.38502
G1 X125.560 Y99.143 E2.38744
G1 X125.586 Y99.029 E2.38993
G1 X125.611 Y98.915 E2.39246
G1 X125.637 Y98.801 E2.39505
G1 X125.662 Y98.686 E2.39769
G1 X125.688 Y98.572 E2.40039
G1 X125.724 Y98.458 E2.40341
G1 X125.738 Y98.432 E2.40412
G1 X125.795 Y98.328 E2.40686
G1 X125.852 Y98.223 E2.40938
G1 X125.909 Y98.119 E2.41169
G1 X125.966 Y98.014 E2.41379
G1 X126.023 Y97.909 E2.41568
G1 X126.089 Y97.814 E2.41756
G1 X126.154 Y97.718 E2.41946
G1 X126.220 Y97.621 E2.42137
G1 X126.285 Y97.525 E2.42331
G1 X126.350 Y97.429 E2.42525
G1 X126.416 Y97.333 E2.42722
G1 X126.481 Y97.236 E2.42920
G1 X126.546 Y97.140 E2.43119
G1 X126.624 Y97.056 E2.43285
G0 X126.914 Y96.862 F5400
G0 X127.038 Y96.824
G0 X127.162 Y96.786
G0 X127.286 Y96.749
G0 X127.410 Y96.711
G1 X127.332 Y96.735 E2.43576 F2400
G1 X127.218 Y96.769 E2.43933
G1 X127.104 Y96.804 E2.44222
G1 X126.989 Y96.839 E2.44441
G0 X126.624 Y97.056 F5400
G0 X126.546 Y97.140
G0 X126.089 Y97.814
G0 X126.023 Y97.909
G0 X125.738 Y98.432
G0 X125.662 Y98.686
G0 X125.535 Y99.258
G0 X125.517 Y99.372
G0 X125.437 Y99.943
G0 X125.437 Y100.058
G0 X125.517 Y100.629
G0 X125.535 Y100.743
G0 X125.663 Y101.315
G0 X125.752 Y101.594
G0 X125.980 Y102.012
G0 X126.040 Y102.114
G0 X126.563 Y102.884
G0 X126.644 Y102.964
G1 X126.989 Y103.161 E2.45167 F2400
G1 X127.104 Y103.195 E2.45455
G1 X127.218 Y103.230 E2.45811
G1 X127.332 Y103.265 E2.46236
G0 X127.959 Y103.725 F5400
;segType:HShell
G1 X127.446 Y103.212 E2.48649 F2400
G0 X128.011 Y103.211 F5400
G1 X128.665 Y103.865 E2.51727 F2400
G0 X129.372 Y104.006 F5400
G1 X128.577 Y103.211 E2.55466 F2400
G0 X129.142 Y103.211 F5400
G1 X129.869 Y103.937 E2.58883 F2400
G0 X130.340 Y103.843 F5400
G1 X129.708 Y103.211 E2.61857 F2400
G0 X130.274 Y103.211 F5400
G1 X130.812 Y103.749 E2.64390 F2400
G0 F3000 E1.64390
G0 X130.839 Y103.211 F5400
G0 F3000 E2.64390
G1 X131.200 Y103.572 E2.66088 F2400
G0 X131.462 Y103.267 F5400
G1 X131.405 Y103.211 E2.66354 F2400
G0 X132.514 Y102.451 F5400
;segType:Perimeter
G1 X131.714 Y102.451 E2.69015 F1200
G1 X127.118 Y102.451 E2.84301
G1 X126.628 Y101.739 E2.87175
G1 X126.389 Y101.187 E2.89176
G1 X126.244 Y100.603 E2.91176
G1 X126.194 Y100.000 E2.93191
G1 X126.244 Y99.396 E2.95206
G1 X126.389 Y98.812 E2.97206
G1 X126.628 Y98.260 E2.99208
G1 X127.118 Y97.549 E3.02079
G1 X131.774 Y97.549 E3.17564
G1 X132.264 Y98.260 E3.20435
G1 X132.503 Y98.812 E3.22436
G1 X132.648 Y99.396 E3.24436
G1 X132.698 Y100.000 E3.26451
G1 X132.648 Y100.603 E3.28466
G1 X132.503 Y101.187 E3.30466
G1 X132.264 Y101.739 E3.32467
G1 X131.808 Y102.401 E3.35142
G0 X131.714 Y102.451 F5400
G0 X130.114 Y102.451
G0 X130.674 Y102.851
;segType:Loop
G1 X126.908 Y102.851 E3.47668 F2400
G1 X126.277 Y101.934 E3.51371
G1 X126.009 Y101.315 E3.53612
G1 X125.848 Y100.668 E3.55830
G1 X125.793 Y100.000 E3.58062
G1 X125.848 Y99.331 E3.60293
G1 X126.009 Y98.684 E3.62511
G1 X126.277 Y98.065 E3.64753
G1 X126.908 Y97.149 E3.68453
G1 X131.984 Y97.149 E3.85336
G1 X132.615 Y98.065 E3.89035
G1 X132.883 Y98.684 E3.91277
G1 X133.044 Y99.331 E3.93495
G1 X133.099 Y100.000 E3.95727
G1 X133.044 Y100.668 E3.97959
G1 X132.883 Y101.315 E4.00176
G1 X132.615 Y101.934 E4.02418
G1 X131.984 Y102.851 E4.06120
G1 X130.874 Y102.851 E4.09813
; ------------------------------------
; Layer #1
; ------------------------------------
G92 E0 ;reset extr
G0 F3000 E-1.00000
G0 F600 Z1.400
G0 X131.904 Y103.161 F7200
G0 F3000 E0.00000
;segType:InnerHair
G1 X131.789 Y103.196 E0.00289 F1200
G1 X131.675 Y103.231 E0.00646
G1 X131.561 Y103.265 E0.01072
G0 X131.545 Y103.270 F7200
G0 X131.669 Y103.233
G0 X131.793 Y103.195
G0 X131.917 Y103.157
G1 X132.310 Y102.904 E0.01839 F1200
G1 X132.380 Y102.812 E0.02038
G1 X132.445 Y102.716 E0.02237
G1 X132.510 Y102.619 E0.02435
G1 X132.576 Y102.523 E0.02631
G1 X132.641 Y102.427 E0.02825
G1 X132.706 Y102.330 E0.03018
G1 X132.772 Y102.234 E0.03210
G1 X132.837 Y102.138 E0.03400
G1 X132.899 Y102.038 E0.03598
G1 X132.956 Y101.934 E0.03821
G1 X133.013 Y101.829 E0.04066
G1 X133.070 Y101.724 E0.04331
G1 X133.127 Y101.620 E0.04618
G1 X133.184 Y101.515 E0.04926
G1 X133.169 Y101.543 E0.05007
G1 X133.205 Y101.429 E0.05286
G1 X133.231 Y101.315 E0.05553
G1 X133.256 Y101.201 E0.05815
G1 X133.282 Y101.086 E0.06071
G1 X133.307 Y100.972 E0.06322
G1 X133.333 Y100.858 E0.06567
G1 X133.358 Y100.743 E0.06807
G1 X133.376 Y100.629 E0.07053
G1 X133.392 Y100.515 E0.07311
G1 X133.408 Y100.401 E0.07581
G1 X133.424 Y100.286 E0.07865
G1 X133.440 Y100.172 E0.08160
G1 X133.456 Y100.058 E0.08469
G1 X133.456 Y99.943 E0.08774
G1 X133.440 Y99.829 E0.09070
G1 X133.424 Y99.715 E0.09353
G1 X133.408 Y99.601 E0.09624
G1 X133.392 Y99.486 E0.09882
G1 X133.376 Y99.372 E0.10128
G1 X133.359 Y99.258 E0.10365
G1 X133.333 Y99.143 E0.10610
G1 X133.308 Y99.029 E0.10861
G1 X133.282 Y98.915 E0.11117
G1 X133.257 Y98.801 E0.11378
G1 X133.231 Y98.686 E0.11645
G0 X133.205 Y98.572 F7200
G0 X133.170 Y98.458
G1 X133.203 Y98.507 E0.11796 F1200
G1 X133.142 Y98.406 E0.12084
G1 X133.085 Y98.302 E0.12355
G1 X133.028 Y98.197 E0.12605
G1 X132.971 Y98.093 E0.12833
G1 X132.914 Y97.988 E0.13041
G1 X132.854 Y97.886 E0.13233
G1 X132.789 Y97.790 E0.13424
G1 X132.723 Y97.694 E0.13617
G1 X132.658 Y97.597 E0.13811
G1 X132.592 Y97.501 E0.14007
G1 X132.527 Y97.405 E0.14204
G1 X132.462 Y97.309 E0.14403
G1 X132.396 Y97.212 E0.14604
G1 X132.331 Y97.116 E0.14806
G1 X132.250 Y97.036 E0.14964
G0 X131.949 Y96.852 F7200
G0 X131.825 Y96.814
G0 X131.701 Y96.777
G0 X131.577 Y96.739
G1 X131.561 Y96.734 E0.15024 F1200
G1 X131.675 Y96.769 E0.15382
G1 X131.789 Y96.803 E0.15671
G1 X131.904 Y96.838 E0.15892
G0 X130.961 Y96.789 F7200
;segType:HShell
G0 X131.349 Y96.684
G1 X130.655 Y96.530 E0.21410 F1200
G0 X129.830 Y96.789 F7200
G1 X130.442 Y96.176 E0.24293 F1200
G0 X129.970 Y96.083 F7200
G1 X129.264 Y96.789 E0.27615 F1200
G0 X128.698 Y96.789 F7200
G1 X129.498 Y95.989 E0.31379 F1200
G0 X128.818 Y96.104 F7200
G1 X128.133 Y96.789 E0.34602 F1200
G0 F3000 E-0.65398
G0 X128.112 Y96.244 F7200
G0 F3000 E0.34602
G1 X127.567 Y96.789 E0.37166 F1200
G0 F3000 E-0.62834
G0 X127.143 Y96.158 F7200
G0 F3000 E0.37166
;segType:Perimeter
G1 X127.671 Y95.557 E0.39826 F600
G1 X129.448 Y95.204 E0.45852
G1 X131.283 Y95.568 E0.52077
G1 X132.839 Y96.608 E0.58300
G1 X133.879 Y98.164 E0.64524
G1 X134.243 Y100.000 E0.70749
G1 X133.879 Y101.835 E0.76974
G1 X132.839 Y103.391 E0.83197
G1 X131.283 Y104.431 E0.89421
G1 X129.448 Y104.796 E0.95646
G1 X127.612 Y104.431 E1.01872
G1 X126.056 Y103.391 E1.08096
G1 X125.016 Y101.835 E1.14319
G1 X124.651 Y100.000 E1.20545
G1 X125.016 Y98.164 E1.26770
G1 X126.056 Y96.608 E1.32994
G1 X127.562 Y95.602 E1.39018
G0 X127.671 Y95.557 F7200
G0 X129.240 Y95.245
G0 X129.448 Y95.612
G0 X128.769 Y95.746
;segType:Loop
G1 X129.448 Y95.612 E1.41320 F1200
G1 X131.127 Y95.945 E1.47016
G1 X132.551 Y96.896 E1.52710
G1 X133.502 Y98.320 E1.58404
G1 X133.835 Y100.000 E1.64100
G1 X133.502 Y101.679 E1.69796
G1 X132.551 Y103.103 E1.75490
G1 X131.127 Y104.054 E1.81184
G1 X129.448 Y104.388 E1.86880
G1 X127.768 Y104.054 E1.92576
G1 X126.344 Y103.103 E1.98271
G1 X125.393 Y101.679 E2.03965
G1 X125.059 Y100.000 E2.09662
G1 X125.393 Y98.320 E2.15358
G1 X126.345 Y96.896 E2.21052
G1 X127.768 Y95.945 E2.26746
G1 X128.572 Y95.785 E2.29475
G0 F3000 E1.29475
G0 X128.206 Y97.149 F7200
G0 X126.908 Y97.149
G0 X126.277 Y98.065
G0 X126.009 Y98.684
G0 X125.848 Y99.331
G0 X125.793 Y100.000
G0 X125.848 Y100.668
G0 X126.009 Y101.315
G0 X126.277 Y101.934
G0 X126.740 Y102.607
G0 X126.567 Y103.251
G0 X126.644 Y102.964
G0 F3000 E2.29475
;segType:InnerHair
G1 X126.563 Y102.884 E2.29670 F1200
G1 X126.498 Y102.788 E2.29868
G1 X126.432 Y102.692 E2.30064
G1 X126.367 Y102.595 E2.30259
G1 X126.302 Y102.499 E2.30452
G1 X126.236 Y102.403 E2.30644
G1 X126.171 Y102.306 E2.30835
G1 X126.106 Y102.210 E2.31023
G1 X126.040 Y102.114 E2.31210
G1 X125.980 Y102.012 E2.31413
G1 X125.923 Y101.908 E2.31639
G1 X125.866 Y101.803 E2.31886
G1 X125.809 Y101.698 E2.32154
G1 X125.752 Y101.594 E2.32444
G1 X125.691 Y101.493 E2.32739
G1 X125.725 Y101.543 E2.32891
G1 X125.689 Y101.429 E2.33168
G1 X125.663 Y101.315 E2.33432
G1 X125.637 Y101.201 E2.33691
G1 X125.612 Y101.086 E2.33945
G1 X125.586 Y100.972 E2.34193
G1 X125.561 Y100.858 E2.34436
G1 X125.535 Y100.743 E2.34674
G1 X125.517 Y100.629 E2.34917
G1 X125.501 Y100.515 E2.35173
G1 X125.485 Y100.401 E2.35442
G1 X125.469 Y100.286 E2.35723
G1 X125.453 Y100.172 E2.36016
G1 X125.437 Y100.058 E2.36323
G1 X125.437 Y99.943 E2.36626
G1 X125.453 Y99.829 E2.36920
G1 X125.469 Y99.715 E2.37202
G1 X125.485 Y99.601 E2.37470
G1 X125.501 Y99.486 E2.37726
G1 X125.517 Y99.372 E2.37970
G1 X125.535 Y99.258 E2.38204
G1 X125.560 Y99.143 E2.38447
G1 X125.586 Y99.029 E2.38695
G1 X125.611 Y98.915 E2.38949
G1 X125.637 Y98.801 E2.39208
G1 X125.662 Y98.686 E2.39472
G1 X125.688 Y98.572 E2.39742
G1 X125.724 Y98.458 E2.40043
G1 X125.738 Y98.432 E2.40114
G1 X125.795 Y98.328 E2.40388
G1 X125.852 Y98.223 E2.40641
G1 X125.909 Y98.119 E2.40872
G1 X125.966 Y98.014 E2.41082
G1 X126.023 Y97.909 E2.41271
G1 X126.089 Y97.814 E2.41459
G1 X126.154 Y97.718 E2.41649
G1 X126.220 Y97.621 E2.41840
G1 X126.285 Y97.525 E2.42033
G1 X126.350 Y97.429 E2.42228
G1 X126.416 Y97.333 E2.42424
G1 X126.481 Y97.236 E2.42622
G1 X126.546 Y97.140 E2.42822
G1 X126.624 Y97.056 E2.42988
G0 X126.914 Y96.862 F7200
G0 X127.038 Y96.824
G0 X127.162 Y96.786
G0 X127.286 Y96.749
G0 X127.410 Y96.711
G1 X127.332 Y96.735 E2.43279 F1200
G1 X127.218 Y96.769 E2.43636
G1 X127.104 Y96.804 E2.43924
G1 X126.989 Y96.839 E2.44144
G0 X126.624 Y97.056 F7200
G0 X126.546 Y97.140
G0 X126.089 Y97.814
G0 X126.023 Y97.909
G0 X125.738 Y98.432
G0 X125.662 Y98.686
G0 X125.535 Y99.258
G0 X125.517 Y99.372
G0 X125.437 Y99.943
G0 X125.437 Y100.058
G0 X125.517 Y100.629
G0 X125.535 Y100.743
G0 X125.663 Y101.315
G0 X125.752 Y101.594
G0 X125.980 Y102.012
G0 X126.040 Y102.114
G0 X126.563 Y102.884
G0 X126.644 Y102.964
G1 X126.989 Y103.161 E2.44870 F1200
G1 X127.104 Y103.195 E2.45157
G1 X127.218 Y103.230 E2.45513
G1 X127.332 Y103.265 E2.45938
G0 X127.933 Y103.211 F7200
;segType:HShell
G0 X127.546 Y103.315
G1 X128.240 Y103.470 E2.51440 F1200
G0 X129.065 Y103.211 F7200
G1 X128.452 Y103.823 E2.54319 F1200
G0 X128.924 Y103.917 F7200
G1 X129.630 Y103.211 E2.57639 F1200
G0 X130.196 Y103.211 F7200
G1 X129.396 Y104.011 E2.61401 F1200
G0 X130.077 Y103.896 F7200
G1 X130.762 Y103.211 E2.64623 F1200
G0 F3000 E1.64623
G0 X130.783 Y103.755 F7200
G0 F3000 E2.64623
G1 X131.327 Y103.211 E2.67184 F1200
G0 X132.514 Y102.451 F7200
;segType:Perimeter
G1 X131.714 Y102.451 E2.69844 F600
G1 X127.118 Y102.451 E2.85130
G1 X126.628 Y101.739 E2.88004
G1 X126.389 Y101.187 E2.90006
G1 X126.244 Y100.603 E2.92006
G1 X126.194 Y100.000 E2.94021
G1 X126.244 Y99.396 E2.96035
G1 X126.389 Y98.812 E2.98035
G1 X126.628 Y98.260 E3.00037
G1 X127.118 Y97.549 E3.02908
G1 X131.774 Y97.549 E3.18393
G1 X132.264 Y98.260 E3.21264
G1 X132.503 Y98.812 E3.23266
G1 X132.648 Y99.396 E3.25266
G1 X132.698 Y100.000 E3.27281
G1 X132.648 Y100.603 E3.29295
G1 X132.503 Y101.187 E3.31295
G1 X132.264 Y101.739 E3.33297
G1 X131.808 Y102.401 E3.35971
G0 X131.714 Y102.451 F7200
G0 X130.114 Y102.451
G0 X130.674 Y102.851
;segType:Loop
G1 X126.908 Y102.851 E3.48498 F1200
G1 X126.277 Y101.934 E3.52200
G1 X126.009 Y101.315 E3.54442
G1 X125.848 Y100.668 E3.56659
G1 X125.793 Y100.000 E3.58891
G1 X125.848 Y99.331 E3.61123
G1 X126.009 Y98.684 E3.63341
G1 X126.277 Y98.065 E3.65583
G1 X126.908 Y97.149 E3.69282
G1 X131.984 Y97.149 E3.86165
G1 X132.615 Y98.065 E3.89865
G1 X132.883 Y98.684 E3.92107
G1 X133.044 Y99.331 E3.94325
G1 X133.099 Y100.000 E3.96557
G1 X133.044 Y100.668 E3.98788
G1 X132.883 Y101.315 E4.01006
G1 X132.615 Y101.934 E4.03247
G1 X131.984 Y102.851 E4.06950
G1 X130.874 Y102.851 E4.10643
; ------------------------------------
; Layer #2
; ------------------------------------
G92 E0 ;reset extr
G0 F3000 E-1.00000
G0 F600 Z1.600
G0 X131.904 Y103.161 F7200
G0 F3000 E0.00000
;segType:InnerHair
G1 X131.789 Y103.196 E0.00289 F1200
G1 X131.675 Y103.231 E0.00646
G1 X131.561 Y103.265 E0.01072
G0 X131.545 Y103.270 F7200
G0 X131.669 Y103.233
G0 X131.793 Y103.195
G0 X131.917 Y103.157
G1 X132.310 Y102.904 E0.01839 F1200
G1 X132.380 Y102.812 E0.02038
G1 X132.445 Y102.716 E0.02237
G1 X132.510 Y102.619 E0.02435
G1 X132.576 Y102.523 E0.02631
G1 X132.641 Y102.427 E0.02825
G1 X132.706 Y102.330 E0.03018
G1 X132.772 Y102.234 E0.03210
G1 X132.837 Y102.138 E0.03400
G1 X132.899 Y102.038 E0.03598
G1 X132.956 Y101.934 E0.03821
G1 X133.013 Y101.829 E0.04066
G1 X133.070 Y101.724 E0.04331
G1 X133.127 Y101.620 E0.04618
G1 X133.184 Y101.515 E0.04926
G1 X133.169 Y101.543 E0.05007
G1 X133.205 Y101.429 E0.05286
G1 X133.231 Y101.315 E0.05553
G1 X133.256 Y101.201 E0.05815
G1 X133.282 Y101.086 E0.06071
G1 X133.307 Y100.972 E0.06322
G1 X133.333 Y100.858 E0.06567
G1 X133.358 Y100.743 E0.06807
G1 X133.376 Y100.629 E0.07053
G1 X133.392 Y100.515 E0.07311
G1 X133.408 Y100.401 E0.07581
G1 X133.424 Y100.286 E0.07865
G1 X133.440 Y100.172 E0.08160
G1 X133.456 Y100.058 E0.08469
G1 X133.456 Y99.943 E0.08774
G1 X133.440 Y99.829 E0.09070
G1 X133.424 Y99.715 E0.09353
G1 X133.408 Y99.601 E0.09624
G1 X133.392 Y99.486 E0.09882
G1 X133.376 Y99.372 E0.10128
G1 X133.359 Y99.258 E0.10365
G1 X133.333 Y99.143 E0.10610
G1 X133.308 Y99.029 E0.10861
G1 X133.282 Y98.915 E0.11117
G1 X133.257 Y98.801 E0.11378
G1 X133.231 Y98.686 E0.11645
G0 X133.205 Y98.572 F7200
G0 X133.170 Y98.458
G1 X133.203 Y98.507 E0.11796 F1200
G1 X133.142 Y98.406 E0.12084
G1 X133.085 Y98.302 E0.12355
G1 X133.028 Y98.197 E0.12605
G1 X132.971 Y98.093 E0.12833
G1 X132.914 Y97.988 E0.13041
G1 X132.854 Y97.886 E0.13233
G1 X132.789 Y97.790 E0.13424
G1 X132.723 Y97.694 E0.13617
G1 X132.658 Y97.597 E0.13811
G1 X132.592 Y97.501 E0.14007
G1 X132.527 Y97.405 E0.14204
G1 X132.462 Y97.309 E0.14403
G1 X132.396 Y97.212 E0.14604
G1 X132.331 Y97.116 E0.14806
G1 X132.250 Y97.036 E0.14964
G0 X131.949 Y96.852 F7200
G0 X131.825 Y96.814
G0 X131.701 Y96.777
G0 X131.577 Y96.739
G1 X131.561 Y96.734 E0.15024 F1200
G1 X131.675 Y96.769 E0.15382
G1 X131.789 Y96.803 E0.15671
G1 X131.904 Y96.838 E0.15892
G0 X131.206 Y96.789 F7200
;segType:HShell
G1 X130.630 Y96.214 E0.18599 F1200
G0 X129.924 Y96.074 F7200
G1 X130.640 Y96.789 E0.21964 F1200
G0 X130.074 Y96.789 F7200
G1 X129.295 Y96.009 E0.25632 F1200
G0 X128.823 Y96.103 F7200
G1 X129.509 Y96.789 E0.28860 F1200
G0 X128.943 Y96.789 F7200
G1 X128.351 Y96.197 E0.31646 F1200
G0 X128.358 Y96.487 F7200
G1 X127.680 Y96.657 E0.37463 F1200
G0 X127.143 Y96.158 F7200
;segType:Perimeter
G1 X127.671 Y95.557 E0.40124 F600
G1 X129.448 Y95.204 E0.46149
G1 X131.283 Y95.568 E0.52374
G1 X132.839 Y96.608 E0.58598
G1 X133.879 Y98.164 E0.64821
G1 X134.243 Y100.000 E0.71046
G1 X133.879 Y101.835 E0.77271
G1 X132.839 Y103.391 E0.83495
G1 X131.283 Y104.431 E0.89718
G1 X129.448 Y104.796 E0.95944
G1 X127.612 Y104.431 E1.02169
G1 X126.056 Y103.391 E1.08393
G1 X125.016 Y101.835 E1.14616
G1 X124.651 Y100.000 E1.20842
G1 X125.016 Y98.164 E1.27068
G1 X126.056 Y96.608 E1.33291
G1 X127.562 Y95.602 E1.39315
G0 X127.671 Y95.557 F7200
G0 X129.240 Y95.245
G0 X129.448 Y95.612
G0 X128.769 Y95.746
;segType:Loop
G1 X129.448 Y95.612 E1.41617 F1200
G1 X131.127 Y95.945 E1.47313
G1 X132.551 Y96.896 E1.53007
G1 X133.502 Y98.320 E1.58701
G1 X133.835 Y100.000 E1.64397
G1 X133.502 Y101.679 E1.70093
G1 X132.551 Y103.103 E1.75787
G1 X131.127 Y104.054 E1.81482
G1 X129.448 Y104.388 E1.87178
G1 X127.768 Y104.054 E1.92874
G1 X126.344 Y103.103 E1.98568
G1 X125.393 Y101.679 E2.04263
G1 X125.059 Y100.000 E2.09959
G1 X125.393 Y98.320 E2.15655
G1 X126.345 Y96.896 E2.21349
G1 X127.768 Y95.945 E2.27043
G1 X128.572 Y95.785 E2.29772
G0 F3000 E1.29772
G0 X128.206 Y97.149 F7200
G0 X126.908 Y97.149
G0 X126.277 Y98.065
G0 X126.009 Y98.684
G0 X125.848 Y99.331
G0 X125.793 Y100.000
G0 X125.848 Y100.668
G0 X126.009 Y101.315
G0 X126.277 Y101.934
G0 X126.740 Y102.607
G0 X126.567 Y103.251
G0 X126.644 Y102.964
G0 F3000 E2.29772
;segType:InnerHair
G1 X126.563 Y102.884 E2.29968 F1200
G1 X126.498 Y102.788 E2.30165
G1 X126.432 Y102.692 E2.30362
G1 X126.367 Y102.595 E2.30557
G1 X126.302 Y102.499 E2.30750
G1 X126.236 Y102.403 E2.30942
G1 X126.171 Y102.306 E2.31132
G1 X126.106 Y102.210 E2.31321
G1 X126.040 Y102.114 E2.31508
G1 X125.980 Y102.012 E2.31710
G1 X125.923 Y101.908 E2.31936
G1 X125.866 Y101.803 E2.32183
G1 X125.809 Y101.698 E2.32451
G1 X125.752 Y101.594 E2.32741
G1 X125.691 Y101.493 E2.33037
G1 X125.725 Y101.543 E2.33189
G1 X125.689 Y101.429 E2.33465
G1 X125.663 Y101.315 E2.33730
G1 X125.637 Y101.201 E2.33989
G1 X125.612 Y101.086 E2.34242
G1 X125.586 Y100.972 E2.34490
G1 X125.561 Y100.858 E2.34733
G1 X125.535 Y100.743 E2.34971
G1 X125.517 Y100.629 E2.35215
G1 X125.501 Y100.515 E2.35471
G1 X125.485 Y100.401 E2.35739
G1 X125.469 Y100.286 E2.36020
G1 X125.453 Y100.172 E2.36314
G1 X125.437 Y100.058 E2.36620
G1 X125.437 Y99.943 E2.36924
G1 X125.453 Y99.829 E2.37218
G1 X125.469 Y99.715 E2.37499
G1 X125.485 Y99.601 E2.37768
G1 X125.501 Y99.486 E2.38024
G1 X125.517 Y99.372 E2.38267
G1 X125.535 Y99.258 E2.38502
G1 X125.560 Y99.143 E2.38744
G1 X125.586 Y99.029 E2.38993
G1 X125.611 Y98.915 E2.39246
G1 X125.637 Y98.801 E2.39505
G1 X125.662 Y98.686 E2.39769
G1 X125.688 Y98.572 E2.40039
G1 X125.724 Y98.458 E2.40341
G1 X125.738 Y98.432 E2.40412
G1 X125.795 Y98.328 E2.40686
G1 X125.852 Y98.223 E2.40938
G1 X125.909 Y98.119 E2.41169
G1 X125.966 Y98.014 E2.41379
G1 X126.023 Y97.909 E2.41568
G1 X126.089 Y97.814 E2.41756
G1 X126.154 Y97.718 E2.41946
G1 X126.220 Y97.621 E2.42137
G1 X126.285 Y97.525 E2.42331
G1 X126.350 Y97.429 E2.42525
G1 X126.416 Y97.333 E2.42722
G1 X126.481 Y97.236 E2.42920
G1 X126.546 Y97.140 E2.43119
G1 X126.624 Y97.056 E2.43285
G0 X126.914 Y96.862 F7200
G0 X127.038 Y96.824
G0 X127.162 Y96.786
G0 X127.286 Y96.749
G0 X127.410 Y96.711
G1 X127.332 Y96.735 E2.43576 F1200
G1 X127.218 Y96.769 E2.43933
G1 X127.104 Y96.804 E2.44222
G1 X126.989 Y96.839 E2.44441
G0 X126.624 Y97.056 F7200
G0 X126.546 Y97.140
G0 X126.089 Y97.814
G0 X126.023 Y97.909
G0 X125.738 Y98.432
G0 X125.662 Y98.686
G0 X125.535 Y99.258
G0 X125.517 Y99.372
G0 X125.437 Y99.943
G0 X125.437 Y100.058
G0 X125.517 Y100.629
G0 X125.535 Y100.743
G0 X125.663 Y101.315
G0 X125.752 Y101.594
G0 X125.980 Y102.012
G0 X126.040 Y102.114
G0 X126.563 Y102.884
G0 X126.644 Y102.964
G1 X126.989 Y103.161 E2.45167 F1200
G1 X127.104 Y103.195 E2.45455
G1 X127.218 Y103.230 E2.45811
G1 X127.332 Y103.265 E2.46236
G0 X127.959 Y103.725 F7200
;segType:HShell
G1 X127.446 Y103.212 E2.48649 F1200
G0 X128.011 Y103.211 F7200
G1 X128.665 Y103.865 E2.51727 F1200
G0 X129.372 Y104.006 F7200
G1 X128.577 Y103.211 E2.55466 F1200
G0 X129.142 Y103.211 F7200
G1 X129.869 Y103.937 E2.58883 F1200
G0 X130.340 Y103.843 F7200
G1 X129.708 Y103.211 E2.61857 F1200
G0 X130.305 Y103.525 F7200
G1 X131.020 Y103.391 E2.67908 F1200
G1 X131.433 Y103.239 E2.71571
G0 X132.514 Y102.451 F7200
;segType:Perimeter
G1 X131.714 Y102.451 E2.74232 F600
G1 X127.118 Y102.451 E2.89518
G1 X126.628 Y101.739 E2.92392
G1 X126.389 Y101.187 E2.94393
G1 X126.244 Y100.603 E2.96393
G1 X126.194 Y100.000 E2.98408
G1 X126.244 Y99.396 E3.00423
G1 X126.389 Y98.812 E3.02423
G1 X126.628 Y98.260 E3.04425
G1 X127.118 Y97.549 E3.07296
G1 X131.774 Y97.549 E3.22781
G1 X132.264 Y98.260 E3.25652
G1 X132.503 Y98.812 E3.27654
G1 X132.648 Y99.396 E3.29654
G1 X132.698 Y100.000 E3.31668
G1 X132.648 Y100.603 E3.33683
G1 X132.503 Y101.187 E3.35683
G1 X132.264 Y101.739 E3.37685
G1 X131.808 Y102.401 E3.40359
G0 X131.714 Y102.451 F7200
G0 X130.114 Y102.451
G0 X130.674 Y102.851
;segType:Loop
G1 X126.908 Y102.851 E3.52885 F1200
G1 X126.277 Y101.934 E3.56588
G1 X126.009 Y101.315 E3.58829
G1 X125.848 Y100.668 E3.61047
G1 X125.793 Y100.000 E3.63279
G1 X125.848 Y99.331 E3.65511
G1 X126.009 Y98.684 E3.67728
G1 X126.277 Y98.065 E3.69970
G1 X126.908 Y97.149 E3.73670
G1 X131.984 Y97.149 E3.90553
G1 X132.615 Y98.065 E3.94253
G1 X132.883 Y98.684 E3.96495
G1 X133.044 Y99.331 E3.98712
G1 X133.099 Y100.000 E4.00944
G1 X133.044 Y100.668 E4.03176
G1 X132.883 Y101.315 E4.05394
G1 X132.615 Y101.934 E4.07635
G1 X131.984 Y102.851 E4.11338
G1 X130.874 Y102.851 E4.15030
; ------------------------------------
; Layer #3
; ------------------------------------
G92 E0 ;reset extr
G0 F3000 E-1.00000
G0 F600 Z1.800
G0 X131.904 Y103.161 F7200
G0 F3000 E0.00000
;segType:InnerHair
G1 X131.789 Y103.196 E0.00289 F1200
G1 X131.675 Y103.231 E0.00646
G1 X131.561 Y103.265 E0.01072
G0 X131.545 Y103.270 F7200
G0 X131.669 Y103.233
G0 X131.793 Y103.195
G0 X131.917 Y103.157
G1 X132.310 Y102.904 E0.01839 F1200
G1 X132.380 Y102.812 E0.02038
G1 X132.445 Y102.716 E0.02237
G1 X132.510 Y102.619 E0.02435
G1 X132.576 Y102.523 E0.02631
G1 X132.641 Y102.427 E0.02825
G1 X132.706 Y102.330 E0.03018
G1 X132.772 Y102.234 E0.03210
G1 X132.837 Y102.138 E0.03400
G1 X132.899 Y102.038 E0.03598
G1 X132.956 Y101.934 E0.03821
G1 X133.013 Y101.829 E0.04066
G1 X133.070 Y101.724 E0.04331
G1 X133.127 Y101.620 E0.04618
G1 X133.184 Y101.515 E0.04926
G1 X133.169 Y101.543 E0.05007
G1 X133.205 Y101.429 E0.05286
G1 X133.231 Y101.315 E0.05553
G1 X133.256 Y101.201 E0.05815
G1 X133.282 Y101.086 E0.06071
G1 X133.307 Y100.972 E0.06322
G1 X133.333 Y100.858 E0.06567
G1 X133.358 Y100.743 E0.06807
G1 X133.376 Y100.629 E0.07053
G1 X133.392 Y100.515 E0.07311
G1 X133.408 Y100.401 E0.07581
G1 X133.424 Y100.286 E0.07865
G1 X133.440 Y100.172 E0.08160
G1 X133.456 Y100.058 E0.08469
G1 X133.456 Y99.943 E0.08774
G1 X133.440 Y99.829 E0.09070
G1 X133.424 Y99.715 E0.09353
G1 X133.408 Y99.601 E0.09624
G1 X133.392 Y99.486 E0.09882
G1 X133.376 Y99.372 E0.10128
G1 X133.359 Y99.258 E0.10365
G1 X133.333 Y99.143 E0.10610
G1 X133.308 Y99.029 E0.10861
G1 X133.282 Y98.915 E0.11117
G1 X133.257 Y98.801 E0.11378
G1 X133.231 Y98.686 E0.11645
G0 X133.205 Y98.572 F7200
G0 X133.170 Y98.458
G1 X133.203 Y98.507 E0.11796 F1200
G1 X133.142 Y98.406 E0.12084
G1 X133.085 Y98.302 E0.12355
G1 X133.028 Y98.197 E0.12605
G1 X132.971 Y98.093 E0.12833
G1 X132.914 Y97.988 E0.13041
G1 X132.854 Y97.886 E0.13233
G1 X132.789 Y97.790 E0.13424
G1 X132.723 Y97.694 E0.13617
G1 X132.658 Y97.597 E0.13811
G1 X132.592 Y97.501 E0.14007
G1 X132.527 Y97.405 E0.14204
G1 X132.462 Y97.309 E0.14403
G1 X132.396 Y97.212 E0.14604
G1 X132.331 Y97.116 E0.14806
G1 X132.250 Y97.036 E0.14964
G0 X131.949 Y96.852 F7200
G0 X131.825 Y96.814
G0 X131.701 Y96.777
G0 X131.577 Y96.739
G1 X131.561 Y96.734 E0.15024 F1200
G1 X131.675 Y96.769 E0.15382
G1 X131.789 Y96.803 E0.15671
G1 X131.904 Y96.838 E0.15892
G0 X130.961 Y96.789 F7200
;segType:HShell
G0 X131.349 Y96.684
G1 X130.655 Y96.530 E0.21410 F1200
G0 X129.830 Y96.789 F7200
G1 X130.442 Y96.176 E0.24293 F1200
G0 X129.970 Y96.083 F7200
G1 X129.264 Y96.789 E0.27615 F1200
G0 X128.698 Y96.789 F7200
G1 X129.498 Y95.989 E0.31379 F1200
G0 X128.818 Y96.104 F7200
G1 X128.133 Y96.789 E0.34602 F1200
G0 F3000 E-0.65398
G0 X128.112 Y96.244 F7200
G0 F3000 E0.34602
G1 X127.567 Y96.789 E0.37166 F1200
G0 F3000 E-0.62834
G0 X127.143 Y96.158 F7200
G0 F3000 E0.37166
;segType:Perimeter
G1 X127.671 Y95.557 E0.39826 F600
G1 X129.448 Y95.204 E0.45852
G1 X131.283 Y95.568 E0.52077
G1 X132.839 Y96.608 E0.58300
G1 X133.879 Y98.164 E0.64524
G1 X134.243 Y100.000 E0.70749
G1 X133.879 Y101.835 E0.76974
G1 X132.839 Y103.391 E0.83197
G1 X131.283 Y104.431 E0.89421
G1 X129.448 Y104.796 E0.95646
G1 X127.612 Y104.431 E1.01872
G1 X126.056 Y103.391 E1.08096
G1 X125.016 Y101.835 E1.14319
G1 X124.651 Y100.000 E1.20545
G1 X125.016 Y98.164 E1.26770
G1 X126.056 Y96.608 E1.32994
G1 X127.562 Y95.602 E1.39018
G0 X127.671 Y95.557 F7200
G0 X129.240 Y95.245
G0 X129.448 Y95.612
G0 X128.769 Y95.746
;segType:Loop
G1 X129.448 Y95.612 E1.41320 F1200
G1 X131.127 Y95.945 E1.47016
G1 X132.551 Y96.896 E1.52710
G1 X133.502 Y98.320 E1.58404
G1 X133.835 Y100.000 E1.64100
G1 X133.502 Y101.679 E1.69796
G1 X132.551 Y103.103 E1.75490
G1 X131.127 Y104.054 E1.81184
G1 X129.448 Y104.388 E1.86880
G1 X127.768 Y104.054 E1.92576
G1 X126.344 Y103.103 E1.98271
G1 X125.393 Y101.679 E2.03965
G1 X125.059 Y100.000 E2.09662
G1 X125.393 Y98.320 E2.15358
G1 X126.345 Y96.896 E2.21052
G1 X127.768 Y95.945 E2.26746
G1 X128.572 Y95.785 E2.29475
G0 F3000 E1.29475
G0 X128.206 Y97.149 F7200
G0 X126.908 Y97.149
G0 X126.277 Y98.065
G0 X126.009 Y98.684
G0 X125.848 Y99.331
G0 X125.793 Y100.000
G0 X125.848 Y100.668
G0 X126.009 Y101.315
G0 X126.277 Y101.934
G0 X126.740 Y102.607
G0 X126.567 Y103.251
G0 X126.644 Y102.964
G0 F3000 E2.29475
;segType:InnerHair
G1 X126.563 Y102.884 E2.29670 F1200
G1 X126.498 Y102.788 E2.29868
G1 X126.432 Y102.692 E2.30064
G1 X126.367 Y102.595 E2.30259
G1 X126.302 Y102.499 E2.30452
G1 X126.236 Y102.403 E2.30644
G1 X126.171 Y102.306 E2.30835
G1 X126.106 Y102.210 E2.31023
G1 X126.040 Y102.114 E2.31210
G1 X125.980 Y102.012 E2.31413
G1 X125.923 Y101.908 E2.31639
G1 X125.866 Y101.803 E2.31886
G1 X125.809 Y101.698 E2.32154
G1 X125.752 Y101.594 E2.32444
G1 X125.691 Y101.493 E2.32739
G1 X125.725 Y101.543 E2.32891
G1 X125.689 Y101.429 E2.33168
G1 X125.663 Y101.315 E2.33432
G1 X125.637 Y101.201 E2.33691
G1 X125.612 Y101.086 E2.33945
G1 X125.586 Y100.972 E2.34193
G1 X125.561 Y100.858 E2.34436
G1 X125.535 Y100.743 E2.34674
G1 X125.517 Y100.629 E2.34917
G1 X125.501 Y100.515 E2.35173
G1 X125.485 Y100.401 E2.35442
G1 X125.469 Y100.286 E2.35723
G1 X125.453 Y100.172 E2.36016
G1 X125.437 Y100.058 E2.36323
G1 X125.437 Y99.943 E2.36626
G1 X125.453 Y99.829 E2.36920
G1 X125.469 Y99.715 E2.37202
G1 X125.485 Y99.601 E2.37470
G1 X125.501 Y99.486 E2.37726
G1 X125.517 Y99.372 E2.37970
G1 X125.535 Y99.258 E2.38204
G1 X125.560 Y99.143 E2.38447
G1 X125.586 Y99.029 E2.38695
G1 X125.611 Y98.915 E2.38949
G1 X125.637 Y98.801 E2.39208
G1 X125.662 Y98.686 E2.39472
G1 X125.688 Y98.572 E2.39742
G1 X125.724 Y98.458 E2.40043
G1 X125.738 Y98.432 E2.40114
G1 X125.795 Y98.328 E2.40388
G1 X125.852 Y98.223 E2.40641
G1 X125.909 Y98.119 E2.40872
G1 X125.966 Y98.014 E2.41082
G1 X126.023 Y97.909 E2.41271
G1 X126.089 Y97.814 E2.41459
G1 X126.154 Y97.718 E2.41649
G1 X126.220 Y97.621 E2.41840
G1 X126.285 Y97.525 E2.42033
G1 X126.350 Y97.429 E2.42228
G1 X126.416 Y97.333 E2.42424
G1 X126.481 Y97.236 E2.42622
G1 X126.546 Y97.140 E2.42822
G1 X126.624 Y97.056 E2.42988
G0 X126.914 Y96.862 F7200
G0 X127.038 Y96.824
G0 X127.162 Y96.786
G0 X127.286 Y96.749
G0 X127.410 Y96.711
G1 X127.332 Y96.735 E2.43279 F1200
G1 X127.218 Y96.769 E2.43636
G1 X127.104 Y96.804 E2.43924
G1 X126.989 Y96.839 E2.44144
G0 X126.624 Y97.056 F7200
G0 X126.546 Y97.140
G0 X126.089 Y97.814
G0 X126.023 Y97.909
G0 X125.738 Y98.432
G0 X125.662 Y98.686
G0 X125.535 Y99.258
G0 X125.517 Y99.372
G0 X125.437 Y99.943
G0 X125.437 Y100.058
G0 X125.517 Y100.629
G0 X125.535 Y100.743
G0 X125.663 Y101.315
G0 X125.752 Y101.594
G0 X125.980 Y102.012
G0 X126.040 Y102.114
G0 X126.563 Y102.884
G0 X126.644 Y102.964
G1 X126.989 Y103.161 E2.44870 F1200
G1 X127.104 Y103.195 E2.45157
G1 X127.218 Y103.230 E2.45513
G1 X127.332 Y103.265 E2.45938
G0 X127.933 Y103.211 F7200
;segType:HShell
G0 X127.546 Y103.315
G1 X128.240 Y103.470 E2.51440 F1200
G0 X129.065 Y103.211 F7200
G1 X128.452 Y103.823 E2.54319 F1200
G0 X128.924 Y103.917 F7200
G1 X129.630 Y103.211 E2.57639 F1200
G0 X130.196 Y103.211 F7200
G1 X129.396 Y104.011 E2.61401 F1200
G0 X130.077 Y103.896 F7200
G1 X130.762 Y103.211 E2.64623 F1200
G0 F3000 E1.64623
G0 X130.783 Y103.755 F7200
G0 F3000 E2.64623
G1 X131.327 Y103.211 E2.67183 F1200
G0 X132.514 Y102.451 F7200
;segType:Perimeter
G1 X131.714 Y102.451 E2.69844 F600
G1 X127.118 Y102.451 E2.85130
G1 X126.628 Y101.739 E2.88004
G1 X126.389 Y101.187 E2.90006
G1 X126.244 Y100.603 E2.92006
G1 X126.194 Y100.000 E2.94020
G1 X126.244 Y99.396 E2.96035
G1 X126.389 Y98.812 E2.98035
G1 X126.628 Y98.260 E3.00037
G1 X127.118 Y97.549 E3.02908
G1 X131.774 Y97.549 E3.18393
G1 X132.264 Y98.260 E3.21264
G1 X132.503 Y98.812 E3.23266
G1 X132.648 Y99.396 E3.25266
G1 X132.698 Y100.000 E3.27281
G1 X132.648 Y100.603 E3.29295
G1 X132.503 Y101.187 E3.31295
G1 X132.264 Y101.739 E3.33297
G1 X131.808 Y102.401 E3.35971
G0 X131.714 Y102.451 F7200
G0 X130.114 Y102.451
G0 X130.674 Y102.851
;segType:Loop
G1 X126.908 Y102.851 E3.48498 F1200
G1 X126.277 Y101.934 E3.52200
G1 X126.009 Y101.315 E3.54442
G1 X125.848 Y100.668 E3.56659
G1 X125.793 Y100.000 E3.58891
G1 X125.848 Y99.331 E3.61123
G1 X126.009 Y98.684 E3.63341
G1 X126.277 Y98.065 E3.65583
G1 X126.908 Y97.149 E3.69282
G1 X131.984 Y97.149 E3.86165
G1 X132.615 Y98.065 E3.89865
G1 X132.883 Y98.684 E3.92107
G1 X133.044 Y99.331 E3.94325
G1 X133.099 Y100.000 E3.96557
G1 X133.044 Y100.668 E3.98788
G1 X132.883 Y101.315 E4.01006
G1 X132.615 Y101.934 E4.03247
G1 X131.984 Y102.851 E4.06950
G1 X130.874 Y102.851 E4.10643
; ------------------------------------
; Layer #4
; ------------------------------------
G92 E0 ;reset extr
G0 F3000 E-1.00000
G0 F600 Z2.000
G0 X131.904 Y103.161 F7200
G0 F3000 E0.00000
;segType:InnerHair
G1 X131.789 Y103.196 E0.00289 F1200
G1 X131.675 Y103.231 E0.00646
G1 X131.561 Y103.265 E0.01072
G0 X131.545 Y103.270 F7200
G0 X131.669 Y103.233
G0 X131.793 Y103.195
G0 X131.917 Y103.157
G1 X132.310 Y102.904 E0.01839 F1200
G1 X132.380 Y102.812 E0.02038
G1 X132.445 Y102.716 E0.02237
G1 X132.510 Y102.619 E0.02435
G1 X132.576 Y102.523 E0.02631
G1 X132.641 Y102.427 E0.02825
G1 X132.706 Y102.330 E0.03018
G1 X132.772 Y102.234 E0.03210
G1 X132.837 Y102.138 E0.03400
G1 X132.899 Y102.038 E0.03598
G1 X132.956 Y101.934 E0.03821
G1 X133.013 Y101.829 E0.04066
G1 X133.070 Y101.724 E0.04331
G1 X133.127 Y101.620 E0.04618
G1 X133.184 Y101.515 E0.04926
G1 X133.169 Y101.543 E0.05007
G1 X133.205 Y101.429 E0.05286
G1 X133.231 Y101.315 E0.05553
G1 X133.256 Y101.201 E0.05815
G1 X133.282 Y101.086 E0.06071
G1 X133.307 Y100.972 E0.06322
G1 X133.333 Y100.858 E0.06567
G1 X133.358 Y100.743 E0.06807
G1 X133.376 Y100.629 E0.07053
G1 X133.392 Y100.515 E0.07311
G1 X133.408 Y100.401 E0.07581
G1 X133.424 Y100.286 E0.07865
G1 X133.440 Y100.172 E0.08160
G1 X133.456 Y100.058 E0.08469
G1 X133.456 Y99.943 E0.08774
G1 X133.440 Y99.829 E0.09070
G1 X133.424 Y99.715 E0.09353
G1 X133.408 Y99.601 E0.09624
G1 X133.392 Y99.486 E0.09882
G1 X133.376 Y99.372 E0.10128
G1 X133.359 Y99.258 E0.10365
G1 X133.333 Y99.143 E0.10610
G1 X133.308 Y99.029 E0.10861
G1 X133.282 Y98.915 E0.11117
G1 X133.257 Y98.801 E0.11378
G1 X133.231 Y98.686 E0.11645
G0 X133.205 Y98.572 F7200
G0 X133.170 Y98.458
G1 X133.203 Y98.507 E0.11796 F1200
G1 X133.142 Y98.406 E0.12084
G1 X133.085 Y98.302 E0.12355
G1 X133.028 Y98.197 E0.12605
G1 X132.971 Y98.093 E0.12833
G1 X132.914 Y97.988 E0.13041
G1 X132.854 Y97.886 E0.13233
G1 X132.789 Y97.790 E0.13424
G1 X132.723 Y97.694 E0.13617
G1 X132.658 Y97.597 E0.13811
G1 X132.592 Y97.501 E0.14007
G1 X132.527 Y97.405 E0.14204
G1 X132.462 Y97.309 E0.14403
G1 X132.396 Y97.212 E0.14604
G1 X132.331 Y97.116 E0.14806
G1 X132.250 Y97.036 E0.14964
G0 X131.949 Y96.852 F7200
G0 X131.825 Y96.814
G0 X131.701 Y96.777
G0 X131.577 Y96.739
G1 X131.561 Y96.734 E0.15024 F1200
G1 X131.675 Y96.769 E0.15382
G1 X131.789 Y96.803 E0.15671
G1 X131.904 Y96.838 E0.15892
G0 F3000 E-0.84108
G0 X128.441 Y96.789 F7200
G0 F3000 E0.15892
;segType:Infill
G1 X128.839 Y96.100 E0.18540 F1500
G0 X129.542 Y95.998 F7200
G1 X129.999 Y96.789 E0.21580 F1500
G0 X131.027 Y96.311 F7200
G1 X130.751 Y96.789 E0.23416 F1500
G0 X131.400 Y96.561 F7200
G1 X127.495 Y96.561 E0.36405 F1500
G0 X127.540 Y96.530 F7200
G1 X127.689 Y96.789 E0.37398 F1500
G0 F3000 E-0.62602
G0 X127.143 Y96.158 F7200
G0 F3000 E0.37398
;segType:Perimeter
G1 X127.671 Y95.557 E0.40059 F600
G1 X129.448 Y95.204 E0.46084
G1 X131.283 Y95.568 E0.52309
G1 X132.839 Y96.608 E0.58533
G1 X133.879 Y98.164 E0.64756
G1 X134.243 Y100.000 E0.70981
G1 X133.879 Y101.835 E0.77206
G1 X132.839 Y103.391 E0.83430
G1 X131.283 Y104.431 E0.89653
G1 X129.448 Y104.796 E0.95879
G1 X127.612 Y104.431 E1.02104
G1 X126.056 Y103.391 E1.08328
G1 X125.016 Y101.835 E1.14551
G1 X124.651 Y100.000 E1.20777
G1 X125.016 Y98.164 E1.27002
G1 X126.056 Y96.608 E1.33226
G1 X127.562 Y95.602 E1.39250
G0 X127.671 Y95.557 F7200
G0 X129.240 Y95.245
G0 X129.448 Y95.612
G0 X128.769 Y95.746
;segType:Loop
G1 X129.448 Y95.612 E1.41552 F1200
G1 X131.127 Y95.945 E1.47248
G1 X132.551 Y96.896 E1.52942
G1 X133.502 Y98.320 E1.58636
G1 X133.835 Y100.000 E1.64332
G1 X133.502 Y101.679 E1.70028
G1 X132.551 Y103.103 E1.75722
G1 X131.127 Y104.054 E1.81417
G1 X129.448 Y104.388 E1.87113
G1 X127.768 Y104.054 E1.92809
G1 X126.344 Y103.103 E1.98503
G1 X125.393 Y101.679 E2.04198
G1 X125.059 Y100.000 E2.09894
G1 X125.393 Y98.320 E2.15590
G1 X126.345 Y96.896 E2.21284
G1 X127.768 Y95.945 E2.26978
G1 X128.572 Y95.785 E2.29707
G0 F3000 E1.29707
G0 X128.206 Y97.149 F7200
G0 X126.908 Y97.149
G0 X126.277 Y98.065
G0 X126.009 Y98.684
G0 X125.848 Y99.331
G0 X125.793 Y100.000
G0 X125.848 Y100.668
G0 X126.009 Y101.315
G0 X126.277 Y101.934
G0 X126.740 Y102.607
G0 X126.567 Y103.251
G0 X126.644 Y102.964
G0 F3000 E2.29707
;segType:InnerHair
G1 X126.563 Y102.884 E2.29902 F1200
G1 X126.498 Y102.788 E2.30100
G1 X126.432 Y102.692 E2.30297
G1 X126.367 Y102.595 E2.30491
G1 X126.302 Y102.499 E2.30685
G1 X126.236 Y102.403 E2.30876
G1 X126.171 Y102.306 E2.31067
G1 X126.106 Y102.210 E2.31255
G1 X126.040 Y102.114 E2.31443
G1 X125.980 Y102.012 E2.31645
G1 X125.923 Y101.908 E2.31871
G1 X125.866 Y101.803 E2.32118
G1 X125.809 Y101.698 E2.32386
G1 X125.752 Y101.594 E2.32676
G1 X125.691 Y101.493 E2.32972
G1 X125.725 Y101.543 E2.33123
G1 X125.689 Y101.429 E2.33400
G1 X125.663 Y101.315 E2.33664
G1 X125.637 Y101.201 E2.33923
G1 X125.612 Y101.086 E2.34177
G1 X125.586 Y100.972 E2.34425
G1 X125.561 Y100.858 E2.34668
G1 X125.535 Y100.743 E2.34906
G1 X125.517 Y100.629 E2.35150
G1 X125.501 Y100.515 E2.35405
G1 X125.485 Y100.401 E2.35674
G1 X125.469 Y100.286 E2.35955
G1 X125.453 Y100.172 E2.36249
G1 X125.437 Y100.058 E2.36555
G1 X125.437 Y99.943 E2.36859
G1 X125.453 Y99.829 E2.37152
G1 X125.469 Y99.715 E2.37434
G1 X125.485 Y99.601 E2.37702
G1 X125.501 Y99.486 E2.37958
G1 X125.517 Y99.372 E2.38202
G1 X125.535 Y99.258 E2.38436
G1 X125.560 Y99.143 E2.38679
G1 X125.586 Y99.029 E2.38927
G1 X125.611 Y98.915 E2.39181
G1 X125.637 Y98.801 E2.39440
G1 X125.662 Y98.686 E2.39704
G1 X125.688 Y98.572 E2.39974
G1 X125.724 Y98.458 E2.40276
G1 X125.738 Y98.432 E2.40347
G1 X125.795 Y98.328 E2.40620
G1 X125.852 Y98.223 E2.40873
G1 X125.909 Y98.119 E2.41104
G1 X125.966 Y98.014 E2.41314
G1 X126.023 Y97.909 E2.41503
G1 X126.089 Y97.814 E2.41691
G1 X126.154 Y97.718 E2.41881
G1 X126.220 Y97.621 E2.42072
G1 X126.285 Y97.525 E2.42265
G1 X126.350 Y97.429 E2.42460
G1 X126.416 Y97.333 E2.42657
G1 X126.481 Y97.236 E2.42855
G1 X126.546 Y97.140 E2.43054
G1 X126.624 Y97.056 E2.43220
G0 X126.914 Y96.862 F7200
G0 X127.038 Y96.824
G0 X127.162 Y96.786
G0 X127.286 Y96.749
G0 X127.410 Y96.711
G1 X127.332 Y96.735 E2.43511 F1200
G1 X127.218 Y96.769 E2.43868
G1 X127.104 Y96.804 E2.44156
G1 X126.989 Y96.839 E2.44376
G0 X126.624 Y97.056 F7200
G0 X126.546 Y97.140
G0 X126.089 Y97.814
G0 X126.023 Y97.909
G0 X125.738 Y98.432
G0 X125.662 Y98.686
G0 X125.535 Y99.258
G0 X125.517 Y99.372
G0 X125.437 Y99.943
G0 X125.437 Y100.058
G0 X125.517 Y100.629
G0 X125.535 Y100.743
G0 X125.663 Y101.315
G0 X125.752 Y101.594
G0 X125.980 Y102.012
G0 X126.040 Y102.114
G0 X126.563 Y102.884
G0 X126.644 Y102.964
G1 X126.989 Y103.161 E2.45102 F1200
G1 X127.104 Y103.195 E2.45389
G1 X127.218 Y103.230 E2.45746
G1 X127.332 Y103.265 E2.46171
G0 X128.943 Y103.921 F7200
;segType:Infill
G1 X129.353 Y103.211 E2.48896 F1500
G0 X129.088 Y103.211 F7200
G1 X129.544 Y104.002 E2.51933 F1500
G0 X131.397 Y103.211 F7200
G1 X131.489 Y103.370 E2.52544 F1500
G0 X132.514 Y102.451 F7200
;segType:Perimeter
G1 X131.714 Y102.451 E2.55205 F600
G1 X127.118 Y102.451 E2.70491
G1 X126.628 Y101.739 E2.73365
G1 X126.389 Y101.187 E2.75367
G1 X126.244 Y100.603 E2.77367
G1 X126.194 Y100.000 E2.79381
G1 X126.244 Y99.396 E2.81396
G1 X126.389 Y98.812 E2.83396
G1 X126.628 Y98.260 E2.85398
G1 X127.118 Y97.549 E2.88269
G1 X131.774 Y97.549 E3.03754
G1 X132.264 Y98.260 E3.06625
G1 X132.503 Y98.812 E3.08627
G1 X132.648 Y99.396 E3.10627
G1 X132.698 Y100.000 E3.12641
G1 X132.648 Y100.603 E3.14656
G1 X132.503 Y101.187 E3.16656
G1 X132.264 Y101.739 E3.18658
G1 X131.808 Y102.401 E3.21332
G0 X131.714 Y102.451 F7200
G0 X130.114 Y102.451
G0 X130.674 Y102.851
;segType:Loop
G1 X126.908 Y102.851 E3.33859 F1200
G1 X126.277 Y101.934 E3.37561
G1 X126.009 Y101.315 E3.39802
G1 X125.848 Y100.668 E3.42020
G1 X125.793 Y100.000 E3.44252
G1 X125.848 Y99.331 E3.46484
G1 X126.009 Y98.684 E3.48701
G1 X126.277 Y98.065 E3.50943
G1 X126.908 Y97.149 E3.54643
G1 X131.984 Y97.149 E3.71526
G1 X132.615 Y98.065 E3.75226
G1 X132.883 Y98.684 E3.77468
G1 X133.044 Y99.331 E3.79685
G1 X133.099 Y100.000 E3.81917
G1 X133.044 Y100.668 E3.84149
G1 X132.883 Y101.315 E3.86367
G1 X132.615 Y101.934 E3.88608
G1 X131.984 Y102.851 E3.92311
G1 X130.874 Y102.851 E3.96004
; ------------------------------------
; Layer #5
; ------------------------------------
G92 E0 ;reset extr
G0 F3000 E-1.00000
G0 F600 Z2.200
G0 X130.874 Y102.851 F7200
G0 X126.908 Y102.851
G0 X126.277 Y101.934
G0 X126.009 Y101.315
G0 X125.848 Y100.668
G0 X125.793 Y100.000
G0 X125.848 Y99.331
G0 X126.009 Y98.684
G0 X126.277 Y98.065
G0 X126.908 Y97.149
G0 X127.698 Y97.149
G0 X127.229 Y96.306
G0 X127.449 Y96.701
G0 F3000 E0.00000
;segType:Infill
G1 X131.487 Y96.701 E0.13432 F1500
G0 X130.670 Y96.789 F7200
G1 X130.964 Y96.280 E0.15388 F1500
G0 X130.080 Y96.789 F7200
G1 X129.633 Y96.016 E0.18358 F1500
G0 X128.748 Y96.118 F7200
G1 X128.361 Y96.789 E0.20936 F1500
G0 X127.598 Y96.491 F7200
G1 X127.770 Y96.789 E0.22079 F1500
G0 X127.425 Y97.149 F7200
G0 X128.769 Y95.746
G0 X128.769 Y95.746
;segType:Loop
G1 X129.448 Y95.612 E0.24382 F1200
G1 X131.127 Y95.945 E0.30077
G1 X132.551 Y96.896 E0.35771
G1 X133.502 Y98.320 E0.41466
G1 X133.835 Y100.000 E0.47161
G1 X133.502 Y101.679 E0.52857
G1 X132.551 Y103.103 E0.58551
G1 X131.127 Y104.054 E0.64246
G1 X129.448 Y104.388 E0.69942
G1 X127.768 Y104.054 E0.75638
G1 X126.344 Y103.103 E0.81333
G1 X125.393 Y101.679 E0.87027
G1 X125.059 Y100.000 E0.92723
G1 X125.393 Y98.320 E0.98419
G1 X126.345 Y96.896 E1.04114
G1 X127.768 Y95.945 E1.09808
G1 X128.572 Y95.785 E1.12536
G0 X128.572 Y95.785 F7200
G0 X127.645 Y96.027
G0 X127.143 Y96.158
;segType:Perimeter
G1 X127.671 Y95.557 E1.15197 F600
G1 X129.448 Y95.204 E1.21222
G1 X131.283 Y95.568 E1.27447
G1 X132.839 Y96.608 E1.33671
G1 X133.879 Y98.164 E1.39894
G1 X134.243 Y100.000 E1.46119
G1 X133.879 Y101.835 E1.52344
G1 X132.839 Y103.391 E1.58568
G1 X131.283 Y104.431 E1.64791
G1 X129.448 Y104.796 E1.71017
G1 X127.612 Y104.431 E1.77242
G1 X126.056 Y103.391 E1.83466
G1 X125.016 Y101.835 E1.89690
G1 X124.651 Y100.000 E1.95915
G1 X125.016 Y98.164 E2.02141
G1 X126.056 Y96.608 E2.08364
G1 X127.562 Y95.602 E2.14388
G0 X127.671 Y95.557 F7200
G0 X129.240 Y95.245
G0 F3000 E1.14388
G0 X129.448 Y95.612 F7200
G0 X129.093 Y95.682
G0 X128.600 Y97.149
G0 X126.908 Y97.149
G0 X126.277 Y98.065
G0 X126.009 Y98.684
G0 X125.848 Y99.331
G0 X125.793 Y100.000
G0 X125.848 Y100.668
G0 X126.009 Y101.315
G0 X126.277 Y101.934
G0 X126.756 Y102.631
G0 X126.551 Y103.241
G0 X126.644 Y102.964
G0 F3000 E2.14388
;segType:InnerHair
G1 X126.563 Y102.884 E2.14584 F1200
G1 X126.498 Y102.788 E2.14782
G1 X126.432 Y102.692 E2.14978
G1 X126.367 Y102.595 E2.15173
G1 X126.302 Y102.499 E2.15366
G1 X126.236 Y102.403 E2.15558
G1 X126.171 Y102.306 E2.15748
G1 X126.106 Y102.210 E2.15937
G1 X126.040 Y102.114 E2.16124
G1 X125.980 Y102.012 E2.16327
G1 X125.923 Y101.908 E2.16552
G1 X125.866 Y101.803 E2.16799
G1 X125.809 Y101.698 E2.17068
G1 X125.752 Y101.594 E2.17357
G1 X125.691 Y101.493 E2.17653
G1 X125.725 Y101.543 E2.17805
G1 X125.689 Y101.429 E2.18081
G1 X125.663 Y101.315 E2.18346
G1 X125.637 Y101.201 E2.18605
G1 X125.612 Y101.086 E2.18859
G1 X125.586 Y100.972 E2.19107
G1 X125.561 Y100.858 E2.19350
G1 X125.535 Y100.743 E2.19587
G1 X125.517 Y100.629 E2.19831
G1 X125.501 Y100.515 E2.20087
G1 X125.485 Y100.401 E2.20355
G1 X125.469 Y100.286 E2.20636
G1 X125.453 Y100.172 E2.20930
G1 X125.437 Y100.058 E2.21236
G1 X125.437 Y99.943 E2.21540
G1 X125.453 Y99.829 E2.21834
G1 X125.469 Y99.715 E2.22115
G1 X125.485 Y99.601 E2.22384
G1 X125.501 Y99.486 E2.22640
G1 X125.517 Y99.372 E2.22883
G1 X125.535 Y99.258 E2.23118
G1 X125.560 Y99.143 E2.23361
G1 X125.586 Y99.029 E2.23609
G1 X125.611 Y98.915 E2.23862
G1 X125.637 Y98.801 E2.24121
G1 X125.662 Y98.686 E2.24385
G1 X125.688 Y98.572 E2.24656
G1 X125.724 Y98.458 E2.24957
G1 X125.738 Y98.432 E2.25028
G1 X125.795 Y98.328 E2.25302
G1 X125.852 Y98.223 E2.25554
G1 X125.909 Y98.119 E2.25786
G1 X125.966 Y98.014 E2.25996
G1 X126.023 Y97.909 E2.26184
G1 X126.089 Y97.814 E2.26372
G1 X126.154 Y97.718 E2.26562
G1 X126.220 Y97.621 E2.26754
G1 X126.285 Y97.525 E2.26947
G1 X126.350 Y97.429 E2.27142
G1 X126.416 Y97.333 E2.27338
G1 X126.481 Y97.236 E2.27536
G1 X126.546 Y97.140 E2.27736
G1 X126.624 Y97.056 E2.27902
G0 X126.914 Y96.862 F7200
G0 X127.038 Y96.824
G0 X127.162 Y96.786
G0 X127.286 Y96.749
G0 X127.410 Y96.711
G1 X127.332 Y96.735 E2.28193 F1200
G1 X127.218 Y96.769 E2.28550
G1 X127.104 Y96.804 E2.28838
G1 X126.989 Y96.839 E2.29057
G0 X126.624 Y97.056 F7200
G0 X126.546 Y97.140
G0 X126.089 Y97.814
G0 X126.023 Y97.909
G0 X125.738 Y98.432
G0 X125.662 Y98.686
G0 X125.535 Y99.258
G0 X125.517 Y99.372
G0 X125.437 Y99.943
G0 X125.437 Y100.058
G0 X125.517 Y100.629
G0 X125.535 Y100.743
G0 X125.663 Y101.315
G0 X125.752 Y101.594
G0 X125.980 Y102.012
G0 X126.040 Y102.114
G0 X126.563 Y102.884
G0 X126.644 Y102.964
G1 X126.989 Y103.161 E2.29784 F1200
G1 X127.104 Y103.195 E2.30071
G1 X127.218 Y103.230 E2.30427
G1 X127.332 Y103.265 E2.30852
G0 X128.870 Y103.906 F7200
;segType:Infill
G1 X129.272 Y103.211 E2.33522 F1500
G0 X129.169 Y103.211 F7200
G1 X129.617 Y103.987 E2.36504 F1500
G0 X131.489 Y103.370 F7200
G1 X131.481 Y103.384 E2.36558 F1500
G0 X132.514 Y102.451 F7200
;segType:Perimeter
G1 X131.714 Y102.451 E2.39219 F600
G1 X127.118 Y102.451 E2.54505
G1 X126.628 Y101.739 E2.57378
G1 X126.389 Y101.187 E2.59380
G1 X126.244 Y100.603 E2.61380
G1 X126.194 Y100.000 E2.63395
G1 X126.244 Y99.396 E2.65410
G1 X126.389 Y98.812 E2.67410
G1 X126.628 Y98.260 E2.69411
G1 X127.118 Y97.549 E2.72282
G1 X131.774 Y97.549 E2.87767
G1 X132.264 Y98.260 E2.90638
G1 X132.503 Y98.812 E2.92640
G1 X132.648 Y99.396 E2.94640
G1 X132.698 Y100.000 E2.96655
G1 X132.648 Y100.603 E2.98670
G1 X132.503 Y101.187 E3.00670
G1 X132.264 Y101.739 E3.02671
G1 X131.808 Y102.401 E3.05346
G0 X131.714 Y102.451 F7200
G0 X130.114 Y102.451
G0 X130.674 Y102.851
;segType:Loop
G1 X126.908 Y102.851 E3.17872 F1200
G1 X126.277 Y101.934 E3.21575
G1 X126.009 Y101.315 E3.23816
G1 X125.848 Y100.668 E3.26034
G1 X125.793 Y100.000 E3.28265
G1 X125.848 Y99.331 E3.30497
G1 X126.009 Y98.684 E3.32715
G1 X126.277 Y98.065 E3.34957
G1 X126.908 Y97.149 E3.38657
G1 X131.984 Y97.149 E3.55540
G1 X132.615 Y98.065 E3.59239
G1 X132.883 Y98.684 E3.61481
G1 X133.044 Y99.331 E3.63699
G1 X133.099 Y100.000 E3.65931
G1 X133.044 Y100.668 E3.68163
G1 X132.883 Y101.315 E3.70380
G1 X132.615 Y101.934 E3.72622
G1 X131.984 Y102.851 E3.76324
G1 X130.874 Y102.851 E3.80017
G0 X131.904 Y103.161 F7200
;segType:InnerHair
G1 X131.789 Y103.196 E3.80306 F1200
G1 X131.675 Y103.231 E3.80663
G1 X131.561 Y103.265 E3.81089
G0 X131.545 Y103.270 F7200
G0 X131.669 Y103.233
G0 X131.793 Y103.195
G0 X131.917 Y103.157
G1 X132.310 Y102.904 E3.81857 F1200
G1 X132.380 Y102.812 E3.82055
G1 X132.445 Y102.716 E3.82254
G1 X132.510 Y102.619 E3.82452
G1 X132.576 Y102.523 E3.82648
G1 X132.641 Y102.427 E3.82843
G1 X132.706 Y102.330 E3.83035
G1 X132.772 Y102.234 E3.83227
G1 X132.837 Y102.138 E3.83417
G1 X132.899 Y102.038 E3.83615
G1 X132.956 Y101.934 E3.83838
G1 X133.013 Y101.829 E3.84083
G1 X133.070 Y101.724 E3.84348
G1 X133.127 Y101.620 E3.84635
G1 X133.184 Y101.515 E3.84943
G1 X133.169 Y101.543 E3.85024
G1 X133.205 Y101.429 E3.85304
G1 X133.231 Y101.315 E3.85571
G1 X133.256 Y101.201 E3.85832
G1 X133.282 Y101.086 E3.86088
G1 X133.307 Y100.972 E3.86339
G1 X133.333 Y100.858 E3.86584
G1 X133.358 Y100.743 E3.86824
G1 X133.376 Y100.629 E3.87070
G1 X133.392 Y100.515 E3.87328
G1 X133.408 Y100.401 E3.87599
G1 X133.424 Y100.286 E3.87882
G1 X133.440 Y100.172 E3.88177
G1 X133.456 Y100.058 E3.88486
G1 X133.456 Y99.943 E3.88791
G1 X133.440 Y99.829 E3.89087
G1 X133.424 Y99.715 E3.89371
G1 X133.408 Y99.601 E3.89641
G1 X133.392 Y99.486 E3.89900
G1 X133.376 Y99.372 E3.90145
G1 X133.359 Y99.258 E3.90382
G1 X133.333 Y99.143 E3.90627
G1 X133.308 Y99.029 E3.90878
G1 X133.282 Y98.915 E3.91134
G1 X133.257 Y98.801 E3.91395
G1 X133.231 Y98.686 E3.91662
G0 X133.205 Y98.572 F7200
G0 X133.170 Y98.458
G1 X133.203 Y98.507 E3.91813 F1200
G1 X133.142 Y98.406 E3.92101
G1 X133.085 Y98.302 E3.92372
G1 X133.028 Y98.197 E3.92622
G1 X132.971 Y98.093 E3.92851
G1 X132.914 Y97.988 E3.93058
G1 X132.854 Y97.886 E3.93250
G1 X132.789 Y97.790 E3.93441
G1 X132.723 Y97.694 E3.93634
G1 X132.658 Y97.597 E3.93828
G1 X132.592 Y97.501 E3.94024
G1 X132.527 Y97.405 E3.94221
G1 X132.462 Y97.309 E3.94421
G1 X132.396 Y97.212 E3.94621
G1 X132.331 Y97.116 E3.94824
G1 X132.250 Y97.036 E3.94981
G0 X131.949 Y96.852 F7200
G0 X131.825 Y96.814
G0 X131.701 Y96.777
G0 X131.577 Y96.739
G1 X131.561 Y96.734 E3.95041 F1200
G1 X131.675 Y96.769 E3.95399
G1 X131.789 Y96.803 E3.95689
G1 X131.904 Y96.838 E3.95909
; ------------------------------------
; Layer #6
; ------------------------------------
G92 E0 ;reset extr
G0 F3000 E-1.00000
G0 F600 Z2.400
G0 X131.904 Y96.464 F7200
G0 X131.904 Y97.149
G0 X131.984 Y97.149
G0 X132.615 Y98.065
G0 X132.883 Y98.684
G0 X133.044 Y99.331
G0 X133.099 Y100.000
G0 X133.044 Y100.668
G0 X132.883 Y101.315
G0 X132.615 Y101.934
G0 X131.984 Y102.851
G0 X131.904 Y102.851
G0 X131.904 Y103.535
G0 X131.904 Y103.161
G0 F3000 E0.00000
;segType:InnerHair
G1 X131.789 Y103.196 E0.00289 F1200
G1 X131.675 Y103.231 E0.00646
G1 X131.561 Y103.265 E0.01072
G0 X131.545 Y103.270 F7200
G0 X131.669 Y103.233
G0 X131.793 Y103.195
G0 X131.917 Y103.157
G1 X132.310 Y102.904 E0.01839 F1200
G1 X132.380 Y102.812 E0.02038
G1 X132.445 Y102.716 E0.02237
G1 X132.510 Y102.619 E0.02435
G1 X132.576 Y102.523 E0.02631
G1 X132.641 Y102.427 E0.02825
G1 X132.706 Y102.330 E0.03018
G1 X132.772 Y102.234 E0.03210
G1 X132.837 Y102.138 E0.03400
G1 X132.899 Y102.038 E0.03598
G1 X132.956 Y101.934 E0.03821
G1 X133.013 Y101.829 E0.04066
G1 X133.070 Y101.724 E0.04331
G1 X133.127 Y101.620 E0.04618
G1 X133.184 Y101.515 E0.04926
G1 X133.169 Y101.543 E0.05007
G1 X133.205 Y101.429 E0.05286
G1 X133.231 Y101.315 E0.05553
G1 X133.256 Y101.201 E0.05815
G1 X133.282 Y101.086 E0.06071
G1 X133.307 Y100.972 E0.06322
G1 X133.333 Y100.858 E0.06567
G1 X133.358 Y100.743 E0.06807
G1 X133.376 Y100.629 E0.07053
G1 X133.392 Y100.515 E0.07311
G1 X133.408 Y100.401 E0.07581
G1 X133.424 Y100.286 E0.07865
G1 X133.440 Y100.172 E0.08160
G1 X133.456 Y100.058 E0.08469
G1 X133.456 Y99.943 E0.08774
G1 X133.440 Y99.829 E0.09070
G1 X133.424 Y99.715 E0.09353
G1 X133.408 Y99.601 E0.09624
G1 X133.392 Y99.486 E0.09882
G1 X133.376 Y99.372 E0.10128
G1 X133.359 Y99.258 E0.10365
G1 X133.333 Y99.143 E0.10610
G1 X133.308 Y99.029 E0.10861
G1 X133.282 Y98.915 E0.11117
G1 X133.257 Y98.801 E0.11378
G1 X133.231 Y98.686 E0.11645
G0 X133.205 Y98.572 F7200
G0 X133.170 Y98.458
G1 X133.203 Y98.507 E0.11796 F1200
G1 X133.142 Y98.406 E0.12084
G1 X133.085 Y98.302 E0.12355
G1 X133.028 Y98.197 E0.12605
G1 X132.971 Y98.093 E0.12833
G1 X132.914 Y97.988 E0.13041
G1 X132.854 Y97.886 E0.13233
G1 X132.789 Y97.790 E0.13424
G1 X132.723 Y97.694 E0.13617
G1 X132.658 Y97.597 E0.13811
G1 X132.592 Y97.501 E0.14007
G1 X132.527 Y97.405 E0.14204
G1 X132.462 Y97.309 E0.14403
G1 X132.396 Y97.212 E0.14604
G1 X132.331 Y97.116 E0.14806
G1 X132.250 Y97.036 E0.14964
G0 X131.949 Y96.852 F7200
G0 X131.825 Y96.814
G0 X131.701 Y96.777
G0 X131.577 Y96.739
G1 X131.561 Y96.734 E0.15024 F1200
G1 X131.675 Y96.769 E0.15382
G1 X131.789 Y96.803 E0.15671
G1 X131.904 Y96.838 E0.15892
G0 X130.891 Y96.265 F7200
;segType:Infill
G1 X130.589 Y96.789 E0.17903 F1500
G0 X130.160 Y96.789 F7200
G1 X129.724 Y96.034 E0.20803 F1500
G0 X128.657 Y96.136 F7200
G1 X128.280 Y96.789 E0.23312 F1500
G0 X127.657 Y96.452 F7200
G1 X127.851 Y96.789 E0.24605 F1500
G0 F3000 E-0.75395
G0 X127.143 Y96.158 F7200
G0 F3000 E0.24605
;segType:Perimeter
G1 X127.671 Y95.557 E0.27266 F600
G1 X129.448 Y95.204 E0.33291
G1 X131.283 Y95.568 E0.39516
G1 X132.839 Y96.608 E0.45740
G1 X133.879 Y98.164 E0.51963
G1 X134.243 Y100.000 E0.58188
G1 X133.879 Y101.835 E0.64413
G1 X132.839 Y103.391 E0.70637
G1 X131.283 Y104.431 E0.76860
G1 X129.448 Y104.796 E0.83086
G1 X127.612 Y104.431 E0.89311
G1 X126.056 Y103.391 E0.95535
G1 X125.016 Y101.835 E1.01758
G1 X124.651 Y100.000 E1.07984
G1 X125.016 Y98.164 E1.14210
G1 X126.056 Y96.608 E1.20433
G1 X127.562 Y95.602 E1.26457
G0 X127.671 Y95.557 F7200
G0 X129.240 Y95.245
G0 X129.448 Y95.612
G0 X128.769 Y95.746
;segType:Loop
G1 X129.448 Y95.612 E1.28759 F1200
G1 X131.127 Y95.945 E1.34455
G1 X132.551 Y96.896 E1.40149
G1 X133.502 Y98.320 E1.45843
G1 X133.835 Y100.000 E1.51539
G1 X133.502 Y101.679 E1.57235
G1 X132.551 Y103.103 E1.62929
G1 X131.127 Y104.054 E1.68624
G1 X129.448 Y104.388 E1.74320
G1 X127.768 Y104.054 E1.80016
G1 X126.344 Y103.103 E1.85710
G1 X125.393 Y101.679 E1.91405
G1 X125.059 Y100.000 E1.97101
G1 X125.393 Y98.320 E2.02797
G1 X126.345 Y96.896 E2.08491
G1 X127.768 Y95.945 E2.14185
G1 X128.572 Y95.785 E2.16914
G0 F3000 E1.16914
G0 X128.206 Y97.149 F7200
G0 X126.908 Y97.149
G0 X126.277 Y98.065
G0 X126.009 Y98.684
G0 X125.848 Y99.331
G0 X125.793 Y100.000
G0 X125.848 Y100.668
G0 X126.009 Y101.315
G0 X126.277 Y101.934
G0 X126.740 Y102.607
G0 X126.567 Y103.251
G0 X126.644 Y102.964
G0 F3000 E2.16914
;segType:InnerHair
G1 X126.563 Y102.884 E2.17110 F1200
G1 X126.498 Y102.788 E2.17307
G1 X126.432 Y102.692 E2.17504
G1 X126.367 Y102.595 E2.17699
G1 X126.302 Y102.499 E2.17892
G1 X126.236 Y102.403 E2.18084
G1 X126.171 Y102.306 E2.18274
G1 X126.106 Y102.210 E2.18463
G1 X126.040 Y102.114 E2.18650
G1 X125.980 Y102.012 E2.18852
G1 X125.923 Y101.908 E2.19078
G1 X125.866 Y101.803 E2.19325
G1 X125.809 Y101.698 E2.19593
G1 X125.752 Y101.594 E2.19883
G1 X125.691 Y101.493 E2.20179
G1 X125.725 Y101.543 E2.20331
G1 X125.689 Y101.429 E2.20607
G1 X125.663 Y101.315 E2.20872
G1 X125.637 Y101.201 E2.21131
G1 X125.612 Y101.086 E2.21384
G1 X125.586 Y100.972 E2.21632
G1 X125.561 Y100.858 E2.21875
G1 X125.535 Y100.743 E2.22113
G1 X125.517 Y100.629 E2.22357
G1 X125.501 Y100.515 E2.22613
G1 X125.485 Y100.401 E2.22881
G1 X125.469 Y100.286 E2.23162
G1 X125.453 Y100.172 E2.23456
G1 X125.437 Y100.058 E2.23762
G1 X125.437 Y99.943 E2.24066
G1 X125.453 Y99.829 E2.24360
G1 X125.469 Y99.715 E2.24641
G1 X125.485 Y99.601 E2.24910
G1 X125.501 Y99.486 E2.25166
G1 X125.517 Y99.372 E2.25409
G1 X125.535 Y99.258 E2.25644
G1 X125.560 Y99.143 E2.25886
G1 X125.586 Y99.029 E2.26135
G1 X125.611 Y98.915 E2.26388
G1 X125.637 Y98.801 E2.26647
G1 X125.662 Y98.686 E2.26911
G1 X125.688 Y98.572 E2.27181
G1 X125.724 Y98.458 E2.27483
G1 X125.738 Y98.432 E2.27554
G1 X125.795 Y98.328 E2.27828
G1 X125.852 Y98.223 E2.28080
G1 X125.909 Y98.119 E2.28311
G1 X125.966 Y98.014 E2.28521
G1 X126.023 Y97.909 E2.28710
G1 X126.089 Y97.814 E2.28898
G1 X126.154 Y97.718 E2.29088
G1 X126.220 Y97.621 E2.29279
G1 X126.285 Y97.525 E2.29473
G1 X126.350 Y97.429 E2.29667
G1 X126.416 Y97.333 E2.29864
G1 X126.481 Y97.236 E2.30062
G1 X126.546 Y97.140 E2.30261
G1 X126.624 Y97.056 E2.30427
G0 X126.914 Y96.862 F7200
G0 X127.038 Y96.824
G0 X127.162 Y96.786
G0 X127.286 Y96.749
G0 X127.410 Y96.711
G1 X127.332 Y96.735 E2.30718 F1200
G1 X127.218 Y96.769 E2.31075
G1 X127.104 Y96.804 E2.31364
G1 X126.989 Y96.839 E2.31583
G0 X126.624 Y97.056 F7200
G0 X126.546 Y97.140
G0 X126.089 Y97.814
G0 X126.023 Y97.909
G0 X125.738 Y98.432
G0 X125.662 Y98.686
G0 X125.535 Y99.258
G0 X125.517 Y99.372
G0 X125.437 Y99.943
G0 X125.437 Y100.058
G0 X125.517 Y100.629
G0 X125.535 Y100.743
G0 X125.663 Y101.315
G0 X125.752 Y101.594
G0 X125.980 Y102.012
G0 X126.040 Y102.114
G0 X126.563 Y102.884
G0 X126.644 Y102.964
G1 X126.989 Y103.161 E2.32309 F1200
G1 X127.104 Y103.195 E2.32597
G1 X127.218 Y103.230 E2.32953
G1 X127.332 Y103.265 E2.33378
G0 X128.798 Y103.892 F7200
;segType:Infill
G1 X129.191 Y103.211 E2.35992 F1500
G0 X129.249 Y103.211 F7200
G1 X129.689 Y103.973 E2.38919 F1500
G0 X131.463 Y103.275 F7200
G1 X131.349 Y103.472 E2.39679 F1500
G0 X132.514 Y102.451 F7200
;segType:Perimeter
G1 X131.714 Y102.451 E2.42339 F600
G1 X127.118 Y102.451 E2.57626
G1 X126.628 Y101.739 E2.60499
G1 X126.389 Y101.187 E2.62501
G1 X126.244 Y100.603 E2.64501
G1 X126.194 Y100.000 E2.66516
G1 X126.244 Y99.396 E2.68530
G1 X126.389 Y98.812 E2.70530
G1 X126.628 Y98.260 E2.72532
G1 X127.118 Y97.549 E2.75403
G1 X131.774 Y97.549 E2.90888
G1 X132.264 Y98.260 E2.93759
G1 X132.503 Y98.812 E2.95761
G1 X132.648 Y99.396 E2.97761
G1 X132.698 Y100.000 E2.99776
G1 X132.648 Y100.603 E3.01791
G1 X132.503 Y101.187 E3.03791
G1 X132.264 Y101.739 E3.05792
G1 X131.808 Y102.401 E3.08466
G0 X131.714 Y102.451 F7200
G0 X130.114 Y102.451
G0 X130.674 Y102.851
;segType:Loop
G1 X126.908 Y102.851 E3.20993 F1200
G1 X126.277 Y101.934 E3.24695
G1 X126.009 Y101.315 E3.26937
G1 X125.848 Y100.668 E3.29154
G1 X125.793 Y100.000 E3.31386
G1 X125.848 Y99.331 E3.33618
G1 X126.009 Y98.684 E3.35836
G1 X126.277 Y98.065 E3.38078
G1 X126.908 Y97.149 E3.41778
G1 X131.984 Y97.149 E3.58660
G1 X132.615 Y98.065 E3.62360
G1 X132.883 Y98.684 E3.64602
G1 X133.044 Y99.331 E3.66820
G1 X133.099 Y100.000 E3.69052
G1 X133.044 Y100.668 E3.71283
G1 X132.883 Y101.315 E3.73501
G1 X132.615 Y101.934 E3.75742
G1 X131.984 Y102.851 E3.79445
G1 X130.874 Y102.851 E3.83138
; ------------------------------------
; Layer #7
; ------------------------------------
G92 E0 ;reset extr
G0 F3000 E-1.00000
G0 F600 Z2.600
G0 X131.904 Y103.161 F7200
G0 F3000 E0.00000
;segType:InnerHair
G1 X131.789 Y103.196 E0.00289 F1200
G1 X131.675 Y103.231 E0.00646
G1 X131.561 Y103.265 E0.01072
G0 X131.545 Y103.270 F7200
G0 X131.669 Y103.233
G0 X131.793 Y103.195
G0 X131.917 Y103.157
G1 X132.310 Y102.904 E0.01839 F1200
G1 X132.380 Y102.812 E0.02038
G1 X132.445 Y102.716 E0.02237
G1 X132.510 Y102.619 E0.02435
G1 X132.576 Y102.523 E0.02631
G1 X132.641 Y102.427 E0.02825
G1 X132.706 Y102.330 E0.03018
G1 X132.772 Y102.234 E0.03210
G1 X132.837 Y102.138 E0.03400
G1 X132.899 Y102.038 E0.03598
G1 X132.956 Y101.934 E0.03821
G1 X133.013 Y101.829 E0.04066
G1 X133.070 Y101.724 E0.04331
G1 X133.127 Y101.620 E0.04618
G1 X133.184 Y101.515 E0.04926
G1 X133.169 Y101.543 E0.05007
G1 X133.205 Y101.429 E0.05286
G1 X133.231 Y101.315 E0.05553
G1 X133.256 Y101.201 E0.05815
G1 X133.282 Y101.086 E0.06071
G1 X133.307 Y100.972 E0.06322
G1 X133.333 Y100.858 E0.06567
G1 X133.358 Y100.743 E0.06807
G1 X133.376 Y100.629 E0.07053
G1 X133.392 Y100.515 E0.07311
G1 X133.408 Y100.401 E0.07581
G1 X133.424 Y100.286 E0.07865
G1 X133.440 Y100.172 E0.08160
G1 X133.456 Y100.058 E0.08469
G1 X133.456 Y99.943 E0.08774
G1 X133.440 Y99.829 E0.09070
G1 X133.424 Y99.715 E0.09353
G1 X133.408 Y99.601 E0.09624
G1 X133.392 Y99.486 E0.09882
G1 X133.376 Y99.372 E0.10128
G1 X133.359 Y99.258 E0.10365
G1 X133.333 Y99.143 E0.10610
G1 X133.308 Y99.029 E0.10861
G1 X133.282 Y98.915 E0.11117
G1 X133.257 Y98.801 E0.11378
G1 X133.231 Y98.686 E0.11645
G0 X133.205 Y98.572 F7200
G0 X133.170 Y98.458
G1 X133.203 Y98.507 E0.11796 F1200
G1 X133.142 Y98.406 E0.12084
G1 X133.085 Y98.302 E0.12355
G1 X133.028 Y98.197 E0.12605
G1 X132.971 Y98.093 E0.12833
G1 X132.914 Y97.988 E0.13041
G1 X132.854 Y97.886 E0.13233
G1 X132.789 Y97.790 E0.13424
G1 X132.723 Y97.694 E0.13617
G1 X132.658 Y97.597 E0.13811
G1 X132.592 Y97.501 E0.14007
G1 X132.527 Y97.405 E0.14204
G1 X132.462 Y97.309 E0.14403
G1 X132.396 Y97.212 E0.14604
G1 X132.331 Y97.116 E0.14806
G1 X132.250 Y97.036 E0.14964
G0 X131.949 Y96.852 F7200
G0 X131.825 Y96.814
G0 X131.701 Y96.777
G0 X131.577 Y96.739
G1 X131.561 Y96.734 E0.15024 F1200
G1 X131.675 Y96.769 E0.15382
G1 X131.789 Y96.803 E0.15671
G1 X131.904 Y96.838 E0.15892
G0 X130.819 Y96.251 F7200
;segType:Infill
G1 X130.508 Y96.789 E0.17958 F1500
G0 X130.241 Y96.789 F7200
G1 X129.816 Y96.052 E0.20789 F1500
G0 X128.566 Y96.154 F7200
G1 X128.199 Y96.789 E0.23228 F1500
G0 X127.715 Y96.414 F7200
G1 X127.932 Y96.789 E0.24671 F1500
G0 F3000 E-0.75329
G0 X127.143 Y96.158 F7200
G0 F3000 E0.24671
;segType:Perimeter
G1 X127.671 Y95.557 E0.27331 F600
G1 X129.448 Y95.204 E0.33357
G1 X131.283 Y95.568 E0.39582
G1 X132.839 Y96.608 E0.45805
G1 X133.879 Y98.164 E0.52029
G1 X134.243 Y100.000 E0.58254
G1 X133.879 Y101.835 E0.64479
G1 X132.839 Y103.391 E0.70702
G1 X131.283 Y104.431 E0.76926
G1 X129.448 Y104.796 E0.83152
G1 X127.612 Y104.431 E0.89377
G1 X126.056 Y103.391 E0.95601
G1 X125.016 Y101.835 E1.01824
G1 X124.651 Y100.000 E1.08050
G1 X125.016 Y98.164 E1.14275
G1 X126.056 Y96.608 E1.20499
G1 X127.562 Y95.602 E1.26523
G0 X127.671 Y95.557 F7200
G0 X129.240 Y95.245
G0 X129.448 Y95.612
G0 X128.769 Y95.746
;segType:Loop
G1 X129.448 Y95.612 E1.28825 F1200
G1 X131.127 Y95.945 E1.34521
G1 X132.551 Y96.896 E1.40215
G1 X133.502 Y98.320 E1.45909
G1 X133.835 Y100.000 E1.51605
G1 X133.502 Y101.679 E1.57301
G1 X132.551 Y103.103 E1.62995
G1 X131.127 Y104.054 E1.68689
G1 X129.448 Y104.388 E1.74385
G1 X127.768 Y104.054 E1.80082
G1 X126.344 Y103.103 E1.85776
G1 X125.393 Y101.679 E1.91471
G1 X125.059 Y100.000 E1.97167
G1 X125.393 Y98.320 E2.02863
G1 X126.345 Y96.896 E2.08557
G1 X127.768 Y95.945 E2.14251
G1 X128.572 Y95.785 E2.16980
G0 F3000 E1.16980
G0 X128.206 Y97.149 F7200
G0 X126.908 Y97.149
G0 X126.277 Y98.065
G0 X126.009 Y98.684
G0 X125.848 Y99.331
G0 X125.793 Y100.000
G0 X125.848 Y100.668
G0 X126.009 Y101.315
G0 X126.277 Y101.934
G0 X126.740 Y102.607
G0 X126.567 Y103.251
G0 X126.644 Y102.964
G0 F3000 E2.16980
;segType:InnerHair
G1 X126.563 Y102.884 E2.17175 F1200
G1 X126.498 Y102.788 E2.17373
G1 X126.432 Y102.692 E2.17569
G1 X126.367 Y102.595 E2.17764
G1 X126.302 Y102.499 E2.17958
G1 X126.236 Y102.403 E2.18149
G1 X126.171 Y102.306 E2.18340
G1 X126.106 Y102.210 E2.18528
G1 X126.040 Y102.114 E2.18715
G1 X125.980 Y102.012 E2.18918
G1 X125.923 Y101.908 E2.19144
G1 X125.866 Y101.803 E2.19391
G1 X125.809 Y101.698 E2.19659
G1 X125.752 Y101.594 E2.19949
G1 X125.691 Y101.493 E2.20244
G1 X125.725 Y101.543 E2.20396
G1 X125.689 Y101.429 E2.20673
G1 X125.663 Y101.315 E2.20937
G1 X125.637 Y101.201 E2.21196
G1 X125.612 Y101.086 E2.21450
G1 X125.586 Y100.972 E2.21698
G1 X125.561 Y100.858 E2.21941
G1 X125.535 Y100.743 E2.22179
G1 X125.517 Y100.629 E2.22422
G1 X125.501 Y100.515 E2.22678
G1 X125.485 Y100.401 E2.22947
G1 X125.469 Y100.286 E2.23228
G1 X125.453 Y100.172 E2.23521
G1 X125.437 Y100.058 E2.23828
G1 X125.437 Y99.943 E2.24131
G1 X125.453 Y99.829 E2.24425
G1 X125.469 Y99.715 E2.24707
G1 X125.485 Y99.601 E2.24975
G1 X125.501 Y99.486 E2.25231
G1 X125.517 Y99.372 E2.25475
G1 X125.535 Y99.258 E2.25709
G1 X125.560 Y99.143 E2.25952
G1 X125.586 Y99.029 E2.26200
G1 X125.611 Y98.915 E2.26454
G1 X125.637 Y98.801 E2.26713
G1 X125.662 Y98.686 E2.26977
G1 X125.688 Y98.572 E2.27247
G1 X125.724 Y98.458 E2.27548
G1 X125.738 Y98.432 E2.27619
G1 X125.795 Y98.328 E2.27893
G1 X125.852 Y98.223 E2.28146
G1 X125.909 Y98.119 E2.28377
G1 X125.966 Y98.014 E2.28587
G1 X126.023 Y97.909 E2.28776
G1 X126.089 Y97.814 E2.28964
G1 X126.154 Y97.718 E2.29154
G1 X126.220 Y97.621 E2.29345
G1 X126.285 Y97.525 E2.29538
G1 X126.350 Y97.429 E2.29733
G1 X126.416 Y97.333 E2.29929
G1 X126.481 Y97.236 E2.30127
G1 X126.546 Y97.140 E2.30327
G1 X126.624 Y97.056 E2.30493
G0 X126.914 Y96.862 F7200
G0 X127.038 Y96.824
G0 X127.162 Y96.786
G0 X127.286 Y96.749
G0 X127.410 Y96.711
G1 X127.332 Y96.735 E2.30784 F1200
G1 X127.218 Y96.769 E2.31141
G1 X127.104 Y96.804 E2.31429
G1 X126.989 Y96.839 E2.31649
G0 X126.624 Y97.056 F7200
G0 X126.546 Y97.140
G0 X126.089 Y97.814
G0 X126.023 Y97.909
G0 X125.738 Y98.432
G0 X125.662 Y98.686
G0 X125.535 Y99.258
G0 X125.517 Y99.372
G0 X125.437 Y99.943
G0 X125.437 Y100.058
G0 X125.517 Y100.629
G0 X125.535 Y100.743
G0 X125.663 Y101.315
G0 X125.752 Y101.594
G0 X125.980 Y102.012
G0 X126.040 Y102.114
G0 X126.563 Y102.884
G0 X126.644 Y102.964
G1 X126.989 Y103.161 E2.32375 F1200
G1 X127.104 Y103.195 E2.32662
G1 X127.218 Y103.230 E2.33018
G1 X127.332 Y103.265 E2.33444
G0 X128.725 Y103.877 F7200
;segType:Infill
G1 X129.110 Y103.211 E2.36003 F1500
G0 X129.330 Y103.211 F7200
G1 X129.762 Y103.959 E2.38874 F1500
G0 X131.419 Y103.211 F7200
G1 X131.218 Y103.560 E2.40216 F1500
G0 X132.514 Y102.451 F7200
;segType:Perimeter
G1 X131.714 Y102.451 E2.42877 F600
G1 X127.118 Y102.451 E2.58163
G1 X126.628 Y101.739 E2.61036
G1 X126.389 Y101.187 E2.63038
G1 X126.244 Y100.603 E2.65038
G1 X126.194 Y100.000 E2.67053
G1 X126.244 Y99.396 E2.69068
G1 X126.389 Y98.812 E2.71068
G1 X126.628 Y98.260 E2.73069
G1 X127.118 Y97.549 E2.75940
G1 X131.774 Y97.549 E2.91425
G1 X132.264 Y98.260 E2.94296
G1 X132.503 Y98.812 E2.96298
G1 X132.648 Y99.396 E2.98298
G1 X132.698 Y100.000 E3.00313
G1 X132.648 Y100.603 E3.02328
G1 X132.503 Y101.187 E3.04328
G1 X132.264 Y101.739 E3.06329
G1 X131.808 Y102.401 E3.09004
G0 X131.714 Y102.451 F7200
G0 X130.114 Y102.451
G0 X130.674 Y102.851
;segType:Loop
G1 X126.908 Y102.851 E3.21530 F1200
G1 X126.277 Y101.934 E3.25233
G1 X126.009 Y101.315 E3.27474
G1 X125.848 Y100.668 E3.29692
G1 X125.793 Y100.000 E3.31923
G1 X125.848 Y99.331 E3.34155
G1 X126.009 Y98.684 E3.36373
G1 X126.277 Y98.065 E3.38615
G1 X126.908 Y97.149 E3.42315
G1 X131.984 Y97.149 E3.59198
G1 X132.615 Y98.065 E3.62897
G1 X132.883 Y98.684 E3.65139
G1 X133.044 Y99.331 E3.67357
G1 X133.099 Y100.000 E3.69589
G1 X133.044 Y100.668 E3.71821
G1 X132.883 Y101.315 E3.74038
G1 X132.615 Y101.934 E3.76280
G1 X131.984 Y102.851 E3.79982
G1 X130.874 Y102.851 E3.83675
; ------------------------------------
; Layer #8
; ------------------------------------
G92 E0 ;reset extr
G0 F3000 E-1.00000
G0 F600 Z2.800
G0 X131.904 Y103.161 F7200
G0 F3000 E0.00000
;segType:InnerHair
G1 X131.789 Y103.196 E0.00289 F1200
G1 X131.675 Y103.231 E0.00646
G1 X131.561 Y103.265 E0.01072
G0 X131.545 Y103.270 F7200
G0 X131.669 Y103.233
G0 X131.793 Y103.195
G0 X131.917 Y103.157
G1 X132.310 Y102.904 E0.01839 F1200
G1 X132.380 Y102.812 E0.02038
G1 X132.445 Y102.716 E0.02237
G1 X132.510 Y102.619 E0.02435
G1 X132.576 Y102.523 E0.02631
G1 X132.641 Y102.427 E0.02825
G1 X132.706 Y102.330 E0.03018
G1 X132.772 Y102.234 E0.03210
G1 X132.837 Y102.138 E0.03400
G1 X132.899 Y102.038 E0.03598
G1 X132.956 Y101.934 E0.03821
G1 X133.013 Y101.829 E0.04066
G1 X133.070 Y101.724 E0.04331
G1 X133.127 Y101.620 E0.04618
G1 X133.184 Y101.515 E0.04926
G1 X133.169 Y101.543 E0.05007
G1 X133.205 Y101.429 E0.05286
G1 X133.231 Y101.315 E0.05553
G1 X133.256 Y101.201 E0.05815
G1 X133.282 Y101.086 E0.06071
G1 X133.307 Y100.972 E0.06322
G1 X133.333 Y100.858 E0.06567
G1 X133.358 Y100.743 E0.06807
G1 X133.376 Y100.629 E0.07053
G1 X133.392 Y100.515 E0.07311
G1 X133.408 Y100.401 E0.07581
G1 X133.424 Y100.286 E0.07865
G1 X133.440 Y100.172 E0.08160
G1 X133.456 Y100.058 E0.08469
G1 X133.456 Y99.943 E0.08774
G1 X133.440 Y99.829 E0.09070
G1 X133.424 Y99.715 E0.09353
G1 X133.408 Y99.601 E0.09624
G1 X133.392 Y99.486 E0.09882
G1 X133.376 Y99.372 E0.10128
G1 X133.359 Y99.258 E0.10365
G1 X133.333 Y99.143 E0.10610
G1 X133.308 Y99.029 E0.10861
G1 X133.282 Y98.915 E0.11117
G1 X133.257 Y98.801 E0.11378
G1 X133.231 Y98.686 E0.11645
G0 X133.205 Y98.572 F7200
G0 X133.170 Y98.458
G1 X133.203 Y98.507 E0.11796 F1200
G1 X133.142 Y98.406 E0.12084
G1 X133.085 Y98.302 E0.12355
G1 X133.028 Y98.197 E0.12605
G1 X132.971 Y98.093 E0.12833
G1 X132.914 Y97.988 E0.13041
G1 X132.854 Y97.886 E0.13233
G1 X132.789 Y97.790 E0.13424
G1 X132.723 Y97.694 E0.13617
G1 X132.658 Y97.597 E0.13811
G1 X132.592 Y97.501 E0.14007
G1 X132.527 Y97.405 E0.14204
G1 X132.462 Y97.309 E0.14403
G1 X132.396 Y97.212 E0.14604
G1 X132.331 Y97.116 E0.14806
G1 X132.250 Y97.036 E0.14964
G0 X131.949 Y96.852 F7200
G0 X131.825 Y96.814
G0 X131.701 Y96.777
G0 X131.577 Y96.739
G1 X131.561 Y96.734 E0.15024 F1200
G1 X131.675 Y96.769 E0.15382
G1 X131.789 Y96.803 E0.15671
G1 X131.904 Y96.838 E0.15892
G0 X130.746 Y96.237 F7200
;segType:Infill
G1 X130.427 Y96.789 E0.18014 F1500
G0 X130.322 Y96.789 F7200
G1 X129.907 Y96.070 E0.20775 F1500
G0 X128.474 Y96.172 F7200
G1 X128.118 Y96.789 E0.23144 F1500
G0 F3000 E-0.76856
G0 X127.773 Y96.375 F7200
G0 F3000 E0.23144
G1 X128.013 Y96.789 E0.24736 F1500
G0 F3000 E-0.75264
G0 X127.143 Y96.158 F7200
G0 F3000 E0.24736
;segType:Perimeter
G1 X127.671 Y95.557 E0.27397 F600
G1 X129.448 Y95.204 E0.33423
G1 X131.283 Y95.568 E0.39648
G1 X132.839 Y96.608 E0.45871
G1 X133.879 Y98.164 E0.52095
G1 X134.243 Y100.000 E0.58320
G1 X133.879 Y101.835 E0.64545
G1 X132.839 Y103.391 E0.70768
G1 X131.283 Y104.431 E0.76992
G1 X129.448 Y104.796 E0.83217
G1 X127.612 Y104.431 E0.89443
G1 X126.056 Y103.391 E0.95667
G1 X125.016 Y101.835 E1.01890
G1 X124.651 Y100.000 E1.08116
G1 X125.016 Y98.164 E1.14341
G1 X126.056 Y96.608 E1.20565
G1 X127.562 Y95.602 E1.26589
G0 X127.671 Y95.557 F7200
G0 X129.240 Y95.245
G0 X129.448 Y95.612
G0 X128.769 Y95.746
;segType:Loop
G1 X129.448 Y95.612 E1.28891 F1200
G1 X131.127 Y95.945 E1.34587
G1 X132.551 Y96.896 E1.40281
G1 X133.502 Y98.320 E1.45975
G1 X133.835 Y100.000 E1.51671
G1 X133.502 Y101.679 E1.57367
G1 X132.551 Y103.103 E1.63061
G1 X131.127 Y104.054 E1.68755
G1 X129.448 Y104.388 E1.74451
G1 X127.768 Y104.054 E1.80147
G1 X126.344 Y103.103 E1.85842
G1 X125.393 Y101.679 E1.91536
G1 X125.059 Y100.000 E1.97232
G1 X125.393 Y98.320 E2.02929
G1 X126.345 Y96.896 E2.08623
G1 X127.768 Y95.945 E2.14317
G1 X128.572 Y95.785 E2.17045
G0 F3000 E1.17045
G0 X128.206 Y97.149 F7200
G0 X126.908 Y97.149
G0 X126.277 Y98.065
G0 X126.009 Y98.684
G0 X125.848 Y99.331
G0 X125.793 Y100.000
G0 X125.848 Y100.668
G0 X126.009 Y101.315
G0 X126.277 Y101.934
G0 X126.740 Y102.607
G0 X126.567 Y103.251
G0 X126.644 Y102.964
G0 F3000 E2.17045
;segType:InnerHair
G1 X126.563 Y102.884 E2.17241 F1200
G1 X126.498 Y102.788 E2.17439
G1 X126.432 Y102.692 E2.17635
G1 X126.367 Y102.595 E2.17830
G1 X126.302 Y102.499 E2.18023
G1 X126.236 Y102.403 E2.18215
G1 X126.171 Y102.306 E2.18405
G1 X126.106 Y102.210 E2.18594
G1 X126.040 Y102.114 E2.18781
G1 X125.980 Y102.012 E2.18984
G1 X125.923 Y101.908 E2.19210
G1 X125.866 Y101.803 E2.19457
G1 X125.809 Y101.698 E2.19725
G1 X125.752 Y101.594 E2.20014
G1 X125.691 Y101.493 E2.20310
G1 X125.725 Y101.543 E2.20462
G1 X125.689 Y101.429 E2.20739
G1 X125.663 Y101.315 E2.21003
G1 X125.637 Y101.201 E2.21262
G1 X125.612 Y101.086 E2.21516
G1 X125.586 Y100.972 E2.21764
G1 X125.561 Y100.858 E2.22007
G1 X125.535 Y100.743 E2.22245
G1 X125.517 Y100.629 E2.22488
G1 X125.501 Y100.515 E2.22744
G1 X125.485 Y100.401 E2.23013
G1 X125.469 Y100.286 E2.23294
G1 X125.453 Y100.172 E2.23587
G1 X125.437 Y100.058 E2.23894
G1 X125.437 Y99.943 E2.24197
G1 X125.453 Y99.829 E2.24491
G1 X125.469 Y99.715 E2.24773
G1 X125.485 Y99.601 E2.25041
G1 X125.501 Y99.486 E2.25297
G1 X125.517 Y99.372 E2.25541
G1 X125.535 Y99.258 E2.25775
G1 X125.560 Y99.143 E2.26018
G1 X125.586 Y99.029 E2.26266
G1 X125.611 Y98.915 E2.26520
G1 X125.637 Y98.801 E2.26779
G1 X125.662 Y98.686 E2.27043
G1 X125.688 Y98.572 E2.27313
G1 X125.724 Y98.458 E2.27614
G1 X125.738 Y98.432 E2.27685
G1 X125.795 Y98.328 E2.27959
G1 X125.852 Y98.223 E2.28212
G1 X125.909 Y98.119 E2.28443
G1 X125.966 Y98.014 E2.28653
G1 X126.023 Y97.909 E2.28842
G1 X126.089 Y97.814 E2.29030
G1 X126.154 Y97.718 E2.29220
G1 X126.220 Y97.621 E2.29411
G1 X126.285 Y97.525 E2.29604
G1 X126.350 Y97.429 E2.29799
G1 X126.416 Y97.333 E2.29995
G1 X126.481 Y97.236 E2.30193
G1 X126.546 Y97.140 E2.30393
G1 X126.624 Y97.056 E2.30559
G0 X126.914 Y96.862 F7200
G0 X127.038 Y96.824
G0 X127.162 Y96.786
G0 X127.286 Y96.749
G0 X127.410 Y96.711
G1 X127.332 Y96.735 E2.30850 F1200
G1 X127.218 Y96.769 E2.31207
G1 X127.104 Y96.804 E2.31495
G1 X126.989 Y96.839 E2.31715
G0 X126.624 Y97.056 F7200
G0 X126.546 Y97.140
G0 X126.089 Y97.814
G0 X126.023 Y97.909
G0 X125.738 Y98.432
G0 X125.662 Y98.686
G0 X125.535 Y99.258
G0 X125.517 Y99.372
G0 X125.437 Y99.943
G0 X125.437 Y100.058
G0 X125.517 Y100.629
G0 X125.535 Y100.743
G0 X125.663 Y101.315
G0 X125.752 Y101.594
G0 X125.980 Y102.012
G0 X126.040 Y102.114
G0 X126.563 Y102.884
G0 X126.644 Y102.964
G1 X126.989 Y103.161 E2.32441 F1200
G1 X127.104 Y103.195 E2.32728
G1 X127.218 Y103.230 E2.33084
G1 X127.332 Y103.265 E2.33509
G0 X128.653 Y103.863 F7200
;segType:Infill
G1 X129.029 Y103.211 E2.36013 F1500
G0 X129.411 Y103.211 F7200
G1 X129.834 Y103.944 E2.38829 F1500
G0 X131.339 Y103.211 F7200
G1 X131.086 Y103.648 E2.40509 F1500
G0 X132.514 Y102.451 F7200
;segType:Perimeter
G1 X131.714 Y102.451 E2.43170 F600
G1 X127.118 Y102.451 E2.58456
G1 X126.628 Y101.739 E2.61330
G1 X126.389 Y101.187 E2.63331
G1 X126.244 Y100.603 E2.65331
G1 X126.194 Y100.000 E2.67346
G1 X126.244 Y99.396 E2.69361
G1 X126.389 Y98.812 E2.71361
G1 X126.628 Y98.260 E2.73363
G1 X127.118 Y97.549 E2.76234
G1 X131.774 Y97.549 E2.91719
G1 X132.264 Y98.260 E2.94590
G1 X132.503 Y98.812 E2.96591
G1 X132.648 Y99.396 E2.98591
G1 X132.698 Y100.000 E3.00606
G1 X132.648 Y100.603 E3.02621
G1 X132.503 Y101.187 E3.04621
G1 X132.264 Y101.739 E3.06622
G1 X131.808 Y102.401 E3.09297
G0 X131.714 Y102.451 F7200
G0 X130.114 Y102.451
G0 X130.674 Y102.851
;segType:Loop
G1 X126.908 Y102.851 E3.21823 F1200
G1 X126.277 Y101.934 E3.25526
G1 X126.009 Y101.315 E3.27767
G1 X125.848 Y100.668 E3.29985
G1 X125.793 Y100.000 E3.32217
G1 X125.848 Y99.331 E3.34448
G1 X126.009 Y98.684 E3.36666
G1 X126.277 Y98.065 E3.38908
G1 X126.908 Y97.149 E3.42608
G1 X131.984 Y97.149 E3.59491
G1 X132.615 Y98.065 E3.63190
G1 X132.883 Y98.684 E3.65433
G1 X133.044 Y99.331 E3.67650
G1 X133.099 Y100.000 E3.69882
G1 X133.044 Y100.668 E3.72114
G1 X132.883 Y101.315 E3.74331
G1 X132.615 Y101.934 E3.76573
G1 X131.984 Y102.851 E3.80275
G1 X130.874 Y102.851 E3.83968
; ------------------------------------
; Layer #9
; ------------------------------------
G92 E0 ;reset extr
G0 F3000 E-1.00000
G0 F600 Z3.000
G0 X131.904 Y103.161 F7200
G0 F3000 E0.00000
;segType:InnerHair
G1 X131.789 Y103.196 E0.00289 F1200
G1 X131.675 Y103.231 E0.00646
G1 X131.561 Y103.265 E0.01072
G0 X131.545 Y103.270 F7200
G0 X131.669 Y103.233
G0 X131.793 Y103.195
G0 X131.917 Y103.157
G1 X132.310 Y102.904 E0.01839 F1200
G1 X132.380 Y102.812 E0.02038
G1 X132.445 Y102.716 E0.02237
G1 X132.510 Y102.619 E0.02435
G1 X132.576 Y102.523 E0.02631
G1 X132.641 Y102.427 E0.02825
G1 X132.706 Y102.330 E0.03018
G1 X132.772 Y102.234 E0.03210
G1 X132.837 Y102.138 E0.03400
G1 X132.899 Y102.038 E0.03598
G1 X132.956 Y101.934 E0.03821
G1 X133.013 Y101.829 E0.04066
G1 X133.070 Y101.724 E0.04331
G1 X133.127 Y101.620 E0.04618
G1 X133.184 Y101.515 E0.04926
G1 X133.169 Y101.543 E0.05007
G1 X133.205 Y101.429 E0.05286
G1 X133.231 Y101.315 E0.05553
G1 X133.256 Y101.201 E0.05815
G1 X133.282 Y101.086 E0.06071
G1 X133.307 Y100.972 E0.06322
G1 X133.333 Y100.858 E0.06567
G1 X133.358 Y100.743 E0.06807
G1 X133.376 Y100.629 E0.07053
G1 X133.392 Y100.515 E0.07311
G1 X133.408 Y100.401 E0.07581
G1 X133.424 Y100.286 E0.07865
G1 X133.440 Y100.172 E0.08160
G1 X133.456 Y100.058 E0.08469
G1 X133.456 Y99.943 E0.08774
G1 X133.440 Y99.829 E0.09070
G1 X133.424 Y99.715 E0.09353
G1 X133.408 Y99.601 E0.09624
G1 X133.392 Y99.486 E0.09882
G1 X133.376 Y99.372 E0.10128
G1 X133.359 Y99.258 E0.10365
G1 X133.333 Y99.143 E0.10610
G1 X133.308 Y99.029 E0.10861
G1 X133.282 Y98.915 E0.11117
G1 X133.257 Y98.801 E0.11378
G1 X133.231 Y98.686 E0.11645
G0 X133.205 Y98.572 F7200
G0 X133.170 Y98.458
G1 X133.203 Y98.507 E0.11796 F1200
G1 X133.142 Y98.406 E0.12084
G1 X133.085 Y98.302 E0.12355
G1 X133.028 Y98.197 E0.12605
G1 X132.971 Y98.093 E0.12833
G1 X132.914 Y97.988 E0.13041
G1 X132.854 Y97.886 E0.13233
G1 X132.789 Y97.790 E0.13424
G1 X132.723 Y97.694 E0.13617
G1 X132.658 Y97.597 E0.13811
G1 X132.592 Y97.501 E0.14007
G1 X132.527 Y97.405 E0.14204
G1 X132.462 Y97.309 E0.14403
G1 X132.396 Y97.212 E0.14604
G1 X132.331 Y97.116 E0.14806
G1 X132.250 Y97.036 E0.14964
G0 X131.949 Y96.852 F7200
G0 X131.825 Y96.814
G0 X131.701 Y96.777
G0 X131.577 Y96.739
G1 X131.561 Y96.734 E0.15024 F1200
G1 X131.675 Y96.769 E0.15382
G1 X131.789 Y96.803 E0.15671
G1 X131.904 Y96.838 E0.15892
G0 X130.674 Y96.222 F7200
;segType:Infill
G1 X130.347 Y96.789 E0.18069 F1500
G0 X130.403 Y96.789 F7200
G1 X129.998 Y96.088 E0.20761 F1500
G0 X128.383 Y96.190 F7200
G1 X128.037 Y96.789 E0.23061 F1500
G0 F3000 E-0.76939
G0 X127.832 Y96.336 F7200
G0 F3000 E0.23061
G1 X128.094 Y96.789 E0.24802 F1500
G0 F3000 E-0.75198
G0 X127.143 Y96.158 F7200
G0 F3000 E0.24802
;segType:Perimeter
G1 X127.671 Y95.557 E0.27463 F600
G1 X129.448 Y95.204 E0.33489
G1 X131.283 Y95.568 E0.39714
G1 X132.839 Y96.608 E0.45937
G1 X133.879 Y98.164 E0.52161
G1 X134.243 Y100.000 E0.58386
G1 X133.879 Y101.835 E0.64611
G1 X132.839 Y103.391 E0.70834
G1 X131.283 Y104.431 E0.77058
G1 X129.448 Y104.796 E0.83283
G1 X127.612 Y104.431 E0.89509
G1 X126.056 Y103.391 E0.95732
G1 X125.016 Y101.835 E1.01956
G1 X124.651 Y100.000 E1.08181
G1 X125.016 Y98.164 E1.14407
G1 X126.056 Y96.608 E1.20631
G1 X127.562 Y95.602 E1.26654
G0 X127.671 Y95.557 F7200
G0 X129.240 Y95.245
G0 X129.448 Y95.612
G0 X128.769 Y95.746
;segType:Loop
G1 X129.448 Y95.612 E1.28957 F1200
G1 X131.127 Y95.945 E1.34653
G1 X132.551 Y96.896 E1.40347
G1 X133.502 Y98.320 E1.46041
G1 X133.835 Y100.000 E1.51737
G1 X133.502 Y101.679 E1.57433
G1 X132.551 Y103.103 E1.63127
G1 X131.127 Y104.054 E1.68821
G1 X129.448 Y104.388 E1.74517
G1 X127.768 Y104.054 E1.80213
G1 X126.344 Y103.103 E1.85908
G1 X125.393 Y101.679 E1.91602
G1 X125.059 Y100.000 E1.97298
G1 X125.393 Y98.320 E2.02994
G1 X126.345 Y96.896 E2.08689
G1 X127.768 Y95.945 E2.14383
G1 X128.572 Y95.785 E2.17111
G0 F3000 E1.17111
G0 X128.206 Y97.149 F7200
G0 X126.908 Y97.149
G0 X126.277 Y98.065
G0 X126.009 Y98.684
G0 X125.848 Y99.331
G0 X125.793 Y100.000
G0 X125.848 Y100.668
G0 X126.009 Y101.315
G0 X126.277 Y101.934
G0 X126.740 Y102.607
G0 X126.567 Y103.251
G0 X126.644 Y102.964
G0 F3000 E2.17111
;segType:InnerHair
G1 X126.563 Y102.884 E2.17307 F1200
G1 X126.498 Y102.788 E2.17505
G1 X126.432 Y102.692 E2.17701
G1 X126.367 Y102.595 E2.17896
G1 X126.302 Y102.499 E2.18089
G1 X126.236 Y102.403 E2.18281
G1 X126.171 Y102.306 E2.18471
G1 X126.106 Y102.210 E2.18660
G1 X126.040 Y102.114 E2.18847
G1 X125.980 Y102.012 E2.19050
G1 X125.923 Y101.908 E2.19275
G1 X125.866 Y101.803 E2.19522
G1 X125.809 Y101.698 E2.19791
G1 X125.752 Y101.594 E2.20080
G1 X125.691 Y101.493 E2.20376
G1 X125.725 Y101.543 E2.20528
G1 X125.689 Y101.429 E2.20804
G1 X125.663 Y101.315 E2.21069
G1 X125.637 Y101.201 E2.21328
G1 X125.612 Y101.086 E2.21582
G1 X125.586 Y100.972 E2.21830
G1 X125.561 Y100.858 E2.22073
G1 X125.535 Y100.743 E2.22310
G1 X125.517 Y100.629 E2.22554
G1 X125.501 Y100.515 E2.22810
G1 X125.485 Y100.401 E2.23078
G1 X125.469 Y100.286 E2.23359
G1 X125.453 Y100.172 E2.23653
G1 X125.437 Y100.058 E2.23959
G1 X125.437 Y99.943 E2.24263
G1 X125.453 Y99.829 E2.24557
G1 X125.469 Y99.715 E2.24838
G1 X125.485 Y99.601 E2.25107
G1 X125.501 Y99.486 E2.25363
G1 X125.517 Y99.372 E2.25606
G1 X125.535 Y99.258 E2.25841
G1 X125.560 Y99.143 E2.26084
G1 X125.586 Y99.029 E2.26332
G1 X125.611 Y98.915 E2.26585
G1 X125.637 Y98.801 E2.26844
G1 X125.662 Y98.686 E2.27108
G1 X125.688 Y98.572 E2.27379
G1 X125.724 Y98.458 E2.27680
G1 X125.738 Y98.432 E2.27751
G1 X125.795 Y98.328 E2.28025
G1 X125.852 Y98.223 E2.28277
G1 X125.909 Y98.119 E2.28509
G1 X125.966 Y98.014 E2.28719
G1 X126.023 Y97.909 E2.28907
G1 X126.089 Y97.814 E2.29095
G1 X126.154 Y97.718 E2.29285
G1 X126.220 Y97.621 E2.29477
G1 X126.285 Y97.525 E2.29670
G1 X126.350 Y97.429 E2.29865
G1 X126.416 Y97.333 E2.30061
G1 X126.481 Y97.236 E2.30259
G1 X126.546 Y97.140 E2.30459
G1 X126.624 Y97.056 E2.30625
G0 X126.914 Y96.862 F7200
G0 X127.038 Y96.824
G0 X127.162 Y96.786
G0 X127.286 Y96.749
G0 X127.410 Y96.711
G1 X127.332 Y96.735 E2.30916 F1200
G1 X127.218 Y96.769 E2.31273
G1 X127.104 Y96.804 E2.31561
G1 X126.989 Y96.839 E2.31780
G0 X126.624 Y97.056 F7200
G0 X126.546 Y97.140
G0 X126.089 Y97.814
G0 X126.023 Y97.909
G0 X125.738 Y98.432
G0 X125.662 Y98.686
G0 X125.535 Y99.258
G0 X125.517 Y99.372
G0 X125.437 Y99.943
G0 X125.437 Y100.058
G0 X125.517 Y100.629
G0 X125.535 Y100.743
G0 X125.663 Y101.315
G0 X125.752 Y101.594
G0 X125.980 Y102.012
G0 X126.040 Y102.114
G0 X126.563 Y102.884
G0 X126.644 Y102.964
G1 X126.989 Y103.161 E2.32507 F1200
G1 X127.104 Y103.195 E2.32794
G1 X127.218 Y103.230 E2.33150
G1 X127.332 Y103.265 E2.33575
G0 F3000 E1.33575
G0 X130.964 Y103.719 F7200
G0 F3000 E2.33575
;segType:Infill
G1 X131.258 Y103.211 E2.35527 F1500
G0 X129.907 Y103.930 F7200
G1 X129.492 Y103.211 E2.38287 F1500
G0 X128.948 Y103.211 F7200
G1 X128.580 Y103.848 E2.40736 F1500
G0 X127.424 Y103.261 F7200
G1 X131.460 Y103.261 E2.54158 F1500
G0 X132.514 Y102.451 F7200
;segType:Perimeter
G1 X131.714 Y102.451 E2.56819 F600
G1 X127.118 Y102.451 E2.72105
G1 X126.628 Y101.739 E2.74979
G1 X126.389 Y101.187 E2.76980
G1 X126.244 Y100.603 E2.78981
G1 X126.194 Y100.000 E2.80995
G1 X126.244 Y99.396 E2.83010
G1 X126.389 Y98.812 E2.85010
G1 X126.628 Y98.260 E2.87012
G1 X127.118 Y97.549 E2.89883
G1 X131.774 Y97.549 E3.05368
G1 X132.264 Y98.260 E3.08239
G1 X132.503 Y98.812 E3.10241
G1 X132.648 Y99.396 E3.12241
G1 X132.698 Y100.000 E3.14255
G1 X132.648 Y100.603 E3.16270
G1 X132.503 Y101.187 E3.18270
G1 X132.264 Y101.739 E3.20272
G1 X131.808 Y102.401 E3.22946
G0 X131.714 Y102.451 F7200
