; #disp params :
; Printmode:0
; Layer:175
; Zmax:110.126 mm
; Xmax:139.939 mm
; Ymax:36 mm
; Xmin:119.874 mm
; Ymin:0.3 mm
; E0diam:0.4 mm
; E0len:0.388333 m
; E0temp:215 C
; Bedtemp:215 C
; Time:14.9178 min
; #params end
; GCode generated by CraftWare

G28 X Y ; home horizontally
G28 Z ; home vertically


M104 S215 ;set head temp (no wait)
M190 S60 ;set bed temp (wait)
M109 S215 ;set head temp (wait)

; ------------------------------------
; Raft Layer #0
; ------------------------------------
M106 S0 ;turn off fan
G21 ; mm
G90 ; abs
G92 E0 ;reset extr
G0 F600 Z0.300
;segType:Raft
G0 F3000 E-1.00000
G0 F600 Z2.300
G0 X132.500 Y110.064 F5400
G0 F600 Z0.300
G0 F3000 E0.00000
G1 X127.500 Y110.064 E0.24947 F600
G1 X125.875 Y109.689 E0.33268
G1 X125.187 Y109.376 E0.37038
G1 X124.625 Y108.938 E0.40591
G1 X124.000 Y108.563 E0.44228
G1 X121.562 Y106.126 E0.61429
G1 X121.124 Y105.563 E0.64983
G1 X120.749 Y104.938 E0.68620
G1 X120.311 Y104.375 E0.72177
G1 X120.186 Y104.000 E0.74149
G1 X120.186 Y103.500 E0.76644
G1 X119.936 Y102.750 E0.80588
G1 X119.936 Y97.750 E1.05535
G1 X119.999 Y97.312 E1.07742
G0 X120.061 Y97.250 F5400
G1 X120.061 Y96.750 E1.10237 F600
G1 X120.311 Y96.000 E1.14181
G1 X120.624 Y95.312 E1.17951
G1 X120.999 Y94.687 E1.21587
G1 X121.437 Y94.125 E1.25141
G1 X123.937 Y91.624 E1.42781
G1 X124.500 Y91.187 E1.46339
G1 X125.125 Y90.811 E1.49975
G1 X125.375 Y90.561 E1.51739
G1 X126.500 Y90.186 E1.57656
G1 X127.000 Y90.186 E1.60151
G1 X127.375 Y90.061 E1.62123
G1 X129.750 Y90.061 E1.73973
G0 X129.875 Y90.061 F5400
G1 X132.375 Y90.061 E1.86447 F600
G1 X132.750 Y90.186 E1.88419
G1 X133.250 Y90.186 E1.90914
G1 X134.063 Y90.374 E1.95075
G1 X135.313 Y91.124 E2.02349
G1 X135.875 Y91.562 E2.05903
G1 X138.376 Y94.062 E2.23543
G1 X138.813 Y94.625 E2.27100
G1 X139.189 Y95.250 E2.30737
G1 X139.439 Y95.500 E2.32501
G1 X139.689 Y96.250 E2.36445
G1 X139.814 Y97.125 E2.40855
G1 X139.939 Y97.500 E2.42828
G1 X139.939 Y98.125 E2.45946
G0 X139.939 Y98.375 F5400
G1 X139.939 Y102.375 E2.65904 F600
G1 X139.814 Y103.250 E2.70314
G1 X139.626 Y104.063 E2.74476
G1 X139.314 Y104.750 E2.78242
G1 X138.938 Y105.375 E2.81879
G1 X138.501 Y105.938 E2.85436
G1 X136.000 Y108.438 E3.03076
G1 X135.438 Y108.876 E3.06630
G1 X134.813 Y109.251 E3.10267
G1 X134.250 Y109.689 E3.13824
G1 X133.375 Y109.814 E3.18234
G1 X132.563 Y110.001 E3.22393
G0 X132.479 Y109.626 F5400
G1 X132.479 Y90.624 E4.17192 F600
G0 X129.812 Y90.499 F5400
G1 X129.812 Y109.751 E5.13239 F600
G0 X127.146 Y109.626 F5400
G1 X127.146 Y90.624 E6.08038 F600
G0 X124.479 Y91.749 F5400
G1 X124.479 Y108.376 E6.90988 F600
G0 X121.812 Y105.875 F5400
G1 X121.812 Y94.375 E7.48366 F600
G0 X135.146 Y91.624 F5400
G1 X135.146 Y108.626 E8.33187 F600
G0 X137.812 Y106.126 F5400
G1 X137.812 Y94.125 E8.93060 F600



; ------------------------------------
; Raft Layer #1
; ------------------------------------
G92 E0 ;reset extr
G0 F600 Z0.600
;segType:Raft
G0 F3000 E-1.00000
G0 F600 Z2.600
G0 X138.136 Y93.687 F7200
G0 F600 Z0.600
G0 F3000 E0.00000
G1 X123.635 Y108.188 E1.02313 F1800
G0 X122.749 Y107.188 F7200
G1 X137.126 Y92.812 E2.03744 F1800
G0 X136.126 Y91.927 F7200
G1 X121.749 Y106.303 E3.05175 F1800
G0 X120.874 Y105.292 F7200
G1 X135.125 Y91.041 E4.05724 F1800
G0 X134.000 Y90.281 F7200
G1 X120.249 Y104.032 E5.02745 F1800
G0 X119.874 Y102.521 F7200
G1 X132.375 Y90.020 E5.90946 F1800
G0 X130.500 Y90.010 F7200
G1 X119.874 Y100.635 E6.65917 F1800
G0 X119.874 Y98.750 F7200
G1 X128.625 Y89.999 E7.27658 F1800
G0 X126.625 Y90.114 F7200
G1 X119.999 Y96.739 E7.74404 F1800
G0 X124.770 Y108.938 F7200
G1 X138.897 Y94.812 E8.74071 F1800
G0 X139.657 Y95.938 F7200
G1 X126.031 Y109.563 E9.70210 F1800
G0 X127.542 Y109.938 F7200
G1 X139.918 Y97.563 E10.57529 F1800
G0 X139.928 Y99.438 F7200
G1 X129.427 Y109.938 E11.31618 F1800
G0 X131.313 Y109.938 F7200
G1 X139.814 Y101.438 E11.91595 F1800
G0 X139.574 Y103.563 F7200
G1 X133.449 Y109.688 E12.34813 F1800



; ------------------------------------
; Raft Layer #2
; ------------------------------------
G92 E0 ;reset extr
G0 F600 Z0.800
;segType:Raft
G0 X133.750 Y109.788 F7200
G1 X126.000 Y109.788 E0.25779 F2400
G1 X125.125 Y109.388 E0.28979
G1 X134.625 Y109.388 E0.60579
G1 X135.125 Y108.988 E0.62708
G1 X124.625 Y108.988 E0.97635
G1 X124.000 Y108.588 E1.00103
G1 X135.750 Y108.588 E1.39187
G1 X136.251 Y108.188 E1.41316
G1 X123.499 Y108.188 E1.83727
G1 X123.124 Y107.788 E1.85550
G1 X136.626 Y107.788 E2.30455
G1 X137.001 Y107.388 E2.32279
G1 X122.749 Y107.388 E2.79679
G1 X122.374 Y106.988 E2.81502
G1 X137.376 Y106.988 E3.31397
G1 X137.751 Y106.588 E3.33220
G1 X121.999 Y106.588 E3.85610
G1 X121.499 Y106.188 E3.87739
G1 X138.251 Y106.188 E4.43455
G1 X138.626 Y105.788 E4.45278
G1 X121.249 Y105.788 E5.03073
G1 X120.999 Y105.388 E5.04642
G1 X138.876 Y105.388 E5.64099
G1 X139.126 Y104.988 E5.65668
G1 X120.749 Y104.988 E6.26789
G1 X120.499 Y104.588 E6.28357
G1 X139.251 Y104.588 E6.90725
G1 X139.501 Y104.188 E6.92294
G1 X120.249 Y104.188 E7.56325
G1 X120.124 Y103.788 E7.57719
G1 X139.626 Y103.788 E8.22582
G1 X139.751 Y103.388 E8.23976
G1 X119.999 Y103.388 E8.89670
G1 X119.999 Y102.988 E8.91000
G1 X139.751 Y102.988 E9.56695
G1 X139.876 Y102.588 E9.58089
G1 X119.874 Y102.588 E10.24614
G1 X119.874 Y102.188 E10.25945
G1 X139.876 Y102.188 E10.92471
G1 X139.876 Y101.788 E10.93801
G1 X119.874 Y101.788 E11.60327
G1 X119.874 Y101.388 E11.61657
G1 X139.876 Y101.388 E12.28183
G1 X139.876 Y100.988 E12.29513
G1 X119.874 Y100.988 E12.96039
G1 X119.874 Y100.588 E12.97370
G1 X139.876 Y100.588 E13.63895
G1 X139.876 Y100.188 E13.65226
G1 X119.874 Y100.188 E14.31752
G1 X119.874 Y99.788 E14.33082
G1 X139.876 Y99.788 E14.99608
G1 X139.876 Y99.388 E15.00938
G1 X119.874 Y99.388 E15.67464
G1 X119.874 Y98.988 E15.68795
G1 X139.876 Y98.988 E16.35320
G1 X139.876 Y98.588 E16.36651
G1 X119.874 Y98.588 E17.03177
G1 X119.874 Y98.188 E17.04507
G1 X139.876 Y98.188 E17.71033
G1 X139.876 Y97.788 E17.72363
G1 X119.874 Y97.788 E18.38889
G1 X119.874 Y97.388 E18.40219
G1 X139.876 Y97.388 E19.06745
G1 X139.751 Y96.988 E19.08139
G1 X119.999 Y96.988 E19.73833
G1 X120.124 Y96.588 E19.75227
G1 X139.626 Y96.588 E20.40090
G1 X139.626 Y96.188 E20.41420
G1 X120.124 Y96.188 E21.06283
G1 X120.249 Y95.788 E21.07677
G1 X139.501 Y95.788 E21.71708
G1 X139.251 Y95.388 E21.73277
G1 X120.499 Y95.388 E22.35645
G1 X120.749 Y94.988 E22.37214
G1 X139.001 Y94.988 E22.97919
G1 X138.751 Y94.588 E22.99488
G1 X120.999 Y94.588 E23.58529
G1 X121.249 Y94.188 E23.60098
G1 X138.501 Y94.188 E24.17477
G1 X138.001 Y93.788 E24.19607
G1 X121.749 Y93.788 E24.73659
G1 X122.124 Y93.388 E24.75483
G1 X137.626 Y93.388 E25.27040
G1 X137.251 Y92.988 E25.28864
G1 X122.499 Y92.988 E25.77927
G1 X122.874 Y92.588 E25.79750
G1 X136.876 Y92.588 E26.26318
G1 X136.501 Y92.188 E26.28142
G1 X123.249 Y92.188 E26.72215
G1 X123.749 Y91.788 E26.74345
G1 X136.000 Y91.788 E27.15092
G1 X135.625 Y91.388 E27.16916
G1 X124.125 Y91.388 E27.55168
G1 X124.750 Y90.988 E27.57636
G1 X135.000 Y90.988 E27.91730
G1 X134.500 Y90.588 E27.93860
G1 X125.250 Y90.588 E28.24628
G0 X126.375 Y90.188 F7200
G1 X133.375 Y90.188 E28.47912 F2400



; ------------------------------------
; Raft Layer #3
; ------------------------------------
M106 S255 ;set fan speed
G92 E0 ;reset extr
G0 F600 Z1.000
;segType:Raft
G0 F3000 E-1.00000
G0 F600 Z3.000
G0 X139.812 Y96.750 F7200
G0 F600 Z1.000
G0 F3000 E0.00000
G1 X139.812 Y103.500 E0.22452 F2400
G0 X139.412 Y104.625 F7200
G1 X139.412 Y95.500 E0.52805 F2400
G1 X139.012 Y95.000 E0.54935
G1 X139.012 Y105.250 E0.89029
G1 X138.612 Y105.875 E0.91497
G1 X138.612 Y94.375 E1.29750
G1 X138.212 Y94.000 E1.31573
G1 X138.212 Y106.251 E1.72320
G1 X137.812 Y106.751 E1.74450
G1 X137.812 Y93.499 E2.18524
G1 X137.412 Y93.124 E2.20347
G1 X137.412 Y107.126 E2.66915
G1 X137.012 Y107.501 E2.68739
G1 X137.012 Y92.749 E3.17802
G1 X136.612 Y92.374 E3.19626
G1 X136.612 Y107.876 E3.71183
G1 X136.212 Y108.251 E3.73007
G1 X136.212 Y91.999 E4.27059
G1 X135.812 Y91.499 E4.29189
G1 X135.812 Y108.751 E4.86567
G1 X135.412 Y109.001 E4.88136
G1 X135.412 Y91.249 E5.47178
G1 X135.012 Y90.999 E5.48747
G1 X135.012 Y109.251 E6.09452
G1 X134.612 Y109.501 E6.11021
G1 X134.612 Y90.749 E6.73389
G1 X134.212 Y90.499 E6.74957
G1 X134.212 Y109.751 E7.38988
G1 X133.812 Y109.876 E7.40382
G1 X133.812 Y90.374 E8.05245
G1 X133.412 Y90.249 E8.06639
G1 X133.412 Y109.876 E8.71917
G1 X133.012 Y110.001 E8.73311
G1 X133.012 Y90.249 E9.39005
G1 X132.612 Y90.124 E9.40399
G1 X132.612 Y110.001 E10.06509
G1 X132.212 Y110.126 E10.07903
G1 X132.212 Y90.124 E10.74429
G1 X131.812 Y90.124 E10.75759
G1 X131.812 Y110.126 E11.42285
G1 X131.412 Y110.126 E11.43616
G1 X131.412 Y90.124 E12.10142
G1 X131.012 Y90.124 E12.11472
G1 X131.012 Y110.126 E12.77998
G1 X130.612 Y110.126 E12.79328
G1 X130.612 Y90.124 E13.45854
G1 X130.212 Y90.124 E13.47184
G1 X130.212 Y110.126 E14.13710
G1 X129.812 Y110.126 E14.15041
G1 X129.812 Y90.124 E14.81566
G1 X129.412 Y90.124 E14.82897
G1 X129.412 Y110.126 E15.49423
G1 X129.012 Y110.126 E15.50753
G1 X129.012 Y90.124 E16.17279
G1 X128.612 Y90.124 E16.18609
G1 X128.612 Y110.126 E16.85135
G1 X128.212 Y110.126 E16.86466
G1 X128.212 Y90.124 E17.52991
G1 X127.812 Y90.124 E17.54322
G1 X127.812 Y110.126 E18.20848
G1 X127.412 Y110.126 E18.22178
G1 X127.412 Y90.124 E18.88704
G1 X127.012 Y90.249 E18.90098
G1 X127.012 Y110.001 E19.55792
G1 X126.612 Y109.876 E19.57186
G1 X126.612 Y90.249 E20.22464
G1 X126.212 Y90.374 E20.23858
G1 X126.212 Y109.876 E20.88721
G1 X125.812 Y109.751 E20.90115
G1 X125.812 Y90.374 E21.54562
G1 X125.412 Y90.624 E21.56131
G1 X125.412 Y109.501 E22.18914
G1 X125.012 Y109.251 E22.20483
G1 X125.012 Y90.874 E22.81604
G1 X124.612 Y91.124 E22.83173
G1 X124.612 Y109.001 E23.42630
G1 X124.212 Y108.751 E23.44199
G1 X124.212 Y91.374 E24.01994
G1 X123.812 Y91.749 E24.03817
G1 X123.812 Y108.501 E24.59533
G1 X123.412 Y108.001 E24.61662
G1 X123.412 Y92.249 E25.14052
G1 X123.012 Y92.624 E25.15875
G1 X123.012 Y107.626 E25.65770
G1 X122.612 Y107.251 E25.67593
G1 X122.612 Y92.999 E26.14993
G1 X122.212 Y93.374 E26.16816
G1 X122.212 Y106.876 E26.61721
G1 X121.812 Y106.501 E26.63545
G1 X121.812 Y93.749 E27.05955
G1 X121.412 Y94.250 E27.08085
G1 X121.412 Y106.001 E27.47169
G1 X121.012 Y105.375 E27.49637
G1 X121.012 Y94.750 E27.84979
G1 X120.612 Y95.375 E27.87447
G1 X120.612 Y104.875 E28.19047
G1 X120.212 Y104.125 E28.21874
G1 X120.212 Y96.125 E28.48485


; ------------------------------------
; Layer #0
; ------------------------------------
G21 ; mm
G90 ; abs
G92 E0 ;reset extr
G0 F600 Z1.450
;segType:HShell
G0 F3000 E-1.00000
G0 X130.827 Y103.211 F5400
G0 F3000 E0.00000
G1 X131.365 Y103.749 E0.02533 F2400
G0 F3000 E-0.97467
G0 X131.392 Y103.211 F5400
G0 F3000 E0.02533
G1 X131.753 Y103.572 E0.04231 F2400
G0 X132.014 Y103.267 F5400
G1 X131.958 Y103.211 E0.04497 F2400
G0 X132.457 Y103.161 F5400
;segType:InnerHair
G1 X132.342 Y103.196 E0.04785 F2400
G1 X132.228 Y103.231 E0.05143
G1 X132.114 Y103.265 E0.05569
G0 X132.098 Y103.270 F5400
G0 X132.222 Y103.233
G0 X132.346 Y103.195
G0 X132.470 Y103.157
G1 X132.863 Y102.904 E0.06336 F2400
G1 X132.933 Y102.812 E0.06535
G1 X132.998 Y102.716 E0.06734
G1 X133.063 Y102.619 E0.06932
G1 X133.129 Y102.523 E0.07128
G1 X133.194 Y102.427 E0.07322
G1 X133.259 Y102.330 E0.07515
G1 X133.325 Y102.234 E0.07706
G1 X133.390 Y102.138 E0.07896
G1 X133.452 Y102.038 E0.08095
G1 X133.509 Y101.934 E0.08318
G1 X133.566 Y101.829 E0.08562
G1 X133.623 Y101.724 E0.08828
G1 X133.680 Y101.620 E0.09114
G1 X133.737 Y101.515 E0.09422
G1 X133.722 Y101.543 E0.09504
G1 X133.758 Y101.429 E0.09783
G1 X133.784 Y101.315 E0.10050
G1 X133.809 Y101.201 E0.10311
G1 X133.835 Y101.086 E0.10568
G1 X133.860 Y100.972 E0.10818
G1 X133.886 Y100.858 E0.11063
G1 X133.911 Y100.743 E0.11303
G1 X133.929 Y100.629 E0.11549
G1 X133.945 Y100.515 E0.11807
G1 X133.961 Y100.401 E0.12078
G1 X133.977 Y100.286 E0.12361
G1 X133.993 Y100.172 E0.12657
G1 X134.009 Y100.058 E0.12965
G1 X134.009 Y99.943 E0.13271
G1 X133.993 Y99.829 E0.13567
G1 X133.977 Y99.715 E0.13850
G1 X133.961 Y99.601 E0.14121
G1 X133.945 Y99.486 E0.14379
G1 X133.929 Y99.372 E0.14625
G1 X133.912 Y99.258 E0.14861
G1 X133.886 Y99.143 E0.15107
G1 X133.861 Y99.029 E0.15357
G1 X133.835 Y98.915 E0.15613
G1 X133.810 Y98.801 E0.15874
G1 X133.784 Y98.686 E0.16141
G0 X133.758 Y98.572 F5400
G0 X133.723 Y98.458
G1 X133.756 Y98.507 E0.16292 F2400
G1 X133.695 Y98.406 E0.16581
G1 X133.638 Y98.302 E0.16852
G1 X133.581 Y98.197 E0.17102
G1 X133.524 Y98.093 E0.17330
G1 X133.467 Y97.988 E0.17537
G1 X133.407 Y97.886 E0.17730
G1 X133.342 Y97.789 E0.17920
G1 X133.277 Y97.692 E0.18110
G1 X133.213 Y97.595 E0.18299
G1 X133.148 Y97.498 E0.18488
G1 X133.084 Y97.401 E0.18676
G1 X133.019 Y97.304 E0.18865
G1 X132.950 Y97.212 E0.19063
G1 X132.881 Y97.119 E0.19272
G1 X132.796 Y97.043 E0.19449
G0 X132.502 Y96.852 F5400
G0 X132.378 Y96.814
G0 X132.254 Y96.777
G0 X132.130 Y96.739
G1 X132.114 Y96.734 E0.19508 F2400
G1 X132.228 Y96.769 E0.19866
G1 X132.342 Y96.803 E0.20156
G1 X132.457 Y96.838 E0.20376
G0 X133.842 Y97.695 F5400
;segType:Perimeter
G1 X134.443 Y98.223 E0.23037 F1200
G1 X134.796 Y100.000 E0.29062
G1 X134.432 Y101.835 E0.35287
G1 X133.392 Y103.391 E0.41511
G1 X131.836 Y104.431 E0.47735
G1 X130.000 Y104.796 E0.53960
G1 X128.165 Y104.431 E0.60186
G1 X126.609 Y103.391 E0.66409
G1 X125.569 Y101.835 E0.72633
G1 X125.204 Y100.000 E0.78858
G1 X125.569 Y98.164 E0.85084
G1 X126.609 Y96.608 E0.91307
G1 X128.165 Y95.568 E0.97531
G1 X130.000 Y95.204 E1.03756
G1 X131.836 Y95.568 E1.09981
G1 X133.392 Y96.608 E1.16204
G1 X134.398 Y98.114 E1.22228
G0 X134.443 Y98.223 F5400
G0 X134.755 Y99.792
G0 X134.254 Y99.321
;segType:Loop
G1 X134.388 Y100.000 E1.24531 F2400
G1 X134.055 Y101.679 E1.30226
G1 X133.104 Y103.103 E1.35920
G1 X131.680 Y104.054 E1.41615
G1 X130.000 Y104.388 E1.47311
G1 X128.321 Y104.054 E1.53007
G1 X126.897 Y103.103 E1.58702
G1 X125.946 Y101.679 E1.64396
G1 X125.612 Y100.000 E1.70092
G1 X125.946 Y98.320 E1.75788
G1 X126.897 Y96.896 E1.81483
G1 X128.321 Y95.945 E1.87177
G1 X130.000 Y95.612 E1.92873
G1 X131.680 Y95.945 E1.98569
G1 X133.104 Y96.896 E2.04263
G1 X134.055 Y98.320 E2.09957
G1 X134.215 Y99.124 E2.12685
G0 F3000 E1.12685
G0 X134.582 Y98.923 F5400
G0 X133.223 Y99.667
G0 X133.251 Y100.000
G0 X133.201 Y100.603
G0 X133.056 Y101.187
G0 X132.817 Y101.739
G0 X132.327 Y102.451
G0 X128.136 Y102.451
G0 X126.558 Y103.314
G0 X126.609 Y103.391
G0 X127.197 Y102.964
G0 F3000 E2.12685
;segType:InnerHair
G1 X127.116 Y102.884 E2.12881 F2400
G1 X127.051 Y102.788 E2.13079
G1 X126.985 Y102.692 E2.13275
G1 X126.920 Y102.595 E2.13470
G1 X126.855 Y102.499 E2.13663
G1 X126.789 Y102.403 E2.13855
G1 X126.724 Y102.306 E2.14045
G1 X126.659 Y102.210 E2.14234
G1 X126.593 Y102.114 E2.14421
G1 X126.533 Y102.012 E2.14623
G1 X126.476 Y101.908 E2.14849
G1 X126.419 Y101.803 E2.15096
G1 X126.362 Y101.698 E2.15364
G1 X126.305 Y101.594 E2.15654
G1 X126.244 Y101.493 E2.15950
G1 X126.277 Y101.543 E2.16102
G1 X126.242 Y101.429 E2.16378
G1 X126.216 Y101.315 E2.16643
G1 X126.190 Y101.201 E2.16902
G1 X126.165 Y101.086 E2.17155
G1 X126.139 Y100.972 E2.17404
G1 X126.114 Y100.858 E2.17647
G1 X126.088 Y100.743 E2.17884
G1 X126.071 Y100.629 E2.18129
G1 X126.055 Y100.515 E2.18385
G1 X126.038 Y100.401 E2.18654
G1 X126.022 Y100.286 E2.18936
G1 X126.006 Y100.172 E2.19230
G1 X125.990 Y100.058 E2.19536
G1 X125.990 Y99.943 E2.19839
G1 X126.006 Y99.829 E2.20133
G1 X126.022 Y99.715 E2.20415
G1 X126.038 Y99.601 E2.20683
G1 X126.054 Y99.486 E2.20939
G1 X126.070 Y99.372 E2.21183
G1 X126.088 Y99.258 E2.21417
G1 X126.113 Y99.143 E2.21660
G1 X126.139 Y99.029 E2.21908
G1 X126.164 Y98.915 E2.22162
G1 X126.190 Y98.801 E2.22421
G1 X126.215 Y98.686 E2.22685
G1 X126.242 Y98.572 E2.22956
G1 X126.277 Y98.458 E2.23259
G1 X126.291 Y98.433 E2.23329
G1 X126.348 Y98.328 E2.23604
G1 X126.405 Y98.223 E2.23857
G1 X126.462 Y98.119 E2.24088
G1 X126.519 Y98.014 E2.24298
G1 X126.575 Y97.909 E2.24487
G1 X126.642 Y97.814 E2.24675
G1 X126.707 Y97.718 E2.24865
G1 X126.772 Y97.621 E2.25056
G1 X126.838 Y97.525 E2.25249
G1 X126.903 Y97.429 E2.25444
G1 X126.969 Y97.333 E2.25640
G1 X127.034 Y97.236 E2.25838
G1 X127.099 Y97.140 E2.26038
G1 X127.176 Y97.056 E2.26204
G0 X127.467 Y96.862 F5400
G0 X127.591 Y96.824
G0 X127.715 Y96.786
G0 X127.839 Y96.749
G0 X127.963 Y96.711
G1 X127.885 Y96.735 E2.26495 F2400
G1 X127.771 Y96.769 E2.26852
G1 X127.657 Y96.804 E2.27140
G1 X127.542 Y96.839 E2.27360
G0 X127.176 Y97.056 F5400
G0 X127.099 Y97.140
G0 X126.642 Y97.814
G0 X126.575 Y97.909
G0 X126.291 Y98.433
G0 X126.215 Y98.686
G0 X126.088 Y99.258
G0 X126.070 Y99.372
G0 X125.990 Y99.943
G0 X125.990 Y100.058
G0 X126.071 Y100.629
G0 X126.088 Y100.743
G0 X126.216 Y101.315
G0 X126.305 Y101.594
G0 X126.533 Y102.012
G0 X126.593 Y102.114
G0 X127.116 Y102.884
G0 X127.197 Y102.964
G1 X127.542 Y103.161 E2.28086 F2400
G1 X127.657 Y103.195 E2.28373
G1 X127.771 Y103.230 E2.28729
G1 X127.885 Y103.265 E2.29155
G0 X127.999 Y103.212 F5400
;segType:HShell
G1 X128.512 Y103.725 E2.31567 F2400
G0 X129.218 Y103.865 F5400
G1 X128.564 Y103.211 E2.34646 F2400
G0 X129.130 Y103.211 F5400
G1 X129.925 Y104.006 E2.38385 F2400
G0 X130.422 Y103.937 F5400
G1 X129.695 Y103.211 E2.41801 F2400
G0 X130.261 Y103.211 F5400
G1 X130.893 Y103.843 E2.44776 F2400
G0 X133.067 Y102.451 F5400
;segType:Perimeter
G1 X132.267 Y102.451 E2.47437 F1200
G1 X127.671 Y102.451 E2.62723
G1 X127.181 Y101.739 E2.65597
G1 X126.942 Y101.187 E2.67598
G1 X126.799 Y100.609 E2.69578
G1 X126.747 Y100.000 E2.71612
G1 X126.797 Y99.396 E2.73627
G1 X126.941 Y98.818 E2.75607
G1 X127.181 Y98.260 E2.77628
G1 X127.671 Y97.549 E2.80500
G1 X132.316 Y97.549 E2.95949
G1 X132.463 Y97.727 E2.96715
G1 X132.817 Y98.262 E2.98849
G1 X133.056 Y98.812 E3.00845
G1 X133.201 Y99.396 E3.02845
G1 X133.251 Y100.000 E3.04860
G1 X133.201 Y100.603 E3.06875
G1 X133.056 Y101.187 E3.08875
G1 X132.817 Y101.739 E3.10876
G1 X132.361 Y102.401 E3.13551
G0 X132.267 Y102.451 F5400
G0 X130.667 Y102.451
G0 X131.227 Y102.851
;segType:Loop
G1 X127.461 Y102.851 E3.26077 F2400
G1 X126.830 Y101.934 E3.29780
G1 X126.562 Y101.315 E3.32021
G1 X126.403 Y100.675 E3.34217
G1 X126.346 Y100.000 E3.36469
G1 X126.401 Y99.331 E3.38702
G1 X126.560 Y98.690 E3.40898
G1 X126.830 Y98.066 E3.43160
G1 X127.461 Y97.149 E3.46861
G1 X132.504 Y97.149 E3.63636
G1 X132.784 Y97.488 E3.65098
G1 X133.170 Y98.070 E3.67420
G1 X133.436 Y98.684 E3.69645
G1 X133.597 Y99.331 E3.71862
G1 X133.652 Y100.000 E3.74094
G1 X133.597 Y100.668 E3.76326
G1 X133.436 Y101.315 E3.78544
G1 X133.168 Y101.934 E3.80785
G1 X132.537 Y102.851 E3.84488
G1 X131.427 Y102.851 E3.88181
G0 F3000 E2.88181
G0 X131.217 Y102.451 F5400
G0 X127.671 Y102.451
G0 X127.181 Y101.739
G0 X126.942 Y101.187
G0 X126.799 Y100.609
G0 X126.747 Y100.000
G0 X126.797 Y99.396
G0 X126.941 Y98.818
G0 X127.181 Y98.260
G0 X127.671 Y97.549
G0 X128.639 Y97.549
G0 X127.745 Y95.849
G0 X128.101 Y96.525
G0 F3000 E3.88181
;segType:HShell
G0 X128.006 Y96.714 F5400
G1 X128.685 Y96.544 E3.92833 F2400
G0 X128.903 Y96.197 F5400
G1 X129.496 Y96.789 E3.95619 F2400
G0 X130.062 Y96.789 F5400
G1 X129.375 Y96.103 E3.98846 F2400
G0 X129.847 Y96.009 F5400
G1 X130.627 Y96.789 E4.02514 F2400
G0 X131.193 Y96.789 F5400
G1 X130.477 Y96.074 E4.05880 F2400
G0 X131.183 Y96.214 F5400
G1 X131.759 Y96.789 E4.08587 F2400
; ------------------------------------
; Layer #1
; ------------------------------------
G92 E0 ;reset extr
G0 F3000 E-1.00000
G0 F600 Z1.400
G0 X131.872 Y96.073 F7200
G0 X131.701 Y97.149
G0 X132.537 Y97.149
G0 X133.168 Y98.065
G0 X133.436 Y98.684
G0 X133.597 Y99.331
G0 X133.650 Y99.979
G0 X133.597 Y100.667
G0 X133.436 Y101.315
G0 X133.168 Y101.934
G0 X132.537 Y102.851
G0 X130.796 Y102.851
G0 X130.569 Y104.275
G0 X130.630 Y103.896
G0 F3000 E0.00000
;segType:HShell
G1 X131.315 Y103.211 E0.03222 F1200
G0 F3000 E-0.96778
G0 X131.336 Y103.755 F7200
G0 F3000 E0.03222
G1 X131.880 Y103.211 E0.05782 F1200
G0 X132.457 Y103.161 F7200
;segType:InnerHair
G1 X132.342 Y103.196 E0.06071 F1200
G1 X132.228 Y103.231 E0.06428
G1 X132.114 Y103.265 E0.06854
G0 X132.098 Y103.270 F7200
G0 X132.222 Y103.233
G0 X132.346 Y103.195
G0 X132.470 Y103.157
G1 X132.863 Y102.904 E0.07621 F1200
G1 X132.933 Y102.812 E0.07820
G1 X132.998 Y102.716 E0.08019
G1 X133.063 Y102.619 E0.08217
G1 X133.129 Y102.523 E0.08413
G1 X133.194 Y102.427 E0.08607
G1 X133.259 Y102.330 E0.08800
G1 X133.325 Y102.234 E0.08992
G1 X133.390 Y102.138 E0.09182
G1 X133.452 Y102.038 E0.09380
G1 X133.509 Y101.934 E0.09603
G1 X133.566 Y101.829 E0.09848
G1 X133.623 Y101.724 E0.10113
G1 X133.680 Y101.620 E0.10400
G1 X133.737 Y101.515 E0.10708
G1 X133.722 Y101.543 E0.10789
G1 X133.758 Y101.429 E0.11068
G1 X133.784 Y101.315 E0.11335
G1 X133.809 Y101.201 E0.11597
G1 X133.835 Y101.086 E0.11853
G1 X133.860 Y100.972 E0.12104
G1 X133.886 Y100.858 E0.12349
G1 X133.911 Y100.743 E0.12589
G1 X133.929 Y100.629 E0.12835
G1 X133.945 Y100.515 E0.13093
G1 X133.960 Y100.401 E0.13365
G1 X133.976 Y100.286 E0.13650
G1 X133.992 Y100.172 E0.13948
G1 X134.007 Y100.058 E0.14259
G1 X134.009 Y99.943 E0.14565
G1 X133.993 Y99.829 E0.14861
G1 X133.977 Y99.715 E0.15145
G1 X133.961 Y99.601 E0.15415
G1 X133.945 Y99.486 E0.15674
G1 X133.929 Y99.372 E0.15919
G1 X133.912 Y99.258 E0.16156
G1 X133.886 Y99.143 E0.16401
G1 X133.861 Y99.029 E0.16652
G1 X133.835 Y98.915 E0.16908
G1 X133.810 Y98.801 E0.17169
G1 X133.784 Y98.686 E0.17436
G0 X133.758 Y98.572 F7200
G0 X133.723 Y98.458
G1 X133.756 Y98.507 E0.17587 F1200
G1 X133.695 Y98.406 E0.17876
G1 X133.638 Y98.302 E0.18147
G1 X133.581 Y98.197 E0.18396
G1 X133.524 Y98.093 E0.18625
G1 X133.467 Y97.988 E0.18832
G1 X133.407 Y97.886 E0.19024
G1 X133.341 Y97.790 E0.19215
G1 X133.276 Y97.694 E0.19408
G1 X133.211 Y97.597 E0.19602
G1 X133.145 Y97.501 E0.19798
G1 X133.080 Y97.405 E0.19996
G1 X133.015 Y97.309 E0.20195
G1 X132.949 Y97.212 E0.20395
G1 X132.884 Y97.116 E0.20598
G1 X132.803 Y97.036 E0.20756
G0 X132.502 Y96.852 F7200
G0 X132.378 Y96.814
G0 X132.254 Y96.777
G0 X132.130 Y96.739
G1 X132.114 Y96.734 E0.20815 F1200
G1 X132.228 Y96.769 E0.21173
G1 X132.342 Y96.803 E0.21463
G1 X132.457 Y96.838 E0.21683
G0 X133.842 Y97.695 F7200
;segType:Perimeter
G1 X134.443 Y98.223 E0.24344 F600
G1 X134.796 Y100.000 E0.30369
G1 X134.432 Y101.835 E0.36594
G1 X133.392 Y103.391 E0.42818
G1 X131.836 Y104.431 E0.49042
G1 X130.000 Y104.796 E0.55267
G1 X128.165 Y104.431 E0.61493
G1 X126.609 Y103.391 E0.67716
G1 X125.569 Y101.835 E0.73940
G1 X125.204 Y100.000 E0.80165
G1 X125.569 Y98.164 E0.86391
G1 X126.609 Y96.608 E0.92614
G1 X128.165 Y95.568 E0.98838
G1 X130.000 Y95.204 E1.05063
G1 X131.836 Y95.568 E1.11288
G1 X133.392 Y96.608 E1.17511
G1 X134.398 Y98.114 E1.23535
G0 X134.443 Y98.223 F7200
G0 X134.755 Y99.792
G0 X134.388 Y100.000
G0 X134.254 Y99.321
;segType:Loop
G1 X134.388 Y100.000 E1.25838 F1200
G1 X134.055 Y101.679 E1.31533
G1 X133.104 Y103.103 E1.37227
G1 X131.680 Y104.054 E1.42922
G1 X130.000 Y104.388 E1.48618
G1 X128.321 Y104.054 E1.54314
G1 X126.897 Y103.103 E1.60009
G1 X125.946 Y101.679 E1.65703
G1 X125.612 Y100.000 E1.71399
G1 X125.946 Y98.320 E1.77095
G1 X126.897 Y96.896 E1.82790
G1 X128.321 Y95.945 E1.88484
G1 X130.000 Y95.612 E1.94180
G1 X131.680 Y95.945 E1.99876
G1 X133.104 Y96.896 E2.05570
G1 X134.055 Y98.320 E2.11264
G1 X134.215 Y99.124 E2.13992
G0 F3000 E1.13992
G0 X134.215 Y99.124 F7200
G0 X133.607 Y99.457
G0 X133.650 Y99.979
G0 X133.597 Y100.667
G0 X133.436 Y101.315
G0 X133.168 Y101.934
G0 X132.537 Y102.851
G0 X127.461 Y102.851
G0 X127.445 Y102.829
G0 X126.919 Y103.117
G0 X127.197 Y102.964
G0 F3000 E2.13992
;segType:InnerHair
G1 X127.116 Y102.884 E2.14188 F1200
G1 X127.051 Y102.788 E2.14386
G1 X126.985 Y102.692 E2.14582
G1 X126.920 Y102.595 E2.14777
G1 X126.855 Y102.499 E2.14970
G1 X126.789 Y102.403 E2.15162
G1 X126.724 Y102.306 E2.15352
G1 X126.659 Y102.210 E2.15541
G1 X126.593 Y102.114 E2.15728
G1 X126.533 Y102.012 E2.15931
G1 X126.476 Y101.908 E2.16156
G1 X126.419 Y101.803 E2.16403
G1 X126.362 Y101.698 E2.16671
G1 X126.305 Y101.594 E2.16961
G1 X126.244 Y101.493 E2.17256
G1 X126.277 Y101.543 E2.17408
G1 X126.242 Y101.429 E2.17684
G1 X126.216 Y101.315 E2.17949
G1 X126.191 Y101.201 E2.18208
G1 X126.165 Y101.086 E2.18463
G1 X126.140 Y100.972 E2.18713
G1 X126.115 Y100.858 E2.18958
G1 X126.090 Y100.743 E2.19198
G1 X126.070 Y100.629 E2.19443
G1 X126.054 Y100.515 E2.19698
G1 X126.038 Y100.401 E2.19967
G1 X126.022 Y100.286 E2.20248
G1 X126.006 Y100.172 E2.20541
G1 X125.990 Y100.058 E2.20848
G1 X125.990 Y99.943 E2.21151
G1 X126.006 Y99.829 E2.21445
G1 X126.022 Y99.715 E2.21726
G1 X126.038 Y99.601 E2.21995
G1 X126.054 Y99.486 E2.22251
G1 X126.070 Y99.372 E2.22494
G1 X126.088 Y99.258 E2.22729
G1 X126.113 Y99.143 E2.22972
G1 X126.139 Y99.029 E2.23220
G1 X126.164 Y98.915 E2.23474
G1 X126.190 Y98.801 E2.23732
G1 X126.215 Y98.686 E2.23997
G1 X126.241 Y98.572 E2.24267
G1 X126.277 Y98.458 E2.24568
G1 X126.290 Y98.432 E2.24639
G1 X126.347 Y98.328 E2.24913
G1 X126.404 Y98.223 E2.25166
G1 X126.462 Y98.119 E2.25397
G1 X126.519 Y98.014 E2.25607
G1 X126.576 Y97.909 E2.25795
G1 X126.642 Y97.814 E2.25983
G1 X126.707 Y97.718 E2.26173
G1 X126.772 Y97.621 E2.26365
G1 X126.838 Y97.525 E2.26558
G1 X126.903 Y97.429 E2.26753
G1 X126.969 Y97.333 E2.26949
G1 X127.034 Y97.236 E2.27147
G1 X127.099 Y97.140 E2.27347
G1 X127.176 Y97.056 E2.27513
G0 X127.467 Y96.862 F7200
G0 X127.591 Y96.824
G0 X127.715 Y96.786
G0 X127.839 Y96.749
G0 X127.963 Y96.711
G1 X127.885 Y96.735 E2.27804 F1200
G1 X127.771 Y96.769 E2.28161
G1 X127.657 Y96.804 E2.28449
G1 X127.542 Y96.839 E2.28668
G0 X127.176 Y97.056 F7200
G0 X127.099 Y97.140
G0 X126.642 Y97.814
G0 X126.576 Y97.909
G0 X126.290 Y98.432
G0 X126.215 Y98.686
G0 X126.088 Y99.258
G0 X126.070 Y99.372
G0 X125.990 Y99.943
G0 X125.990 Y100.058
G0 X126.070 Y100.629
G0 X126.090 Y100.743
G0 X126.216 Y101.315
G0 X126.305 Y101.594
G0 X126.533 Y102.012
G0 X126.593 Y102.114
G0 X127.116 Y102.884
G0 X127.197 Y102.964
G1 X127.542 Y103.161 E2.29395 F1200
G1 X127.657 Y103.195 E2.29682
G1 X127.771 Y103.230 E2.30038
G1 X127.885 Y103.265 E2.30463
G0 X128.486 Y103.211 F7200
;segType:HShell
G1 X128.174 Y103.523 E2.31930 F1200
G0 X129.052 Y103.211 F7200
G1 X128.534 Y103.729 E2.34368 F1200
G0 X129.005 Y103.823 F7200
G1 X129.617 Y103.211 E2.37247 F1200
G0 X130.183 Y103.211 F7200
G1 X129.477 Y103.917 E2.40567 F1200
G0 X129.949 Y104.011 F7200
G1 X130.749 Y103.211 E2.44329 F1200
G0 X133.067 Y102.451 F7200
;segType:Perimeter
G1 X132.267 Y102.451 E2.46990 F600
G1 X127.671 Y102.451 E2.62276
G1 X127.181 Y101.739 E2.65150
G1 X126.942 Y101.186 E2.67153
G1 X126.795 Y100.584 E2.69215
G1 X126.747 Y99.999 E2.71166
G1 X126.797 Y99.396 E2.73180
G1 X126.942 Y98.812 E2.75181
G1 X127.181 Y98.260 E2.77182
G1 X127.671 Y97.549 E2.80053
G1 X132.327 Y97.549 E2.95538
G1 X132.817 Y98.260 E2.98409
G1 X133.056 Y98.812 E3.00411
G1 X133.201 Y99.396 E3.02411
G1 X133.249 Y99.980 E3.04362
G1 X133.201 Y100.603 E3.06438
G1 X133.056 Y101.187 E3.08440
G1 X132.817 Y101.739 E3.10441
G1 X132.361 Y102.401 E3.13116
G0 X132.267 Y102.451 F7200
G0 X130.667 Y102.451
G0 X131.227 Y102.851
;segType:Loop
G1 X127.461 Y102.851 E3.25642 F1200
G1 X126.830 Y101.934 E3.29345
G1 X126.561 Y101.314 E3.31591
G1 X126.399 Y100.648 E3.33870
G1 X126.346 Y99.999 E3.36035
G1 X126.401 Y99.331 E3.38267
G1 X126.562 Y98.684 E3.40484
G1 X126.830 Y98.065 E3.42726
G1 X127.461 Y97.149 E3.46426
G1 X132.537 Y97.149 E3.63309
G1 X133.168 Y98.065 E3.67009
G1 X133.436 Y98.684 E3.69251
G1 X133.597 Y99.331 E3.71469
G1 X133.650 Y99.979 E3.73633
G1 X133.597 Y100.667 E3.75926
G1 X133.436 Y101.315 E3.78149
G1 X133.168 Y101.934 E3.80390
G1 X132.537 Y102.851 E3.84093
G1 X131.427 Y102.851 E3.87786
G0 F3000 E2.87786
G0 X131.427 Y102.851 F7200
G0 X132.537 Y102.851
G0 X133.168 Y101.934
G0 X133.436 Y101.315
G0 X133.597 Y100.667
G0 X133.650 Y99.979
G0 X133.597 Y99.331
G0 X133.436 Y98.684
G0 X133.168 Y98.065
G0 X132.537 Y97.149
G0 X129.043 Y97.149
G0 X128.523 Y95.905
G0 X128.665 Y96.244
G0 F3000 E3.87786
;segType:HShell
G1 X128.120 Y96.789 E3.90350 F1200
G0 X128.685 Y96.789 F7200
G1 X129.371 Y96.104 E3.93572 F1200
G0 X130.051 Y95.989 F7200
G1 X129.251 Y96.789 E3.97336 F1200
G0 X129.817 Y96.789 F7200
G1 X130.523 Y96.083 E4.00659 F1200
G0 X130.995 Y96.176 F7200
G1 X130.383 Y96.789 E4.03541 F1200
G0 X130.976 Y96.478 F7200
G1 X131.670 Y96.633 E4.09452 F1200
; ------------------------------------
; Layer #2
; ------------------------------------
G92 E0 ;reset extr
G0 F3000 E-1.00000
G0 F600 Z1.600
G0 X131.433 Y97.549 F7200
G0 X132.327 Y97.549
G0 X132.817 Y98.260
G0 X133.056 Y98.812
G0 X133.201 Y99.396
G0 X133.251 Y100.000
G0 X133.201 Y100.603
G0 X133.056 Y101.187
G0 X132.817 Y101.739
G0 X132.327 Y102.451
G0 X130.908 Y102.451
G0 X130.827 Y103.211
G0 F3000 E0.00000
;segType:HShell
G0 X130.857 Y103.525 F7200
G1 X131.573 Y103.391 E0.06051 F1200
G1 X131.986 Y103.239 E0.09714
G0 X132.457 Y103.161 F7200
;segType:InnerHair
G1 X132.342 Y103.196 E0.10002 F1200
G1 X132.228 Y103.231 E0.10360
G1 X132.114 Y103.265 E0.10786
G0 X132.098 Y103.270 F7200
G0 X132.222 Y103.233
G0 X132.346 Y103.195
G0 X132.470 Y103.157
G1 X132.863 Y102.904 E0.11553 F1200
G1 X132.933 Y102.812 E0.11752
G1 X132.998 Y102.716 E0.11951
G1 X133.063 Y102.619 E0.12149
G1 X133.129 Y102.523 E0.12345
G1 X133.194 Y102.427 E0.12539
G1 X133.259 Y102.330 E0.12732
G1 X133.325 Y102.234 E0.12924
G1 X133.390 Y102.138 E0.13114
G1 X133.452 Y102.038 E0.13312
G1 X133.509 Y101.934 E0.13535
G1 X133.566 Y101.829 E0.13779
G1 X133.623 Y101.724 E0.14045
G1 X133.680 Y101.620 E0.14332
G1 X133.737 Y101.515 E0.14640
G1 X133.722 Y101.543 E0.14721
G1 X133.758 Y101.429 E0.15000
G1 X133.784 Y101.315 E0.15267
G1 X133.809 Y101.201 E0.15529
G1 X133.835 Y101.086 E0.15785
G1 X133.860 Y100.972 E0.16035
G1 X133.886 Y100.858 E0.16281
G1 X133.911 Y100.743 E0.16521
G1 X133.929 Y100.629 E0.16767
G1 X133.945 Y100.515 E0.17025
G1 X133.961 Y100.401 E0.17295
G1 X133.977 Y100.286 E0.17578
G1 X133.993 Y100.172 E0.17874
G1 X134.009 Y100.058 E0.18182
G1 X134.009 Y99.943 E0.18488
G1 X133.993 Y99.829 E0.18784
G1 X133.977 Y99.715 E0.19067
G1 X133.961 Y99.601 E0.19338
G1 X133.945 Y99.486 E0.19596
G1 X133.929 Y99.372 E0.19842
G1 X133.912 Y99.258 E0.20079
G1 X133.886 Y99.143 E0.20324
G1 X133.861 Y99.029 E0.20574
G1 X133.835 Y98.915 E0.20830
G1 X133.810 Y98.801 E0.21092
G1 X133.784 Y98.686 E0.21358
G0 X133.758 Y98.572 F7200
G0 X133.723 Y98.458
G1 X133.756 Y98.507 E0.21509 F1200
G1 X133.695 Y98.406 E0.21798
G1 X133.638 Y98.302 E0.22069
G1 X133.581 Y98.197 E0.22319
G1 X133.524 Y98.093 E0.22547
G1 X133.467 Y97.988 E0.22754
G1 X133.407 Y97.886 E0.22947
G1 X133.341 Y97.790 E0.23138
G1 X133.276 Y97.694 E0.23330
G1 X133.211 Y97.597 E0.23525
G1 X133.145 Y97.501 E0.23721
G1 X133.080 Y97.405 E0.23918
G1 X133.015 Y97.309 E0.24117
G1 X132.949 Y97.212 E0.24318
G1 X132.884 Y97.116 E0.24520
G1 X132.803 Y97.036 E0.24678
G0 X132.502 Y96.852 F7200
G0 X132.378 Y96.814
G0 X132.254 Y96.777
G0 X132.130 Y96.739
G1 X132.114 Y96.734 E0.24737 F1200
G1 X132.228 Y96.769 E0.25096
G1 X132.342 Y96.803 E0.25385
G1 X132.457 Y96.838 E0.25606
G0 X133.842 Y97.695 F7200
;segType:Perimeter
G1 X134.443 Y98.223 E0.28266 F600
G1 X134.796 Y100.000 E0.34292
G1 X134.432 Y101.835 E0.40517
G1 X133.392 Y103.391 E0.46740
G1 X131.836 Y104.431 E0.52964
G1 X130.000 Y104.796 E0.59189
G1 X128.165 Y104.431 E0.65415
G1 X126.609 Y103.391 E0.71639
G1 X125.569 Y101.835 E0.77862
G1 X125.204 Y100.000 E0.84088
G1 X125.569 Y98.164 E0.90313
G1 X126.609 Y96.608 E0.96537
G1 X128.165 Y95.568 E1.02760
G1 X130.000 Y95.204 E1.08985
G1 X131.836 Y95.568 E1.15210
G1 X133.392 Y96.608 E1.21434
G1 X134.398 Y98.114 E1.27458
G0 X134.443 Y98.223 F7200
G0 X134.755 Y99.792
G0 X134.254 Y99.321
;segType:Loop
G1 X134.388 Y100.000 E1.29760 F1200
G1 X134.055 Y101.679 E1.35456
G1 X133.104 Y103.103 E1.41150
G1 X131.680 Y104.054 E1.46844
G1 X130.000 Y104.388 E1.52540
G1 X128.321 Y104.054 E1.58237
G1 X126.897 Y103.103 E1.63931
G1 X125.946 Y101.679 E1.69626
G1 X125.612 Y100.000 E1.75322
G1 X125.946 Y98.320 E1.81018
G1 X126.897 Y96.896 E1.86712
G1 X128.321 Y95.945 E1.92406
G1 X130.000 Y95.612 E1.98102
G1 X131.680 Y95.945 E2.03798
G1 X133.104 Y96.896 E2.09492
G1 X134.055 Y98.320 E2.15186
G1 X134.215 Y99.124 E2.17914
G0 F3000 E1.17914
G0 X134.582 Y98.923 F7200
G0 X133.223 Y99.667
G0 X133.251 Y100.000
G0 X133.201 Y100.603
G0 X133.056 Y101.187
G0 X132.817 Y101.739
G0 X132.327 Y102.451
G0 X128.136 Y102.451
G0 X126.558 Y103.314
G0 X126.609 Y103.391
G0 X127.197 Y102.964
G0 F3000 E2.17914
;segType:InnerHair
G1 X127.116 Y102.884 E2.18110 F1200
G1 X127.051 Y102.788 E2.18308
G1 X126.985 Y102.692 E2.18504
G1 X126.920 Y102.595 E2.18699
G1 X126.855 Y102.499 E2.18892
G1 X126.789 Y102.403 E2.19084
G1 X126.724 Y102.306 E2.19274
G1 X126.659 Y102.210 E2.19463
G1 X126.593 Y102.114 E2.19650
G1 X126.533 Y102.012 E2.19853
G1 X126.476 Y101.908 E2.20079
G1 X126.419 Y101.803 E2.20326
G1 X126.362 Y101.698 E2.20594
G1 X126.305 Y101.594 E2.20883
G1 X126.244 Y101.493 E2.21179
G1 X126.277 Y101.543 E2.21331
G1 X126.242 Y101.429 E2.21608
G1 X126.216 Y101.315 E2.21872
G1 X126.190 Y101.201 E2.22131
G1 X126.165 Y101.086 E2.22385
G1 X126.139 Y100.972 E2.22633
G1 X126.114 Y100.858 E2.22876
G1 X126.088 Y100.743 E2.23114
G1 X126.070 Y100.629 E2.23357
G1 X126.054 Y100.515 E2.23613
G1 X126.038 Y100.401 E2.23882
G1 X126.022 Y100.286 E2.24163
G1 X126.006 Y100.172 E2.24456
G1 X125.990 Y100.058 E2.24763
G1 X125.990 Y99.943 E2.25066
G1 X126.006 Y99.829 E2.25360
G1 X126.022 Y99.715 E2.25641
G1 X126.038 Y99.601 E2.25910
G1 X126.054 Y99.486 E2.26166
G1 X126.070 Y99.372 E2.26410
G1 X126.088 Y99.258 E2.26644
G1 X126.113 Y99.143 E2.26887
G1 X126.139 Y99.029 E2.27135
G1 X126.164 Y98.915 E2.27389
G1 X126.190 Y98.801 E2.27648
G1 X126.215 Y98.686 E2.27912
G1 X126.241 Y98.572 E2.28182
G1 X126.277 Y98.458 E2.28483
G1 X126.290 Y98.432 E2.28554
G1 X126.347 Y98.328 E2.28828
G1 X126.404 Y98.223 E2.29081
G1 X126.462 Y98.119 E2.29312
G1 X126.519 Y98.014 E2.29522
G1 X126.576 Y97.909 E2.29711
G1 X126.642 Y97.814 E2.29899
G1 X126.707 Y97.718 E2.30088
G1 X126.772 Y97.621 E2.30280
G1 X126.838 Y97.525 E2.30473
G1 X126.903 Y97.429 E2.30668
G1 X126.969 Y97.333 E2.30864
G1 X127.034 Y97.236 E2.31062
G1 X127.099 Y97.140 E2.31262
G1 X127.176 Y97.056 E2.31428
G0 X127.467 Y96.862 F7200
G0 X127.591 Y96.824
G0 X127.715 Y96.786
G0 X127.839 Y96.749
G0 X127.963 Y96.711
G1 X127.885 Y96.735 E2.31719 F1200
G1 X127.771 Y96.769 E2.32076
G1 X127.657 Y96.804 E2.32364
G1 X127.542 Y96.839 E2.32583
G0 X127.176 Y97.056 F7200
G0 X127.099 Y97.140
G0 X126.642 Y97.814
G0 X126.576 Y97.909
G0 X126.290 Y98.432
G0 X126.215 Y98.686
G0 X126.088 Y99.258
G0 X126.070 Y99.372
G0 X125.990 Y99.943
G0 X125.990 Y100.058
G0 X126.070 Y100.629
G0 X126.088 Y100.743
G0 X126.216 Y101.315
G0 X126.305 Y101.594
G0 X126.533 Y102.012
G0 X126.593 Y102.114
G0 X127.116 Y102.884
G0 X127.197 Y102.964
G1 X127.542 Y103.161 E2.33310 F1200
G1 X127.657 Y103.195 E2.33597
G1 X127.771 Y103.230 E2.33953
G1 X127.885 Y103.265 E2.34378
G0 X127.999 Y103.212 F7200
;segType:HShell
G1 X128.512 Y103.725 E2.36791 F1200
G0 X129.218 Y103.865 F7200
G1 X128.564 Y103.211 E2.39869 F1200
G0 X129.130 Y103.211 F7200
G1 X129.925 Y104.006 E2.43609 F1200
G0 X130.422 Y103.937 F7200
G1 X129.695 Y103.211 E2.47025 F1200
G0 X130.261 Y103.211 F7200
G1 X130.893 Y103.843 E2.50000 F1200
G0 X133.067 Y102.451 F7200
;segType:Perimeter
G1 X132.267 Y102.451 E2.52661 F600
G1 X127.671 Y102.451 E2.67947
G1 X127.181 Y101.739 E2.70820
G1 X126.942 Y101.187 E2.72822
G1 X126.797 Y100.603 E2.74822
G1 X126.747 Y100.000 E2.76837
G1 X126.797 Y99.396 E2.78852
G1 X126.942 Y98.812 E2.80852
G1 X127.181 Y98.260 E2.82853
G1 X127.671 Y97.549 E2.85724
G1 X132.327 Y97.549 E3.01209
G1 X132.817 Y98.260 E3.04080
G1 X133.056 Y98.812 E3.06082
G1 X133.201 Y99.396 E3.08082
G1 X133.251 Y100.000 E3.10097
G1 X133.201 Y100.603 E3.12112
G1 X133.056 Y101.187 E3.14112
G1 X132.817 Y101.739 E3.16113
G1 X132.361 Y102.401 E3.18788
G0 X132.267 Y102.451 F7200
G0 X130.667 Y102.451
G0 X131.227 Y102.851
;segType:Loop
G1 X127.461 Y102.851 E3.31314 F1200
G1 X126.830 Y101.934 E3.35017
G1 X126.562 Y101.315 E3.37258
G1 X126.401 Y100.668 E3.39476
G1 X126.346 Y100.000 E3.41708
G1 X126.401 Y99.331 E3.43939
G1 X126.562 Y98.684 E3.46157
G1 X126.830 Y98.065 E3.48399
G1 X127.461 Y97.149 E3.52099
G1 X132.537 Y97.149 E3.68982
G1 X133.168 Y98.065 E3.72681
G1 X133.436 Y98.684 E3.74923
G1 X133.597 Y99.331 E3.77141
G1 X133.652 Y100.000 E3.79373
G1 X133.597 Y100.668 E3.81605
G1 X133.436 Y101.315 E3.83822
G1 X133.168 Y101.934 E3.86064
G1 X132.537 Y102.851 E3.89766
G1 X131.427 Y102.851 E3.93459
G0 F3000 E2.93459
G0 X131.449 Y102.451 F7200
G0 X132.327 Y102.451
G0 X132.817 Y101.739
G0 X133.056 Y101.187
G0 X133.201 Y100.603
G0 X133.251 Y100.000
G0 X133.201 Y99.396
G0 X133.056 Y98.812
G0 X132.817 Y98.260
G0 X132.327 Y97.549
G0 X131.717 Y97.549
G0 X131.759 Y96.789
G0 F3000 E3.93459
;segType:HShell
G1 X131.183 Y96.214 E3.96166 F1200
G0 X130.477 Y96.074 F7200
G1 X131.193 Y96.789 E3.99532 F1200
G0 X130.627 Y96.789 F7200
G1 X129.847 Y96.009 E4.03199 F1200
G0 X129.375 Y96.103 F7200
G1 X130.062 Y96.789 E4.06427 F1200
G0 X129.496 Y96.789 F7200
G1 X128.903 Y96.197 E4.09213 F1200
G0 X128.911 Y96.487 F7200
G1 X128.233 Y96.657 E4.15030 F1200
; ------------------------------------
; Layer #3
; ------------------------------------
G92 E0 ;reset extr
G0 F3000 E-1.00000
G0 F600 Z1.800
G0 X130.630 Y103.896 F7200
G0 F3000 E0.00000
;segType:HShell
G1 X131.315 Y103.211 E0.03222 F1200
G0 F3000 E-0.96778
G0 X131.336 Y103.755 F7200
G0 F3000 E0.03222
G1 X131.880 Y103.211 E0.05782 F1200
G0 X132.457 Y103.161 F7200
;segType:InnerHair
G1 X132.342 Y103.196 E0.06071 F1200
G1 X132.228 Y103.231 E0.06428
G1 X132.114 Y103.265 E0.06854
G0 X132.098 Y103.270 F7200
G0 X132.222 Y103.233
G0 X132.346 Y103.195
G0 X132.470 Y103.157
G1 X132.863 Y102.904 E0.07621 F1200
G1 X132.933 Y102.812 E0.07820
G1 X132.998 Y102.716 E0.08019
G1 X133.063 Y102.619 E0.08217
G1 X133.129 Y102.523 E0.08413
G1 X133.194 Y102.427 E0.08607
G1 X133.259 Y102.330 E0.08800
G1 X133.325 Y102.234 E0.08992
G1 X133.390 Y102.138 E0.09182
G1 X133.452 Y102.038 E0.09380
G1 X133.509 Y101.934 E0.09603
G1 X133.566 Y101.829 E0.09848
G1 X133.623 Y101.724 E0.10113
G1 X133.680 Y101.620 E0.10400
G1 X133.737 Y101.515 E0.10708
G1 X133.722 Y101.543 E0.10789
G1 X133.758 Y101.429 E0.11068
G1 X133.784 Y101.315 E0.11335
G1 X133.809 Y101.201 E0.11597
G1 X133.835 Y101.086 E0.11853
G1 X133.860 Y100.972 E0.12104
G1 X133.886 Y100.858 E0.12349
G1 X133.911 Y100.743 E0.12589
G1 X133.929 Y100.629 E0.12835
G1 X133.945 Y100.515 E0.13093
G1 X133.961 Y100.401 E0.13363
G1 X133.977 Y100.286 E0.13646
G1 X133.993 Y100.172 E0.13942
G1 X134.009 Y100.058 E0.14250
G1 X134.009 Y99.943 E0.14556
G1 X133.993 Y99.829 E0.14852
G1 X133.977 Y99.715 E0.15135
G1 X133.961 Y99.601 E0.15406
G1 X133.945 Y99.486 E0.15664
G1 X133.929 Y99.372 E0.15910
G1 X133.912 Y99.258 E0.16147
G1 X133.886 Y99.143 E0.16392
G1 X133.861 Y99.029 E0.16642
G1 X133.835 Y98.915 E0.16898
G1 X133.810 Y98.801 E0.17160
G1 X133.784 Y98.686 E0.17427
G0 X133.758 Y98.572 F7200
G0 X133.723 Y98.458
G1 X133.756 Y98.507 E0.17577 F1200
G1 X133.695 Y98.406 E0.17866
G1 X133.638 Y98.302 E0.18137
G1 X133.581 Y98.197 E0.18387
G1 X133.524 Y98.093 E0.18615
G1 X133.467 Y97.988 E0.18823
G1 X133.407 Y97.886 E0.19015
G1 X133.341 Y97.790 E0.19206
G1 X133.276 Y97.694 E0.19399
G1 X133.211 Y97.597 E0.19593
G1 X133.145 Y97.501 E0.19789
G1 X133.080 Y97.405 E0.19986
G1 X133.015 Y97.309 E0.20185
G1 X132.949 Y97.212 E0.20386
G1 X132.884 Y97.116 E0.20588
G1 X132.803 Y97.036 E0.20746
G0 X132.502 Y96.852 F7200
G0 X132.378 Y96.814
G0 X132.254 Y96.777
G0 X132.130 Y96.739
G1 X132.114 Y96.734 E0.20806 F1200
G1 X132.228 Y96.769 E0.21164
G1 X132.342 Y96.803 E0.21453
G1 X132.457 Y96.838 E0.21674
G0 X133.842 Y97.695 F7200
;segType:Perimeter
G1 X134.443 Y98.223 E0.24335 F600
G1 X134.796 Y100.000 E0.30360
G1 X134.432 Y101.835 E0.36585
G1 X133.392 Y103.391 E0.42808
G1 X131.836 Y104.431 E0.49032
G1 X130.000 Y104.796 E0.55258
G1 X128.165 Y104.431 E0.61483
G1 X126.609 Y103.391 E0.67707
G1 X125.569 Y101.835 E0.73930
G1 X125.204 Y100.000 E0.80156
G1 X125.569 Y98.164 E0.86381
G1 X126.609 Y96.608 E0.92605
G1 X128.165 Y95.568 E0.98828
G1 X130.000 Y95.204 E1.05053
G1 X131.836 Y95.568 E1.11278
G1 X133.392 Y96.608 E1.17502
G1 X134.398 Y98.114 E1.23526
G0 X134.443 Y98.223 F7200
G0 X134.755 Y99.792
G0 X134.388 Y100.000
G0 X134.254 Y99.321
;segType:Loop
G1 X134.388 Y100.000 E1.25828 F1200
G1 X134.055 Y101.679 E1.31524
G1 X133.104 Y103.103 E1.37218
G1 X131.680 Y104.054 E1.42913
G1 X130.000 Y104.388 E1.48609
G1 X128.321 Y104.054 E1.54305
G1 X126.897 Y103.103 E1.59999
G1 X125.946 Y101.679 E1.65694
G1 X125.612 Y100.000 E1.71390
G1 X125.946 Y98.320 E1.77086
G1 X126.897 Y96.896 E1.82780
G1 X128.321 Y95.945 E1.88474
G1 X130.000 Y95.612 E1.94170
G1 X131.680 Y95.945 E1.99866
G1 X133.104 Y96.896 E2.05560
G1 X134.055 Y98.320 E2.11254
G1 X134.215 Y99.124 E2.13983
G0 F3000 E1.13983
G0 X134.215 Y99.124 F7200
G0 X133.607 Y99.457
G0 X133.652 Y100.000
G0 X133.597 Y100.668
G0 X133.436 Y101.315
G0 X133.168 Y101.934
G0 X132.537 Y102.851
G0 X127.461 Y102.851
G0 X127.445 Y102.829
G0 X126.919 Y103.117
G0 X127.197 Y102.964
G0 F3000 E2.13983
;segType:InnerHair
G1 X127.116 Y102.884 E2.14178 F1200
G1 X127.051 Y102.788 E2.14376
G1 X126.985 Y102.692 E2.14573
G1 X126.920 Y102.595 E2.14767
G1 X126.855 Y102.499 E2.14961
G1 X126.789 Y102.403 E2.15152
G1 X126.724 Y102.306 E2.15343
G1 X126.659 Y102.210 E2.15531
G1 X126.593 Y102.114 E2.15719
G1 X126.533 Y102.012 E2.15921
G1 X126.476 Y101.908 E2.16147
G1 X126.419 Y101.803 E2.16394
G1 X126.362 Y101.698 E2.16662
G1 X126.305 Y101.594 E2.16952
G1 X126.244 Y101.493 E2.17247
G1 X126.277 Y101.543 E2.17399
G1 X126.242 Y101.429 E2.17676
G1 X126.216 Y101.315 E2.17940
G1 X126.190 Y101.201 E2.18199
G1 X126.165 Y101.086 E2.18453
G1 X126.139 Y100.972 E2.18701
G1 X126.114 Y100.858 E2.18944
G1 X126.088 Y100.743 E2.19182
G1 X126.070 Y100.629 E2.19425
G1 X126.054 Y100.515 E2.19681
G1 X126.038 Y100.401 E2.19950
G1 X126.022 Y100.286 E2.20231
G1 X126.006 Y100.172 E2.20525
G1 X125.990 Y100.058 E2.20831
G1 X125.990 Y99.943 E2.21134
G1 X126.006 Y99.829 E2.21428
G1 X126.022 Y99.715 E2.21710
G1 X126.038 Y99.601 E2.21978
G1 X126.054 Y99.486 E2.22234
G1 X126.070 Y99.372 E2.22478
G1 X126.088 Y99.258 E2.22712
G1 X126.113 Y99.143 E2.22955
G1 X126.139 Y99.029 E2.23203
G1 X126.164 Y98.915 E2.23457
G1 X126.190 Y98.801 E2.23716
G1 X126.215 Y98.686 E2.23980
G1 X126.241 Y98.572 E2.24250
G1 X126.277 Y98.458 E2.24551
G1 X126.290 Y98.432 E2.24623
G1 X126.347 Y98.328 E2.24896
G1 X126.404 Y98.223 E2.25149
G1 X126.462 Y98.119 E2.25380
G1 X126.519 Y98.014 E2.25590
G1 X126.576 Y97.909 E2.25779
G1 X126.642 Y97.814 E2.25967
G1 X126.707 Y97.718 E2.26157
G1 X126.772 Y97.621 E2.26348
G1 X126.838 Y97.525 E2.26541
G1 X126.903 Y97.429 E2.26736
G1 X126.969 Y97.333 E2.26932
G1 X127.034 Y97.236 E2.27130
G1 X127.099 Y97.140 E2.27330
G1 X127.176 Y97.056 E2.27496
G0 X127.467 Y96.862 F7200
G0 X127.591 Y96.824
G0 X127.715 Y96.786
G0 X127.839 Y96.749
G0 X127.963 Y96.711
G1 X127.885 Y96.735 E2.27787 F1200
G1 X127.771 Y96.769 E2.28144
G1 X127.657 Y96.804 E2.28432
G1 X127.542 Y96.839 E2.28652
G0 X127.176 Y97.056 F7200
G0 X127.099 Y97.140
G0 X126.642 Y97.814
G0 X126.576 Y97.909
G0 X126.290 Y98.432
G0 X126.215 Y98.686
G0 X126.088 Y99.258
G0 X126.070 Y99.372
G0 X125.990 Y99.943
G0 X125.990 Y100.058
G0 X126.070 Y100.629
G0 X126.088 Y100.743
G0 X126.216 Y101.315
G0 X126.305 Y101.594
G0 X126.533 Y102.012
G0 X126.593 Y102.114
G0 X127.116 Y102.884
G0 X127.197 Y102.964
G1 X127.542 Y103.161 E2.29378 F1200
G1 X127.657 Y103.195 E2.29665
G1 X127.771 Y103.230 E2.30021
G1 X127.885 Y103.265 E2.30446
G0 X128.486 Y103.211 F7200
;segType:HShell
G1 X128.174 Y103.523 E2.31913 F1200
G0 X129.052 Y103.211 F7200
G1 X128.534 Y103.729 E2.34351 F1200
G0 X129.005 Y103.823 F7200
G1 X129.617 Y103.211 E2.37230 F1200
G0 X130.183 Y103.211 F7200
G1 X129.477 Y103.917 E2.40550 F1200
G0 X129.949 Y104.011 F7200
G1 X130.749 Y103.211 E2.44313 F1200
G0 X133.067 Y102.451 F7200
;segType:Perimeter
G1 X132.267 Y102.451 E2.46974 F600
G1 X127.671 Y102.451 E2.62260
G1 X127.181 Y101.739 E2.65133
G1 X126.942 Y101.187 E2.67135
G1 X126.797 Y100.603 E2.69135
G1 X126.747 Y100.000 E2.71150
G1 X126.797 Y99.396 E2.73164
G1 X126.942 Y98.812 E2.75165
G1 X127.181 Y98.260 E2.77166
G1 X127.671 Y97.549 E2.80037
G1 X132.327 Y97.549 E2.95522
G1 X132.817 Y98.260 E2.98393
G1 X133.056 Y98.812 E3.00395
G1 X133.201 Y99.396 E3.02395
G1 X133.251 Y100.000 E3.04410
G1 X133.201 Y100.603 E3.06425
G1 X133.056 Y101.187 E3.08425
G1 X132.817 Y101.739 E3.10426
G1 X132.361 Y102.401 E3.13100
G0 X132.267 Y102.451 F7200
G0 X130.667 Y102.451
G0 X131.227 Y102.851
;segType:Loop
G1 X127.461 Y102.851 E3.25627 F1200
G1 X126.830 Y101.934 E3.29330
G1 X126.562 Y101.315 E3.31571
G1 X126.401 Y100.668 E3.33789
G1 X126.346 Y100.000 E3.36020
G1 X126.401 Y99.331 E3.38252
G1 X126.562 Y98.684 E3.40470
G1 X126.830 Y98.065 E3.42712
G1 X127.461 Y97.149 E3.46412
G1 X132.537 Y97.149 E3.63295
G1 X133.168 Y98.065 E3.66994
G1 X133.436 Y98.684 E3.69236
G1 X133.597 Y99.331 E3.71454
G1 X133.652 Y100.000 E3.73686
G1 X133.597 Y100.668 E3.75918
G1 X133.436 Y101.315 E3.78135
G1 X133.168 Y101.934 E3.80377
G1 X132.537 Y102.851 E3.84079
G1 X131.427 Y102.851 E3.87772
G0 F3000 E2.87772
G0 X132.537 Y102.851 F7200
G0 X133.168 Y101.934
G0 X133.436 Y101.315
G0 X133.597 Y100.668
G0 X133.652 Y100.000
G0 X133.597 Y99.331
G0 X133.436 Y98.684
G0 X133.168 Y98.065
G0 X132.537 Y97.149
G0 X131.509 Y97.149
G0 X131.514 Y96.789
G0 F3000 E3.87772
;segType:HShell
G0 X131.902 Y96.684 F7200
G1 X131.208 Y96.530 E3.93290 F1200
G0 X130.383 Y96.789 F7200
G1 X130.995 Y96.176 E3.96173 F1200
G0 X130.523 Y96.083 F7200
G1 X129.817 Y96.789 E3.99495 F1200
G0 X129.251 Y96.789 F7200
G1 X130.051 Y95.989 E4.03259 F1200
G0 X129.371 Y96.104 F7200
G1 X128.685 Y96.789 E4.06482 F1200
G0 X128.120 Y96.789 F7200
G1 X128.665 Y96.244 E4.09046 F1200
; ------------------------------------
; Layer #4
; ------------------------------------
G92 E0 ;reset extr
G0 F3000 E-1.00000
G0 F600 Z2.000
G0 X128.282 Y95.545 F7200
G0 X129.380 Y97.549
G0 X132.327 Y97.549
G0 X132.817 Y98.260
G0 X133.056 Y98.812
G0 X133.201 Y99.396
G0 X133.251 Y100.000
G0 X133.201 Y100.603
G0 X133.056 Y101.187
G0 X132.817 Y101.739
G0 X132.327 Y102.451
G0 X132.067 Y102.451
G0 X132.800 Y103.787
G0 X132.457 Y103.161
G0 F3000 E0.00000
;segType:InnerHair
G1 X132.342 Y103.196 E0.00288 F1200
G1 X132.228 Y103.231 E0.00646
G1 X132.114 Y103.265 E0.01072
G0 X132.098 Y103.270 F7200
G0 X132.222 Y103.233
G0 X132.346 Y103.195
G0 X132.470 Y103.157
G1 X132.863 Y102.904 E0.01839 F1200
G1 X132.933 Y102.812 E0.02038
G1 X132.998 Y102.716 E0.02237
G1 X133.063 Y102.619 E0.02435
G1 X133.129 Y102.523 E0.02631
G1 X133.194 Y102.427 E0.02825
G1 X133.259 Y102.330 E0.03018
G1 X133.325 Y102.234 E0.03210
G1 X133.390 Y102.138 E0.03400
G1 X133.452 Y102.038 E0.03598
G1 X133.509 Y101.934 E0.03821
G1 X133.566 Y101.829 E0.04066
G1 X133.623 Y101.724 E0.04331
G1 X133.680 Y101.620 E0.04618
G1 X133.737 Y101.515 E0.04926
G1 X133.722 Y101.543 E0.05007
G1 X133.758 Y101.429 E0.05286
G1 X133.784 Y101.315 E0.05553
G1 X133.809 Y101.201 E0.05815
G1 X133.835 Y101.086 E0.06071
G1 X133.860 Y100.972 E0.06322
G1 X133.886 Y100.858 E0.06567
G1 X133.911 Y100.743 E0.06807
G1 X133.929 Y100.629 E0.07053
G1 X133.945 Y100.515 E0.07311
G1 X133.961 Y100.401 E0.07581
G1 X133.977 Y100.286 E0.07864
G1 X133.993 Y100.172 E0.08160
G1 X134.009 Y100.058 E0.08468
G1 X134.009 Y99.943 E0.08774
G1 X133.993 Y99.829 E0.09070
G1 X133.977 Y99.715 E0.09353
G1 X133.961 Y99.601 E0.09624
G1 X133.945 Y99.486 E0.09882
G1 X133.929 Y99.372 E0.10128
G1 X133.912 Y99.258 E0.10365
G1 X133.886 Y99.143 E0.10610
G1 X133.861 Y99.029 E0.10860
G1 X133.835 Y98.915 E0.11116
G1 X133.810 Y98.801 E0.11378
G1 X133.784 Y98.686 E0.11645
G0 X133.758 Y98.572 F7200
G0 X133.723 Y98.458
G1 X133.756 Y98.507 E0.11795 F1200
G1 X133.695 Y98.406 E0.12084
G1 X133.638 Y98.302 E0.12355
G1 X133.581 Y98.197 E0.12605
G1 X133.524 Y98.093 E0.12833
G1 X133.467 Y97.988 E0.13041
G1 X133.407 Y97.886 E0.13233
G1 X133.341 Y97.790 E0.13424
G1 X133.276 Y97.694 E0.13617
G1 X133.211 Y97.597 E0.13811
G1 X133.145 Y97.501 E0.14007
G1 X133.080 Y97.405 E0.14204
G1 X133.015 Y97.309 E0.14403
G1 X132.949 Y97.212 E0.14604
G1 X132.884 Y97.116 E0.14806
G1 X132.803 Y97.036 E0.14964
G0 X132.502 Y96.852 F7200
G0 X132.378 Y96.814
G0 X132.254 Y96.777
G0 X132.130 Y96.739
G1 X132.114 Y96.734 E0.15024 F1200
G1 X132.228 Y96.769 E0.15382
G1 X132.342 Y96.803 E0.15671
G1 X132.457 Y96.838 E0.15892
G0 F3000 E-0.84108
G0 X132.611 Y96.086 F7200
G0 X132.311 Y97.549
G0 X132.327 Y97.549
G0 X132.817 Y98.260
G0 X133.056 Y98.812
G0 X133.201 Y99.396
G0 X133.251 Y100.000
G0 X133.201 Y100.603
G0 X133.056 Y101.187
G0 X132.817 Y101.739
G0 X132.327 Y102.451
G0 X131.309 Y102.451
G0 X131.227 Y102.851
G0 F3000 E0.15892
;segType:Loop
G1 X127.461 Y102.851 E0.28418 F1200
G1 X126.830 Y101.934 E0.32121
G1 X126.562 Y101.315 E0.34362
G1 X126.401 Y100.668 E0.36580
G1 X126.346 Y100.000 E0.38812
G1 X126.401 Y99.331 E0.41044
G1 X126.562 Y98.684 E0.43261
G1 X126.830 Y98.065 E0.45503
G1 X127.461 Y97.149 E0.49203
G1 X132.537 Y97.149 E0.66086
G1 X133.168 Y98.065 E0.69786
G1 X133.436 Y98.684 E0.72028
G1 X133.597 Y99.331 E0.74245
G1 X133.652 Y100.000 E0.76477
G1 X133.597 Y100.668 E0.78709
G1 X133.436 Y101.315 E0.80927
G1 X133.168 Y101.934 E0.83168
G1 X132.537 Y102.851 E0.86871
G1 X131.427 Y102.851 E0.90563
G0 F3000 E-0.09437
G0 X131.614 Y102.451 F7200
G0 X132.327 Y102.451
G0 X132.817 Y101.739
G0 X133.056 Y101.187
G0 X133.201 Y100.603
G0 X133.251 Y100.000
G0 X133.201 Y99.396
G0 X133.147 Y99.179
G0 X133.956 Y97.452
G0 X133.842 Y97.695
G0 F3000 E0.90563
;segType:Perimeter
G1 X134.443 Y98.223 E0.93224 F600
G1 X134.796 Y100.000 E0.99250
G1 X134.432 Y101.835 E1.05475
G1 X133.392 Y103.391 E1.11698
G1 X131.836 Y104.431 E1.17922
G1 X130.000 Y104.796 E1.24147
G1 X128.165 Y104.431 E1.30373
G1 X126.609 Y103.391 E1.36596
G1 X125.569 Y101.835 E1.42820
G1 X125.204 Y100.000 E1.49045
G1 X125.569 Y98.164 E1.55271
G1 X126.609 Y96.608 E1.61495
G1 X128.165 Y95.568 E1.67718
G1 X130.000 Y95.204 E1.73943
G1 X131.836 Y95.568 E1.80168
G1 X133.392 Y96.608 E1.86391
G1 X134.398 Y98.114 E1.92415
G0 X134.443 Y98.223 F7200
G0 X134.755 Y99.792
G0 F3000 E0.92415
G0 X133.214 Y100.439 F7200
G0 X133.201 Y100.603
G0 X133.056 Y101.187
G0 X132.817 Y101.739
G0 X132.327 Y102.451
G0 X128.421 Y102.451
G0 X126.515 Y103.251
G0 X126.609 Y103.391
G0 X127.197 Y102.964
G0 F3000 E1.92415
;segType:InnerHair
G1 X127.116 Y102.884 E1.92611 F1200
G1 X127.051 Y102.788 E1.92809
G1 X126.985 Y102.692 E1.93005
G1 X126.920 Y102.595 E1.93200
G1 X126.855 Y102.499 E1.93393
G1 X126.789 Y102.403 E1.93585
G1 X126.724 Y102.306 E1.93775
G1 X126.659 Y102.210 E1.93964
G1 X126.593 Y102.114 E1.94151
G1 X126.533 Y102.012 E1.94354
G1 X126.476 Y101.908 E1.94580
G1 X126.419 Y101.803 E1.94827
G1 X126.362 Y101.698 E1.95095
G1 X126.305 Y101.594 E1.95384
G1 X126.244 Y101.493 E1.95680
G1 X126.277 Y101.543 E1.95832
G1 X126.242 Y101.429 E1.96109
G1 X126.216 Y101.315 E1.96373
G1 X126.190 Y101.201 E1.96632
G1 X126.165 Y101.086 E1.96886
G1 X126.139 Y100.972 E1.97134
G1 X126.114 Y100.858 E1.97377
G1 X126.088 Y100.743 E1.97615
G1 X126.070 Y100.629 E1.97858
G1 X126.054 Y100.515 E1.98114
G1 X126.038 Y100.401 E1.98383
G1 X126.022 Y100.286 E1.98664
G1 X126.006 Y100.172 E1.98957
G1 X125.990 Y100.058 E1.99264
G1 X125.990 Y99.943 E1.99567
G1 X126.006 Y99.829 E1.99861
G1 X126.022 Y99.715 E2.00142
G1 X126.038 Y99.601 E2.00411
G1 X126.054 Y99.486 E2.00667
G1 X126.070 Y99.372 E2.00911
G1 X126.088 Y99.258 E2.01145
G1 X126.113 Y99.143 E2.01388
G1 X126.139 Y99.029 E2.01636
G1 X126.164 Y98.915 E2.01890
G1 X126.190 Y98.801 E2.02149
G1 X126.215 Y98.686 E2.02413
G1 X126.241 Y98.572 E2.02683
G1 X126.277 Y98.458 E2.02984
G1 X126.290 Y98.432 E2.03055
G1 X126.347 Y98.328 E2.03329
G1 X126.404 Y98.223 E2.03582
G1 X126.462 Y98.119 E2.03813
G1 X126.519 Y98.014 E2.04023
G1 X126.576 Y97.909 E2.04212
G1 X126.642 Y97.814 E2.04399
G1 X126.707 Y97.718 E2.04589
G1 X126.772 Y97.621 E2.04781
G1 X126.838 Y97.525 E2.04974
G1 X126.903 Y97.429 E2.05169
G1 X126.969 Y97.333 E2.05365
G1 X127.034 Y97.236 E2.05563
G1 X127.099 Y97.140 E2.05763
G1 X127.176 Y97.056 E2.05929
G0 X127.467 Y96.862 F7200
G0 X127.591 Y96.824
G0 X127.715 Y96.786
G0 X127.839 Y96.749
G0 X127.963 Y96.711
G1 X127.885 Y96.735 E2.06220 F1200
G1 X127.771 Y96.769 E2.06577
G1 X127.657 Y96.804 E2.06865
G1 X127.542 Y96.839 E2.07084
G0 X127.176 Y97.056 F7200
G0 X127.099 Y97.140
G0 X126.642 Y97.814
G0 X126.576 Y97.909
G0 X126.290 Y98.432
G0 X126.215 Y98.686
G0 X126.088 Y99.258
G0 X126.070 Y99.372
G0 X125.990 Y99.943
G0 X125.990 Y100.058
G0 X126.070 Y100.629
G0 X126.088 Y100.743
G0 X126.216 Y101.315
G0 X126.305 Y101.594
G0 X126.533 Y102.012
G0 X126.593 Y102.114
G0 X127.116 Y102.884
G0 X127.197 Y102.964
G1 X127.542 Y103.161 E2.07811 F1200
G1 X127.657 Y103.195 E2.08098
G1 X127.771 Y103.230 E2.08454
G1 X127.885 Y103.265 E2.08879
G0 X130.261 Y103.211 F7200
;segType:Infill
G1 X130.893 Y103.843 E2.12449 F1500
G0 X133.067 Y102.451 F7200
;segType:Perimeter
G1 X132.267 Y102.451 E2.15110 F600
G1 X127.671 Y102.451 E2.30396
G1 X127.181 Y101.739 E2.33270
G1 X126.942 Y101.187 E2.35271
G1 X126.797 Y100.603 E2.37271
G1 X126.747 Y100.000 E2.39286
G1 X126.797 Y99.396 E2.41301
G1 X126.942 Y98.812 E2.43301
G1 X127.181 Y98.260 E2.45303
G1 X127.671 Y97.549 E2.48174
G1 X132.327 Y97.549 E2.63659
G1 X132.817 Y98.260 E2.66530
G1 X133.056 Y98.812 E2.68532
G1 X133.201 Y99.396 E2.70532
G1 X133.251 Y100.000 E2.72546
G1 X133.201 Y100.603 E2.74561
G1 X133.056 Y101.187 E2.76561
G1 X132.817 Y101.739 E2.78563
G1 X132.361 Y102.401 E2.81237
G0 X132.267 Y102.451 F7200
G0 X130.667 Y102.451
G0 F3000 E1.81237
G0 X132.327 Y102.451 F7200
G0 X132.817 Y101.739
G0 X133.056 Y101.187
G0 X133.201 Y100.603
G0 X133.233 Y100.211
G0 X134.601 Y99.017
G0 X134.254 Y99.321
G0 F3000 E2.81237
;segType:Loop
G1 X134.388 Y100.000 E2.83539 F1200
G1 X134.055 Y101.679 E2.89235
G1 X133.104 Y103.103 E2.94929
G1 X131.680 Y104.054 E3.00623
G1 X130.000 Y104.388 E3.06320
G1 X128.321 Y104.054 E3.12016
G1 X126.897 Y103.103 E3.17710
G1 X125.946 Y101.679 E3.23405
G1 X125.612 Y100.000 E3.29101
G1 X125.946 Y98.320 E3.34797
G1 X126.897 Y96.896 E3.40491
G1 X128.321 Y95.945 E3.46185
G1 X130.000 Y95.612 E3.51881
G1 X131.680 Y95.945 E3.57577
G1 X133.104 Y96.896 E3.63271
G1 X134.055 Y98.320 E3.68965
G1 X134.215 Y99.124 E3.71694
G0 F3000 E2.71694
G0 X134.660 Y99.314 F7200
G0 X132.960 Y98.591
G0 X132.817 Y98.260
G0 X132.327 Y97.549
G0 X130.509 Y97.549
G0 X128.101 Y96.525
G0 F3000 E3.71694
;segType:Infill
G1 X128.364 Y96.789 E3.73182 F1500
; ------------------------------------
; Layer #5
; ------------------------------------
G92 E0 ;reset extr
G0 F3000 E-1.00000
G0 F600 Z2.200
G0 X128.853 Y97.549 F7200
G0 X132.327 Y97.549
G0 X132.817 Y98.260
G0 X133.056 Y98.812
G0 X133.201 Y99.396
G0 X133.251 Y100.000
G0 X133.201 Y100.603
G0 X133.056 Y101.187
G0 X132.817 Y101.739
G0 X132.327 Y102.451
G0 X132.000 Y102.451
G0 X132.841 Y103.759
G0 X132.457 Y103.161
G0 F3000 E0.00000
;segType:InnerHair
G1 X132.342 Y103.196 E0.00288 F1200
G1 X132.228 Y103.231 E0.00646
G1 X132.114 Y103.265 E0.01072
G0 X132.098 Y103.270 F7200
G0 X132.222 Y103.233
G0 X132.346 Y103.195
G0 X132.470 Y103.157
G1 X132.863 Y102.904 E0.01839 F1200
G1 X132.933 Y102.812 E0.02038
G1 X132.998 Y102.716 E0.02237
G1 X133.063 Y102.619 E0.02435
G1 X133.129 Y102.523 E0.02631
G1 X133.194 Y102.427 E0.02825
G1 X133.259 Y102.330 E0.03018
G1 X133.325 Y102.234 E0.03210
G1 X133.390 Y102.138 E0.03400
G1 X133.452 Y102.038 E0.03598
G1 X133.509 Y101.934 E0.03821
G1 X133.566 Y101.829 E0.04066
G1 X133.623 Y101.724 E0.04331
G1 X133.680 Y101.620 E0.04618
G1 X133.737 Y101.515 E0.04926
G1 X133.722 Y101.543 E0.05007
G1 X133.758 Y101.429 E0.05286
G1 X133.784 Y101.315 E0.05553
G1 X133.809 Y101.201 E0.05815
G1 X133.835 Y101.086 E0.06071
G1 X133.860 Y100.972 E0.06322
G1 X133.886 Y100.858 E0.06567
G1 X133.911 Y100.743 E0.06807
G1 X133.929 Y100.629 E0.07053
G1 X133.945 Y100.515 E0.07311
G1 X133.961 Y100.401 E0.07581
G1 X133.977 Y100.286 E0.07864
G1 X133.993 Y100.172 E0.08160
G1 X134.009 Y100.058 E0.08468
G1 X134.009 Y99.943 E0.08774
G1 X133.993 Y99.829 E0.09070
G1 X133.977 Y99.715 E0.09353
G1 X133.961 Y99.601 E0.09624
G1 X133.945 Y99.486 E0.09882
G1 X133.929 Y99.372 E0.10128
G1 X133.912 Y99.258 E0.10365
G1 X133.886 Y99.143 E0.10610
G1 X133.861 Y99.029 E0.10860
G1 X133.835 Y98.915 E0.11116
G1 X133.810 Y98.801 E0.11378
G1 X133.784 Y98.686 E0.11645
G0 X133.758 Y98.572 F7200
G0 X133.723 Y98.458
G1 X133.756 Y98.507 E0.11795 F1200
G1 X133.695 Y98.406 E0.12084
G1 X133.638 Y98.302 E0.12355
G1 X133.581 Y98.197 E0.12605
G1 X133.524 Y98.093 E0.12833
G1 X133.467 Y97.988 E0.13041
G1 X133.407 Y97.886 E0.13233
G1 X133.341 Y97.790 E0.13424
G1 X133.276 Y97.694 E0.13617
G1 X133.211 Y97.597 E0.13811
G1 X133.145 Y97.501 E0.14007
G1 X133.080 Y97.405 E0.14204
G1 X133.015 Y97.309 E0.14403
G1 X132.949 Y97.212 E0.14604
G1 X132.884 Y97.116 E0.14806
G1 X132.803 Y97.036 E0.14964
G0 X132.502 Y96.852 F7200
G0 X132.378 Y96.814
G0 X132.254 Y96.777
G0 X132.130 Y96.739
G1 X132.114 Y96.734 E0.15024 F1200
G1 X132.228 Y96.769 E0.15382
G1 X132.342 Y96.803 E0.15671
G1 X132.457 Y96.838 E0.15892
G0 F3000 E-0.84108
G0 X132.611 Y96.086 F7200
G0 X132.311 Y97.549
G0 X132.327 Y97.549
G0 X132.817 Y98.260
G0 X133.056 Y98.812
G0 X133.201 Y99.396
G0 X133.251 Y100.000
G0 X133.201 Y100.603
G0 X133.056 Y101.187
G0 X132.817 Y101.739
G0 X132.327 Y102.451
G0 X131.309 Y102.451
G0 X131.227 Y102.851
G0 F3000 E0.15892
;segType:Loop
G1 X127.461 Y102.851 E0.28418 F1200
G1 X126.830 Y101.934 E0.32121
G1 X126.562 Y101.315 E0.34362
G1 X126.401 Y100.668 E0.36580
G1 X126.346 Y100.000 E0.38812
G1 X126.401 Y99.331 E0.41044
G1 X126.562 Y98.684 E0.43261
G1 X126.830 Y98.065 E0.45503
G1 X127.461 Y97.149 E0.49203
G1 X132.537 Y97.149 E0.66086
G1 X133.168 Y98.065 E0.69786
G1 X133.436 Y98.684 E0.72028
G1 X133.597 Y99.331 E0.74245
G1 X133.652 Y100.000 E0.76477
G1 X133.597 Y100.668 E0.78709
G1 X133.436 Y101.315 E0.80927
G1 X133.168 Y101.934 E0.83168
G1 X132.537 Y102.851 E0.86871
G1 X131.427 Y102.851 E0.90563
G0 F3000 E-0.09437
G0 X131.614 Y102.451 F7200
G0 X132.327 Y102.451
G0 X132.817 Y101.739
G0 X133.056 Y101.187
G0 X133.201 Y100.603
G0 X133.251 Y100.000
G0 X133.201 Y99.396
G0 X133.147 Y99.179
G0 X133.956 Y97.452
G0 X133.842 Y97.695
G0 F3000 E0.90563
;segType:Perimeter
G1 X134.443 Y98.223 E0.93224 F600
G1 X134.796 Y100.000 E0.99250
G1 X134.432 Y101.835 E1.05475
G1 X133.392 Y103.391 E1.11698
G1 X131.836 Y104.431 E1.17922
G1 X130.000 Y104.796 E1.24147
G1 X128.165 Y104.431 E1.30373
G1 X126.609 Y103.391 E1.36596
G1 X125.569 Y101.835 E1.42820
G1 X125.204 Y100.000 E1.49046
G1 X125.569 Y98.164 E1.55271
G1 X126.609 Y96.608 E1.61495
G1 X128.165 Y95.568 E1.67718
G1 X130.000 Y95.204 E1.73943
G1 X131.836 Y95.568 E1.80168
G1 X133.392 Y96.608 E1.86392
G1 X134.398 Y98.114 E1.92416
G0 X134.443 Y98.223 F7200
G0 X134.755 Y99.792
G0 F3000 E0.92416
G0 X133.214 Y100.439 F7200
G0 X133.201 Y100.603
G0 X133.056 Y101.187
G0 X132.817 Y101.739
G0 X132.327 Y102.451
G0 X128.421 Y102.451
G0 X126.515 Y103.251
G0 X126.609 Y103.391
G0 X127.197 Y102.964
G0 F3000 E1.92416
;segType:InnerHair
G1 X127.116 Y102.884 E1.92611 F1200
G1 X127.051 Y102.788 E1.92809
G1 X126.985 Y102.692 E1.93005
G1 X126.920 Y102.595 E1.93200
G1 X126.855 Y102.499 E1.93394
G1 X126.789 Y102.403 E1.93585
G1 X126.724 Y102.306 E1.93776
G1 X126.659 Y102.210 E1.93964
G1 X126.593 Y102.114 E1.94151
G1 X126.533 Y102.012 E1.94354
G1 X126.476 Y101.908 E1.94580
G1 X126.419 Y101.803 E1.94827
G1 X126.362 Y101.698 E1.95095
G1 X126.305 Y101.594 E1.95384
G1 X126.244 Y101.493 E1.95680
G1 X126.277 Y101.543 E1.95832
G1 X126.242 Y101.429 E1.96109
G1 X126.216 Y101.315 E1.96373
G1 X126.190 Y101.201 E1.96632
G1 X126.165 Y101.086 E1.96886
G1 X126.139 Y100.972 E1.97134
G1 X126.114 Y100.858 E1.97377
G1 X126.088 Y100.743 E1.97615
G1 X126.070 Y100.629 E1.97858
G1 X126.054 Y100.515 E1.98114
G1 X126.038 Y100.401 E1.98383
G1 X126.022 Y100.286 E1.98664
G1 X126.006 Y100.172 E1.98957
G1 X125.990 Y100.058 E1.99264
G1 X125.990 Y99.943 E1.99567
G1 X126.006 Y99.829 E1.99861
G1 X126.022 Y99.715 E2.00143
G1 X126.038 Y99.601 E2.00411
G1 X126.054 Y99.486 E2.00667
G1 X126.070 Y99.372 E2.00911
G1 X126.088 Y99.258 E2.01145
G1 X126.113 Y99.143 E2.01388
G1 X126.139 Y99.029 E2.01636
G1 X126.164 Y98.915 E2.01890
G1 X126.190 Y98.801 E2.02149
G1 X126.215 Y98.686 E2.02413
G1 X126.241 Y98.572 E2.02683
G1 X126.277 Y98.458 E2.02984
G1 X126.290 Y98.432 E2.03055
G1 X126.347 Y98.328 E2.03329
G1 X126.404 Y98.223 E2.03582
G1 X126.462 Y98.119 E2.03813
G1 X126.519 Y98.014 E2.04023
G1 X126.576 Y97.909 E2.04212
G1 X126.642 Y97.814 E2.04400
G1 X126.707 Y97.718 E2.04590
G1 X126.772 Y97.621 E2.04781
G1 X126.838 Y97.525 E2.04974
G1 X126.903 Y97.429 E2.05169
G1 X126.969 Y97.333 E2.05365
G1 X127.034 Y97.236 E2.05563
G1 X127.099 Y97.140 E2.05763
G1 X127.176 Y97.056 E2.05929
G0 X127.467 Y96.862 F7200
G0 X127.591 Y96.824
G0 X127.715 Y96.786
G0 X127.839 Y96.749
G0 X127.963 Y96.711
G1 X127.885 Y96.735 E2.06220 F1200
G1 X127.771 Y96.769 E2.06577
G1 X127.657 Y96.804 E2.06865
G1 X127.542 Y96.839 E2.07084
G0 X127.176 Y97.056 F7200
G0 X127.099 Y97.140
G0 X126.642 Y97.814
G0 X126.576 Y97.909
G0 X126.290 Y98.432
G0 X126.215 Y98.686
G0 X126.088 Y99.258
G0 X126.070 Y99.372
G0 X125.990 Y99.943
G0 X125.990 Y100.058
G0 X126.070 Y100.629
G0 X126.088 Y100.743
G0 X126.216 Y101.315
G0 X126.305 Y101.594
G0 X126.533 Y102.012
G0 X126.593 Y102.114
G0 X127.116 Y102.884
G0 X127.197 Y102.964
G1 X127.542 Y103.161 E2.07811 F1200
G1 X127.657 Y103.195 E2.08098
G1 X127.771 Y103.230 E2.08454
G1 X127.885 Y103.265 E2.08879
G0 X130.630 Y103.896 F7200
;segType:Infill
G1 X131.315 Y103.211 E2.12745 F1500
G0 X133.067 Y102.451 F7200
;segType:Perimeter
G1 X132.267 Y102.451 E2.15406 F600
G1 X127.671 Y102.451 E2.30692
G1 X127.181 Y101.739 E2.33566
G1 X126.942 Y101.187 E2.35568
G1 X126.797 Y100.603 E2.37568
G1 X126.747 Y100.000 E2.39582
G1 X126.797 Y99.396 E2.41597
G1 X126.942 Y98.812 E2.43597
G1 X127.181 Y98.260 E2.45599
G1 X127.671 Y97.549 E2.48470
G1 X132.327 Y97.549 E2.63955
G1 X132.817 Y98.260 E2.66826
G1 X133.056 Y98.812 E2.68828
G1 X133.201 Y99.396 E2.70828
G1 X133.251 Y100.000 E2.72842
G1 X133.201 Y100.603 E2.74857
G1 X133.056 Y101.187 E2.76857
G1 X132.817 Y101.739 E2.78859
G1 X132.361 Y102.401 E2.81533
G0 X132.267 Y102.451 F7200
G0 X130.667 Y102.451
G0 F3000 E1.81533
G0 X132.327 Y102.451 F7200
G0 X132.817 Y101.739
G0 X133.056 Y101.187
G0 X133.201 Y100.603
G0 X133.233 Y100.211
G0 X134.601 Y99.017
G0 X134.254 Y99.321
G0 F3000 E2.81533
;segType:Loop
G1 X134.388 Y100.000 E2.83835 F1200
G1 X134.055 Y101.679 E2.89531
G1 X133.104 Y103.103 E2.95225
G1 X131.680 Y104.054 E3.00920
G1 X130.000 Y104.388 E3.06616
G1 X128.321 Y104.054 E3.12312
G1 X126.897 Y103.103 E3.18006
G1 X125.946 Y101.679 E3.23701
G1 X125.612 Y100.000 E3.29397
G1 X125.946 Y98.320 E3.35093
G1 X126.897 Y96.896 E3.40788
G1 X128.321 Y95.945 E3.46482
G1 X130.000 Y95.612 E3.52177
G1 X131.680 Y95.945 E3.57873
G1 X133.104 Y96.896 E3.63567
G1 X134.055 Y98.320 E3.69261
G1 X134.215 Y99.124 E3.71990
G0 F3000 E2.71990
G0 X134.680 Y99.415 F7200
G0 X132.808 Y98.247
G0 X132.327 Y97.549
G0 X131.688 Y97.549
G0 X129.371 Y96.104
G0 F3000 E3.71990
;segType:Infill
G1 X128.685 Y96.789 E3.75857 F1500
; ------------------------------------
; Layer #6
; ------------------------------------
G92 E0 ;reset extr
G0 F3000 E-1.00000
G0 F600 Z2.400
G0 X129.135 Y97.549 F7200
G0 X132.327 Y97.549
G0 X132.817 Y98.260
G0 X133.056 Y98.812
G0 X133.201 Y99.396
G0 X133.251 Y100.000
G0 X133.201 Y100.603
G0 X133.056 Y101.187
G0 X132.817 Y101.739
G0 X132.327 Y102.451
G0 X132.036 Y102.451
G0 X132.819 Y103.774
G0 X132.457 Y103.161
G0 F3000 E0.00000
;segType:InnerHair
G1 X132.342 Y103.196 E0.00288 F1200
G1 X132.228 Y103.231 E0.00646
G1 X132.114 Y103.265 E0.01072
G0 X132.098 Y103.270 F7200
G0 X132.222 Y103.233
G0 X132.346 Y103.195
G0 X132.470 Y103.157
G1 X132.863 Y102.904 E0.01839 F1200
G1 X132.933 Y102.812 E0.02038
G1 X132.998 Y102.716 E0.02237
G1 X133.063 Y102.619 E0.02435
G1 X133.129 Y102.523 E0.02631
G1 X133.194 Y102.427 E0.02825
G1 X133.259 Y102.330 E0.03018
G1 X133.325 Y102.234 E0.03210
G1 X133.390 Y102.138 E0.03400
G1 X133.452 Y102.038 E0.03598
G1 X133.509 Y101.934 E0.03821
G1 X133.566 Y101.829 E0.04066
G1 X133.623 Y101.724 E0.04331
G1 X133.680 Y101.620 E0.04618
G1 X133.737 Y101.515 E0.04926
G1 X133.722 Y101.543 E0.05007
G1 X133.758 Y101.429 E0.05286
G1 X133.784 Y101.315 E0.05553
G1 X133.809 Y101.201 E0.05815
G1 X133.835 Y101.086 E0.06071
G1 X133.860 Y100.972 E0.06322
G1 X133.886 Y100.858 E0.06567
G1 X133.911 Y100.743 E0.06807
G1 X133.929 Y100.629 E0.07053
G1 X133.945 Y100.515 E0.07311
G1 X133.961 Y100.401 E0.07581
G1 X133.977 Y100.286 E0.07864
G1 X133.993 Y100.172 E0.08160
G1 X134.009 Y100.058 E0.08468
G1 X134.009 Y99.943 E0.08774
G1 X133.993 Y99.829 E0.09070
G1 X133.977 Y99.715 E0.09353
G1 X133.961 Y99.601 E0.09624
G1 X133.945 Y99.486 E0.09882
G1 X133.929 Y99.372 E0.10128
G1 X133.912 Y99.258 E0.10365
G1 X133.886 Y99.143 E0.10610
G1 X133.861 Y99.029 E0.10860
G1 X133.835 Y98.915 E0.11116
G1 X133.810 Y98.801 E0.11378
G1 X133.784 Y98.686 E0.11645
G0 X133.758 Y98.572 F7200
G0 X133.723 Y98.458
G1 X133.756 Y98.507 E0.11795 F1200
G1 X133.695 Y98.406 E0.12084
G1 X133.638 Y98.302 E0.12355
G1 X133.581 Y98.197 E0.12605
G1 X133.524 Y98.093 E0.12833
G1 X133.467 Y97.988 E0.13041
G1 X133.407 Y97.886 E0.13233
G1 X133.341 Y97.790 E0.13424
G1 X133.276 Y97.694 E0.13617
G1 X133.211 Y97.597 E0.13811
G1 X133.145 Y97.501 E0.14007
G1 X133.080 Y97.405 E0.14204
G1 X133.015 Y97.309 E0.14403
G1 X132.949 Y97.212 E0.14604
G1 X132.884 Y97.116 E0.14806
G1 X132.803 Y97.036 E0.14964
G0 X132.502 Y96.852 F7200
G0 X132.378 Y96.814
G0 X132.254 Y96.777
G0 X132.130 Y96.739
G1 X132.114 Y96.734 E0.15024 F1200
G1 X132.228 Y96.769 E0.15382
G1 X132.342 Y96.803 E0.15671
G1 X132.457 Y96.838 E0.15892
G0 F3000 E-0.84108
G0 X132.611 Y96.086 F7200
G0 X132.311 Y97.549
G0 X132.327 Y97.549
G0 X132.817 Y98.260
G0 X133.056 Y98.812
G0 X133.201 Y99.396
G0 X133.251 Y100.000
G0 X133.201 Y100.603
G0 X133.056 Y101.187
G0 X132.817 Y101.739
G0 X132.327 Y102.451
G0 X131.309 Y102.451
G0 X131.227 Y102.851
G0 F3000 E0.15892
;segType:Loop
G1 X127.461 Y102.851 E0.28418 F1200
G1 X126.830 Y101.934 E0.32121
G1 X126.562 Y101.315 E0.34362
G1 X126.401 Y100.668 E0.36580
G1 X126.346 Y100.000 E0.38812
G1 X126.401 Y99.331 E0.41044
G1 X126.562 Y98.684 E0.43261
G1 X126.830 Y98.065 E0.45503
G1 X127.461 Y97.149 E0.49203
G1 X132.537 Y97.149 E0.66086
G1 X133.168 Y98.065 E0.69786
G1 X133.436 Y98.684 E0.72028
G1 X133.597 Y99.331 E0.74245
G1 X133.652 Y100.000 E0.76477
G1 X133.597 Y100.668 E0.78709
G1 X133.436 Y101.315 E0.80927
G1 X133.168 Y101.934 E0.83168
G1 X132.537 Y102.851 E0.86871
G1 X131.427 Y102.851 E0.90563
G0 F3000 E-0.09437
G0 X131.614 Y102.451 F7200
G0 X132.327 Y102.451
G0 X132.817 Y101.739
G0 X133.056 Y101.187
G0 X133.201 Y100.603
G0 X133.251 Y100.000
G0 X133.201 Y99.396
G0 X133.147 Y99.179
G0 X133.956 Y97.452
G0 X133.842 Y97.695
G0 F3000 E0.90563
;segType:Perimeter
G1 X134.443 Y98.223 E0.93224 F600
G1 X134.796 Y100.000 E0.99250
G1 X134.432 Y101.835 E1.05475
G1 X133.392 Y103.391 E1.11698
G1 X131.836 Y104.431 E1.17922
G1 X130.000 Y104.796 E1.24147
G1 X128.165 Y104.431 E1.30373
G1 X126.609 Y103.391 E1.36596
G1 X125.569 Y101.835 E1.42820
G1 X125.204 Y100.000 E1.49046
G1 X125.569 Y98.164 E1.55271
G1 X126.609 Y96.608 E1.61495
G1 X128.165 Y95.568 E1.67718
G1 X130.000 Y95.204 E1.73943
G1 X131.836 Y95.568 E1.80168
G1 X133.392 Y96.608 E1.86392
G1 X134.398 Y98.114 E1.92416
G0 X134.443 Y98.223 F7200
G0 X134.755 Y99.792
G0 F3000 E0.92416
G0 X133.214 Y100.439 F7200
G0 X133.201 Y100.603
G0 X133.056 Y101.187
G0 X132.817 Y101.739
G0 X132.327 Y102.451
G0 X128.421 Y102.451
G0 X126.515 Y103.251
G0 X126.609 Y103.391
G0 X127.197 Y102.964
G0 F3000 E1.92416
;segType:InnerHair
G1 X127.116 Y102.884 E1.92611 F1200
G1 X127.051 Y102.788 E1.92809
G1 X126.985 Y102.692 E1.93005
G1 X126.920 Y102.595 E1.93200
G1 X126.855 Y102.499 E1.93394
G1 X126.789 Y102.403 E1.93585
G1 X126.724 Y102.306 E1.93776
G1 X126.659 Y102.210 E1.93964
G1 X126.593 Y102.114 E1.94151
G1 X126.533 Y102.012 E1.94354
G1 X126.476 Y101.908 E1.94580
G1 X126.419 Y101.803 E1.94827
G1 X126.362 Y101.698 E1.95095
G1 X126.305 Y101.594 E1.95384
G1 X126.244 Y101.493 E1.95680
G1 X126.277 Y101.543 E1.95832
G1 X126.242 Y101.429 E1.96109
G1 X126.216 Y101.315 E1.96373
G1 X126.190 Y101.201 E1.96632
G1 X126.165 Y101.086 E1.96886
G1 X126.139 Y100.972 E1.97134
G1 X126.114 Y100.858 E1.97377
G1 X126.088 Y100.743 E1.97615
G1 X126.070 Y100.629 E1.97858
G1 X126.054 Y100.515 E1.98114
G1 X126.038 Y100.401 E1.98383
G1 X126.022 Y100.286 E1.98664
G1 X126.006 Y100.172 E1.98957
G1 X125.990 Y100.058 E1.99264
G1 X125.990 Y99.943 E1.99567
G1 X126.006 Y99.829 E1.99861
G1 X126.022 Y99.715 E2.00143
G1 X126.038 Y99.601 E2.00411
G1 X126.054 Y99.486 E2.00667
G1 X126.070 Y99.372 E2.00911
G1 X126.088 Y99.258 E2.01145
G1 X126.113 Y99.143 E2.01388
G1 X126.139 Y99.029 E2.01636
G1 X126.164 Y98.915 E2.01890
G1 X126.190 Y98.801 E2.02149
G1 X126.215 Y98.686 E2.02413
G1 X126.241 Y98.572 E2.02683
G1 X126.277 Y98.458 E2.02984
G1 X126.290 Y98.432 E2.03055
G1 X126.347 Y98.328 E2.03329
G1 X126.404 Y98.223 E2.03582
G1 X126.462 Y98.119 E2.03813
G1 X126.519 Y98.014 E2.04023
G1 X126.576 Y97.909 E2.04212
G1 X126.642 Y97.814 E2.04400
G1 X126.707 Y97.718 E2.04590
G1 X126.772 Y97.621 E2.04781
G1 X126.838 Y97.525 E2.04974
G1 X126.903 Y97.429 E2.05169
G1 X126.969 Y97.333 E2.05365
G1 X127.034 Y97.236 E2.05563
G1 X127.099 Y97.140 E2.05763
G1 X127.176 Y97.056 E2.05929
G0 X127.467 Y96.862 F7200
G0 X127.591 Y96.824
G0 X127.715 Y96.786
G0 X127.839 Y96.749
G0 X127.963 Y96.711
G1 X127.885 Y96.735 E2.06220 F1200
G1 X127.771 Y96.769 E2.06577
G1 X127.657 Y96.804 E2.06865
G1 X127.542 Y96.839 E2.07084
G0 X127.176 Y97.056 F7200
G0 X127.099 Y97.140
G0 X126.642 Y97.814
G0 X126.576 Y97.909
G0 X126.290 Y98.432
G0 X126.215 Y98.686
G0 X126.088 Y99.258
G0 X126.070 Y99.372
G0 X125.990 Y99.943
G0 X125.990 Y100.058
G0 X126.070 Y100.629
G0 X126.088 Y100.743
G0 X126.216 Y101.315
G0 X126.305 Y101.594
G0 X126.533 Y102.012
G0 X126.593 Y102.114
G0 X127.116 Y102.884
G0 X127.197 Y102.964
G1 X127.542 Y103.161 E2.07811 F1200
G1 X127.657 Y103.195 E2.08098
G1 X127.771 Y103.230 E2.08454
G1 X127.885 Y103.265 E2.08879
G0 X130.261 Y103.211 F7200
;segType:Infill
G1 X130.893 Y103.843 E2.12449 F1500
G0 X133.067 Y102.451 F7200
;segType:Perimeter
G1 X132.267 Y102.451 E2.15110 F600
G1 X127.671 Y102.451 E2.30396
G1 X127.181 Y101.739 E2.33270
G1 X126.942 Y101.187 E2.35271
G1 X126.797 Y100.603 E2.37271
G1 X126.747 Y100.000 E2.39286
G1 X126.797 Y99.396 E2.41301
G1 X126.942 Y98.812 E2.43301
G1 X127.181 Y98.260 E2.45303
G1 X127.671 Y97.549 E2.48174
G1 X132.327 Y97.549 E2.63659
G1 X132.817 Y98.260 E2.66530
G1 X133.056 Y98.812 E2.68532
G1 X133.201 Y99.396 E2.70532
G1 X133.251 Y100.000 E2.72546
G1 X133.201 Y100.603 E2.74561
G1 X133.056 Y101.187 E2.76561
G1 X132.817 Y101.739 E2.78563
G1 X132.361 Y102.401 E2.81237
G0 X132.267 Y102.451 F7200
G0 X130.667 Y102.451
G0 F3000 E1.81237
G0 X132.327 Y102.451 F7200
G0 X132.817 Y101.739
G0 X133.056 Y101.187
G0 X133.201 Y100.603
G0 X133.233 Y100.211
G0 X134.601 Y99.017
G0 X134.254 Y99.321
G0 F3000 E2.81237
;segType:Loop
G1 X134.388 Y100.000 E2.83539 F1200
G1 X134.055 Y101.679 E2.89235
G1 X133.104 Y103.103 E2.94929
G1 X131.680 Y104.054 E3.00624
G1 X130.000 Y104.388 E3.06320
G1 X128.321 Y104.054 E3.12016
G1 X126.897 Y103.103 E3.17710
G1 X125.946 Y101.679 E3.23405
G1 X125.612 Y100.000 E3.29101
G1 X125.946 Y98.320 E3.34797
G1 X126.897 Y96.896 E3.40491
G1 X128.321 Y95.945 E3.46185
G1 X130.000 Y95.612 E3.51881
G1 X131.680 Y95.945 E3.57577
G1 X133.104 Y96.896 E3.63271
G1 X134.055 Y98.320 E3.68965
G1 X134.215 Y99.124 E3.71694
G0 F3000 E2.71694
G0 X134.657 Y99.301 F7200
G0 X132.977 Y98.630
G0 X132.817 Y98.260
G0 X132.327 Y97.549
G0 X130.269 Y97.549
G0 X128.364 Y96.789
G0 F3000 E3.71694
;segType:Infill
G1 X128.101 Y96.525 E3.73182 F1500
; ------------------------------------
; Layer #7
; ------------------------------------
G92 E0 ;reset extr
G0 F3000 E-1.00000
G0 F600 Z2.600
G0 X127.684 Y95.890 F7200
G0 X128.773 Y97.549
G0 X132.327 Y97.549
G0 X132.817 Y98.260
G0 X133.056 Y98.812
G0 X133.201 Y99.396
G0 X133.251 Y100.000
G0 X133.201 Y100.603
G0 X133.056 Y101.187
G0 X132.817 Y101.739
G0 X132.327 Y102.451
G0 X131.990 Y102.451
G0 X132.847 Y103.755
G0 X132.457 Y103.161
G0 F3000 E0.00000
;segType:InnerHair
G1 X132.342 Y103.196 E0.00288 F1200
G1 X132.228 Y103.231 E0.00646
G1 X132.114 Y103.265 E0.01072
G0 X132.098 Y103.270 F7200
G0 X132.222 Y103.233
G0 X132.346 Y103.195
G0 X132.470 Y103.157
G1 X132.863 Y102.904 E0.01839 F1200
G1 X132.933 Y102.812 E0.02038
G1 X132.998 Y102.716 E0.02237
G1 X133.063 Y102.619 E0.02435
G1 X133.129 Y102.523 E0.02631
G1 X133.194 Y102.427 E0.02825
G1 X133.259 Y102.330 E0.03018
G1 X133.325 Y102.234 E0.03210
G1 X133.390 Y102.138 E0.03400
G1 X133.452 Y102.038 E0.03598
G1 X133.509 Y101.934 E0.03821
G1 X133.566 Y101.829 E0.04066
G1 X133.623 Y101.724 E0.04331
G1 X133.680 Y101.620 E0.04618
G1 X133.737 Y101.515 E0.04926
G1 X133.722 Y101.543 E0.05007
G1 X133.758 Y101.429 E0.05286
G1 X133.784 Y101.315 E0.05553
G1 X133.809 Y101.201 E0.05815
G1 X133.835 Y101.086 E0.06071
G1 X133.860 Y100.972 E0.06322
G1 X133.886 Y100.858 E0.06567
G1 X133.911 Y100.743 E0.06807
G1 X133.929 Y100.629 E0.07053
G1 X133.945 Y100.515 E0.07311
G1 X133.961 Y100.401 E0.07581
G1 X133.977 Y100.286 E0.07864
G1 X133.993 Y100.172 E0.08160
G1 X134.009 Y100.058 E0.08468
G1 X134.009 Y99.943 E0.08774
G1 X133.993 Y99.829 E0.09070
G1 X133.977 Y99.715 E0.09353
G1 X133.961 Y99.601 E0.09624
G1 X133.945 Y99.486 E0.09882
G1 X133.929 Y99.372 E0.10128
G1 X133.912 Y99.258 E0.10365
G1 X133.886 Y99.143 E0.10610
G1 X133.861 Y99.029 E0.10860
G1 X133.835 Y98.915 E0.11116
G1 X133.810 Y98.801 E0.11378
G1 X133.784 Y98.686 E0.11645
G0 X133.758 Y98.572 F7200
G0 X133.723 Y98.458
G1 X133.756 Y98.507 E0.11795 F1200
G1 X133.695 Y98.406 E0.12084
G1 X133.638 Y98.302 E0.12355
G1 X133.581 Y98.197 E0.12605
G1 X133.524 Y98.093 E0.12833
G1 X133.467 Y97.988 E0.13041
G1 X133.407 Y97.886 E0.13233
G1 X133.341 Y97.790 E0.13424
G1 X133.276 Y97.694 E0.13616
G1 X133.211 Y97.597 E0.13811
G1 X133.145 Y97.501 E0.14007
G1 X133.080 Y97.405 E0.14204
G1 X133.015 Y97.309 E0.14403
G1 X132.949 Y97.212 E0.14604
G1 X132.884 Y97.116 E0.14806
G1 X132.803 Y97.036 E0.14964
G0 X132.502 Y96.852 F7200
G0 X132.378 Y96.814
G0 X132.254 Y96.777
G0 X132.130 Y96.739
G1 X132.114 Y96.734 E0.15024 F1200
G1 X132.228 Y96.769 E0.15382
G1 X132.342 Y96.803 E0.15671
G1 X132.457 Y96.838 E0.15892
G0 F3000 E-0.84108
G0 X132.611 Y96.086 F7200
G0 X132.311 Y97.549
G0 X132.327 Y97.549
G0 X132.817 Y98.260
G0 X133.056 Y98.812
G0 X133.201 Y99.396
G0 X133.251 Y100.000
G0 X133.201 Y100.603
G0 X133.056 Y101.187
G0 X132.817 Y101.739
G0 X132.327 Y102.451
G0 X131.309 Y102.451
G0 X131.227 Y102.851
G0 F3000 E0.15892
;segType:Loop
G1 X127.461 Y102.851 E0.28418 F1200
G1 X126.830 Y101.934 E0.32121
G1 X126.562 Y101.315 E0.34362
G1 X126.401 Y100.668 E0.36580
G1 X126.346 Y100.000 E0.38812
G1 X126.401 Y99.331 E0.41044
G1 X126.562 Y98.684 E0.43261
G1 X126.830 Y98.065 E0.45503
G1 X127.461 Y97.149 E0.49203
G1 X132.537 Y97.149 E0.66086
G1 X133.168 Y98.065 E0.69786
G1 X133.436 Y98.684 E0.72028
G1 X133.597 Y99.331 E0.74245
G1 X133.652 Y100.000 E0.76477
G1 X133.597 Y100.668 E0.78709
G1 X133.436 Y101.315 E0.80927
G1 X133.168 Y101.934 E0.83168
G1 X132.537 Y102.851 E0.86870
G1 X131.427 Y102.851 E0.90563
G0 F3000 E-0.09437
G0 X131.614 Y102.451 F7200
G0 X132.327 Y102.451
G0 X132.817 Y101.739
G0 X133.056 Y101.187
G0 X133.201 Y100.603
G0 X133.251 Y100.000
G0 X133.201 Y99.396
G0 X133.147 Y99.179
G0 X133.956 Y97.452
G0 X133.842 Y97.695
G0 F3000 E0.90563
;segType:Perimeter
G1 X134.443 Y98.223 E0.93224 F600
G1 X134.796 Y100.000 E0.99250
G1 X134.432 Y101.835 E1.05475
G1 X133.392 Y103.391 E1.11698
G1 X131.836 Y104.431 E1.17922
G1 X130.000 Y104.796 E1.24147
G1 X128.165 Y104.431 E1.30373
G1 X126.609 Y103.391 E1.36596
G1 X125.569 Y101.835 E1.42820
G1 X125.204 Y100.000 E1.49045
G1 X125.569 Y98.164 E1.55271
G1 X126.609 Y96.608 E1.61495
G1 X128.165 Y95.568 E1.67718
G1 X130.000 Y95.204 E1.73943
G1 X131.836 Y95.568 E1.80168
G1 X133.392 Y96.608 E1.86391
G1 X134.398 Y98.114 E1.92415
G0 X134.443 Y98.223 F7200
G0 X134.755 Y99.792
G0 F3000 E0.92415
G0 X133.214 Y100.439 F7200
G0 X133.201 Y100.603
G0 X133.056 Y101.187
G0 X132.817 Y101.739
G0 X132.327 Y102.451
G0 X128.421 Y102.451
G0 X126.515 Y103.251
G0 X126.609 Y103.391
G0 X127.197 Y102.964
G0 F3000 E1.92415
;segType:InnerHair
G1 X127.116 Y102.884 E1.92611 F1200
G1 X127.051 Y102.788 E1.92809
G1 X126.985 Y102.692 E1.93005
G1 X126.920 Y102.595 E1.93200
G1 X126.855 Y102.499 E1.93393
G1 X126.789 Y102.403 E1.93585
G1 X126.724 Y102.306 E1.93775
G1 X126.659 Y102.210 E1.93964
G1 X126.593 Y102.114 E1.94151
G1 X126.533 Y102.012 E1.94354
G1 X126.476 Y101.908 E1.94580
G1 X126.419 Y101.803 E1.94827
G1 X126.362 Y101.698 E1.95095
G1 X126.305 Y101.594 E1.95384
G1 X126.244 Y101.493 E1.95680
G1 X126.277 Y101.543 E1.95832
G1 X126.242 Y101.429 E1.96109
G1 X126.216 Y101.315 E1.96373
G1 X126.190 Y101.201 E1.96632
G1 X126.165 Y101.086 E1.96886
G1 X126.139 Y100.972 E1.97134
G1 X126.114 Y100.858 E1.97377
G1 X126.088 Y100.743 E1.97614
G1 X126.070 Y100.629 E1.97858
G1 X126.054 Y100.515 E1.98114
G1 X126.038 Y100.401 E1.98383
G1 X126.022 Y100.286 E1.98664
G1 X126.006 Y100.172 E1.98957
G1 X125.990 Y100.058 E1.99264
G1 X125.990 Y99.943 E1.99567
G1 X126.006 Y99.829 E1.99861
G1 X126.022 Y99.715 E2.00142
G1 X126.038 Y99.601 E2.00411
G1 X126.054 Y99.486 E2.00667
G1 X126.070 Y99.372 E2.00911
G1 X126.088 Y99.258 E2.01145
G1 X126.113 Y99.143 E2.01388
G1 X126.139 Y99.029 E2.01636
G1 X126.164 Y98.915 E2.01890
G1 X126.190 Y98.801 E2.02148
G1 X126.215 Y98.686 E2.02413
G1 X126.241 Y98.572 E2.02683
G1 X126.277 Y98.458 E2.02984
G1 X126.290 Y98.432 E2.03055
G1 X126.347 Y98.328 E2.03329
G1 X126.404 Y98.223 E2.03582
G1 X126.462 Y98.119 E2.03813
G1 X126.519 Y98.014 E2.04023
G1 X126.576 Y97.909 E2.04211
G1 X126.642 Y97.814 E2.04399
G1 X126.707 Y97.718 E2.04589
G1 X126.772 Y97.621 E2.04781
G1 X126.838 Y97.525 E2.04974
G1 X126.903 Y97.429 E2.05169
G1 X126.969 Y97.333 E2.05365
G1 X127.034 Y97.236 E2.05563
G1 X127.099 Y97.140 E2.05763
G1 X127.176 Y97.056 E2.05929
G0 X127.467 Y96.862 F7200
G0 X127.591 Y96.824
G0 X127.715 Y96.786
G0 X127.839 Y96.749
G0 X127.963 Y96.711
G1 X127.885 Y96.735 E2.06220 F1200
G1 X127.771 Y96.769 E2.06577
G1 X127.657 Y96.804 E2.06865
G1 X127.542 Y96.839 E2.07084
G0 X127.176 Y97.056 F7200
G0 X127.099 Y97.140
G0 X126.642 Y97.814
G0 X126.576 Y97.909
G0 X126.290 Y98.432
G0 X126.215 Y98.686
G0 X126.088 Y99.258
G0 X126.070 Y99.372
G0 X125.990 Y99.943
G0 X125.990 Y100.058
G0 X126.070 Y100.629
G0 X126.088 Y100.743
G0 X126.216 Y101.315
G0 X126.305 Y101.594
G0 X126.533 Y102.012
G0 X126.593 Y102.114
G0 X127.116 Y102.884
G0 X127.197 Y102.964
G1 X127.542 Y103.161 E2.07811 F1200
G1 X127.657 Y103.195 E2.08098
G1 X127.771 Y103.230 E2.08454
G1 X127.885 Y103.265 E2.08879
G0 X130.630 Y103.896 F7200
;segType:Infill
G1 X131.315 Y103.211 E2.12745 F1500
G0 X133.067 Y102.451 F7200
;segType:Perimeter
G1 X132.267 Y102.451 E2.15406 F600
G1 X127.671 Y102.451 E2.30692
G1 X127.181 Y101.739 E2.33566
G1 X126.942 Y101.187 E2.35567
G1 X126.797 Y100.603 E2.37568
G1 X126.747 Y100.000 E2.39582
G1 X126.797 Y99.396 E2.41597
G1 X126.942 Y98.812 E2.43597
G1 X127.181 Y98.260 E2.45599
G1 X127.671 Y97.549 E2.48470
G1 X132.327 Y97.549 E2.63955
G1 X132.817 Y98.260 E2.66826
G1 X133.056 Y98.812 E2.68828
G1 X133.201 Y99.396 E2.70828
G1 X133.251 Y100.000 E2.72842
G1 X133.201 Y100.603 E2.74857
G1 X133.056 Y101.187 E2.76857
G1 X132.817 Y101.739 E2.78859
G1 X132.361 Y102.401 E2.81533
G0 X132.267 Y102.451 F7200
G0 X130.667 Y102.451
G0 F3000 E1.81533
G0 X132.327 Y102.451 F7200
G0 X132.817 Y101.739
G0 X133.056 Y101.187
G0 X133.201 Y100.603
G0 X133.233 Y100.211
G0 X134.601 Y99.017
G0 X134.254 Y99.321
G0 F3000 E2.81533
;segType:Loop
G1 X134.388 Y100.000 E2.83835 F1200
G1 X134.055 Y101.679 E2.89531
G1 X133.104 Y103.103 E2.95225
G1 X131.680 Y104.054 E3.00920
G1 X130.000 Y104.388 E3.06616
G1 X128.321 Y104.054 E3.12312
G1 X126.897 Y103.103 E3.18006
G1 X125.946 Y101.679 E3.23701
G1 X125.612 Y100.000 E3.29397
G1 X125.946 Y98.320 E3.35093
G1 X126.897 Y96.896 E3.40787
G1 X128.321 Y95.945 E3.46481
G1 X130.000 Y95.612 E3.52177
G1 X131.680 Y95.945 E3.57873
G1 X133.104 Y96.896 E3.63567
G1 X134.055 Y98.320 E3.69261
G1 X134.215 Y99.124 E3.71990
G0 F3000 E2.71990
G0 X134.660 Y99.312 F7200
G0 X132.962 Y98.595
G0 X132.817 Y98.260
G0 X132.327 Y97.549
G0 X130.485 Y97.549
G0 X128.685 Y96.789
G0 F3000 E3.71990
;segType:Infill
G1 X129.371 Y96.104 E3.75857 F1500
; ------------------------------------
; Layer #8
; ------------------------------------
G92 E0 ;reset extr
G0 F3000 E-1.00000
G0 F600 Z2.800
G0 X129.059 Y95.391 F7200
G0 X130.003 Y97.549
G0 X132.327 Y97.549
G0 X132.817 Y98.260
G0 X133.056 Y98.812
G0 X133.201 Y99.396
G0 X133.251 Y100.000
G0 X133.201 Y100.603
G0 X133.056 Y101.187
G0 X132.817 Y101.739
G0 X132.327 Y102.451
G0 X132.146 Y102.451
G0 X132.746 Y103.823
G0 X132.457 Y103.161
G0 F3000 E0.00000
;segType:InnerHair
G1 X132.342 Y103.196 E0.00288 F1200
G1 X132.228 Y103.231 E0.00646
G1 X132.114 Y103.265 E0.01072
G0 X132.098 Y103.270 F7200
G0 X132.222 Y103.233
G0 X132.346 Y103.195
G0 X132.470 Y103.157
G1 X132.863 Y102.904 E0.01839 F1200
G1 X132.933 Y102.812 E0.02038
G1 X132.998 Y102.716 E0.02237
G1 X133.063 Y102.619 E0.02435
G1 X133.129 Y102.523 E0.02631
G1 X133.194 Y102.427 E0.02825
G1 X133.259 Y102.330 E0.03018
G1 X133.325 Y102.234 E0.03210
G1 X133.390 Y102.138 E0.03400
G1 X133.452 Y102.038 E0.03598
G1 X133.509 Y101.934 E0.03821
G1 X133.566 Y101.829 E0.04066
G1 X133.623 Y101.724 E0.04331
G1 X133.680 Y101.620 E0.04618
G1 X133.737 Y101.515 E0.04926
G1 X133.722 Y101.543 E0.05007
G1 X133.758 Y101.429 E0.05286
G1 X133.784 Y101.315 E0.05553
G1 X133.809 Y101.201 E0.05815
G1 X133.835 Y101.086 E0.06071
G1 X133.860 Y100.972 E0.06322
G1 X133.886 Y100.858 E0.06567
G1 X133.911 Y100.743 E0.06807
G1 X133.929 Y100.629 E0.07053
G1 X133.945 Y100.515 E0.07311
G1 X133.961 Y100.401 E0.07581
G1 X133.977 Y100.286 E0.07864
G1 X133.993 Y100.172 E0.08160
G1 X134.009 Y100.058 E0.08468
G1 X134.009 Y99.943 E0.08774
G1 X133.993 Y99.829 E0.09070
G1 X133.977 Y99.715 E0.09353
G1 X133.961 Y99.601 E0.09624
G1 X133.945 Y99.486 E0.09882
G1 X133.929 Y99.372 E0.10128
G1 X133.912 Y99.258 E0.10365
G1 X133.886 Y99.143 E0.10610
G1 X133.861 Y99.029 E0.10860
G1 X133.835 Y98.915 E0.11116
G1 X133.810 Y98.801 E0.11378
G1 X133.784 Y98.686 E0.11645
G0 X133.758 Y98.572 F7200
G0 X133.723 Y98.458
G1 X133.756 Y98.507 E0.11795 F1200
G1 X133.695 Y98.406 E0.12084
G1 X133.638 Y98.302 E0.12355
G1 X133.581 Y98.197 E0.12605
G1 X133.524 Y98.093 E0.12833
G1 X133.467 Y97.988 E0.13041
G1 X133.407 Y97.886 E0.13233
G1 X133.341 Y97.790 E0.13424
G1 X133.276 Y97.694 E0.13617
G1 X133.211 Y97.597 E0.13811
G1 X133.145 Y97.501 E0.14007
G1 X133.080 Y97.405 E0.14204
G1 X133.015 Y97.309 E0.14403
G1 X132.949 Y97.212 E0.14604
G1 X132.884 Y97.116 E0.14806
G1 X132.803 Y97.036 E0.14964
G0 X132.502 Y96.852 F7200
G0 X132.378 Y96.814
G0 X132.254 Y96.777
G0 X132.130 Y96.739
G1 X132.114 Y96.734 E0.15024 F1200
G1 X132.228 Y96.769 E0.15382
G1 X132.342 Y96.803 E0.15671
G1 X132.457 Y96.838 E0.15892
G0 F3000 E-0.84108
G0 X132.611 Y96.086 F7200
G0 X132.311 Y97.549
G0 X132.327 Y97.549
G0 X132.817 Y98.260
G0 X133.056 Y98.812
G0 X133.201 Y99.396
G0 X133.251 Y100.000
G0 X133.201 Y100.603
G0 X133.056 Y101.187
G0 X132.817 Y101.739
G0 X132.327 Y102.451
G0 X131.309 Y102.451
G0 X131.227 Y102.851
G0 F3000 E0.15892
;segType:Loop
G1 X127.461 Y102.851 E0.28418 F1200
G1 X126.830 Y101.934 E0.32121
G1 X126.562 Y101.315 E0.34362
G1 X126.401 Y100.668 E0.36580
G1 X126.346 Y100.000 E0.38812
G1 X126.401 Y99.331 E0.41044
G1 X126.562 Y98.684 E0.43261
G1 X126.830 Y98.065 E0.45503
G1 X127.461 Y97.149 E0.49203
G1 X132.537 Y97.149 E0.66086
G1 X133.168 Y98.065 E0.69786
G1 X133.436 Y98.684 E0.72028
G1 X133.597 Y99.331 E0.74245
G1 X133.652 Y100.000 E0.76477
G1 X133.597 Y100.668 E0.78709
G1 X133.436 Y101.315 E0.80927
G1 X133.168 Y101.934 E0.83168
G1 X132.537 Y102.851 E0.86871
G1 X131.427 Y102.851 E0.90563
G0 F3000 E-0.09437
G0 X131.614 Y102.451 F7200
G0 X132.327 Y102.451
G0 X132.817 Y101.739
G0 X133.056 Y101.187
G0 X133.201 Y100.603
G0 X133.251 Y100.000
G0 X133.201 Y99.396
G0 X133.147 Y99.179
G0 X133.956 Y97.452
G0 X133.842 Y97.695
G0 F3000 E0.90563
;segType:Perimeter
G1 X134.443 Y98.223 E0.93224 F600
G1 X134.796 Y100.000 E0.99250
G1 X134.432 Y101.835 E1.05475
G1 X133.392 Y103.391 E1.11698
G1 X131.836 Y104.431 E1.17922
G1 X130.000 Y104.796 E1.24147
G1 X128.165 Y104.431 E1.30373
G1 X126.609 Y103.391 E1.36596
G1 X125.569 Y101.835 E1.42820
G1 X125.204 Y100.000 E1.49046
G1 X125.569 Y98.164 E1.55271
G1 X126.609 Y96.608 E1.61495
G1 X128.165 Y95.568 E1.67718
G1 X130.000 Y95.204 E1.73943
G1 X131.836 Y95.568 E1.80168
G1 X133.392 Y96.608 E1.86392
G1 X134.398 Y98.114 E1.92416
G0 X134.443 Y98.223 F7200
G0 X134.755 Y99.792
G0 F3000 E0.92416
G0 X133.214 Y100.439 F7200
G0 X133.201 Y100.603
G0 X133.056 Y101.187
G0 X132.817 Y101.739
G0 X132.327 Y102.451
G0 X128.421 Y102.451
G0 X126.515 Y103.251
G0 X126.609 Y103.391
G0 X127.197 Y102.964
G0 F3000 E1.92416
;segType:InnerHair
G1 X127.116 Y102.884 E1.92611 F1200
G1 X127.051 Y102.788 E1.92809
G1 X126.985 Y102.692 E1.93005
G1 X126.920 Y102.595 E1.93200
G1 X126.855 Y102.499 E1.93394
G1 X126.789 Y102.403 E1.93585
G1 X126.724 Y102.306 E1.93776
G1 X126.659 Y102.210 E1.93964
G1 X126.593 Y102.114 E1.94151
G1 X126.533 Y102.012 E1.94354
G1 X126.476 Y101.908 E1.94580
G1 X126.419 Y101.803 E1.94827
G1 X126.362 Y101.698 E1.95095
G1 X126.305 Y101.594 E1.95384
G1 X126.244 Y101.493 E1.95680
G1 X126.277 Y101.543 E1.95832
G1 X126.242 Y101.429 E1.96109
G1 X126.216 Y101.315 E1.96373
G1 X126.190 Y101.201 E1.96632
G1 X126.165 Y101.086 E1.96886
G1 X126.139 Y100.972 E1.97134
G1 X126.114 Y100.858 E1.97377
G1 X126.088 Y100.743 E1.97615
G1 X126.070 Y100.629 E1.97858
G1 X126.054 Y100.515 E1.98114
G1 X126.038 Y100.401 E1.98383
G1 X126.022 Y100.286 E1.98664
G1 X126.006 Y100.172 E1.98957
G1 X125.990 Y100.058 E1.99264
G1 X125.990 Y99.943 E1.99567
G1 X126.006 Y99.829 E1.99861
G1 X126.022 Y99.715 E2.00143
G1 X126.038 Y99.601 E2.00411
G1 X126.054 Y99.486 E2.00667
G1 X126.070 Y99.372 E2.00911
G1 X126.088 Y99.258 E2.01145
G1 X126.113 Y99.143 E2.01388
G1 X126.139 Y99.029 E2.01636
G1 X126.164 Y98.915 E2.01890
G1 X126.190 Y98.801 E2.02149
G1 X126.215 Y98.686 E2.02413
G1 X126.241 Y98.572 E2.02683
G1 X126.277 Y98.458 E2.02984
G1 X126.290 Y98.432 E2.03055
G1 X126.347 Y98.328 E2.03329
G1 X126.404 Y98.223 E2.03582
G1 X126.462 Y98.119 E2.03813
G1 X126.519 Y98.014 E2.04023
G1 X126.576 Y97.909 E2.04212
G1 X126.642 Y97.814 E2.04400
G1 X126.707 Y97.718 E2.04590
G1 X126.772 Y97.621 E2.04781
G1 X126.838 Y97.525 E2.04974
G1 X126.903 Y97.429 E2.05169
G1 X126.969 Y97.333 E2.05365
G1 X127.034 Y97.236 E2.05563
G1 X127.099 Y97.140 E2.05763
G1 X127.176 Y97.056 E2.05929
G0 X127.467 Y96.862 F7200
G0 X127.591 Y96.824
G0 X127.715 Y96.786
G0 X127.839 Y96.749
G0 X127.963 Y96.711
G1 X127.885 Y96.735 E2.06220 F1200
G1 X127.771 Y96.769 E2.06577
G1 X127.657 Y96.804 E2.06865
G1 X127.542 Y96.839 E2.07084
G0 X127.176 Y97.056 F7200
G0 X127.099 Y97.140
G0 X126.642 Y97.814
G0 X126.576 Y97.909
G0 X126.290 Y98.432
G0 X126.215 Y98.686
G0 X126.088 Y99.258
G0 X126.070 Y99.372
G0 X125.990 Y99.943
G0 X125.990 Y100.058
G0 X126.070 Y100.629
G0 X126.088 Y100.743
G0 X126.216 Y101.315
G0 X126.305 Y101.594
G0 X126.533 Y102.012
G0 X126.593 Y102.114
G0 X127.116 Y102.884
G0 X127.197 Y102.964
G1 X127.542 Y103.161 E2.07811 F1200
G1 X127.657 Y103.195 E2.08098
G1 X127.771 Y103.230 E2.08454
G1 X127.885 Y103.265 E2.08879
G0 X130.261 Y103.211 F7200
;segType:Infill
G1 X130.893 Y103.843 E2.12449 F1500
G0 X133.067 Y102.451 F7200
;segType:Perimeter
G1 X132.267 Y102.451 E2.15110 F600
G1 X127.671 Y102.451 E2.30396
G1 X127.181 Y101.739 E2.33270
G1 X126.942 Y101.187 E2.35271
G1 X126.797 Y100.603 E2.37271
G1 X126.747 Y100.000 E2.39286
G1 X126.797 Y99.396 E2.41301
G1 X126.942 Y98.812 E2.43301
G1 X127.181 Y98.260 E2.45303
G1 X127.671 Y97.549 E2.48174
G1 X132.327 Y97.549 E2.63659
G1 X132.817 Y98.260 E2.66530
G1 X133.056 Y98.812 E2.68532
G1 X133.201 Y99.396 E2.70532
G1 X133.251 Y100.000 E2.72546
G1 X133.201 Y100.603 E2.74561
G1 X133.056 Y101.187 E2.76561
G1 X132.817 Y101.739 E2.78563
G1 X132.361 Y102.401 E2.81237
G0 X132.267 Y102.451 F7200
G0 X130.667 Y102.451
G0 F3000 E1.81237
G0 X132.327 Y102.451 F7200
G0 X132.817 Y101.739
G0 X133.056 Y101.187
G0 X133.201 Y100.603
G0 X133.233 Y100.211
G0 X134.601 Y99.017
G0 X134.254 Y99.321
G0 F3000 E2.81237
;segType:Loop
G1 X134.388 Y100.000 E2.83539 F1200
G1 X134.055 Y101.679 E2.89235
G1 X133.104 Y103.103 E2.94929
G1 X131.680 Y104.054 E3.00624
G1 X130.000 Y104.388 E3.06320
G1 X128.321 Y104.054 E3.12016
G1 X126.897 Y103.103 E3.17710
G1 X125.946 Y101.679 E3.23405
G1 X125.612 Y100.000 E3.29101
G1 X125.946 Y98.320 E3.34797
G1 X126.897 Y96.896 E3.40491
G1 X128.321 Y95.945 E3.46185
G1 X130.000 Y95.612 E3.51881
G1 X131.680 Y95.945 E3.57577
G1 X133.104 Y96.896 E3.63271
G1 X134.055 Y98.320 E3.68965
G1 X134.215 Y99.124 E3.71694
G0 F3000 E2.71694
G0 X134.660 Y99.314 F7200
G0 X132.960 Y98.591
G0 X132.817 Y98.260
G0 X132.327 Y97.549
G0 X130.509 Y97.549
G0 X128.101 Y96.525
G0 F3000 E3.71694
;segType:Infill
G1 X128.364 Y96.789 E3.73182 F1500
; ------------------------------------
; Layer #9
; ------------------------------------
G92 E0 ;reset extr
G0 F3000 E-1.00000
G0 F600 Z3.000
G0 X128.853 Y97.549 F7200
G0 X132.327 Y97.549
G0 X132.817 Y98.260
G0 X133.056 Y98.812
G0 X133.201 Y99.396
G0 X133.251 Y100.000
G0 X133.201 Y100.603
G0 X133.056 Y101.187
G0 X132.817 Y101.739
G0 X132.327 Y102.451
G0 X132.000 Y102.451
G0 X132.841 Y103.759
G0 X132.457 Y103.161
G0 F3000 E0.00000
;segType:InnerHair
G1 X132.342 Y103.196 E0.00288 F1200
G1 X132.228 Y103.231 E0.00646
G1 X132.114 Y103.265 E0.01072
G0 X132.098 Y103.270 F7200
G0 X132.222 Y103.233
G0 X132.346 Y103.195
G0 X132.470 Y103.157
G1 X132.863 Y102.904 E0.01839 F1200
G1 X132.933 Y102.812 E0.02038
G1 X132.998 Y102.716 E0.02237
G1 X133.063 Y102.619 E0.02435
G1 X133.129 Y102.523 E0.02631
G1 X133.194 Y102.427 E0.02825
G1 X133.259 Y102.330 E0.03018
G1 X133.325 Y102.234 E0.03210
G1 X133.390 Y102.138 E0.03400
G1 X133.452 Y102.038 E0.03598
G1 X133.509 Y101.934 E0.03821
G1 X133.566 Y101.829 E0.04066
G1 X133.623 Y101.724 E0.04331
G1 X133.680 Y101.620 E0.04618
G1 X133.737 Y101.515 E0.04926
G1 X133.722 Y101.543 E0.05007
G1 X133.758 Y101.429 E0.05286
G1 X133.784 Y101.315 E0.05553
G1 X133.809 Y101.201 E0.05815
G1 X133.835 Y101.086 E0.06071
G1 X133.860 Y100.972 E0.06322
G1 X133.886 Y100.858 E0.06567
G1 X133.911 Y100.743 E0.06807
G1 X133.929 Y100.629 E0.07053
G1 X133.945 Y100.515 E0.07311
G1 X133.961 Y100.401 E0.07581
G1 X133.977 Y100.286 E0.07864
G1 X133.993 Y100.172 E0.08160
G1 X134.009 Y100.058 E0.08468
G1 X134.009 Y99.943 E0.08774
G1 X133.993 Y99.829 E0.09070
G1 X133.977 Y99.715 E0.09353
G1 X133.961 Y99.601 E0.09624
G1 X133.945 Y99.486 E0.09882
G1 X133.929 Y99.372 E0.10128
G1 X133.912 Y99.258 E0.10365
G1 X133.886 Y99.143 E0.10610
G1 X133.861 Y99.029 E0.10860
G1 X133.835 Y98.915 E0.11116
G1 X133.810 Y98.801 E0.11378
G1 X133.784 Y98.686 E0.11645
G0 X133.758 Y98.572 F7200
G0 X133.723 Y98.458
G1 X133.756 Y98.507 E0.11795 F1200
G1 X133.695 Y98.406 E0.12084
G1 X133.638 Y98.302 E0.12355
G1 X133.581 Y98.197 E0.12605
G1 X133.524 Y98.093 E0.12833
G1 X133.467 Y97.988 E0.13041
G1 X133.407 Y97.886 E0.13233
G1 X133.341 Y97.790 E0.13424
G1 X133.276 Y97.694 E0.13616
G1 X133.211 Y97.597 E0.13811
G1 X133.145 Y97.501 E0.14007
G1 X133.080 Y97.405 E0.14204
G1 X133.015 Y97.309 E0.14403
G1 X132.949 Y97.212 E0.14604
G1 X132.884 Y97.116 E0.14806
G1 X132.803 Y97.036 E0.14964
G0 X132.502 Y96.852 F7200
G0 X132.378 Y96.814
G0 X132.254 Y96.777
G0 X132.130 Y96.739
G1 X132.114 Y96.734 E0.15024 F1200
G1 X132.228 Y96.769 E0.15382
G1 X132.342 Y96.803 E0.15671
G1 X132.457 Y96.838 E0.15892
G0 F3000 E-0.84108
G0 X132.611 Y96.086 F7200
G0 X132.311 Y97.549
G0 X132.327 Y97.549
G0 X132.817 Y98.260
G0 X133.056 Y98.812
G0 X133.201 Y99.396
G0 X133.251 Y100.000
G0 X133.201 Y100.603
G0 X133.056 Y101.187
G0 X132.817 Y101.739
G0 X132.327 Y102.451
G0 X131.309 Y102.451
G0 X131.227 Y102.851
G0 F3000 E0.15892
;segType:Loop
G1 X127.461 Y102.851 E0.28418 F1200
G1 X126.830 Y101.934 E0.32121
G1 X126.562 Y101.315 E0.34362
G1 X126.401 Y100.668 E0.36580
G1 X126.346 Y100.000 E0.38812
G1 X126.401 Y99.331 E0.41044
G1 X126.562 Y98.684 E0.43261
G1 X126.830 Y98.065 E0.45503
G1 X127.461 Y97.149 E0.49203
G1 X132.537 Y97.149 E0.66086
G1 X133.168 Y98.065 E0.69786
G1 X133.436 Y98.684 E0.72028
G1 X133.597 Y99.331 E0.74245
G1 X133.652 Y100.000 E0.76477
G1 X133.597 Y100.668 E0.78709
G1 X133.436 Y101.315 E0.80927
G1 X133.168 Y101.934 E0.83168
G1 X132.537 Y102.851 E0.86870
G1 X131.427 Y102.851 E0.90563
G0 F3000 E-0.09437
G0 X131.614 Y102.451 F7200
G0 X132.327 Y102.451
G0 X132.817 Y101.739
G0 X133.056 Y101.187
G0 X133.201 Y100.603
G0 X133.251 Y100.000
G0 X133.201 Y99.396
G0 X133.147 Y99.179
G0 X133.956 Y97.452
G0 X133.842 Y97.695
G0 F3000 E0.90563
;segType:Perimeter
G1 X134.443 Y98.223 E0.93224 F600
G1 X134.796 Y100.000 E0.99250
G1 X134.432 Y101.835 E1.05475
G1 X133.392 Y103.391 E1.11698
G1 X131.836 Y104.431 E1.17922
G1 X130.000 Y104.796 E1.24147
G1 X128.165 Y104.431 E1.30373
G1 X126.609 Y103.391 E1.36596
G1 X125.569 Y101.835 E1.42820
G1 X125.204 Y100.000 E1.49045
G1 X125.569 Y98.164 E1.55271
G1 X126.609 Y96.608 E1.61495
G1 X128.165 Y95.568 E1.67718
G1 X130.000 Y95.204 E1.73943
G1 X131.836 Y95.568 E1.80168
G1 X133.392 Y96.608 E1.86391
G1 X134.398 Y98.114 E1.92415
G0 X134.443 Y98.223 F7200
G0 X134.755 Y99.792
G0 F3000 E0.92415
G0 X133.214 Y100.439 F7200
G0 X133.201 Y100.603
G0 X133.056 Y101.187
G0 X132.817 Y101.739
G0 X132.327 Y102.451
G0 X128.421 Y102.451
G0 X126.515 Y103.251
G0 X126.609 Y103.391
G0 X127.197 Y102.964
G0 F3000 E1.92415
;segType:InnerHair
G1 X127.116 Y102.884 E1.92611 F1200
G1 X127.051 Y102.788 E1.92809
G1 X126.985 Y102.692 E1.93005
G1 X126.920 Y102.595 E1.93200
G1 X126.855 Y102.499 E1.93393
G1 X126.789 Y102.403 E1.93585
G1 X126.724 Y102.306 E1.93775
G1 X126.659 Y102.210 E1.93964
G1 X126.593 Y102.114 E1.94151
G1 X126.533 Y102.012 E1.94354
G1 X126.476 Y101.908 E1.94580
G1 X126.419 Y101.803 E1.94827
G1 X126.362 Y101.698 E1.95095
G1 X126.305 Y101.594 E1.95384
G1 X126.244 Y101.493 E1.95680
G1 X126.277 Y101.543 E1.95832
G1 X126.242 Y101.429 E1.96109
G1 X126.216 Y101.315 E1.96373
G1 X126.190 Y101.201 E1.96632
G1 X126.165 Y101.086 E1.96886
G1 X126.139 Y100.972 E1.97134
G1 X126.114 Y100.858 E1.97377
G1 X126.088 Y100.743 E1.97614
G1 X126.070 Y100.629 E1.97858
G1 X126.054 Y100.515 E1.98114
G1 X126.038 Y100.401 E1.98383
G1 X126.022 Y100.286 E1.98664
G1 X126.006 Y100.172 E1.98957
G1 X125.990 Y100.058 E1.99264
G1 X125.990 Y99.943 E1.99567
G1 X126.006 Y99.829 E1.99861
G1 X126.022 Y99.715 E2.00142
G1 X126.038 Y99.601 E2.00411
G1 X126.054 Y99.486 E2.00667
G1 X126.070 Y99.372 E2.00911
G1 X126.088 Y99.258 E2.01145
G1 X126.113 Y99.143 E2.01388
G1 X126.139 Y99.029 E2.01636
G1 X126.164 Y98.915 E2.01890
G1 X126.190 Y98.801 E2.02148
G1 X126.215 Y98.686 E2.02413
G1 X126.241 Y98.572 E2.02683
G1 X126.277 Y98.458 E2.02984
G1 X126.290 Y98.432 E2.03055
G1 X126.347 Y98.328 E2.03329
G1 X126.404 Y98.223 E2.03582
G1 X126.462 Y98.119 E2.03813
G1 X126.519 Y98.014 E2.04023
G1 X126.576 Y97.909 E2.04211
G1 X126.642 Y97.814 E2.04399
G1 X126.707 Y97.718 E2.04589
G1 X126.772 Y97.621 E2.04781
G1 X126.838 Y97.525 E2.04974
G1 X126.903 Y97.429 E2.05169
G1 X126.969 Y97.333 E2.05365
G1 X127.034 Y97.236 E2.05563
G1 X127.099 Y97.140 E2.05763
G1 X127.176 Y97.056 E2.05929
G0 X127.467 Y96.862 F7200
G0 X127.591 Y96.824
G0 X127.715 Y96.786
G0 X127.839 Y96.749
G0 X127.963 Y96.711
G1 X127.885 Y96.735 E2.06220 F1200
G1 X127.771 Y96.769 E2.06577
G1 X127.657 Y96.804 E2.06865
G1 X127.542 Y96.839 E2.07084
G0 X127.176 Y97.056 F7200
G0 X127.099 Y97.140
G0 X126.642 Y97.814
G0 X126.576 Y97.909
G0 X126.290 Y98.432
G0 X126.215 Y98.686
G0 X126.088 Y99.258
G0 X126.070 Y99.372
G0 X125.990 Y99.943
G0 X125.990 Y100.058
G0 X126.070 Y100.629
G0 X126.088 Y100.743
G0 X126.216 Y101.315
G0 X126.305 Y101.594
G0 X126.533 Y102.012
G0 X126.593 Y102.114
G0 X127.116 Y102.884
G0 X127.197 Y102.964
G1 X127.542 Y103.161 E2.07811 F1200
G1 X127.657 Y103.195 E2.08098
G1 X127.771 Y103.230 E2.08454
G1 X127.885 Y103.265 E2.08879
G0 X130.630 Y103.896 F7200
;segType:Infill
G1 X131.315 Y103.211 E2.12745 F1500
G0 X133.067 Y102.451 F7200
;segType:Perimeter
G1 X132.267 Y102.451 E2.15406 F600
G1 X127.671 Y102.451 E2.30692
G1 X127.181 Y101.739 E2.33566
G1 X126.942 Y101.187 E2.35567
G1 X126.797 Y100.603 E2.37568
G1 X126.747 Y100.000 E2.39582
G1 X126.797 Y99.396 E2.41597
G1 X126.942 Y98.812 E2.43597
G1 X127.181 Y98.260 E2.45599
G1 X127.671 Y97.549 E2.48470
G1 X132.327 Y97.549 E2.63955
G1 X132.817 Y98.260 E2.66826
G1 X133.056 Y98.812 E2.68828
G1 X133.201 Y99.396 E2.70828
G1 X133.251 Y100.000 E2.72842
G1 X133.201 Y100.603 E2.74857
G1 X133.056 Y101.187 E2.76857
G1 X132.817 Y101.739 E2.78859
G1 X132.361 Y102.401 E2.81533
G0 X132.267 Y102.451 F7200
G0 X130.667 Y102.451
G0 F3000 E1.81533
G0 X132.327 Y102.451 F7200
G0 X132.817 Y101.739
G0 X133.056 Y101.187
G0 X133.201 Y100.603
G0 X133.233 Y100.211
G0 X134.601 Y99.017
G0 X134.254 Y99.321
G0 F3000 E2.81533
;segType:Loop
G1 X134.388 Y100.000 E2.83835 F1200
G1 X134.055 Y101.679 E2.89531
G1 X133.104 Y103.103 E2.95225
G1 X131.680 Y104.054 E3.00920
G1 X130.000 Y104.388 E3.06616
G1 X128.321 Y104.054 E3.12312
G1 X126.897 Y103.103 E3.18006
G1 X125.946 Y101.679 E3.23701
G1 X125.612 Y100.000 E3.29397
G1 X125.946 Y98.320 E3.35093
G1 X126.897 Y96.896 E3.40787
G1 X128.321 Y95.945 E3.46481
G1 X130.000 Y95.612 E3.52177
G1 X131.680 Y95.945 E3.57873
G1 X133.104 Y96.896 E3.63567
G1 X134.055 Y98.320 E3.69261
G1 X134.215 Y99.124 E3.71990
G0 F3000 E2.71990
G0 X134.680 Y99.415 F7200
G0 X132.808 Y98.247
G0 X132.327 Y97.549
G0 X131.688 Y97.549
G0 X129.371 Y96.104
G0 F3000 E3.71990
;segType:Infill
G1 X128.685 Y96.789 E3.75857 F1500
; ------------------------------------
; Layer #10
; ------------------------------------
G92 E0 ;reset extr
G0 F3000 E-1.00000
G0 F600 Z3.200
G0 X129.135 Y97.549 F7200
G0 X132.327 Y97.549
G0 X132.817 Y98.260
G0 X133.056 Y98.812
G0 X133.201 Y99.396
G0 X133.251 Y100.000
G0 X133.201 Y100.603
G0 X133.056 Y101.187
G0 X132.817 Y101.739
G0 X132.327 Y102.451
G0 X132.036 Y102.451
G0 X132.819 Y103.774
G0 X132.457 Y103.161
G0 F3000 E0.00000
;segType:InnerHair
G1 X132.342 Y103.196 E0.00288 F1200
G1 X132.228 Y103.231 E0.00646
G1 X132.114 Y103.265 E0.01072
G0 X132.098 Y103.270 F7200
G0 X132.222 Y103.233
G0 X132.346 Y103.195
G0 X132.470 Y103.157
G1 X132.863 Y102.904 E0.01839 F1200
G1 X132.933 Y102.812 E0.02038
G1 X132.998 Y102.716 E0.02237
G1 X133.063 Y102.619 E0.02435
G1 X133.129 Y102.523 E0.02631
G1 X133.194 Y102.427 E0.02825
G1 X133.259 Y102.330 E0.03018
G1 X133.325 Y102.234 E0.03210
G1 X133.390 Y102.138 E0.03400
G1 X133.452 Y102.038 E0.03598
G1 X133.509 Y101.934 E0.03821
G1 X133.566 Y101.829 E0.04066
G1 X133.623 Y101.724 E0.04331
G1 X133.680 Y101.620 E0.04618
G1 X133.737 Y101.515 E0.04926
G1 X133.722 Y101.543 E0.05007
G1 X133.758 Y101.429 E0.05286
G1 X133.784 Y101.315 E0.05553
G1 X133.809 Y101.201 E0.05815
G1 X133.835 Y101.086 E0.06071
G1 X133.860 Y100.972 E0.06322
G1 X133.886 Y100.858 E0.06567
G1 X133.911 Y100.743 E0.06807
G1 X133.929 Y100.629 E0.07053
G1 X133.945 Y100.515 E0.07311
G1 X133.961 Y100.401 E0.07581
G1 X133.977 Y100.286 E0.07864
G1 X133.993 Y100.172 E0.08160
G1 X134.009 Y100.058 E0.08468
G1 X134.009 Y99.943 E0.08774
G1 X133.993 Y99.829 E0.09070
G1 X133.977 Y99.715 E0.09353
G1 X133.961 Y99.601 E0.09624
G1 X133.945 Y99.486 E0.09882
G1 X133.929 Y99.372 E0.10128
G1 X133.912 Y99.258 E0.10365
G1 X133.886 Y99.143 E0.10610
G1 X133.861 Y99.029 E0.10860
G1 X133.835 Y98.915 E0.11116
G1 X133.810 Y98.801 E0.11378
G1 X133.784 Y98.686 E0.11645
G0 X133.758 Y98.572 F7200
G0 X133.723 Y98.458
G1 X133.756 Y98.507 E0.11795 F1200
G1 X133.695 Y98.406 E0.12084
G1 X133.638 Y98.302 E0.12355
G1 X133.581 Y98.197 E0.12605
G1 X133.524 Y98.093 E0.12833
G1 X133.467 Y97.988 E0.13041
G1 X133.407 Y97.886 E0.13233
G1 X133.341 Y97.790 E0.13424
G1 X133.276 Y97.694 E0.13617
G1 X133.211 Y97.597 E0.13811
G1 X133.145 Y97.501 E0.14007
G1 X133.080 Y97.405 E0.14204
G1 X133.015 Y97.309 E0.14403
G1 X132.949 Y97.212 E0.14604
G1 X132.884 Y97.116 E0.14806
G1 X132.803 Y97.036 E0.14964
G0 X132.502 Y96.852 F7200
G0 X132.378 Y96.814
G0 X132.254 Y96.777
