; #disp params :
; Printmode:0
; Layer:170
; Zmax:112.439 mm
; Xmax:142.314 mm
; Ymax:34 mm
; Xmin:117.561 mm
; Ymin:0.2 mm
; E0diam:0.4 mm
; E0len:0.348656 m
; E0temp:215 C
; Bedtemp:215 C
; Time:13.1009 min
; #params end
; GCode generated by CraftWare

G28 X Y ; home horizontally
G28 Z ; home vertically


M104 S215 ;set head temp (no wait)
M190 S60 ;set bed temp (wait)
M109 S215 ;set head temp (wait)
; ------------------------------------
; Layer #0
; ------------------------------------
M106 S0 ;turn off fan
G21 ; mm
G90 ; abs
G92 E0 ;reset extr
G0 F600 Z0.200
;segType:Skirt
G0 F3000 E-1.00000
G0 X118.999 Y103.688 F5400
G0 F3000 E0.00000
G1 X118.624 Y103.063 E0.02424 F2400
G1 X118.186 Y102.500 E0.04796
G1 X117.874 Y101.813 E0.07307
G1 X117.686 Y101.000 E0.10081
G1 X117.561 Y100.125 E0.13021
G1 X117.561 Y99.625 E0.14685
G1 X117.811 Y98.875 E0.17314
G1 X117.811 Y98.375 E0.18977
G1 X118.124 Y97.687 E0.21491
G1 X118.561 Y97.125 E0.23860
G1 X118.936 Y96.500 E0.26284
G1 X126.437 Y88.999 E0.61565
G1 X127.062 Y88.624 E0.63989
G1 X127.625 Y88.186 E0.66361
G1 X128.750 Y87.811 E0.70305
G1 X129.250 Y87.811 E0.71968
G1 X129.625 Y87.686 E0.73283
G1 X130.563 Y87.749 E0.76409
G1 X131.813 Y87.999 E0.80650
G1 X133.063 Y88.749 E0.85498
G1 X133.625 Y89.186 E0.87868
G1 X140.626 Y96.187 E1.20796
G1 X141.501 Y97.312 E1.25537
G1 X141.876 Y97.937 E1.27961
G1 X142.251 Y99.562 E1.33509
G1 X142.314 Y100.500 E1.36635
G1 X142.064 Y101.250 E1.39264
G1 X142.064 Y101.750 E1.40928
G1 X141.939 Y102.125 E1.42242
G1 X141.501 Y102.688 E1.44614
G1 X141.126 Y103.313 E1.47038
G1 X140.689 Y103.875 E1.49408
G1 X133.688 Y110.876 E1.82336
G1 X133.125 Y111.314 E1.84708
G1 X131.875 Y112.064 E1.89557
G1 X131.500 Y112.189 E1.90871
G1 X131.000 Y112.189 E1.92535
G1 X130.250 Y112.439 E1.95164
G1 X129.750 Y112.439 E1.96827
G1 X129.375 Y112.314 E1.98142
G1 X128.500 Y112.189 E2.01082
G1 X127.750 Y111.939 E2.03712
G1 X127.125 Y111.564 E2.06136
G1 X126.000 Y110.689 E2.10877
G1 X118.999 Y103.688 E2.43806
G0 X118.999 Y103.688 F5400
G0 X119.311 Y103.625
G1 X118.561 Y102.375 E2.48654 F2400
G1 X118.311 Y102.125 E2.49830
G1 X118.186 Y101.750 E2.51145
G1 X118.186 Y101.250 E2.52808
G1 X117.936 Y100.500 E2.55438
G1 X117.999 Y99.562 E2.58564
G1 X118.374 Y97.937 E2.64112
G1 X118.749 Y97.312 E2.66536
G1 X119.624 Y96.187 E2.71277
G1 X126.125 Y89.686 E3.01853
G1 X127.250 Y88.811 E3.06594
G1 X127.875 Y88.436 E3.09018
G1 X129.500 Y88.061 E3.14566
G1 X130.500 Y88.061 E3.17892
G1 X131.250 Y88.311 E3.20522
G1 X131.750 Y88.311 E3.22185
G1 X133.000 Y89.061 E3.27034
G1 X133.563 Y89.499 E3.29405
G1 X140.564 Y96.500 E3.62334
G1 X140.939 Y97.125 E3.64758
G1 X141.376 Y97.687 E3.67127
G1 X141.689 Y98.375 E3.69640
G1 X141.689 Y98.875 E3.71304
G1 X141.939 Y99.625 E3.73933
G1 X141.876 Y100.563 E3.77059
G1 X141.501 Y102.188 E3.82607
G1 X141.064 Y102.750 E3.84976
G1 X140.689 Y103.375 E3.87400
G1 X140.251 Y103.938 E3.89772
G1 X133.750 Y110.439 E4.20348
G1 X133.188 Y110.876 E4.22718
G1 X132.563 Y111.251 E4.25142
G1 X132.000 Y111.689 E4.27514
G1 X131.125 Y111.814 E4.30454
G1 X129.875 Y112.064 E4.34694
G1 X129.500 Y111.939 E4.36009
G1 X129.000 Y111.939 E4.37672
G1 X128.250 Y111.689 E4.40302
G1 X127.812 Y111.626 E4.41772
G1 X127.250 Y111.189 E4.44142
G1 X126.625 Y110.814 E4.46566
G1 X125.812 Y110.126 E4.50108
G1 X119.311 Y103.625 E4.80684
G0 X119.311 Y103.625 F5400
G0 X119.936 Y103.875
G1 X119.499 Y103.313 E4.83053 F2400
G1 X119.124 Y102.688 E4.85478
G1 X118.686 Y102.125 E4.87849
G1 X118.561 Y101.750 E4.89164
G1 X118.561 Y101.250 E4.90827
G1 X118.311 Y100.500 E4.93457
G1 X118.374 Y99.562 E4.96583
G1 X118.749 Y97.937 E5.02130
G1 X119.124 Y97.312 E5.04555
G1 X119.999 Y96.187 E5.09296
G1 X126.500 Y89.686 E5.39872
G1 X128.062 Y88.749 E5.45932
G1 X128.875 Y88.561 E5.48707
G1 X129.375 Y88.561 E5.50370
G1 X129.750 Y88.436 E5.51685
G1 X130.250 Y88.436 E5.53348
G1 X130.625 Y88.561 E5.54663
G1 X131.125 Y88.561 E5.56326
G1 X132.250 Y88.936 E5.60270
G1 X132.813 Y89.374 E5.62642
G1 X133.438 Y89.749 E5.65066
G1 X139.939 Y96.250 E5.95643
G1 X140.814 Y97.375 E6.00384
G1 X141.189 Y98.000 E6.02808
G1 X141.314 Y98.375 E6.04123
G1 X141.314 Y98.875 E6.05786
G1 X141.564 Y99.625 E6.08416
G1 X141.501 Y100.563 E6.11542
G1 X141.126 Y102.188 E6.17089
G1 X140.689 Y102.750 E6.19458
G1 X140.314 Y103.375 E6.21883
G1 X139.876 Y103.938 E6.24254
G1 X133.875 Y109.939 E6.52479
G1 X132.750 Y110.814 E6.57219
G1 X132.125 Y111.189 E6.59644
G1 X131.375 Y111.439 E6.62273
G1 X130.500 Y111.564 E6.65214
G1 X130.125 Y111.689 E6.66528
G1 X129.625 Y111.689 E6.68192
G1 X128.875 Y111.439 E6.70821
G1 X128.375 Y111.439 E6.72484
G1 X127.687 Y111.126 E6.74997
G1 X127.062 Y110.751 E6.77422
G1 X125.937 Y109.876 E6.82163
G1 X119.936 Y103.875 E7.10387
G0 X119.936 Y103.875 F5400
G0 X120.436 Y104.000
G1 X119.561 Y102.875 E7.15128 F2400
G1 X119.186 Y102.250 E7.17552
G1 X118.811 Y101.125 E7.21497
G1 X118.811 Y100.625 E7.23160
G1 X118.686 Y100.250 E7.24475
G1 X118.686 Y99.750 E7.26138
G1 X119.061 Y98.125 E7.31685
G1 X119.186 Y97.750 E7.33000
G1 X119.624 Y97.187 E7.35371
G1 X119.999 Y96.562 E7.37796
G1 X126.500 Y90.061 E7.68372
G1 X128.062 Y89.124 E7.74432
G1 X128.875 Y88.936 E7.77207
G1 X129.375 Y88.936 E7.78870
G1 X129.750 Y88.811 E7.80185
G1 X130.250 Y88.811 E7.81848
G1 X130.625 Y88.936 E7.83163
G1 X131.125 Y88.936 E7.84826
G1 X132.250 Y89.311 E7.88771
G1 X132.813 Y89.749 E7.91142
G1 X133.438 Y90.124 E7.93567
G1 X139.939 Y96.625 E8.24143
G1 X140.689 Y97.875 E8.28992
G1 X141.064 Y99.000 E8.32936
G1 X141.064 Y99.500 E8.34600
G1 X141.189 Y99.875 E8.35914
G1 X141.189 Y100.375 E8.37577
G1 X140.814 Y102.000 E8.43125
G1 X140.064 Y103.250 E8.47974
G1 X139.626 Y103.813 E8.50345
G1 X133.625 Y109.814 E8.78570
G1 X133.000 Y110.189 E8.80994
G1 X132.438 Y110.626 E8.83363
G1 X131.750 Y110.939 E8.85876
G1 X130.125 Y111.314 E8.91424
G1 X129.625 Y111.314 E8.93087
G1 X128.875 Y111.064 E8.95716
G1 X128.375 Y111.064 E8.97380
G1 X127.687 Y110.751 E8.99893
G1 X127.062 Y110.376 E9.02317
G1 X125.937 Y109.501 E9.07058
G1 X120.436 Y104.000 E9.32930
G0 X120.436 Y104.000 F5400
G0 X120.436 Y103.625
G1 X119.686 Y102.375 E9.37779 F2400
G1 X119.436 Y102.125 E9.38955
G1 X119.311 Y101.750 E9.40270
G1 X119.311 Y101.250 E9.41933
G1 X119.061 Y100.500 E9.44563
G1 X119.124 Y99.562 E9.47689
G1 X119.499 Y97.937 E9.53236
G1 X119.874 Y97.312 E9.55661
G1 X120.749 Y96.187 E9.60401
G1 X126.250 Y90.686 E9.86274
G1 X126.812 Y90.249 E9.88643
G1 X128.062 Y89.499 E9.93492
G1 X128.875 Y89.311 E9.96266
G1 X129.375 Y89.311 E9.97930
G1 X129.750 Y89.186 E9.99244
G1 X130.250 Y89.186 E10.00908
G1 X130.625 Y89.311 E10.02222
G1 X131.125 Y89.311 E10.03885
G1 X132.250 Y89.686 E10.07830
G1 X132.813 Y90.124 E10.10201
G1 X133.438 Y90.499 E10.12626
G1 X139.439 Y96.500 E10.40850
G1 X139.814 Y97.125 E10.43275
G1 X140.251 Y97.687 E10.45644
G1 X140.564 Y98.375 E10.48157
G1 X140.564 Y98.875 E10.49820
G1 X140.814 Y99.625 E10.52450
G1 X140.751 Y100.563 E10.55576
G1 X140.376 Y102.188 E10.61123
G1 X139.939 Y102.750 E10.63493
G1 X139.564 Y103.375 E10.65917
G1 X139.126 Y103.938 E10.68289
G1 X133.625 Y109.439 E10.94161
G1 X133.000 Y109.814 E10.96586
G1 X132.438 Y110.251 E10.98955
G1 X131.750 Y110.564 E11.01468
G1 X130.125 Y110.939 E11.07015
G1 X129.625 Y110.939 E11.08678
G1 X128.875 Y110.689 E11.11308
G1 X128.375 Y110.689 E11.12971
G1 X127.687 Y110.376 E11.15484
G1 X127.062 Y110.001 E11.17909
G1 X125.937 Y109.126 E11.22649
G1 X120.436 Y103.625 E11.48522
G0 X120.436 Y103.625 F5400
G0 X120.936 Y103.750
G1 X120.561 Y103.125 E11.50946 F2400
G1 X120.124 Y102.563 E11.53315
G1 X119.811 Y101.875 E11.55828
G1 X119.561 Y101.125 E11.58458
G1 X119.561 Y100.625 E11.60121
G1 X119.436 Y100.250 E11.61436
G1 X119.436 Y99.750 E11.63099
G1 X119.811 Y98.125 E11.68646
G1 X119.936 Y97.750 E11.69961
G1 X120.374 Y97.187 E11.72333
G1 X120.749 Y96.562 E11.74757
G1 X126.250 Y91.062 E12.00630
G1 X126.812 Y90.624 E12.02999
G1 X128.062 Y89.874 E12.07848
G1 X128.875 Y89.686 E12.10622
G1 X129.375 Y89.686 E12.12286
G1 X129.750 Y89.561 E12.13600
G1 X130.250 Y89.561 E12.15264
G1 X130.625 Y89.686 E12.16578
G1 X131.125 Y89.686 E12.18241
G1 X132.250 Y90.061 E12.22186
G1 X132.813 Y90.499 E12.24557
G1 X133.438 Y90.874 E12.26982
G1 X138.938 Y96.375 E12.52854
G1 X139.376 Y96.937 E12.55224
G1 X139.751 Y97.562 E12.57648
G1 X140.064 Y98.250 E12.60161
G1 X140.314 Y99.000 E12.62791
G1 X140.314 Y99.500 E12.64454
G1 X140.439 Y99.875 E12.65769
G1 X140.439 Y100.375 E12.67432
G1 X140.064 Y102.000 E12.72979
G1 X139.314 Y103.250 E12.77828
G1 X138.876 Y103.813 E12.80199
G1 X133.875 Y108.813 E13.03720
G1 X132.750 Y109.689 E13.08461
G1 X132.125 Y110.064 E13.10885
G1 X131.375 Y110.314 E13.13515
G1 X130.500 Y110.439 E13.16455
G1 X130.125 Y110.564 E13.17770
G1 X129.625 Y110.564 E13.19433
G1 X128.875 Y110.314 E13.22062
G1 X128.375 Y110.314 E13.23725
G1 X127.687 Y110.001 E13.26239
G1 X127.062 Y109.626 E13.28663
G1 X125.937 Y108.751 E13.33404
G1 X120.936 Y103.750 E13.56924
G0 X120.936 Y103.750 F5400
G0 X121.499 Y103.938
G1 X121.062 Y103.375 E13.59296 F2400
G1 X120.686 Y102.750 E13.61720
G1 X120.249 Y102.188 E13.64089
G1 X119.874 Y100.563 E13.69637
G1 X119.811 Y99.625 E13.72763
G1 X120.061 Y98.875 E13.75392
G1 X120.061 Y98.375 E13.77056
G1 X120.374 Y97.687 E13.79569
G1 X120.811 Y97.125 E13.81938
G1 X121.187 Y96.500 E13.84362
G1 X126.187 Y91.499 E14.07883
G1 X126.750 Y91.062 E14.10254
G1 X127.375 Y90.686 E14.12679
G1 X127.625 Y90.436 E14.13855
G1 X128.750 Y90.061 E14.17799
G1 X129.250 Y90.061 E14.19462
G1 X129.625 Y89.936 E14.20777
G1 X130.563 Y89.999 E14.23903
G1 X131.813 Y90.249 E14.28143
G1 X133.063 Y90.999 E14.32992
G1 X133.625 Y91.437 E14.35361
G1 X138.626 Y96.437 E14.58882
G1 X139.063 Y97.000 E14.61253
G1 X139.439 Y97.625 E14.63678
G1 X139.751 Y98.312 E14.66189
G1 X139.939 Y99.125 E14.68963
G1 X140.064 Y100.000 E14.71903
G1 X140.064 Y100.500 E14.73566
G1 X139.814 Y101.250 E14.76196
G1 X139.814 Y101.750 E14.77859
G1 X139.689 Y102.125 E14.79174
G1 X139.251 Y102.688 E14.81546
G1 X138.876 Y103.313 E14.83970
G1 X138.438 Y103.875 E14.86339
G1 X133.938 Y108.376 E15.07508
G1 X132.813 Y109.251 E15.12248
G1 X132.188 Y109.626 E15.14673
G1 X131.500 Y109.939 E15.17186
G1 X131.000 Y109.939 E15.18849
G1 X130.250 Y110.189 E15.21479
G1 X129.750 Y110.189 E15.23142
G1 X129.375 Y110.064 E15.24457
G1 X128.500 Y109.939 E15.27397
G1 X127.750 Y109.689 E15.30026
G1 X127.125 Y109.314 E15.32451
G1 X126.000 Y108.438 E15.37191
G1 X121.499 Y103.938 E15.58360
G0 X121.499 Y103.938 F5400
G0 X121.937 Y104.000
G1 X121.062 Y102.875 E15.63100 F2400
G1 X120.686 Y102.250 E15.65525
G1 X120.311 Y101.125 E15.69469
G1 X120.311 Y100.625 E15.71133
G1 X120.186 Y100.250 E15.72447
G1 X120.186 Y99.750 E15.74110
G1 X120.561 Y98.125 E15.79658
G1 X120.686 Y97.750 E15.80973
G1 X121.124 Y97.187 E15.83344
G1 X121.499 Y96.562 E15.85769
G1 X126.500 Y91.562 E16.09289
G1 X128.062 Y90.624 E16.15349
G1 X128.875 Y90.436 E16.18124
G1 X129.375 Y90.436 E16.19787
G1 X129.750 Y90.311 E16.21102
G1 X130.250 Y90.311 E16.22765
G1 X130.625 Y90.436 E16.24080
G1 X131.125 Y90.436 E16.25743
G1 X132.250 Y90.811 E16.29687
G1 X132.813 Y91.249 E16.32059
G1 X133.438 Y91.624 E16.34483
G1 X138.438 Y96.625 E16.58004
G1 X139.189 Y97.875 E16.62853
G1 X139.564 Y99.000 E16.66797
G1 X139.564 Y99.500 E16.68460
G1 X139.689 Y99.875 E16.69775
G1 X139.689 Y100.375 E16.71438
G1 X139.314 Y102.000 E16.76986
G1 X138.563 Y103.250 E16.81835
G1 X138.126 Y103.813 E16.84206
G1 X133.625 Y108.313 E17.05375
G1 X133.000 Y108.688 E17.07799
G1 X132.438 Y109.126 E17.10168
G1 X131.750 Y109.439 E17.12681
G1 X130.125 Y109.814 E17.18229
G1 X129.625 Y109.814 E17.19892
G1 X128.875 Y109.564 E17.22521
G1 X128.375 Y109.564 E17.24184
G1 X127.687 Y109.251 E17.26698
G1 X127.062 Y108.876 E17.29122
G1 X125.937 Y108.001 E17.33863
G1 X121.937 Y104.000 E17.52679
G0 X121.937 Y104.000 F5400
G0 X121.937 Y103.625
G1 X121.187 Y102.375 E17.57528 F2400
G1 X120.936 Y102.125 E17.58704
G1 X120.811 Y101.750 E17.60019
G1 X120.811 Y101.250 E17.61682
G1 X120.561 Y100.500 E17.64312
G1 X120.624 Y99.562 E17.67438
G1 X120.999 Y97.937 E17.72985
G1 X121.374 Y97.312 E17.75410
G1 X122.249 Y96.187 E17.80150
G1 X126.250 Y92.187 E17.98967
G1 X126.812 Y91.749 E18.01336
G1 X128.062 Y90.999 E18.06185
G1 X128.875 Y90.811 E18.08959
G1 X129.375 Y90.811 E18.10622
G1 X129.750 Y90.686 E18.11937
G1 X130.250 Y90.686 E18.13600
G1 X130.625 Y90.811 E18.14915
G1 X131.125 Y90.811 E18.16579
G1 X132.250 Y91.187 E18.20523
G1 X132.813 Y91.624 E18.22894
G1 X133.438 Y91.999 E18.25319
G1 X137.938 Y96.500 E18.46487
G1 X138.313 Y97.125 E18.48912
G1 X138.751 Y97.687 E18.51281
G1 X139.063 Y98.375 E18.53794
G1 X139.063 Y98.875 E18.55457
G1 X139.314 Y99.625 E18.58087
G1 X139.251 Y100.563 E18.61213
G1 X138.876 Y102.188 E18.66760
G1 X138.438 Y102.750 E18.69129
G1 X138.063 Y103.375 E18.71554
G1 X137.626 Y103.938 E18.73925
G1 X133.625 Y107.938 E18.92742
G1 X133.000 Y108.313 E18.95166
G1 X132.438 Y108.751 E18.97535
G1 X131.750 Y109.064 E19.00049
G1 X130.125 Y109.439 E19.05596
G1 X129.625 Y109.439 E19.07259
G1 X128.875 Y109.189 E19.09889
G1 X128.375 Y109.189 E19.11552
G1 X127.687 Y108.876 E19.14065
G1 X127.062 Y108.501 E19.16489
G1 X125.937 Y107.626 E19.21230
G1 X121.937 Y103.625 E19.40046
G0 X121.937 Y103.625 F5400
G0 X122.437 Y103.750
G1 X122.062 Y103.125 E19.42471 F2400
G1 X121.624 Y102.563 E19.44840
G1 X121.312 Y101.875 E19.47353
G1 X121.062 Y101.125 E19.49983
G1 X121.062 Y100.625 E19.51646
G1 X120.936 Y100.250 E19.52961
G1 X120.936 Y99.750 E19.54624
G1 X121.312 Y98.125 E19.60171
G1 X121.437 Y97.750 E19.61486
G1 X121.874 Y97.187 E19.63858
G1 X122.249 Y96.562 E19.66282
G1 X126.250 Y92.562 E19.85098
G1 X126.812 Y92.124 E19.87467
G1 X128.062 Y91.374 E19.92316
G1 X128.875 Y91.187 E19.95091
G1 X129.375 Y91.187 E19.96754
G1 X129.750 Y91.062 E19.98069
G1 X130.250 Y91.062 E19.99732
G1 X130.625 Y91.187 E20.01047
G1 X131.125 Y91.187 E20.02710
G1 X132.250 Y91.562 E20.06654
G1 X132.813 Y91.999 E20.09026
G1 X133.438 Y92.374 E20.11450
G1 X137.438 Y96.375 E20.30266
G1 X137.876 Y96.937 E20.32636
G1 X138.251 Y97.562 E20.35060
G1 X138.563 Y98.250 E20.37573
G1 X138.813 Y99.000 E20.40203
G1 X138.813 Y99.500 E20.41866
G1 X138.938 Y99.875 E20.43181
G1 X138.938 Y100.375 E20.44844
G1 X138.563 Y102.000 E20.50392
G1 X137.813 Y103.250 E20.55241
G1 X137.376 Y103.813 E20.57612
G1 X133.875 Y107.313 E20.74076
G1 X132.750 Y108.188 E20.78817
G1 X132.125 Y108.563 E20.81241
G1 X131.375 Y108.813 E20.83871
G1 X130.500 Y108.938 E20.86811
G1 X130.125 Y109.064 E20.88126
G1 X129.625 Y109.064 E20.89789
G1 X128.875 Y108.813 E20.92419
G1 X128.375 Y108.813 E20.94082
G1 X127.687 Y108.501 E20.96595
G1 X127.062 Y108.126 E20.99020
G1 X125.937 Y107.251 E21.03760
G1 X122.437 Y103.750 E21.20225
G0 X122.437 Y103.750 F5400
G0 X122.937 Y103.875
G1 X122.499 Y103.313 E21.22594 F2400
G1 X122.124 Y102.688 E21.25018
G1 X121.687 Y102.125 E21.27389
G1 X121.562 Y101.750 E21.28704
G1 X121.562 Y101.250 E21.30368
G1 X121.312 Y100.500 E21.32997
G1 X121.374 Y99.562 E21.36123
G1 X121.749 Y97.937 E21.41671
G1 X122.124 Y97.312 E21.44095
G1 X122.999 Y96.187 E21.48836
G1 X126.500 Y92.687 E21.65300
G1 X128.062 Y91.749 E21.71360
G1 X128.875 Y91.562 E21.74135
G1 X129.375 Y91.562 E21.75798
G1 X129.750 Y91.437 E21.77113
G1 X130.250 Y91.437 E21.78776
G1 X130.625 Y91.562 E21.80090
G1 X131.125 Y91.562 E21.81754
G1 X132.250 Y91.937 E21.85698
G1 X132.813 Y92.374 E21.88069
G1 X133.438 Y92.749 E21.90494
G1 X136.938 Y96.250 E22.06958
G1 X137.813 Y97.375 E22.11699
G1 X138.188 Y98.000 E22.14123
G1 X138.313 Y98.375 E22.15438
G1 X138.313 Y98.875 E22.17101
G1 X138.563 Y99.625 E22.19731
G1 X138.501 Y100.563 E22.22857
G1 X138.126 Y102.188 E22.28404
G1 X137.688 Y102.750 E22.30773
G1 X137.313 Y103.375 E22.33198
G1 X136.876 Y103.938 E22.35570
G1 X133.875 Y106.938 E22.49682
G1 X132.750 Y107.813 E22.54423
G1 X132.125 Y108.188 E22.56847
G1 X131.375 Y108.438 E22.59477
G1 X130.500 Y108.563 E22.62417
G1 X130.125 Y108.688 E22.63731
G1 X129.625 Y108.688 E22.65394
G1 X128.875 Y108.438 E22.68024
G1 X128.375 Y108.438 E22.69687
G1 X127.687 Y108.126 E22.72200
G1 X127.062 Y107.751 E22.74625
G1 X125.937 Y106.876 E22.79365
G1 X122.937 Y103.875 E22.93478
G0 X122.937 Y103.875 F5400
G0 X123.499 Y104.063
G1 X122.624 Y102.938 E22.98218 F2400
G1 X122.249 Y102.313 E23.00643
G1 X121.937 Y101.625 E23.03156
G1 X121.812 Y100.750 E23.06096
G1 X121.687 Y100.375 E23.07411
G1 X121.687 Y99.875 E23.09074
G1 X121.812 Y99.500 E23.10389
G1 X121.812 Y99.000 E23.12052
G1 X122.062 Y98.250 E23.14682
G1 X122.374 Y97.562 E23.17195
G1 X122.749 Y96.937 E23.19619
G1 X123.187 Y96.375 E23.21988
G1 X126.187 Y93.374 E23.36101
G1 X126.750 Y92.937 E23.38472
G1 X127.375 Y92.562 E23.40896
G1 X127.625 Y92.312 E23.42072
G1 X128.750 Y91.937 E23.46017
G1 X129.250 Y91.937 E23.47680
G1 X129.625 Y91.812 E23.48995
G1 X130.563 Y91.874 E23.52121
G1 X131.813 Y92.124 E23.56361
G1 X133.063 Y92.874 E23.61210
G1 X133.625 Y93.312 E23.63579
G1 X136.626 Y96.312 E23.77691
G1 X137.063 Y96.875 E23.80063
G1 X137.438 Y97.500 E23.82487
G1 X137.688 Y97.750 E23.83663
G1 X137.938 Y98.500 E23.86293
G1 X138.063 Y99.375 E23.89233
G1 X138.188 Y99.750 E23.90548
G1 X138.188 Y100.250 E23.92211
G1 X138.063 Y100.625 E23.93526
G1 X138.063 Y101.125 E23.95189
G1 X137.813 Y101.875 E23.97819
G1 X137.501 Y102.563 E24.00332
G1 X137.063 Y103.125 E24.02701
G1 X136.688 Y103.750 E24.05126
G1 X133.688 Y106.751 E24.19238
G1 X133.125 Y107.188 E24.21609
G1 X131.875 Y107.938 E24.26458
G1 X131.500 Y108.063 E24.27773
G1 X131.000 Y108.063 E24.29436
G1 X130.250 Y108.313 E24.32066
G1 X129.750 Y108.313 E24.33729
G1 X129.375 Y108.188 E24.35044
G1 X128.500 Y108.063 E24.37984
G1 X127.750 Y107.813 E24.40614
G1 X127.125 Y107.438 E24.43038
G1 X126.000 Y106.563 E24.47779
G1 X123.499 Y104.063 E24.59539
G0 X123.499 Y104.063 F5400
G0 X123.437 Y103.625
G1 X122.687 Y102.375 E24.64388 F2400
G1 X122.437 Y102.125 E24.65564
G1 X122.312 Y101.750 E24.66879
G1 X122.312 Y101.250 E24.68542
G1 X122.062 Y100.500 E24.71172
G1 X122.124 Y99.562 E24.74298
G1 X122.499 Y97.937 E24.79845
G1 X122.874 Y97.312 E24.82270
G1 X123.749 Y96.187 E24.87010
G1 X126.250 Y93.687 E24.98771
G1 X126.812 Y93.249 E25.01140
G1 X128.062 Y92.499 E25.05989
G1 X128.875 Y92.312 E25.08763
G1 X129.375 Y92.312 E25.10426
G1 X129.750 Y92.187 E25.11741
G1 X130.250 Y92.187 E25.13404
G1 X130.625 Y92.312 E25.14719
G1 X131.125 Y92.312 E25.16382
G1 X132.250 Y92.687 E25.20327
G1 X132.813 Y93.124 E25.22698
G1 X133.438 Y93.499 E25.25122
G1 X136.438 Y96.500 E25.39235
G1 X136.813 Y97.125 E25.41659
G1 X137.251 Y97.687 E25.44028
G1 X137.563 Y98.375 E25.46541
G1 X137.563 Y98.875 E25.48205
G1 X137.813 Y99.625 E25.50834
G1 X137.751 Y100.563 E25.53960
G1 X137.376 Y102.188 E25.59508
G1 X136.938 Y102.750 E25.61877
G1 X136.563 Y103.375 E25.64301
G1 X136.126 Y103.938 E25.66673
G1 X133.625 Y106.438 E25.78433
G1 X133.000 Y106.813 E25.80857
G1 X132.438 Y107.251 E25.83227
G1 X131.750 Y107.563 E25.85740
G1 X130.125 Y107.938 E25.91287
G1 X129.625 Y107.938 E25.92950
G1 X128.875 Y107.688 E25.95580
G1 X128.375 Y107.688 E25.97243
G1 X127.687 Y107.376 E25.99756
G1 X127.062 Y107.001 E26.02180
G1 X125.937 Y106.126 E26.06921
G1 X123.437 Y103.625 E26.18681
G0 X123.437 Y103.625 F5400
G0 X123.937 Y103.750
G1 X123.562 Y103.125 E26.21106 F2400
G1 X123.124 Y102.563 E26.23475
G1 X122.812 Y101.875 E26.25988
G1 X122.562 Y101.125 E26.28618
G1 X122.562 Y100.625 E26.30281
G1 X122.437 Y100.250 E26.31596
G1 X122.437 Y99.750 E26.33259
G1 X122.812 Y98.125 E26.38806
G1 X122.937 Y97.750 E26.40121
G1 X123.374 Y97.187 E26.42492
G1 X123.749 Y96.562 E26.44917
G1 X126.250 Y94.062 E26.56677
G1 X126.812 Y93.624 E26.59046
G1 X128.062 Y92.874 E26.63895
G1 X128.875 Y92.687 E26.66670
G1 X129.375 Y92.687 E26.68333
G1 X129.750 Y92.562 E26.69647
G1 X130.250 Y92.562 E26.71311
G1 X130.625 Y92.687 E26.72625
G1 X131.125 Y92.687 E26.74288
G1 X132.250 Y93.062 E26.78233
G1 X132.813 Y93.499 E26.80604
G1 X133.438 Y93.875 E26.83029
G1 X135.938 Y96.375 E26.94789
G1 X136.376 Y96.937 E26.97158
G1 X136.751 Y97.562 E26.99583
G1 X137.063 Y98.250 E27.02096
G1 X137.313 Y99.000 E27.04726
G1 X137.313 Y99.500 E27.06389
G1 X137.438 Y99.875 E27.07704
G1 X137.438 Y100.375 E27.09367
G1 X137.063 Y102.000 E27.14914
G1 X136.313 Y103.250 E27.19763
G1 X135.875 Y103.813 E27.22134
G1 X133.875 Y105.813 E27.31543
G1 X132.750 Y106.688 E27.36283
G1 X132.125 Y107.063 E27.38708
G1 X131.375 Y107.313 E27.41337
G1 X130.500 Y107.438 E27.44277
G1 X130.125 Y107.563 E27.45592
G1 X129.625 Y107.563 E27.47255
G1 X128.875 Y107.313 E27.49885
G1 X128.375 Y107.313 E27.51548
G1 X127.687 Y107.001 E27.54061
G1 X127.062 Y106.626 E27.56485
G1 X125.937 Y105.750 E27.61226
G1 X123.937 Y103.750 E27.70634
G0 X123.937 Y103.750 F5400
G0 X124.437 Y103.875
G1 X124.000 Y103.313 E27.73004 F2400
G1 X123.624 Y102.688 E27.75428
G1 X123.187 Y102.125 E27.77799
G1 X123.062 Y101.750 E27.79114
G1 X123.062 Y101.250 E27.80777
G1 X122.812 Y100.500 E27.83407
G1 X122.874 Y99.562 E27.86533
G1 X123.249 Y97.937 E27.92080
G1 X123.624 Y97.312 E27.94505
G1 X124.500 Y96.187 E27.99246
G1 X126.500 Y94.187 E28.08654
G1 X128.062 Y93.249 E28.14714
G1 X128.875 Y93.062 E28.17488
G1 X129.375 Y93.062 E28.19151
G1 X129.750 Y92.937 E28.20466
G1 X130.250 Y92.937 E28.22129
G1 X130.625 Y93.062 E28.23444
G1 X131.125 Y93.062 E28.25107
G1 X132.250 Y93.437 E28.29052
G1 X132.813 Y93.875 E28.31423
G1 X133.438 Y94.250 E28.33848
G1 X135.438 Y96.250 E28.43256
G1 X136.313 Y97.375 E28.47997
G1 X136.688 Y98.000 E28.50421
G1 X136.813 Y98.375 E28.51736
G1 X136.813 Y98.875 E28.53399
G1 X137.063 Y99.625 E28.56029
G1 X137.001 Y100.563 E28.59155
G1 X136.626 Y102.188 E28.64702
G1 X136.188 Y102.750 E28.67071
G1 X135.813 Y103.375 E28.69496
G1 X135.375 Y103.938 E28.71867
G1 X133.875 Y105.438 E28.78924
G1 X132.750 Y106.313 E28.83664
G1 X132.125 Y106.688 E28.86089
G1 X131.375 Y106.938 E28.88718
G1 X130.500 Y107.063 E28.91658
G1 X130.125 Y107.188 E28.92973
G1 X129.625 Y107.188 E28.94636
G1 X128.875 Y106.938 E28.97266
G1 X128.375 Y106.938 E28.98929
G1 X127.687 Y106.626 E29.01442
G1 X127.062 Y106.251 E29.03867
G1 X125.937 Y105.375 E29.08607
G1 X124.437 Y103.875 E29.15663
G0 X124.437 Y103.875 F5400
G0 F3000 E28.15663
G0 X128.500 Y100.312 F5400
G0 F3000 E29.15663
G1 X131.375 Y100.312 E29.25226 F2400
G1 X131.437 Y99.875 E29.26695
G1 X131.375 Y99.688 E29.27352
G1 X129.375 Y99.688 E29.34004
G1 X128.438 Y99.750 E29.37129
G1 X128.500 Y100.312 E29.39010
G0 X128.500 Y100.312 F5400
G0 X128.125 Y100.687
G1 X131.750 Y100.687 E29.51068 F2400
G1 X131.812 Y99.750 E29.54192
G1 X131.750 Y99.313 E29.55662
G1 X128.750 Y99.313 E29.65640
G1 X128.063 Y99.375 E29.67936
G1 X128.125 Y100.687 E29.72306
G0 X128.125 Y100.687 F5400
G0 F3000 E28.72306
G0 X124.062 Y102.875 F5400
G0 F3000 E29.72306
G1 X123.687 Y102.250 E29.74730 F2400
G1 X123.312 Y101.125 E29.78674
G1 X123.312 Y100.625 E29.80338
G1 X123.187 Y100.250 E29.81652
G1 X123.187 Y99.750 E29.83316
G1 X123.562 Y98.125 E29.88863
G1 X123.687 Y97.750 E29.90178
G1 X124.125 Y97.187 E29.92549
G1 X124.500 Y96.562 E29.94973
G1 X126.500 Y94.562 E30.04382
G1 X128.062 Y93.624 E30.10442
G1 X128.875 Y93.437 E30.13216
G1 X129.375 Y93.437 E30.14879
G1 X129.750 Y93.312 E30.16194
G1 X130.250 Y93.312 E30.17857
G1 X130.625 Y93.437 E30.19172
G1 X131.125 Y93.437 E30.20835
G1 X132.250 Y93.812 E30.24780
G1 X132.813 Y94.250 E30.27151
G1 X133.438 Y94.625 E30.29576
G1 X135.438 Y96.625 E30.38984
G1 X136.188 Y97.875 E30.43833
G1 X136.563 Y99.000 E30.47777
G1 X136.563 Y99.500 E30.49441
G1 X136.688 Y99.875 E30.50755
G1 X136.688 Y100.375 E30.52418
G1 X136.313 Y102.000 E30.57966
G1 X135.563 Y103.250 E30.62815
G1 X135.125 Y103.813 E30.65186
G1 X133.625 Y105.313 E30.72242
G1 X133.000 Y105.688 E30.74667
G1 X132.438 Y106.126 E30.77036
G1 X131.750 Y106.438 E30.79549
G1 X130.125 Y106.813 E30.85096
G1 X129.625 Y106.813 E30.86759
G1 X128.875 Y106.563 E30.89389
G1 X128.375 Y106.563 E30.91052
G1 X127.687 Y106.251 E30.93565
G1 X127.062 Y105.875 E30.95990
G1 X125.937 Y105.000 E31.00730
G1 X124.937 Y104.000 E31.05434
G1 X124.062 Y102.875 E31.10175
G0 X124.062 Y102.875 F5400
G0 X124.625 Y103.063
G1 X124.187 Y102.500 E31.12546 F2400
G1 X123.874 Y101.813 E31.15057
G1 X123.687 Y101.000 E31.17832
G1 X123.562 Y100.125 E31.20772
G1 X123.562 Y99.625 E31.22435
G1 X123.812 Y98.875 E31.25065
G1 X123.812 Y98.375 E31.26728
G1 X124.125 Y97.687 E31.29241
G1 X124.562 Y97.125 E31.31610
G1 X124.937 Y96.500 E31.34035
G1 X126.437 Y95.000 E31.41091
G1 X127.062 Y94.625 E31.43515
G1 X127.625 Y94.187 E31.45887
G1 X128.750 Y93.812 E31.49831
G1 X129.250 Y93.812 E31.51494
G1 X129.625 Y93.687 E31.52809
G1 X130.563 Y93.749 E31.55935
G1 X131.813 Y94.000 E31.60176
G1 X133.063 Y94.750 E31.65025
G1 X133.625 Y95.187 E31.67394
G1 X134.625 Y96.187 E31.72098
G1 X135.500 Y97.312 E31.76838
G1 X135.875 Y97.937 E31.79263
G1 X136.251 Y99.562 E31.84810
G1 X136.313 Y100.500 E31.87936
G1 X136.063 Y101.250 E31.90566
G1 X136.063 Y101.750 E31.92229
G1 X135.938 Y102.125 E31.93544
G1 X135.500 Y102.688 E31.95916
G1 X135.125 Y103.313 E31.98340
G1 X134.688 Y103.875 E32.00709
G1 X133.688 Y104.875 E32.05414
G1 X133.125 Y105.313 E32.07785
G1 X131.875 Y106.063 E32.12634
G1 X131.500 Y106.188 E32.13949
G1 X131.000 Y106.188 E32.15612
G1 X130.250 Y106.438 E32.18242
G1 X129.750 Y106.438 E32.19905
G1 X129.375 Y106.313 E32.21220
G1 X128.500 Y106.188 E32.24160
G1 X127.750 Y105.938 E32.26790
G1 X127.125 Y105.563 E32.29214
G1 X126.000 Y104.688 E32.33955
G1 X125.000 Y103.688 E32.38659
G1 X124.625 Y103.063 E32.41083
G0 X124.625 Y103.063 F5400
G0 F3000 E31.41083
G0 X127.875 Y101.062 F5400
G0 F3000 E32.41083
G1 X131.875 Y101.062 E32.54389 F2400
G1 X132.062 Y101.000 E32.55045
G1 X132.187 Y100.625 E32.56360
G1 X132.187 Y99.625 E32.59686
G1 X132.062 Y99.000 E32.61807
G1 X131.125 Y98.938 E32.64931
G1 X127.875 Y98.938 E32.75742
G1 X127.750 Y99.313 E32.77057
G1 X127.688 Y100.125 E32.79766
G1 X127.688 Y100.500 E32.81014
G1 X127.875 Y101.062 E32.82985
G0 X127.875 Y101.062 F5400
G0 X127.625 Y101.437
G1 X132.250 Y101.437 E32.98369 F2400
G1 X132.437 Y101.125 E32.99580
G1 X132.562 Y100.250 E33.02520
G1 X132.500 Y99.313 E33.05644
G1 X132.187 Y98.625 E33.08157
G1 X131.250 Y98.563 E33.11282
G1 X127.750 Y98.563 E33.22924
G1 X127.313 Y99.625 E33.26745
G1 X127.313 Y100.625 E33.30072
G1 X127.625 Y101.437 E33.32966
G0 X127.625 Y101.437 F5400
G0 F3000 E32.32966
G0 X125.312 Y103.625 F5400
G0 F3000 E33.32966
G1 X124.562 Y102.375 E33.37815 F2400
G1 X124.312 Y102.125 E33.38991
G1 X124.187 Y101.750 E33.40306
G1 X124.187 Y101.250 E33.41969
G1 X123.937 Y100.500 E33.44599
G1 X124.000 Y99.562 E33.47725
G1 X124.375 Y97.937 E33.53272
G1 X124.750 Y97.312 E33.55697
G1 X125.625 Y96.187 E33.60438
G1 X126.125 Y95.687 E33.62790
G1 X127.250 Y94.812 E33.67530
G1 X127.875 Y94.437 E33.69954
G1 X129.500 Y94.062 E33.75502
G1 X130.500 Y94.062 E33.78828
G1 X131.250 Y94.312 E33.81458
G1 X131.750 Y94.312 E33.83121
G1 X133.000 Y95.062 E33.87970
G1 X133.563 Y95.500 E33.90342
G1 X134.563 Y96.500 E33.95046
G1 X134.938 Y97.125 E33.97471
G1 X135.375 Y97.687 E33.99840
G1 X135.688 Y98.375 E34.02353
G1 X135.688 Y98.875 E34.04016
G1 X135.938 Y99.625 E34.06646
G1 X135.875 Y100.563 E34.09772
G1 X135.500 Y102.188 E34.15319
G1 X135.063 Y102.750 E34.17688
G1 X134.688 Y103.375 E34.20113
G1 X134.250 Y103.938 E34.22485
G1 X133.750 Y104.438 E34.24837
G1 X133.188 Y104.875 E34.27206
G1 X132.563 Y105.250 E34.29630
G1 X132.000 Y105.688 E34.32002
G1 X131.125 Y105.813 E34.34942
G1 X129.875 Y106.063 E34.39182
G1 X129.500 Y105.938 E34.40497
G1 X129.000 Y105.938 E34.42160
G1 X128.250 Y105.688 E34.44790
G1 X127.812 Y105.625 E34.46261
G1 X127.250 Y105.188 E34.48630
G1 X126.625 Y104.813 E34.51055
G1 X125.812 Y104.125 E34.54596
G1 X125.312 Y103.625 E34.56948
G0 X125.312 Y103.625 F5400
G0 X125.500 Y103.313
G1 X125.125 Y102.688 E34.59373 F2400
G1 X124.687 Y102.125 E34.61744
G1 X124.562 Y101.750 E34.63059
G1 X124.562 Y101.250 E34.64723
G1 X124.312 Y100.500 E34.67352
G1 X124.375 Y99.562 E34.70478
G1 X124.750 Y97.937 E34.76026
G1 X125.125 Y97.312 E34.78450
G1 X126.000 Y96.187 E34.83191
G1 X126.500 Y95.687 E34.85543
G1 X128.062 Y94.750 E34.91603
G1 X128.875 Y94.562 E34.94378
G1 X129.375 Y94.562 E34.96041
G1 X129.750 Y94.437 E34.97356
G1 X130.250 Y94.437 E34.99019
G1 X130.625 Y94.562 E35.00334
G1 X131.125 Y94.562 E35.01997
G1 X132.250 Y94.937 E35.05942
G1 X132.813 Y95.375 E35.08313
G1 X133.438 Y95.750 E35.10738
G1 X133.938 Y96.250 E35.13090
G1 X134.813 Y97.375 E35.17830
G1 X135.188 Y98.000 E35.20255
G1 X135.313 Y98.375 E35.21570
G1 X135.313 Y98.875 E35.23233
G1 X135.563 Y99.625 E35.25863
G1 X135.500 Y100.563 E35.28989
G1 X135.125 Y102.188 E35.34536
G1 X134.688 Y102.750 E35.36905
G1 X134.313 Y103.375 E35.39330
G1 X133.875 Y103.938 E35.41702
G1 X132.750 Y104.813 E35.46442
G1 X132.125 Y105.188 E35.48867
G1 X131.375 Y105.438 E35.51496
G1 X130.500 Y105.563 E35.54436
G1 X130.125 Y105.688 E35.55751
G1 X129.625 Y105.688 E35.57414
G1 X128.875 Y105.438 E35.60044
G1 X128.375 Y105.438 E35.61707
G1 X127.687 Y105.125 E35.64220
G1 X127.062 Y104.750 E35.66645
G1 X125.937 Y103.875 E35.71385
G1 X125.500 Y103.313 E35.73755
G0 X125.500 Y103.313 F5400
G0 X127.500 Y101.812
G1 X132.375 Y101.812 E35.89970 F2400
G1 X132.750 Y101.187 E35.92395
G1 X132.938 Y100.375 E35.95167
G1 X132.938 Y99.375 E35.98494
G1 X132.500 Y98.313 E36.02315
G1 X132.125 Y98.188 E36.03630
G1 X127.625 Y98.188 E36.18598
G1 X127.313 Y98.375 E36.19809
G1 X126.937 Y99.500 E36.23753
G1 X126.937 Y100.500 E36.27080
G1 X127.313 Y101.625 E36.31024
G1 X127.500 Y101.812 E36.31905
G0 X127.500 Y101.812 F5400
G0 X127.250 Y102.187
G1 X132.625 Y102.187 E36.49784 F2400
G1 X133.125 Y101.187 E36.53503
G1 X133.313 Y100.375 E36.56275
G1 X133.313 Y99.375 E36.59602
G1 X132.625 Y97.813 E36.65279
G1 X127.625 Y97.813 E36.81910
G1 X127.188 Y97.875 E36.83379
G1 X126.937 Y98.625 E36.86009
G1 X126.625 Y99.313 E36.88522
G1 X126.562 Y100.250 E36.91646
G1 X126.687 Y101.125 E36.94586
G1 X127.063 Y101.750 E36.97011
G1 X127.250 Y102.187 E36.98593
G0 X127.250 Y102.187 F5400
G0 X127.687 Y104.750
G1 X127.062 Y104.375 E37.01018 F2400
G1 X126.187 Y103.750 E37.04595
G1 X125.812 Y103.125 E37.07019
G1 X125.375 Y102.563 E37.09388
G1 X125.062 Y101.875 E37.11901
G1 X124.812 Y101.125 E37.14531
G1 X124.812 Y100.625 E37.16194
G1 X124.687 Y100.250 E37.17509
G1 X124.687 Y99.750 E37.19172
G1 X125.062 Y98.125 E37.24719
G1 X125.187 Y97.750 E37.26034
G1 X125.625 Y97.187 E37.28406
G1 X126.000 Y96.562 E37.30831
G1 X126.500 Y96.062 E37.33183
G1 X128.062 Y95.125 E37.39243
G1 X128.875 Y94.937 E37.42017
G1 X129.375 Y94.937 E37.43681
G1 X129.750 Y94.812 E37.44996
G1 X130.250 Y94.812 E37.46659
G1 X130.625 Y94.937 E37.47974
G1 X131.125 Y94.937 E37.49637
G1 X132.250 Y95.312 E37.53581
G1 X132.813 Y95.750 E37.55953
G1 X133.438 Y96.125 E37.58378
G1 X133.938 Y96.625 E37.60730
G1 X134.688 Y97.875 E37.65579
G1 X135.063 Y99.000 E37.69523
G1 X135.063 Y99.500 E37.71186
G1 X135.188 Y99.875 E37.72501
G1 X135.188 Y100.375 E37.74164
G1 X134.813 Y102.000 E37.79712
G1 X134.063 Y103.250 E37.84561
G1 X133.625 Y103.813 E37.86932
G1 X133.000 Y104.188 E37.89357
G1 X132.438 Y104.625 E37.91726
G1 X131.750 Y104.938 E37.94239
G1 X130.125 Y105.313 E37.99787
G1 X129.625 Y105.313 E38.01450
G1 X128.875 Y105.063 E38.04079
G1 X128.375 Y105.063 E38.05742
G1 X127.687 Y104.750 E38.08256
G0 F3000 E37.08256
G0 X125.569 Y101.835 F5400
G0 X125.204 Y100.000
G0 X125.472 Y98.651
G0 X126.919 Y97.525
G0 X126.980 Y97.400
G0 X127.080 Y97.400
G0 X128.146 Y96.570
G0 F3000 E38.08256
;segType:InnerHair
G1 X128.022 Y96.608 E38.08654 F2400
G1 X127.898 Y96.646 E38.08973
G1 X127.775 Y96.684 E38.09211
G0 X128.440 Y96.299 F5400
;segType:HShell
G0 X128.348 Y96.490
G1 X129.117 Y96.411 E38.15028 F2400
G1 X129.634 Y96.362 E38.19346
G0 X130.456 Y96.617 F5400
G1 X129.847 Y96.009 E38.22206 F2400
G0 X130.477 Y96.074 F5400
G1 X131.018 Y96.614 E38.24746 F2400
G0 X131.580 Y96.610 F5400
G1 X131.183 Y96.214 E38.26611 F2400
G0 X132.206 Y96.662 F5400
;segType:InnerHair
G1 X132.082 Y96.625 E38.26917 F2400
G1 X131.958 Y96.588 E38.27306
G1 X131.833 Y96.550 E38.27776
G0 F3000 E37.27776
G0 X132.139 Y96.252 F5400
G0 X131.402 Y96.971
G0 X125.979 Y101.597
G0 X126.151 Y101.910
G0 X126.210 Y102.012
G0 X126.219 Y102.028
G0 X126.219 Y102.028
G0 F3000 E38.27776
;segType:Loop
G1 X126.210 Y102.012 E38.27846 F2400
G1 X126.151 Y101.910 E38.28307
G1 X126.093 Y101.806 E38.28786
G1 X126.036 Y101.701 E38.29286
G1 X125.979 Y101.597 E38.29805
G1 X125.950 Y101.464 E38.30421
G0 X125.877 Y101.201 F5400
G1 X125.851 Y101.086 E38.30862 F2400
G1 X125.825 Y100.972 E38.31296
G1 X125.799 Y100.858 E38.31725
G1 X125.773 Y100.743 E38.32147
G1 X125.752 Y100.629 E38.32560
G1 X125.736 Y100.515 E38.32972
G1 X125.719 Y100.401 E38.33396
G1 X125.703 Y100.286 E38.33833
G1 X125.686 Y100.172 E38.34281
G1 X125.670 Y100.058 E38.34741
G1 X125.672 Y99.943 E38.35208
G1 X125.687 Y99.829 E38.35684
G1 X125.703 Y99.715 E38.36146
G1 X125.718 Y99.601 E38.36594
G1 X125.734 Y99.486 E38.37029
G1 X125.749 Y99.372 E38.37451
G1 X125.775 Y99.258 E38.37864
G1 X125.800 Y99.143 E38.38282
G1 X125.825 Y99.029 E38.38705
G1 X125.850 Y98.915 E38.39132
G1 X125.875 Y98.801 E38.39564
G1 X125.940 Y98.567 E38.40468
G0 X125.964 Y98.429 F5400
G1 X126.021 Y98.324 E38.41014 F2400
G1 X126.077 Y98.219 E38.41538
G1 X126.134 Y98.115 E38.42041
G1 X126.194 Y98.013 E38.42517
G1 X126.253 Y97.910 E38.42980
G1 X126.312 Y97.808 E38.43428
G1 X126.371 Y97.705 E38.43860
G1 X126.430 Y97.603 E38.44277
G1 X126.489 Y97.500 E38.44679
G1 X126.549 Y97.398 E38.45065
G1 X126.608 Y97.295 E38.45436
G1 X126.667 Y97.192 E38.45792
G1 X126.726 Y97.090 E38.46132
G1 X126.857 Y96.966 E38.46626
G0 X126.971 Y96.931 F5400
G0 X127.085 Y97.000
G1 X132.800 Y96.962 E38.65632 F2400
G1 X132.914 Y96.874 E38.66112
G0 X133.028 Y96.909 F5400
G0 X133.256 Y97.068
G1 X133.315 Y97.170 E38.66443 F2400
G1 X133.374 Y97.272 E38.66789
G1 X133.434 Y97.374 E38.67150
G1 X133.493 Y97.476 E38.67526
G1 X133.553 Y97.579 E38.67915
G1 X133.612 Y97.681 E38.68320
G1 X133.672 Y97.783 E38.68739
G1 X133.731 Y97.885 E38.69172
G1 X133.790 Y97.988 E38.69620
G1 X133.850 Y98.090 E38.70083
G1 X133.907 Y98.194 E38.70562
G1 X133.965 Y98.298 E38.71063
G1 X134.022 Y98.402 E38.71583
G1 X134.051 Y98.535 E38.72200
G0 X134.123 Y98.801 F5400
G1 X134.149 Y98.915 E38.72641 F2400
G1 X134.174 Y99.029 E38.73078
G1 X134.200 Y99.143 E38.73508
G1 X134.225 Y99.258 E38.73933
G1 X134.251 Y99.372 E38.74352
G1 X134.266 Y99.486 E38.74759
G1 X134.282 Y99.601 E38.75181
G1 X134.298 Y99.715 E38.75615
G1 X134.314 Y99.829 E38.76063
G1 X134.330 Y99.943 E38.76522
G1 X134.328 Y100.058 E38.76990
G1 X134.313 Y100.172 E38.77465
G1 X134.297 Y100.286 E38.77926
G1 X134.281 Y100.401 E38.78375
G1 X134.266 Y100.515 E38.78809
G1 X134.250 Y100.629 E38.79231
G1 X134.225 Y100.743 E38.79645
G1 X134.200 Y100.858 E38.80063
G1 X134.175 Y100.972 E38.80487
G1 X134.150 Y101.086 E38.80915
G1 X134.125 Y101.201 E38.81347
G1 X134.040 Y101.495 E38.82493
G0 X134.007 Y101.624 F5400
G1 X133.951 Y101.729 E38.83029 F2400
G1 X133.894 Y101.834 E38.83543
G1 X133.835 Y101.937 E38.84032
G1 X133.776 Y102.039 E38.84504
G1 X133.717 Y102.142 E38.84960
G1 X133.658 Y102.244 E38.85401
G1 X133.599 Y102.347 E38.85826
G1 X133.540 Y102.449 E38.86236
G1 X133.481 Y102.552 E38.86630
G1 X133.422 Y102.654 E38.87009
G1 X133.363 Y102.757 E38.87372
G1 X133.303 Y102.859 E38.87721
G1 X133.142 Y103.034 E38.88388
G0 X133.028 Y103.069 F5400
G0 X132.914 Y102.999
G1 X127.199 Y103.037 E39.07394 F2400
G1 X127.085 Y103.124 E39.07872
G0 X126.971 Y103.090 F5400
G0 X126.745 Y102.932
G1 X126.686 Y102.830 E39.08203 F2400
G1 X126.626 Y102.727 E39.08548
G1 X126.567 Y102.625 E39.08908
G1 X126.507 Y102.523 E39.09282
G1 X126.448 Y102.421 E39.09672
G1 X126.389 Y102.318 E39.10075
G1 X126.329 Y102.216 E39.10493
G0 F3000 E38.10493
G0 X125.969 Y102.433 F5400
G0 X126.690 Y101.999
G0 X126.547 Y101.712
G0 X126.314 Y101.186
G0 X126.167 Y100.615
G0 X126.115 Y100.024
G0 X126.159 Y99.432
G0 X126.298 Y98.858
G0 X126.524 Y98.328
G0 X126.980 Y97.400
G0 X132.990 Y97.361
G0 X133.316 Y98.012
G0 X134.039 Y97.576
G0 X133.842 Y97.695
G0 F3000 E39.10493
;segType:Perimeter
G1 X134.443 Y98.223 E39.13154 F1200
G1 X134.796 Y100.000 E39.19179
G1 X134.432 Y101.835 E39.25404
G1 X133.392 Y103.391 E39.31627
G1 X131.836 Y104.431 E39.37851
G1 X130.000 Y104.796 E39.44077
G1 X128.165 Y104.431 E39.50302
G1 X126.609 Y103.391 E39.56526
G1 X125.569 Y101.835 E39.62750
G1 X125.204 Y100.000 E39.68975
G1 X125.569 Y98.164 E39.75201
G1 X126.609 Y96.608 E39.81424
G1 X128.165 Y95.568 E39.87648
G1 X130.000 Y95.204 E39.93873
G1 X131.836 Y95.568 E40.00098
G1 X133.392 Y96.608 E40.06321
G1 X134.398 Y98.114 E40.12346
G0 X134.443 Y98.223 F5400
G0 X134.755 Y99.792
G0 F3000 E39.12346
G0 X133.705 Y101.130 F5400
G0 X133.702 Y101.141
G0 X133.476 Y101.671
G0 X133.020 Y102.599
G0 X132.550 Y102.602
G0 X131.915 Y103.410
G0 F3000 E40.12346
;segType:InnerHair
G1 X132.039 Y103.373 E40.12706 F2400
G1 X132.162 Y103.335 E40.12986
G1 X132.286 Y103.297 E40.13186
G0 X131.753 Y103.572 F5400
;segType:HShell
G0 X131.889 Y103.425
G1 X131.176 Y103.561 E40.16774 F2400
G1 X130.660 Y103.610 E40.21092
G1 X130.143 Y103.658 E40.25409
G0 X129.925 Y104.006 F5400
G1 X129.302 Y103.383 E40.28338 F2400
G0 X129.272 Y103.637 F5400
G1 X128.393 Y103.605 E40.35658 F2400
G0 X127.795 Y103.337 F5400
;segType:InnerHair
G1 X127.919 Y103.374 E40.35965 F2400
G1 X128.043 Y103.411 E40.36353
G1 X128.168 Y103.449 E40.36824
G0 F3000 E39.36824
G0 X129.387 Y102.623 F5400
G0 X133.020 Y102.599
G0 X133.476 Y101.671
G0 X133.702 Y101.141
G0 X133.841 Y100.567
G0 X133.885 Y99.976
G0 X133.854 Y99.596
G0 X134.614 Y99.081
G0 X134.242 Y99.333
G0 F3000 E40.36824
;segType:Loop
G0 X134.251 Y99.372 F5400
G0 X134.266 Y99.486
G0 X134.330 Y99.943
G0 X134.328 Y100.058
G0 X134.266 Y100.515
G0 X134.250 Y100.629
G0 X134.125 Y101.201
G1 X134.096 Y101.315 E40.37276 F2400
G1 X134.061 Y101.429 E40.37759
G1 X134.025 Y101.543 E40.38267
G1 X133.990 Y101.658 E40.38799
G0 X134.007 Y101.624 F5400
G0 X133.894 Y101.834
G0 X133.835 Y101.937
G0 X133.303 Y102.859
G1 X133.243 Y102.960 E40.39119 F2400
G1 X133.138 Y103.017 E40.39554
G1 X133.028 Y103.069 E40.40099
G1 X132.982 Y103.184 E40.40512
G1 X131.680 Y104.054 E40.45719
G1 X130.000 Y104.388 E40.51415
G1 X128.321 Y104.054 E40.57111
G1 X127.091 Y103.232 E40.62031
G1 X127.048 Y103.113 E40.62609
G1 X126.924 Y103.076 E40.63121
G1 X126.819 Y103.020 E40.63479
G0 X126.745 Y102.932 F5400
G0 X126.210 Y102.012
G0 X126.151 Y101.910
G0 X125.979 Y101.597
G1 X126.011 Y101.658 E40.63785 F2400
G1 X125.975 Y101.543 E40.64293
G1 X125.938 Y101.429 E40.64774
G1 X125.902 Y101.315 E40.65229
G0 X125.877 Y101.201 F5400
G0 X125.773 Y100.743
G0 X125.752 Y100.629
G0 X125.670 Y100.058
G0 X125.672 Y99.943
G0 X125.734 Y99.486
G0 X125.749 Y99.372
G0 X125.875 Y98.801
G1 X125.904 Y98.686 E40.65680 F2400
G1 X125.939 Y98.572 E40.66162
G1 X125.974 Y98.458 E40.66668
G1 X126.010 Y98.343 E40.67200
G0 X125.964 Y98.429 F5400
G0 X126.134 Y98.115
G0 X126.194 Y98.013
G0 X126.726 Y97.090
G1 X126.809 Y97.011 E40.67561 F2400
G1 X126.914 Y96.955 E40.68050
G1 X127.033 Y96.912 E40.68655
G1 X127.066 Y96.784 E40.69095
G1 X128.321 Y95.945 E40.74114
G1 X130.000 Y95.612 E40.79810
G1 X131.680 Y95.945 E40.85506
G1 X132.910 Y96.767 E40.90425
G1 X132.953 Y96.886 E40.91004
G1 X133.077 Y96.923 E40.91515
G1 X133.182 Y96.979 E40.91874
G0 X133.256 Y97.068 F5400
G0 X133.790 Y97.988
G0 X133.850 Y98.090
G0 X134.022 Y98.402
G1 X133.990 Y98.343 E40.92173 F2400
G1 X134.026 Y98.458 E40.92680
G1 X134.063 Y98.572 E40.93162
G1 X134.099 Y98.686 E40.93617
G0 F3000 E39.93617
G0 X134.493 Y98.470 F5400
G0 X133.708 Y98.900
G0 X133.841 Y99.430
G0 X133.885 Y99.976
G0 X133.841 Y100.567
G0 X133.702 Y101.141
G0 X133.476 Y101.671
G0 X133.020 Y102.599
G0 X127.010 Y102.638
G0 X126.983 Y102.585
G0 X126.315 Y102.951
G0 X126.983 Y102.585
G0 F3000 E40.93617
;segType:Perimeter
G1 X126.547 Y101.712 E40.96861 F1200
G1 X126.314 Y101.186 E40.98775
G1 X126.167 Y100.615 E41.00738
G1 X126.115 Y100.024 E41.02711
G1 X126.159 Y99.432 E41.04686
G1 X126.298 Y98.858 E41.06648
G1 X126.524 Y98.328 E41.08565
G1 X126.980 Y97.400 E41.12003
G1 X132.990 Y97.361 E41.31993
G1 X133.453 Y98.287 E41.35437
G1 X133.687 Y98.814 E41.37353
G1 X133.841 Y99.430 E41.39467
G1 X133.885 Y99.976 E41.41289
G1 X133.841 Y100.567 E41.43261
G1 X133.702 Y101.141 E41.45223
G1 X133.476 Y101.671 E41.47140
G1 X133.020 Y102.599 E41.50578
G1 X127.070 Y102.638 E41.70370
G0 X126.983 Y102.585 F5400
G0 X126.547 Y101.712
G0 X126.314 Y101.186
G0 X126.301 Y101.138
; ------------------------------------
; Layer #1
; ------------------------------------
G92 E0 ;reset extr
G0 F3000 E-1.00000
G0 F600 Z0.400
G0 X125.946 Y101.679 F7200
G0 X126.022 Y101.793
G0 X126.185 Y101.412
G0 X126.143 Y101.326
G0 X125.975 Y100.712
G0 X125.910 Y100.080
G0 X125.949 Y99.446
G0 X126.089 Y98.829
G0 X126.319 Y98.272
G0 X126.579 Y97.751
G0 X126.561 Y97.572
G0 X126.620 Y97.469
G0 X126.685 Y97.372
G0 X126.752 Y97.278
G0 X126.819 Y97.183
G0 X126.886 Y97.088
G0 X127.199 Y97.087
G0 X128.029 Y97.087
G0 X128.182 Y96.727
G0 F3000 E0.00000
;segType:HShell
G1 X128.665 Y96.244 E0.02270 F1200
G0 X129.371 Y96.104 F7200
G1 X128.748 Y96.727 E0.05199 F1200
G0 X129.314 Y96.727 F7200
G1 X130.051 Y95.989 E0.08668 F1200
G0 X130.523 Y96.083 F7200
G1 X129.879 Y96.727 E0.11697 F1200
G0 X130.445 Y96.727 F7200
G1 X130.995 Y96.176 E0.14285 F1200
G0 X131.467 Y96.270 F7200
G1 X131.011 Y96.727 E0.16433 F1200
G0 X131.827 Y96.476 F7200
G1 X131.576 Y96.727 E0.17610 F1200
G0 X132.404 Y96.788 F7200
;segType:InnerHair
G1 X132.280 Y96.750 E0.17904 F1200
G1 X132.156 Y96.713 E0.18279
G1 X132.032 Y96.675 E0.18734
G0 F3000 E-0.81266
G0 X132.351 Y96.393 F7200
G0 X131.567 Y97.087
G0 X127.199 Y97.087
G0 X126.886 Y97.088
G0 X126.819 Y97.183
G0 X126.752 Y97.278
G0 X126.685 Y97.372
G0 X126.620 Y97.469
G0 X126.561 Y97.572
G0 X126.579 Y97.751
G0 X126.319 Y98.272
G0 X126.089 Y98.829
G0 X125.949 Y99.446
G0 X125.910 Y100.080
G0 X125.975 Y100.712
G0 X126.143 Y101.326
G0 X126.330 Y101.718
G0 X126.105 Y101.917
G0 X126.330 Y101.718
G0 F3000 E0.18734
;segType:Loop
G1 X126.143 Y101.326 E0.20180 F1200
G1 X125.975 Y100.712 E0.22297
G1 X125.910 Y100.080 E0.24409
G1 X125.949 Y99.446 E0.26521
G1 X126.089 Y98.829 E0.28625
G1 X126.319 Y98.272 E0.30632
G1 X126.579 Y97.751 E0.32567
G1 X126.561 Y97.572 E0.33452
G1 X126.620 Y97.469 E0.34018
G1 X126.685 Y97.372 E0.34577
G1 X126.752 Y97.278 E0.35138
G1 X126.819 Y97.183 E0.35705
G1 X126.886 Y97.088 E0.36277
G1 X127.199 Y97.087 E0.37321
G1 X132.800 Y97.087 E0.55946
G1 X133.165 Y97.159 E0.57772
G1 X133.231 Y97.253 E0.58335
G1 X133.298 Y97.348 E0.58893
G1 X133.365 Y97.443 E0.59446
G1 X133.424 Y97.546 E0.60024
G1 X133.462 Y97.831 E0.60983
G1 X133.681 Y98.272 E0.62620
G1 X133.911 Y98.830 E0.64626
G1 X134.050 Y99.440 E0.66709
G1 X134.090 Y99.925 E0.68328
G1 X134.051 Y100.553 E0.70419
G1 X133.911 Y101.169 E0.72523
G1 X133.681 Y101.727 E0.74529
G1 X133.448 Y102.196 E0.76269
G1 X133.468 Y102.378 E0.77182
G1 X133.409 Y102.480 E0.77757
G1 X133.350 Y102.582 E0.78317
G1 X133.281 Y102.675 E0.78874
G1 X133.214 Y102.770 E0.79439
G1 X133.147 Y102.865 E0.80009
G1 X132.800 Y102.912 E0.81177
G1 X127.199 Y102.912 E0.99803
G1 X126.836 Y102.841 E1.01617
G1 X126.769 Y102.746 E1.02180
G1 X126.702 Y102.651 E1.02737
G1 X126.635 Y102.557 E1.03288
G1 X126.577 Y102.453 E1.03867
G1 X126.595 Y102.273 E1.04469
G1 X126.416 Y101.898 E1.05851
G0 F3000 E0.05851
G0 X126.143 Y101.326 F7200
G0 X125.975 Y100.712
G0 X125.910 Y100.080
G0 X125.949 Y99.446
G0 X126.089 Y98.829
G0 X126.319 Y98.272
G0 X126.579 Y97.751
G0 X126.561 Y97.572
G0 X126.620 Y97.469
G0 X126.685 Y97.372
G0 X126.752 Y97.278
G0 X126.819 Y97.183
G0 X126.886 Y97.088
G0 X127.199 Y97.087
G0 X132.800 Y97.087
G0 X133.165 Y97.159
G0 X133.231 Y97.253
G0 X133.298 Y97.348
G0 X133.365 Y97.443
G0 X133.424 Y97.546
G0 X133.462 Y97.831
G0 X133.492 Y97.893
G0 X133.694 Y97.779
G0 X133.842 Y97.695
G0 F3000 E1.05851
;segType:Perimeter
G1 X134.443 Y98.223 E1.08512 F600
G1 X134.796 Y100.000 E1.14537
G1 X134.432 Y101.835 E1.20762
G1 X133.392 Y103.391 E1.26986
G1 X131.836 Y104.431 E1.33209
G1 X130.000 Y104.796 E1.39435
G1 X128.165 Y104.431 E1.45660
G1 X126.609 Y103.391 E1.51884
G1 X125.569 Y101.835 E1.58108
G1 X125.204 Y100.000 E1.64333
G1 X125.569 Y98.164 E1.70559
G1 X126.609 Y96.608 E1.76782
G1 X128.165 Y95.568 E1.83006
G1 X130.000 Y95.204 E1.89231
G1 X131.836 Y95.568 E1.95456
G1 X133.392 Y96.608 E2.01679
G1 X134.398 Y98.114 E2.07703
G0 X134.443 Y98.223 F7200
G0 X134.755 Y99.792
G0 F3000 E1.07703
G0 X134.388 Y100.000 F7200
G0 X134.332 Y100.282
G0 X134.034 Y100.627
G0 X133.911 Y101.169
G0 X133.681 Y101.727
G0 X133.448 Y102.196
G0 X133.468 Y102.378
G0 X133.409 Y102.480
G0 X133.350 Y102.582
G0 X133.281 Y102.675
G0 X133.214 Y102.770
G0 X133.147 Y102.865
G0 X132.800 Y102.912
G0 X132.063 Y102.912
G0 X130.953 Y104.199
G0 X131.680 Y104.054
G0 X131.336 Y103.755
G0 F3000 E2.07703
;segType:HShell
G1 X131.726 Y103.365 E2.09538 F1200
G0 X131.253 Y103.272 F7200
G1 X130.630 Y103.896 E2.12471 F1200
G0 X129.949 Y104.011 F7200
G1 X130.687 Y103.272 E2.15943 F1200
G0 X130.122 Y103.272 F7200
G1 X129.477 Y103.917 E2.18975 F1200
G0 X129.540 Y103.571 F7200
G1 X128.762 Y103.501 E2.25471 F1200
G1 X128.299 Y103.398 E2.29412
G0 X127.597 Y103.211 F7200
;segType:InnerHair
G1 X127.721 Y103.249 E2.29705 F1200
G1 X127.845 Y103.286 E2.30080
G1 X127.969 Y103.324 E2.30536
G0 F3000 E1.30536
G0 X127.590 Y103.565 F7200
G0 X128.615 Y102.912
G0 X132.800 Y102.912
G0 X133.147 Y102.865
G0 X133.214 Y102.770
G0 X133.281 Y102.675
G0 X133.350 Y102.582
G0 X133.409 Y102.480
G0 X133.468 Y102.378
G0 X133.448 Y102.196
G0 X133.681 Y101.727
G0 X133.911 Y101.169
G0 X134.051 Y100.553
G0 X134.090 Y99.925
G0 X134.051 Y99.450
G0 X134.254 Y99.321
G0 X134.254 Y99.321
G0 F3000 E2.30536
;segType:Loop
G1 X134.388 Y100.000 E2.32838 F1200
G1 X134.055 Y101.679 E2.38534
G1 X133.605 Y102.353 E2.41228
G0 X133.468 Y102.378 F7200
G0 X133.350 Y102.582
G0 X133.281 Y102.675
G0 X133.147 Y102.865
G1 X133.102 Y102.981 E2.41786 F1200
G1 X133.079 Y103.119 E2.42252
G1 X131.680 Y104.054 E2.47846
G1 X130.000 Y104.388 E2.53542
G1 X128.321 Y104.054 E2.59239
G1 X126.897 Y103.103 E2.64933
G1 X126.872 Y102.967 E2.65518
G0 X126.836 Y102.841 F7200
G0 X126.702 Y102.651
G0 X126.635 Y102.557
G0 X126.577 Y102.453
G1 X126.444 Y102.424 E2.65970 F1200
G1 X125.946 Y101.679 E2.68951
G1 X125.612 Y100.000 E2.74647
G1 X125.946 Y98.320 E2.80343
G1 X126.427 Y97.600 E2.83225
G0 X126.561 Y97.572 F7200
G0 X126.620 Y97.469
G0 X126.685 Y97.372
G0 X126.886 Y97.088
G1 X126.950 Y96.991 E2.83799 F1200
G1 X126.969 Y96.848 E2.84277
G1 X128.321 Y95.945 E2.89683
G1 X130.000 Y95.612 E2.95379
G1 X131.680 Y95.945 E3.01075
G1 X133.104 Y96.896 E3.06769
G1 X133.129 Y97.032 E3.07354
G0 X133.165 Y97.159 F7200
G0 X133.298 Y97.348
G0 X133.365 Y97.443
G0 X133.424 Y97.546
G1 X133.557 Y97.575 E3.07806 F1200
G1 X134.055 Y98.320 E3.10787
G1 X134.215 Y99.124 E3.13515
G0 F3000 E2.13515
G0 X134.215 Y99.124 F7200
G0 X134.007 Y99.251
G0 X134.050 Y99.440
G0 X134.090 Y99.925
G0 X134.051 Y100.553
G0 X133.911 Y101.169
G0 X133.681 Y101.727
G0 X133.448 Y102.196
G0 X133.468 Y102.378
G0 X133.409 Y102.480
G0 X133.350 Y102.582
G0 X133.281 Y102.675
G0 X133.214 Y102.770
G0 X133.147 Y102.865
G0 X132.800 Y102.912
G0 X127.969 Y102.912
G0 X127.258 Y103.344
G0 X127.650 Y103.106
G0 F3000 E3.13515
;segType:Perimeter
G1 X127.173 Y102.464 E3.16176 F600
G1 X127.052 Y102.302 E3.16847
G1 X126.520 Y101.186 E3.20962
G1 X126.370 Y100.638 E3.22851
G1 X126.311 Y100.072 E3.24744
G1 X126.346 Y99.503 E3.26638
G1 X126.472 Y98.951 E3.28523
G1 X126.683 Y98.437 E3.30370
G1 X127.053 Y97.695 E3.33128
G1 X127.208 Y97.487 E3.33992
G1 X132.792 Y97.487 E3.52562
G1 X132.947 Y97.695 E3.53427
G1 X133.317 Y98.437 E3.56184
G1 X133.528 Y98.951 E3.58032
G1 X133.653 Y99.501 E3.59909
G1 X133.689 Y99.930 E3.61338
G1 X133.654 Y100.496 E3.63225
G1 X133.528 Y101.048 E3.65110
G1 X133.317 Y101.562 E3.66957
G1 X132.947 Y102.304 E3.69715
G1 X132.792 Y102.512 E3.70579
G1 X127.268 Y102.512 E3.88949
G0 X127.173 Y102.464 F7200
G0 X127.052 Y102.302
G0 X126.520 Y101.186
G0 X126.477 Y101.030
G0 F3000 E2.88949
G0 X126.143 Y101.326 F7200
G0 X126.277 Y101.605
G0 X125.975 Y100.712
G0 X125.910 Y100.080
G0 X125.949 Y99.446
G0 X126.089 Y98.829
G0 X126.319 Y98.272
G0 X126.579 Y97.751
G0 X126.561 Y97.572
G0 X126.620 Y97.469
G0 X126.685 Y97.372
G0 X126.752 Y97.278
G0 X126.819 Y97.183
G0 X126.886 Y97.088
G0 X127.199 Y97.087
G0 X127.853 Y97.087
G0 X128.230 Y96.006
G0 X128.000 Y96.666
G0 F3000 E3.88949
;segType:InnerHair
G1 X127.885 Y96.701 E3.89319 F1200
G1 X127.771 Y96.735 E3.89620
G1 X127.657 Y96.770 E3.89852
G1 X127.542 Y96.805 E3.90014
G1 X127.565 Y96.798 E3.90050
G1 X127.689 Y96.760 E3.90322
G1 X127.813 Y96.722 E3.90676
G1 X127.937 Y96.685 E3.91111
G1 X128.061 Y96.647 E3.91627
G1 X128.000 Y96.666 E3.91863
G0 F3000 E2.91863
G0 X131.826 Y103.321 F7200
G0 F3000 E3.91863
G1 X131.940 Y103.273 E3.92194 F1200
G1 X132.054 Y103.226 E3.92427
G1 X132.114 Y103.200 E3.92522
G1 X132.000 Y103.248 E3.92803
G1 X131.885 Y103.296 E3.93182
G1 X131.771 Y103.344 E3.93660
G1 X131.826 Y103.321 E3.93867
; ------------------------------------
; Layer #2
; ------------------------------------
G92 E0 ;reset extr
G0 F3000 E-1.00000
G0 F600 Z0.600
G0 X132.081 Y103.786 F7200
G0 X131.533 Y102.787
G0 X127.183 Y102.787
G0 X126.829 Y102.311
G0 X126.351 Y101.328
G0 X126.180 Y100.742
G0 X126.107 Y100.135
G0 X126.135 Y99.524
G0 X126.262 Y98.928
G0 X126.477 Y98.382
G0 X126.832 Y97.684
G0 X127.183 Y97.212
G0 X128.477 Y97.212
G0 X127.927 Y96.208
G0 X128.101 Y96.525
G0 F3000 E0.00000
;segType:HShell
G0 X128.038 Y96.745 F7200
G1 X128.716 Y96.575 E0.05755 F1200
G0 X128.903 Y96.197 F7200
G1 X129.558 Y96.852 E0.08835 F1200
G0 X130.124 Y96.852 F7200
G1 X129.375 Y96.103 E0.12357 F1200
G0 X129.847 Y96.009 F7200
G1 X130.690 Y96.852 E0.16319 F1200
G0 X131.255 Y96.852 F7200
G1 X130.477 Y96.074 E0.19978 F1200
G0 X131.183 Y96.214 F7200
G1 X131.821 Y96.852 E0.22979 F1200
G0 X132.600 Y96.916 F7200
;segType:InnerHair
G1 X132.476 Y96.878 E0.23267 F1200
G1 X132.352 Y96.840 E0.23636
G1 X132.228 Y96.803 E0.24086
G0 X133.842 Y97.695 F7200
;segType:Perimeter
G1 X134.443 Y98.223 E0.26747 F600
G1 X134.796 Y100.000 E0.32773
G1 X134.432 Y101.835 E0.38998
G1 X133.392 Y103.391 E0.45221
G1 X131.836 Y104.431 E0.51445
G1 X130.000 Y104.796 E0.57670
G1 X128.165 Y104.431 E0.63896
G1 X126.609 Y103.391 E0.70119
G1 X125.569 Y101.835 E0.76343
G1 X125.204 Y100.000 E0.82568
G1 X125.569 Y98.164 E0.88794
G1 X126.609 Y96.608 E0.95017
G1 X128.165 Y95.568 E1.01241
G1 X130.000 Y95.204 E1.07466
G1 X131.836 Y95.568 E1.13691
G1 X133.392 Y96.608 E1.19914
G1 X134.398 Y98.114 E1.25938
G0 X134.443 Y98.223 F7200
G0 X134.755 Y99.792
G0 F3000 E0.25938
G0 X134.254 Y99.321 F7200
G0 F3000 E1.25938
;segType:Loop
G1 X134.388 Y100.000 E1.28241 F1200
G1 X134.055 Y101.679 E1.33937
G1 X133.104 Y103.103 E1.39631
G1 X131.680 Y104.054 E1.45325
G1 X130.000 Y104.388 E1.51021
G1 X128.321 Y104.054 E1.56717
G1 X126.897 Y103.103 E1.62412
G1 X125.946 Y101.679 E1.68106
G1 X125.612 Y100.000 E1.73802
G1 X125.946 Y98.320 E1.79498
G1 X126.897 Y96.896 E1.85193
G1 X128.321 Y95.945 E1.90887
G1 X130.000 Y95.612 E1.96583
G1 X131.680 Y95.945 E2.02279
G1 X133.104 Y96.896 E2.07973
G1 X134.055 Y98.320 E2.13667
G1 X134.215 Y99.124 E2.16395
G0 F3000 E1.16395
G0 X134.215 Y99.124 F7200
G0 X133.885 Y99.780
G0 X133.893 Y99.876
G0 X133.865 Y100.475
G0 X133.738 Y101.071
G0 X133.523 Y101.617
G0 X133.168 Y102.315
G0 X132.817 Y102.787
G0 X132.373 Y102.787
G0 X131.764 Y103.998
G0 X132.092 Y103.345
G0 F3000 E2.16395
;segType:HShell
G0 X132.220 Y103.190 F7200
G1 X131.541 Y103.360 E2.19885 F1200
G0 X131.365 Y103.749 F7200
G1 X130.763 Y103.147 E2.22717 F1200
G0 X130.197 Y103.147 F7200
G1 X130.893 Y103.843 E2.25990 F1200
G0 X130.422 Y103.937 F7200
G1 X129.632 Y103.147 E2.29705 F1200
G0 X129.066 Y103.147 F7200
G1 X129.925 Y104.006 E2.33743 F1200
G0 X129.218 Y103.865 F7200
G1 X128.500 Y103.147 E2.37120 F1200
G0 F3000 E1.37120
G0 X128.512 Y103.725 F7200
G0 F3000 E2.37120
G1 X127.935 Y103.147 E2.39835 F1200
G0 X127.401 Y103.083 F7200
;segType:InnerHair
G1 X127.525 Y103.121 E2.40124 F1200
G1 X127.649 Y103.159 E2.40493
G1 X127.773 Y103.196 E2.40943
G0 X127.183 Y102.787 F7200
G0 X127.348 Y102.339
;segType:Perimeter
G1 X127.172 Y102.102 E2.41925 F600
G1 X126.725 Y101.183 E2.45323
G1 X126.573 Y100.662 E2.47131
G1 X126.508 Y100.120 E2.48946
G1 X126.533 Y99.575 E2.50760
G1 X126.646 Y99.044 E2.52567
G1 X126.842 Y98.546 E2.54346
G1 X127.173 Y97.895 E2.56774
G1 X127.384 Y97.612 E2.57950
G1 X132.616 Y97.612 E2.75351
G1 X132.827 Y97.895 E2.76526
G1 X133.158 Y98.546 E2.78954
G1 X133.354 Y99.044 E2.80734
G1 X133.467 Y99.572 E2.82529
G1 X133.492 Y99.883 E2.83568
G1 X133.467 Y100.424 E2.85369
G1 X133.354 Y100.955 E2.87177
G1 X133.158 Y101.453 E2.88956
G1 X132.827 Y102.104 E2.91384
G1 X132.616 Y102.387 E2.92559
G1 X127.444 Y102.387 E3.09761
G0 X127.348 Y102.339 F7200
G0 X127.172 Y102.102
G0 X126.725 Y101.183
G0 X126.646 Y100.912
G0 X126.180 Y100.742
G0 X126.351 Y101.328
G0 X126.487 Y101.607
;segType:Loop
G1 X126.351 Y101.328 E3.10794 F1200
G1 X126.180 Y100.742 E3.12823
G1 X126.107 Y100.135 E3.14858
G1 X126.135 Y99.524 E3.16892
G1 X126.262 Y98.928 E3.18920
G1 X126.477 Y98.382 E3.20873
G1 X126.832 Y97.684 E3.23476
G1 X127.183 Y97.212 E3.25433
G1 X132.817 Y97.212 E3.44171
G1 X133.168 Y97.684 E3.46129
G1 X133.523 Y98.382 E3.48732
G1 X133.738 Y98.928 E3.50685
G1 X133.863 Y99.513 E3.52676
G1 X133.893 Y99.876 E3.53885
G1 X133.865 Y100.475 E3.55881
G1 X133.738 Y101.071 E3.57909
G1 X133.523 Y101.617 E3.59862
G1 X133.168 Y102.315 E3.62465
G1 X132.817 Y102.787 E3.64422
G1 X127.183 Y102.787 E3.83160
G1 X126.829 Y102.311 E3.85135
G1 X126.574 Y101.787 E3.87071
G0 F3000 E2.87071
G0 X126.351 Y101.328 F7200
G0 X126.180 Y100.742
G0 X126.107 Y100.135
G0 X126.135 Y99.524
G0 X126.262 Y98.928
G0 X126.477 Y98.382
G0 X126.832 Y97.684
G0 X127.183 Y97.212
G0 X127.323 Y97.212
G0 X127.433 Y96.539
G0 X127.369 Y96.925
G0 F3000 E3.87071
;segType:InnerHair
G1 X127.493 Y96.888 E3.87339 F1200
G1 X127.617 Y96.850 E3.87687
G1 X127.741 Y96.812 E3.88116
G1 X127.865 Y96.775 E3.88626
G0 F3000 E2.88626
G0 X127.604 Y96.424 F7200
G0 X128.191 Y97.212
G0 X127.183 Y97.212
G0 X126.832 Y97.684
G0 X126.477 Y98.382
G0 X126.262 Y98.928
G0 X126.135 Y99.524
G0 X126.107 Y100.135
G0 X126.180 Y100.742
G0 X126.351 Y101.328
G0 X126.829 Y102.311
G0 X127.183 Y102.787
G0 X132.340 Y102.787
G0 X132.750 Y103.339
G0 X132.567 Y103.093
G0 F3000 E3.88626
G1 X132.443 Y103.131 E3.88935 F1200
G1 X132.319 Y103.168 E3.89325
G1 X132.195 Y103.206 E3.89797
; ------------------------------------
; Layer #3
; ------------------------------------
M106 S255 ;set fan speed
G92 E0 ;reset extr
G0 F3000 E-1.00000
G0 F600 Z0.800
G0 X133.765 Y101.429 F7200
G0 F3000 E0.00000
;segType:InnerHair
G1 X133.726 Y101.543 E0.00300 F1200
G1 X133.744 Y101.522 E0.00368
G0 X133.681 Y101.620 F7200
G0 X133.324 Y102.234
G0 X133.260 Y102.331
G0 X132.926 Y102.805
G0 X132.855 Y102.895
G1 X132.763 Y102.966 E0.00566 F1200
G1 X132.639 Y103.003 E0.00870
G1 X132.515 Y103.041 E0.01254
G1 X132.391 Y103.078 E0.01720
G0 X132.342 Y103.093 F7200
G0 X132.457 Y103.058
G0 X132.571 Y103.024
G0 X132.685 Y102.989
G1 X132.855 Y102.895 E0.02076 F1200
G1 X132.926 Y102.805 E0.02293
G1 X132.993 Y102.710 E0.02506
G1 X133.059 Y102.615 E0.02713
G1 X133.126 Y102.520 E0.02915
G1 X133.193 Y102.426 E0.03111
G1 X133.260 Y102.331 E0.03302
G1 X133.324 Y102.234 E0.03495
G1 X133.384 Y102.131 E0.03705
G1 X133.443 Y102.029 E0.03930
G1 X133.502 Y101.927 E0.04169
G1 X133.562 Y101.825 E0.04422
G1 X133.621 Y101.723 E0.04691
G1 X133.681 Y101.620 E0.04973
G1 X133.791 Y101.315 E0.05673
G1 X133.821 Y101.201 E0.05914
G1 X133.850 Y101.086 E0.06143
G1 X133.879 Y100.972 E0.06360
G1 X133.908 Y100.858 E0.06564
G1 X133.929 Y100.743 E0.06768
G1 X133.948 Y100.629 E0.06979
G1 X133.967 Y100.515 E0.07196
G1 X133.986 Y100.401 E0.07420
G1 X134.006 Y100.286 E0.07650
G1 X134.022 Y100.172 E0.07892
G1 X134.031 Y100.058 E0.08157
G1 X134.030 Y99.943 E0.08424
G1 X134.017 Y99.829 E0.08674
G1 X134.004 Y99.715 E0.08906
G1 X133.991 Y99.601 E0.09120
G1 X133.971 Y99.486 E0.09330
G1 X133.949 Y99.372 E0.09541
G1 X133.926 Y99.258 E0.09752
G1 X133.904 Y99.143 E0.09962
G1 X133.881 Y99.029 E0.10172
G1 X133.856 Y98.915 E0.10388
G1 X133.823 Y98.801 E0.10626
G1 X133.791 Y98.686 E0.10884
G1 X133.758 Y98.572 E0.11161
G1 X133.725 Y98.458 E0.11458
G1 X133.640 Y98.299 E0.11857
G1 X133.580 Y98.198 E0.12106
G1 X133.520 Y98.096 E0.12343
G1 X133.460 Y97.995 E0.12567
G1 X133.400 Y97.893 E0.12779
G1 X133.340 Y97.792 E0.12978
G1 X133.277 Y97.693 E0.13169
G1 X133.210 Y97.598 E0.13364
G1 X133.143 Y97.503 E0.13564
G1 X133.077 Y97.408 E0.13770
G1 X133.010 Y97.313 E0.13982
G1 X132.943 Y97.219 E0.14199
G1 X132.876 Y97.124 E0.14422
G0 X132.685 Y97.010 F7200
G0 X132.571 Y96.975
G0 X132.457 Y96.941
G0 X132.342 Y96.906
G1 X132.423 Y96.930 E0.14712 F1200
G1 X132.547 Y96.968 E0.15075
G1 X132.671 Y97.006 E0.15358
G1 X132.795 Y97.043 E0.15559
G0 X132.876 Y97.124 F7200
G0 X133.277 Y97.693
G0 X133.340 Y97.792
G0 X133.640 Y98.299
G1 X133.698 Y98.403 E0.15842 F1200
G1 X133.753 Y98.510 E0.16156
G0 X133.842 Y97.695 F7200
;segType:Perimeter
G1 X134.443 Y98.223 E0.18817 F600
G1 X134.796 Y100.000 E0.24842
G1 X134.432 Y101.835 E0.31067
G1 X133.392 Y103.391 E0.37290
G1 X131.836 Y104.431 E0.43514
G1 X130.000 Y104.796 E0.49740
G1 X128.165 Y104.431 E0.55965
G1 X126.609 Y103.391 E0.62189
G1 X125.569 Y101.835 E0.68412
G1 X125.204 Y100.000 E0.74638
G1 X125.569 Y98.164 E0.80863
G1 X126.609 Y96.608 E0.87087
G1 X128.165 Y95.568 E0.93310
G1 X130.000 Y95.204 E0.99535
G1 X131.836 Y95.568 E1.05760
G1 X133.392 Y96.608 E1.11984
G1 X134.398 Y98.114 E1.18008
G0 X134.443 Y98.223 F7200
G0 X134.755 Y99.792
G0 X134.388 Y100.000
G0 X134.254 Y99.321
;segType:Loop
G1 X134.388 Y100.000 E1.20310 F1200
G1 X134.055 Y101.679 E1.26006
G1 X133.104 Y103.103 E1.31700
G1 X131.680 Y104.054 E1.37395
G1 X130.000 Y104.388 E1.43091
G1 X128.321 Y104.054 E1.48787
G1 X126.897 Y103.103 E1.54481
G1 X125.946 Y101.679 E1.60176
G1 X125.612 Y100.000 E1.65872
G1 X125.946 Y98.320 E1.71568
G1 X126.897 Y96.896 E1.77262
G1 X128.321 Y95.945 E1.82956
G1 X130.000 Y95.612 E1.88652
G1 X131.680 Y95.945 E1.94348
G1 X133.104 Y96.896 E2.00042
G1 X134.055 Y98.320 E2.05736
G1 X134.215 Y99.124 E2.08465
G0 F3000 E1.08465
G0 X134.215 Y99.124 F7200
G0 X133.693 Y100.072
G0 X133.696 Y100.191
G0 X133.616 Y100.773
G0 X133.441 Y101.332
G0 X133.050 Y102.113
G0 X132.641 Y102.662
G0 X132.267 Y102.662
G0 X132.069 Y103.022
G0 F3000 E2.08465
;segType:HShell
G1 X131.336 Y103.755 E2.11912 F1200
G0 X130.630 Y103.896 F7200
G1 X131.503 Y103.022 E2.16020 F1200
G0 X130.937 Y103.022 F7200
G1 X129.949 Y104.011 E2.20669 F1200
G0 X129.477 Y103.917 F7200
G1 X130.372 Y103.022 E2.24876 F1200
G0 X129.806 Y103.022 F7200
G1 X129.005 Y103.823 E2.28642 F1200
G0 X128.534 Y103.729 F7200
G1 X129.240 Y103.022 E2.31966 F1200
G0 X128.675 Y103.022 F7200
G1 X128.174 Y103.523 E2.34319 F1200
G0 F3000 E1.34319
G0 X128.109 Y103.022 F7200
G0 F3000 E2.34319
G1 X127.835 Y103.296 E2.35607 F1200
G0 X126.637 Y101.509 F7200
;segType:Loop
G1 X126.636 Y101.508 E2.35613 F1200
G1 X126.434 Y100.972 E2.37516
G1 X126.320 Y100.396 E2.39469
G1 X126.304 Y99.808 E2.41425
G1 X126.384 Y99.226 E2.43381
G1 X126.559 Y98.667 E2.45328
G1 X126.950 Y97.886 E2.48234
G1 X127.359 Y97.337 E2.50511
G1 X132.641 Y97.337 E2.68079
G1 X133.047 Y97.882 E2.70340
G1 X133.364 Y98.491 E2.72624
G1 X133.566 Y99.027 E2.74528
G1 X133.680 Y99.603 E2.76481
G1 X133.696 Y100.191 E2.78437
G1 X133.616 Y100.773 E2.80393
G1 X133.441 Y101.332 E2.82340
G1 X133.050 Y102.113 E2.85246
G1 X132.641 Y102.662 E2.87522
G1 X127.359 Y102.662 E3.05091
G1 X126.953 Y102.117 E3.07352
G1 X126.729 Y101.687 E3.08965
G0 X127.524 Y102.214 F7200
;segType:Perimeter
G1 X127.293 Y101.904 E3.10252 F600
G1 X127.002 Y101.344 E3.12351
G1 X126.820 Y100.862 E3.14063
G1 X126.719 Y100.352 E3.15795
G1 X126.704 Y99.830 E3.17530
G1 X126.776 Y99.313 E3.19265
G1 X126.931 Y98.817 E3.20993
G1 X127.292 Y98.097 E3.23675
G1 X127.560 Y97.737 E3.25167
G1 X132.440 Y97.737 E3.41398
G1 X132.707 Y98.095 E3.42884
G1 X132.998 Y98.655 E3.44983
G1 X133.180 Y99.137 E3.46696
G1 X133.281 Y99.648 E3.48427
G1 X133.296 Y100.169 E3.50162
G1 X133.224 Y100.686 E3.51897
G1 X133.069 Y101.182 E3.53626
G1 X132.708 Y101.903 E3.56307
G1 X132.440 Y102.262 E3.57799
G1 X127.620 Y102.262 E3.73830
G0 X127.524 Y102.214 F7200
G0 X127.293 Y101.904
G0 X127.002 Y101.344
G0 X126.820 Y100.862
G0 X126.807 Y100.796
G0 F3000 E2.73830
G0 X126.807 Y100.796 F7200
G0 X126.719 Y100.352
G0 X126.704 Y99.830
G0 X126.776 Y99.313
G0 X126.931 Y98.817
G0 X127.028 Y98.625
G0 X127.186 Y97.065
G0 F3000 E3.73830
;segType:InnerHair
G1 X127.107 Y97.148 E3.74048 F1200
G1 X127.041 Y97.243 E3.74263
G1 X126.974 Y97.338 E3.74472
G1 X126.907 Y97.432 E3.74676
G1 X126.840 Y97.527 E3.74874
G1 X126.773 Y97.622 E3.75067
G1 X126.705 Y97.716 E3.75251
G1 X126.646 Y97.818 E3.75453
G1 X126.586 Y97.920 E3.75670
G1 X126.527 Y98.022 E3.75901
G1 X126.467 Y98.125 E3.76147
G1 X126.408 Y98.227 E3.76407
G1 X126.349 Y98.329 E3.76682
G1 X126.289 Y98.431 E3.76971
G1 X126.209 Y98.686 E3.77545
G1 X126.179 Y98.801 E3.77785
G1 X126.150 Y98.915 E3.78013
G1 X126.121 Y99.029 E3.78229
G1 X126.092 Y99.143 E3.78433
G1 X126.071 Y99.258 E3.78637
G1 X126.052 Y99.372 E3.78847
G1 X126.033 Y99.486 E3.79064
G1 X126.013 Y99.601 E3.79288
G1 X125.994 Y99.715 E3.79518
G1 X125.978 Y99.829 E3.79760
G1 X125.968 Y99.943 E3.80025
G1 X125.970 Y100.058 E3.80292
G1 X125.983 Y100.172 E3.80542
G1 X125.996 Y100.286 E3.80773
G1 X126.009 Y100.401 E3.80986
G1 X126.029 Y100.515 E3.81196
G1 X126.052 Y100.629 E3.81407
G1 X126.074 Y100.743 E3.81617
G1 X126.097 Y100.858 E3.81827
G1 X126.120 Y100.972 E3.82037
G1 X126.145 Y101.086 E3.82253
G1 X126.178 Y101.201 E3.82491
G1 X126.210 Y101.315 E3.82748
G1 X126.243 Y101.429 E3.83025
G1 X126.276 Y101.543 E3.83321
G1 X126.361 Y101.700 E3.83715
G1 X126.421 Y101.801 E3.83964
G1 X126.481 Y101.903 E3.84200
G1 X126.541 Y102.004 E3.84423
G1 X126.601 Y102.106 E3.84634
G1 X126.661 Y102.207 E3.84832
G1 X126.724 Y102.307 E3.85022
G1 X126.790 Y102.402 E3.85217
G1 X126.857 Y102.496 E3.85416
G1 X126.924 Y102.591 E3.85621
G1 X126.991 Y102.686 E3.85832
G1 X127.058 Y102.781 E3.86049
G1 X127.125 Y102.875 E3.86271
G0 X127.314 Y102.989 F7200
G0 X127.428 Y103.023
G0 X127.542 Y103.058
G0 X127.657 Y103.093
G1 X127.578 Y103.069 E3.86554 F1200
G1 X127.454 Y103.031 E3.86917
G1 X127.330 Y102.993 E3.87200
G1 X127.206 Y102.956 E3.87401
G0 X127.125 Y102.875 F7200
G0 X126.724 Y102.307
G0 X126.661 Y102.207
G0 X126.361 Y101.700
G1 X126.303 Y101.596 E3.87683 F1200
G1 X126.248 Y101.489 E3.87996
G0 X126.276 Y101.543 F7200
G0 X126.145 Y101.086
G0 X126.120 Y100.972
G0 X126.029 Y100.515
G0 X126.009 Y100.401
G0 X125.970 Y100.058
G0 X125.968 Y99.943
G0 X125.978 Y99.829
G0 X125.994 Y99.715
G0 X126.071 Y99.258
G0 X126.092 Y99.143
G0 X126.209 Y98.686
G1 X126.235 Y98.572 E3.88254 F1200
G1 X126.274 Y98.458 E3.88553
G0 X126.289 Y98.431 F7200
G0 X126.705 Y97.716
G0 X126.773 Y97.622
G0 X127.107 Y97.148
G0 X127.186 Y97.065
G1 X127.298 Y97.015 E3.88800 F1200
G1 X127.422 Y96.978 E3.89143
G1 X127.546 Y96.940 E3.89566
G1 X127.670 Y96.902 E3.90071
G0 X127.932 Y96.977 F7200
;segType:HShell
G1 X128.665 Y96.244 E3.93517 F1200
G0 X129.371 Y96.104 F7200
G1 X128.498 Y96.977 E3.97622 F1200
G0 X129.064 Y96.977 F7200
G1 X130.051 Y95.989 E4.02267 F1200
G0 X130.523 Y96.083 F7200
G1 X129.629 Y96.977 E4.06472 F1200
G0 X130.195 Y96.977 F7200
G1 X130.995 Y96.176 E4.10236 F1200
G0 X131.467 Y96.270 F7200
G1 X130.761 Y96.977 E4.13560 F1200
G0 X131.350 Y96.670 F7200
G1 X132.029 Y96.840 E4.19376 F1200
; ------------------------------------
; Layer #4
; ------------------------------------
G92 E0 ;reset extr
G0 F3000 E-1.00000
G0 F600 Z1.000
G0 X128.677 Y97.102 F7200
G0 F3000 E0.00000
;segType:HShell
G1 X128.101 Y96.525 E0.02711 F1200
G0 X128.440 Y96.299 F7200
G0 X128.770 Y96.628 F7200
G1 X129.243 Y97.102 E0.04936 F1200
G0 X129.808 Y97.102 F7200
G1 X129.332 Y96.625 E0.07179 F1200
G0 X129.894 Y96.621 F7200
G1 X130.374 Y97.102 E0.09439 F1200
G0 X130.940 Y97.102 F7200
G1 X130.456 Y96.617 E0.11717 F1200
G0 X131.018 Y96.614 F7200
G1 X131.505 Y97.102 E0.14012 F1200
G0 X132.384 Y96.848 F7200
G0 X132.773 Y96.955
G1 X131.825 Y96.856 E0.17180 F1200
G0 X131.406 Y96.611 F7200
;segType:Infill
G1 X131.580 Y96.311 E0.18332 F1500
G0 X130.453 Y96.617 F7200
G1 X130.095 Y95.998 E0.20713 F1500
G0 X129.392 Y96.100 F7200
G1 X129.088 Y96.626 E0.22736 F1500
G0 X128.215 Y96.561 F7200
G1 X131.692 Y96.561 E0.34300 F1500
G0 X133.842 Y97.695 F7200
;segType:Perimeter
G1 X134.443 Y98.223 E0.36961 F600
G1 X134.796 Y100.000 E0.42987
G1 X134.432 Y101.835 E0.49212
G1 X133.392 Y103.391 E0.55435
G1 X131.836 Y104.431 E0.61659
G1 X130.000 Y104.796 E0.67884
G1 X128.165 Y104.431 E0.74110
G1 X126.609 Y103.391 E0.80333
G1 X125.569 Y101.835 E0.86557
G1 X125.204 Y100.000 E0.92782
G1 X125.569 Y98.164 E0.99008
G1 X126.609 Y96.608 E1.05231
G1 X128.165 Y95.568 E1.11455
G1 X130.000 Y95.204 E1.17680
G1 X131.836 Y95.568 E1.23905
G1 X133.392 Y96.608 E1.30128
G1 X134.398 Y98.114 E1.36152
G0 X134.443 Y98.223 F7200
G0 X134.755 Y99.792
G0 X134.388 Y100.000
G0 X134.254 Y99.321
;segType:Loop
G1 X134.388 Y100.000 E1.38455 F1200
G1 X134.055 Y101.679 E1.44150
G1 X133.104 Y103.103 E1.49844
G1 X131.680 Y104.054 E1.55539
G1 X130.000 Y104.388 E1.61235
G1 X128.321 Y104.054 E1.66931
G1 X126.897 Y103.103 E1.72626
G1 X125.946 Y101.679 E1.78320
G1 X125.612 Y100.000 E1.84016
G1 X125.946 Y98.320 E1.89712
G1 X126.897 Y96.896 E1.95407
G1 X128.321 Y95.945 E2.01101
G1 X130.000 Y95.612 E2.06797
G1 X131.680 Y95.945 E2.12493
G1 X133.104 Y96.896 E2.18187
G1 X134.055 Y98.320 E2.23881
G1 X134.215 Y99.124 E2.26609
G0 F3000 E1.26609
G0 X134.215 Y99.124 F7200
G0 X133.248 Y101.290
G0 X133.231 Y101.341
G0 X133.197 Y101.404
G0 X132.156 Y103.736
G0 X133.104 Y103.103
G0 X132.431 Y103.119
G0 F3000 E2.26609
;segType:HShell
G0 X132.547 Y102.952 F7200
G1 X131.869 Y103.122 E2.30507 F1200
G1 X131.314 Y103.133 E2.35116
G1 X130.751 Y103.135 E2.39804
G1 X130.187 Y103.137 E2.44493
G1 X129.623 Y103.139 E2.49181
G0 X129.218 Y103.865 F7200
G0 X129.571 Y103.936
G1 X128.512 Y103.725 E2.52774 F1200
G0 X127.685 Y102.897 F7200
G1 X128.273 Y103.486 E2.55541 F1200
G0 X128.213 Y103.143 F7200
G1 X129.059 Y103.140 E2.62574 F1200
G0 X129.808 Y103.380 F7200
;segType:Infill
G1 X129.496 Y103.921 E2.64650 F1500
G0 X130.097 Y104.002 F7200
G1 X129.738 Y103.380 E2.67037 F1500
G0 X128.178 Y102.731 F7200
;segType:Perimeter
G1 X127.700 Y102.089 E2.69697 F600
G1 X127.414 Y101.704 E2.71293
G1 X127.161 Y101.235 E2.73064
G1 X126.994 Y100.769 E2.74713
G1 X126.906 Y100.279 E2.76368
G1 X126.901 Y99.781 E2.78024
G1 X126.979 Y99.289 E2.79681
G1 X127.138 Y98.818 E2.81336
G1 X127.370 Y98.384 E2.82972
G1 X127.732 Y97.862 E2.85085
G1 X132.264 Y97.862 E3.00159
G1 X132.586 Y98.295 E3.01955
G1 X132.839 Y98.764 E3.03726
G1 X133.006 Y99.230 E3.05374
G1 X133.094 Y99.720 E3.07029
G1 X133.099 Y100.218 E3.08685
G1 X133.021 Y100.710 E3.10342
G1 X132.862 Y101.181 E3.11997
G1 X132.630 Y101.615 E3.13633
G1 X132.268 Y102.138 E3.15747
G1 X127.796 Y102.137 E3.30622
G0 X127.700 Y102.089 F7200
G0 X127.414 Y101.704
G0 X127.161 Y101.235
G0 X126.994 Y100.769
G0 X126.978 Y100.678
G0 X126.606 Y100.872
G0 X126.795 Y101.399
G0 X126.796 Y101.401
;segType:Loop
G1 X126.795 Y101.399 E3.30630 F1200
G1 X126.606 Y100.872 E3.32489
G1 X126.507 Y100.317 E3.34367
G1 X126.501 Y99.752 E3.36246
G1 X126.589 Y99.193 E3.38126
G1 X126.769 Y98.658 E3.40004
G1 X127.028 Y98.175 E3.41828
G1 X127.522 Y97.462 E3.44714
G1 X132.465 Y97.462 E3.61153
G1 X132.925 Y98.079 E3.63714
G1 X133.205 Y98.600 E3.65682
G1 X133.394 Y99.127 E3.67541
G1 X133.493 Y99.682 E3.69419
G1 X133.499 Y100.247 E3.71298
G1 X133.411 Y100.806 E3.73179
G1 X133.231 Y101.341 E3.75057
G1 X132.972 Y101.824 E3.76880
G1 X132.478 Y102.538 E3.79766
G1 X127.535 Y102.537 E3.96206
G1 X127.076 Y101.920 E3.98767
G1 X126.891 Y101.577 E4.00062
G0 F3000 E3.00062
G0 X130.422 Y103.937 F7200
G0 F3000 E4.00062
;segType:HShell
G0 X130.186 Y103.984 F7200
G1 X130.893 Y103.843 E4.02462 F1200
G1 X131.365 Y103.749 E4.04062
G1 X131.727 Y103.545 E4.05443
G0 X133.669 Y101.429 F7200
;segType:InnerHair
G1 X133.616 Y101.556 E4.05975 F1200
G0 X133.553 Y101.654 F7200
G0 X133.310 Y102.058
G0 X133.244 Y102.153
G0 X132.851 Y102.730
G0 X132.782 Y102.822
G1 X132.711 Y102.913 E4.06312 F1200
G1 X132.587 Y102.951 E4.06771
G1 X132.571 Y102.956 E4.06832
G1 X132.782 Y102.822 E4.07710
G1 X132.851 Y102.730 E4.08126
G1 X132.917 Y102.634 E4.08543
G1 X132.982 Y102.538 E4.08959
G1 X133.047 Y102.442 E4.09372
G1 X133.113 Y102.346 E4.09784
G1 X133.178 Y102.249 E4.10194
G1 X133.244 Y102.153 E4.10602
G1 X133.310 Y102.058 E4.11005
G1 X133.371 Y101.957 E4.11426
G1 X133.431 Y101.856 E4.11857
G1 X133.492 Y101.755 E4.12300
G1 X133.553 Y101.654 E4.12753
G1 X133.691 Y101.315 E4.14142
G1 X133.721 Y101.201 E4.14575
G1 X133.752 Y101.086 E4.14993
G1 X133.782 Y100.972 E4.15397
G1 X133.813 Y100.858 E4.15785
G1 X133.829 Y100.743 E4.16176
G1 X133.850 Y100.629 E4.16573
G1 X133.870 Y100.515 E4.16975
G1 X133.890 Y100.401 E4.17381
G1 X133.911 Y100.286 E4.17791
G1 X133.922 Y100.172 E4.18218
G1 X133.933 Y100.058 E4.18668
G1 X133.932 Y99.943 E4.19117
G1 X133.921 Y99.829 E4.19548
G1 X133.909 Y99.715 E4.19958
G1 X133.893 Y99.601 E4.20357
G1 X133.872 Y99.486 E4.20757
G1 X133.850 Y99.372 E4.21155
G1 X133.828 Y99.258 E4.21551
G1 X133.807 Y99.143 E4.21945
G1 X133.786 Y99.029 E4.22335
G1 X133.754 Y98.915 E4.22751
G1 X133.723 Y98.801 E4.23184
G1 X133.691 Y98.686 E4.23634
G1 X133.659 Y98.572 E4.24101
G1 X133.509 Y98.269 E4.25368
G1 X133.449 Y98.168 E4.25798
G1 X133.388 Y98.067 E4.26217
G1 X133.327 Y97.966 E4.26625
G1 X133.266 Y97.865 E4.27022
G1 X133.200 Y97.770 E4.27419
G1 X133.133 Y97.675 E4.27821
G1 X133.066 Y97.580 E4.28228
G1 X132.999 Y97.486 E4.28642
G1 X132.932 Y97.391 E4.29061
G1 X132.865 Y97.296 E4.29485
G1 X132.799 Y97.201 E4.29915
G1 X132.716 Y97.123 E4.30302
G1 X132.619 Y97.058 E4.30697
G0 X132.716 Y97.123 F7200
G0 X132.799 Y97.201
G0 X133.200 Y97.770
G0 X133.266 Y97.865
G0 X133.509 Y98.269
G1 X133.574 Y98.366 E4.31135 F1200
G0 F3000 E3.31135
G0 X129.847 Y96.009 F7200
G0 F3000 E4.31135
;segType:HShell
G0 X130.083 Y95.962 F7200
G1 X129.375 Y96.103 E4.33536 F1200
G0 X127.762 Y96.752 F7200
G0 X128.133 Y96.840
G1 X127.544 Y97.100 E4.38888 F1200
G0 X127.428 Y97.044 F7200
;segType:InnerHair
G1 X127.259 Y97.138 E4.39536 F1200
G1 X127.181 Y97.222 E4.39949
G1 X127.116 Y97.318 E4.40367
G1 X127.050 Y97.414 E4.40782
G1 X126.985 Y97.511 E4.41196
G1 X126.919 Y97.607 E4.41608
G1 X126.854 Y97.703 E4.42019
G1 X126.789 Y97.799 E4.42427
G1 X126.723 Y97.895 E4.42833
G1 X126.659 Y97.993 E4.43243
G1 X126.599 Y98.094 E4.43669
G1 X126.538 Y98.195 E4.44105
G1 X126.477 Y98.296 E4.44552
G1 X126.417 Y98.397 E4.45011
G1 X126.309 Y98.686 E4.46178
G1 X126.278 Y98.801 E4.46611
G1 X126.248 Y98.915 E4.47028
G1 X126.218 Y99.029 E4.47431
G1 X126.187 Y99.143 E4.47819
G1 X126.171 Y99.258 E4.48209
G1 X126.150 Y99.372 E4.48606
G1 X126.130 Y99.486 E4.49008
G1 X126.109 Y99.601 E4.49414
G1 X126.089 Y99.715 E4.49824
G1 X126.078 Y99.829 E4.50252
G1 X126.067 Y99.943 E4.50701
G1 X126.068 Y100.058 E4.51150
G1 X126.080 Y100.172 E4.51581
G1 X126.092 Y100.286 E4.51991
G1 X126.107 Y100.401 E4.52389
G1 X126.129 Y100.515 E4.52789
G1 X126.151 Y100.629 E4.53187
G1 X126.172 Y100.743 E4.53582
G1 X126.194 Y100.858 E4.53975
G1 X126.215 Y100.972 E4.54366
G1 X126.247 Y101.086 E4.54781
G1 X126.278 Y101.201 E4.55213
G1 X126.310 Y101.315 E4.55663
G1 X126.342 Y101.429 E4.56130
G1 X126.491 Y101.731 E4.57389
G1 X126.552 Y101.832 E4.57818
G1 X126.613 Y101.933 E4.58236
G1 X126.673 Y102.034 E4.58643
G1 X126.734 Y102.134 E4.59039
G1 X126.801 Y102.229 E4.59435
G1 X126.868 Y102.324 E4.59836
G1 X126.935 Y102.419 E4.60243
G1 X127.002 Y102.514 E4.60656
G1 X127.068 Y102.608 E4.61074
G1 X127.135 Y102.703 E4.61498
G1 X127.202 Y102.798 E4.61927
G1 X127.285 Y102.877 E4.62313
G1 X127.382 Y102.941 E4.62709
G0 X127.285 Y102.877 F7200
G0 X127.202 Y102.798
G0 X126.801 Y102.229
G0 X126.734 Y102.134
G0 X126.491 Y101.731
G1 X126.427 Y101.633 E4.63146 F1200
G0 X126.342 Y101.429 F7200
G0 X126.215 Y100.972
G0 X126.194 Y100.858
G0 X126.107 Y100.401
G0 X126.092 Y100.286
G0 X126.068 Y100.058
G0 X126.067 Y99.943
G0 X126.078 Y99.829
G0 X126.089 Y99.715
G0 X126.171 Y99.258
G0 X126.187 Y99.143
G0 X126.309 Y98.686
G1 X126.331 Y98.572 E4.63585 F1200
G0 X126.417 Y98.397 F7200
G0 X126.659 Y97.993
G0 X126.723 Y97.895
G0 X127.181 Y97.222
G0 X127.259 Y97.138
G1 X127.350 Y97.068 E4.63957 F1200
G1 X127.474 Y97.030 E4.64456
G1 X127.428 Y97.044 E4.64631
; ------------------------------------
; Layer #5
; ------------------------------------
G92 E0 ;reset extr
G0 F3000 E-1.00000
G0 F600 Z1.200
G0 X127.745 Y97.164 F7200
G0 F3000 E0.00000
;segType:HShell
G0 X127.681 Y96.945 F7200
G1 X128.529 Y96.945 E0.07056 F1200
G1 X129.095 Y96.945 E0.11759
G1 X129.661 Y96.945 E0.16463
G1 X130.226 Y96.945 E0.21167
G1 X130.792 Y96.945 E0.25870
G1 X131.358 Y96.945 E0.30574
G0 X131.259 Y96.727 F7200
;segType:Infill
G1 X131.517 Y96.280 E0.32290 F1500
G0 X130.596 Y96.727 F7200
G1 X130.186 Y96.016 E0.35020 F1500
G0 X129.301 Y96.118 F7200
G1 X128.950 Y96.727 E0.37358 F1500
G0 X128.151 Y96.491 F7200
G1 X128.287 Y96.727 E0.38261 F1500
G0 X128.112 Y96.701 F7200
G1 X131.900 Y96.701 E0.50858 F1500
G0 X133.842 Y97.695 F7200
;segType:Perimeter
G1 X134.443 Y98.223 E0.53519 F600
G1 X134.796 Y100.000 E0.59545
G1 X134.432 Y101.835 E0.65770
G1 X133.392 Y103.391 E0.71993
G1 X131.836 Y104.431 E0.78217
G1 X130.000 Y104.796 E0.84442
G1 X128.165 Y104.431 E0.90668
G1 X126.609 Y103.391 E0.96891
G1 X125.569 Y101.835 E1.03115
G1 X125.204 Y100.000 E1.09340
G1 X125.569 Y98.164 E1.15566
G1 X126.609 Y96.608 E1.21789
G1 X128.165 Y95.568 E1.28013
G1 X130.000 Y95.204 E1.34238
G1 X131.836 Y95.568 E1.40463
G1 X133.392 Y96.608 E1.46686
G1 X134.398 Y98.114 E1.52710
G0 X134.443 Y98.223 F7200
G0 X134.755 Y99.792
G0 X134.388 Y100.000
G0 X134.254 Y99.321
;segType:Loop
G1 X134.388 Y100.000 E1.55013 F1200
G1 X134.055 Y101.679 E1.60709
G1 X133.104 Y103.103 E1.66403
G1 X131.680 Y104.054 E1.72097
G1 X130.000 Y104.388 E1.77793
G1 X128.321 Y104.054 E1.83489
G1 X126.897 Y103.103 E1.89184
G1 X125.946 Y101.679 E1.94878
G1 X125.612 Y100.000 E2.00574
G1 X125.946 Y98.320 E2.06270
G1 X126.897 Y96.896 E2.11965
G1 X128.321 Y95.945 E2.17659
G1 X130.000 Y95.612 E2.23355
G1 X131.680 Y95.945 E2.29051
G1 X133.104 Y96.896 E2.34745
G1 X134.055 Y98.320 E2.40439
G1 X134.215 Y99.124 E2.43167
G0 F3000 E1.43167
G0 X134.215 Y99.124 F7200
G0 X133.248 Y99.004
G0 X133.126 Y98.654
G0 X132.863 Y98.178
G0 X132.377 Y97.524
G0 X127.623 Y97.524
G0 X127.137 Y98.178
G0 X127.104 Y98.238
G0 X126.086 Y98.111
G0 X126.719 Y98.190
G0 F3000 E2.43167
;segType:HShell
G0 X126.614 Y98.012 F7200
G1 X126.219 Y99.256 E2.51537 F1200
G1 X126.114 Y99.926 E2.54226
G1 X126.166 Y100.440 E2.57169
G1 X126.254 Y100.918 E2.59109
G1 X126.369 Y101.368 E2.60910
G1 X126.558 Y101.745 E2.63216
G1 X126.773 Y102.096 E2.65119
G1 X127.006 Y102.428 E2.66735
G1 X127.240 Y102.760 E2.68525
G1 X127.613 Y102.952 E2.70486
G1 X128.066 Y103.066 E2.73246
G1 X128.643 Y103.054 E2.78049
G1 X129.209 Y103.054 E2.82753
G0 X129.789 Y103.272 F7200
;segType:Infill
G1 X129.423 Y103.906 E2.85186 F1500
G0 X130.170 Y103.987 F7200
G1 X129.757 Y103.272 E2.87932 F1500
G0 X128.266 Y102.669 F7200
;segType:Perimeter
G1 X127.788 Y102.027 E2.90593 F600
G1 X127.474 Y101.605 E2.92342
G1 X127.241 Y101.181 E2.93950
G1 X127.081 Y100.722 E2.95567
G1 X127.000 Y100.243 E2.97185
G1 X127.000 Y99.756 E2.98802
G1 X127.081 Y99.277 E3.00419
G1 X127.241 Y98.818 E3.02037
G1 X127.474 Y98.395 E3.03644
G1 X127.824 Y97.924 E3.05594
G1 X132.176 Y97.924 E3.20069
G1 X132.526 Y98.395 E3.22019
G1 X132.759 Y98.818 E3.23625
G1 X132.919 Y99.277 E3.25243
G1 X133.000 Y99.756 E3.26860
G1 X133.000 Y100.243 E3.28478
G1 X132.919 Y100.722 E3.30096
G1 X132.759 Y101.181 E3.31713
G1 X132.526 Y101.605 E3.33320
G1 X132.176 Y102.075 E3.35269
G1 X127.884 Y102.075 E3.49545
G0 X127.788 Y102.027 F7200
G0 X127.474 Y101.605
G0 X127.241 Y101.181
G0 X127.081 Y100.722
G0 X127.063 Y100.619
G0 X126.692 Y100.822
G0 X126.874 Y101.345
G0 X126.876 Y101.348
;segType:Loop
G1 X126.874 Y101.345 E3.49555 F1200
G1 X126.692 Y100.822 E3.51396
G1 X126.600 Y100.276 E3.53237
G1 X126.600 Y99.723 E3.55079
G1 X126.692 Y99.177 E3.56920
G1 X126.874 Y98.654 E3.58762
G1 X127.137 Y98.178 E3.60571
G1 X127.623 Y97.524 E3.63280
G1 X132.377 Y97.524 E3.79092
G1 X132.863 Y98.178 E3.81801
G1 X133.126 Y98.654 E3.83610
G1 X133.308 Y99.177 E3.85452
G1 X133.400 Y99.723 E3.87293
G1 X133.400 Y100.276 E3.89135
G1 X133.308 Y100.822 E3.90976
G1 X133.126 Y101.345 E3.92817
G1 X132.863 Y101.822 E3.94627
G1 X132.377 Y102.475 E3.97335
G1 X127.623 Y102.475 E4.13147
G1 X127.137 Y101.822 E4.15855
G1 X126.972 Y101.523 E4.16990
G0 F3000 E3.16990
G0 X127.137 Y101.822 F7200
G0 X127.623 Y102.475
G0 X129.164 Y102.475
G0 X129.993 Y102.835
G0 F3000 E4.16990
;segType:HShell
G0 X129.492 Y103.054 F7200
G1 X130.340 Y103.054 E4.24046 F1200
G1 X130.906 Y103.054 E4.28749
G1 X131.472 Y103.054 E4.33453
G1 X131.991 Y103.100 E4.37789
G1 X132.829 Y102.828 E4.44023
G0 X133.756 Y101.335 F7200
G0 X133.386 Y101.988
G1 X133.782 Y100.744 E4.52423 F1200
G1 X133.886 Y100.074 E4.55118
G1 X133.835 Y99.559 E4.58064
G1 X133.747 Y99.082 E4.60008
G1 X133.632 Y98.631 E4.61815
G1 X133.443 Y98.254 E4.64129
G1 X133.228 Y97.903 E4.66039
G1 X132.994 Y97.571 E4.67663
G1 X132.760 Y97.240 E4.69460
G1 X132.388 Y97.047 E4.71427
G1 X131.935 Y96.933 E4.74187
G0 X127.096 Y97.247 F7200
G1 X127.248 Y97.095 E4.74898 F1200
; ------------------------------------
; Layer #6
; ------------------------------------
G92 E0 ;reset extr
G0 F3000 E-1.00000
G0 F600 Z1.400
G0 X133.152 Y97.616 F7200
G0 F3000 E0.00000
;segType:HShell
G1 X132.384 Y96.848 E0.03612 F1200
G0 X132.260 Y97.008 F7200
G1 X131.412 Y97.008 E0.09125 F1200
G0 F3000 E-0.90875
G0 X131.444 Y96.265 F7200
G0 F3000 E0.09125
;segType:Infill
G1 X131.106 Y96.852 E0.11376 F1500
G0 X130.749 Y96.852 F7200
G1 X130.277 Y96.034 E0.14516 F1500
G0 X129.210 Y96.136 F7200
G1 X128.797 Y96.852 E0.17265 F1500
G0 X128.210 Y96.453 F7200
G1 X128.440 Y96.852 E0.18798 F1500
G0 X127.887 Y96.841 F7200
G1 X132.117 Y96.841 E0.32870 F1500
G0 X133.842 Y97.695 F7200
;segType:Perimeter
G1 X134.443 Y98.223 E0.35531 F600
G1 X134.796 Y100.000 E0.41556
G1 X134.432 Y101.835 E0.47781
G1 X133.392 Y103.391 E0.54005
G1 X131.836 Y104.431 E0.60228
G1 X130.000 Y104.796 E0.66454
G1 X128.165 Y104.431 E0.72679
G1 X126.609 Y103.391 E0.78903
G1 X125.569 Y101.835 E0.85126
G1 X125.204 Y100.000 E0.91352
G1 X125.569 Y98.164 E0.97577
G1 X126.609 Y96.608 E1.03801
G1 X128.165 Y95.568 E1.10025
G1 X130.000 Y95.204 E1.16250
G1 X131.836 Y95.568 E1.22475
G1 X133.392 Y96.608 E1.28698
G1 X134.398 Y98.114 E1.34722
G0 X134.443 Y98.223 F7200
G0 X134.755 Y99.792
G0 X134.388 Y100.000
G0 X134.254 Y99.321
;segType:Loop
G1 X134.388 Y100.000 E1.37024 F1200
G1 X134.055 Y101.679 E1.42720
G1 X133.104 Y103.103 E1.48414
G1 X131.680 Y104.054 E1.54109
G1 X130.000 Y104.388 E1.59805
G1 X128.321 Y104.054 E1.65501
G1 X126.897 Y103.103 E1.71195
G1 X125.946 Y101.679 E1.76890
G1 X125.612 Y100.000 E1.82586
G1 X125.946 Y98.320 E1.88282
G1 X126.897 Y96.896 E1.93977
G1 X128.321 Y95.945 E1.99671
G1 X130.000 Y95.612 E2.05366
G1 X131.680 Y95.945 E2.11062
G1 X133.104 Y96.896 E2.16756
G1 X134.055 Y98.320 E2.22450
G1 X134.215 Y99.124 E2.25179
G0 F3000 E1.25179
G0 X134.215 Y99.124 F7200
G0 X133.343 Y99.384
G0 X133.400 Y99.723
G0 X133.400 Y100.276
G0 X133.308 Y100.822
G0 X133.126 Y101.345
G0 X132.863 Y101.822
G0 X132.377 Y102.475
G0 X127.623 Y102.475
G0 X127.137 Y101.822
G0 X126.874 Y101.345
G0 X126.863 Y101.313
G0 X125.928 Y101.591
G0 X126.275 Y101.488
G0 F3000 E2.25179
;segType:HShell
G1 X126.919 Y102.132 E2.28206 F1200
G0 X127.935 Y103.147 F7200
G0 X127.496 Y102.991
G1 X128.344 Y102.991 E2.33719 F1200
G1 X128.910 Y102.991 E2.37394
G1 X129.475 Y102.991 E2.41069
G1 X130.041 Y102.991 E2.44744
G1 X130.607 Y102.991 E2.48419
G1 X131.173 Y102.991 E2.52094
G1 X131.738 Y102.991 E2.55769
G0 X132.075 Y103.147 F7200
;segType:Infill
G1 X132.129 Y103.241 E2.56128 F1500
G0 X131.902 Y103.472 F7200
G1 X132.090 Y103.147 E2.57376 F1500
G0 X129.780 Y103.147 F7200
G1 X129.351 Y103.892 E2.60234 F1500
G0 X130.242 Y103.973 F7200
G1 X129.766 Y103.147 E2.63404 F1500
G0 X128.266 Y102.669 F7200
;segType:Perimeter
G1 X127.788 Y102.027 E2.66065 F600
G1 X127.474 Y101.605 E2.67815
G1 X127.241 Y101.181 E2.69422
G1 X127.081 Y100.722 E2.71039
G1 X127.000 Y100.243 E2.72657
G1 X127.000 Y99.756 E2.74275
G1 X127.081 Y99.277 E2.75892
G1 X127.241 Y98.818 E2.77510
G1 X127.474 Y98.395 E2.79116
G1 X127.824 Y97.924 E2.81066
G1 X132.176 Y97.924 E2.95541
G1 X132.526 Y98.395 E2.97491
G1 X132.759 Y98.818 E2.99098
G1 X132.919 Y99.277 E3.00716
G1 X133.000 Y99.756 E3.02333
G1 X133.000 Y100.243 E3.03950
G1 X132.919 Y100.722 E3.05568
G1 X132.759 Y101.181 E3.07185
G1 X132.526 Y101.605 E3.08793
G1 X132.176 Y102.075 E3.10742
G1 X127.884 Y102.075 E3.25017
G0 X127.788 Y102.027 F7200
G0 X127.474 Y101.605
G0 X127.241 Y101.181
G0 X127.081 Y100.722
G0 X127.063 Y100.619
G0 X126.692 Y100.822
G0 X126.874 Y101.345
G0 X126.876 Y101.348
;segType:Loop
G1 X126.874 Y101.345 E3.25028 F1200
G1 X126.692 Y100.822 E3.26868
G1 X126.600 Y100.276 E3.28710
G1 X126.600 Y99.723 E3.30552
G1 X126.692 Y99.177 E3.32392
G1 X126.874 Y98.654 E3.34234
G1 X127.137 Y98.178 E3.36043
G1 X127.623 Y97.524 E3.38752
G1 X132.377 Y97.524 E3.54565
G1 X132.863 Y98.178 E3.57273
G1 X133.126 Y98.654 E3.59083
G1 X133.308 Y99.177 E3.60925
G1 X133.400 Y99.723 E3.62765
G1 X133.400 Y100.276 E3.64607
G1 X133.308 Y100.822 E3.66448
G1 X133.126 Y101.345 E3.68289
G1 X132.863 Y101.822 E3.70099
G1 X132.377 Y102.475 E3.72807
G1 X127.623 Y102.475 E3.88620
G1 X127.137 Y101.822 E3.91328
G1 X126.972 Y101.523 E3.92463
G0 X126.135 Y100.782 F7200
;segType:HShell
G0 X126.329 Y101.259
G1 X126.118 Y100.200 E3.96850 F1200
G1 X126.151 Y99.667 E3.99769
G1 X126.235 Y99.185 E4.01847
G1 X126.343 Y98.727 E4.03678
G1 X126.512 Y98.330 E4.05851
G1 X126.726 Y97.979 E4.07819
G1 X126.956 Y97.643 E4.09487
G1 X127.190 Y97.311 E4.11239
G1 X127.515 Y97.071 E4.13163
G1 X127.968 Y96.958 E4.15345
G1 X128.583 Y97.008 E4.20191
G1 X129.149 Y97.008 E4.23866
G1 X129.715 Y97.008 E4.27541
G1 X130.280 Y97.008 E4.31216
G1 X130.846 Y97.008 E4.34892
G0 X133.786 Y98.817 F7200
G0 X133.508 Y98.256
G1 X133.809 Y99.405 E4.41172 F1200
G1 X133.876 Y100.037 E4.43930
G1 X133.816 Y100.543 E4.46637
G1 X133.726 Y101.019 E4.48552
G1 X133.601 Y101.460 E4.50381
G1 X133.396 Y101.821 E4.52729
G1 X133.177 Y102.168 E4.54574
G1 X132.944 Y102.499 E4.56234
G1 X132.697 Y102.819 E4.58067
G1 X132.290 Y102.977 E4.59787
G1 X132.092 Y103.345 E4.63123
G1 X131.753 Y103.572 E4.64480
; ------------------------------------
; Layer #7
; ------------------------------------
G92 E0 ;reset extr
G0 F3000 E-1.00000
G0 F600 Z1.600
G0 X130.372 Y103.022 F7200
G0 F3000 E0.00000
;segType:HShell
G0 X130.748 Y102.929 F7200
G1 X129.900 Y102.929 E0.03308 F1200
G1 X129.334 Y102.929 E0.05513
G1 X128.768 Y102.929 E0.07718
G1 X128.203 Y102.929 E0.09923
G1 X127.613 Y102.952 E0.12128
G1 X127.240 Y102.760 E0.14887
G1 X127.006 Y102.428 E0.16849
G1 X126.773 Y102.096 E0.18638
G1 X126.558 Y101.745 E0.20255
G1 X126.369 Y101.368 E0.22157
G1 X126.254 Y100.918 E0.24463
G1 X126.166 Y100.440 E0.26264
G1 X126.114 Y99.926 E0.28204
G1 X126.219 Y99.256 E0.31147
G0 X126.245 Y98.664 F7200
G1 X126.719 Y98.190 E0.33379 F1200
G0 X127.096 Y97.247 F7200
G0 X126.839 Y97.221
G1 X127.839 Y97.070 E0.36742 F1200
G1 X128.404 Y97.070 E0.38947
G0 F3000 E-0.61053
G0 X128.268 Y96.414 F7200
G0 F3000 E0.38947
;segType:Infill
G1 X128.593 Y96.977 E0.41109 F1500
G0 X128.643 Y96.977 F7200
G1 X129.118 Y96.154 E0.44268 F1500
G0 X130.369 Y96.052 F7200
G1 X130.903 Y96.977 E0.47820 F1500
G0 X130.953 Y96.977 F7200
G1 X131.372 Y96.251 E0.50606 F1500
G0 X133.842 Y97.695 F7200
;segType:Perimeter
G1 X134.443 Y98.223 E0.53267 F600
G1 X134.796 Y100.000 E0.59292
G1 X134.432 Y101.835 E0.65517
G1 X133.392 Y103.391 E0.71741
G1 X131.836 Y104.431 E0.77964
G1 X130.000 Y104.796 E0.84190
G1 X128.165 Y104.431 E0.90415
G1 X126.609 Y103.391 E0.96639
G1 X125.569 Y101.835 E1.02862
G1 X125.204 Y100.000 E1.09088
G1 X125.569 Y98.164 E1.15313
G1 X126.609 Y96.608 E1.21537
G1 X128.165 Y95.568 E1.27761
G1 X130.000 Y95.204 E1.33986
G1 X131.836 Y95.568 E1.40211
G1 X133.392 Y96.608 E1.46434
G1 X134.398 Y98.114 E1.52458
G0 X134.443 Y98.223 F7200
G0 X134.755 Y99.792
G0 X134.388 Y100.000
G0 X134.254 Y99.321
;segType:Loop
G1 X134.388 Y100.000 E1.54760 F1200
G1 X134.055 Y101.679 E1.60456
G1 X133.104 Y103.103 E1.66150
G1 X131.680 Y104.054 E1.71845
G1 X130.000 Y104.388 E1.77541
G1 X128.321 Y104.054 E1.83237
G1 X126.897 Y103.103 E1.88931
G1 X125.946 Y101.679 E1.94626
G1 X125.612 Y100.000 E2.00322
G1 X125.946 Y98.320 E2.06018
G1 X126.897 Y96.896 E2.11712
G1 X128.321 Y95.945 E2.17406
G1 X130.000 Y95.612 E2.23102
G1 X131.680 Y95.945 E2.28798
G1 X133.104 Y96.896 E2.34492
G1 X134.055 Y98.320 E2.40186
G1 X134.215 Y99.124 E2.42915
G0 F3000 E1.42915
G0 X134.215 Y99.124 F7200
G0 X133.132 Y98.673
G0 X133.126 Y98.654
G0 X132.863 Y98.178
G0 X132.377 Y97.524
G0 X130.377 Y97.524
G0 X129.064 Y96.977
G0 F3000 E2.42915
;segType:HShell
G0 X128.687 Y97.070 F7200
G1 X129.536 Y97.070 E2.46222 F1200
G1 X130.101 Y97.070 E2.48427
G1 X130.667 Y97.070 E2.50632
G1 X131.233 Y97.070 E2.52837
G1 X131.798 Y97.070 E2.55042
G1 X132.388 Y97.047 E2.57247
G1 X132.760 Y97.240 E2.60007
G1 X132.994 Y97.571 E2.61974
G1 X133.228 Y97.903 E2.63770
G1 X133.443 Y98.254 E2.65395
G1 X133.632 Y98.631 E2.67305
G1 X133.747 Y99.082 E2.69619
G1 X133.835 Y99.559 E2.71426
G1 X133.886 Y100.074 E2.73370
G1 X133.782 Y100.744 E2.76316
G1 X133.518 Y101.573 E2.79210
G0 X132.753 Y102.904 F7200
G1 X132.905 Y102.752 E2.79922 F1200
G0 X130.937 Y103.022 F7200
G0 X130.748 Y102.929
G1 X131.597 Y102.929 E2.83229 F1200
G1 X132.162 Y102.929 E2.85434
G0 X132.084 Y103.022 F7200
;segType:Infill
G1 X132.221 Y103.260 E2.86345 F1500
G0 F3000 E1.86345
G0 X132.081 Y103.022 F7200
G0 F3000 E2.86345
G1 X131.771 Y103.560 E2.88411 F1500
G0 X130.315 Y103.959 F7200
G1 X129.774 Y103.022 E2.92006 F1500
G0 X129.278 Y103.877 F7200
G1 X129.772 Y103.022 E2.95289 F1500
G0 X128.266 Y102.669 F7200
;segType:Perimeter
G1 X127.788 Y102.027 E2.97950 F600
G1 X127.474 Y101.605 E2.99699
G1 X127.241 Y101.181 E3.01307
G1 X127.081 Y100.722 E3.02924
G1 X127.000 Y100.243 E3.04542
G1 X127.000 Y99.756 E3.06159
G1 X127.081 Y99.277 E3.07776
G1 X127.241 Y98.818 E3.09394
G1 X127.474 Y98.395 E3.11001
G1 X127.824 Y97.924 E3.12951
G1 X132.176 Y97.924 E3.27426
G1 X132.526 Y98.395 E3.29376
G1 X132.759 Y98.818 E3.30982
G1 X132.919 Y99.277 E3.32600
G1 X133.000 Y99.756 E3.34217
G1 X133.000 Y100.243 E3.35835
G1 X132.919 Y100.722 E3.37453
G1 X132.759 Y101.181 E3.39070
G1 X132.526 Y101.605 E3.40677
G1 X132.176 Y102.075 E3.42626
G1 X127.884 Y102.075 E3.56902
G0 X127.788 Y102.027 F7200
G0 X127.474 Y101.605
G0 X127.241 Y101.181
G0 X127.081 Y100.722
G0 X127.063 Y100.619
G0 X126.692 Y100.822
G0 X126.874 Y101.345
G0 X126.876 Y101.348
;segType:Loop
G1 X126.874 Y101.345 E3.56912 F1200
G1 X126.692 Y100.822 E3.58753
G1 X126.600 Y100.276 E3.60594
G1 X126.600 Y99.723 E3.62436
G1 X126.692 Y99.177 E3.64277
G1 X126.874 Y98.654 E3.66119
G1 X127.137 Y98.178 E3.67928
G1 X127.623 Y97.524 E3.70636
G1 X132.377 Y97.524 E3.86449
G1 X132.863 Y98.178 E3.89158
G1 X133.126 Y98.654 E3.90967
G1 X133.308 Y99.177 E3.92809
G1 X133.400 Y99.723 E3.94649
G1 X133.400 Y100.276 E3.96491
G1 X133.308 Y100.822 E3.98333
G1 X133.126 Y101.345 E4.00174
G1 X132.863 Y101.822 E4.01984
G1 X132.377 Y102.475 E4.04692
G1 X127.623 Y102.475 E4.20504
G1 X127.137 Y101.822 E4.23212
G1 X126.972 Y101.523 E4.24347
; ------------------------------------
; Layer #8
; ------------------------------------
G92 E0 ;reset extr
G0 F3000 E-1.00000
G0 F600 Z1.800
G0 X126.275 Y101.488 F7200
G0 F3000 E0.00000
;segType:HShell
G1 X126.919 Y102.132 E0.03027 F1200
G0 X126.329 Y101.259 F7200
G1 X126.118 Y100.200 E0.07414 F1200
G1 X126.151 Y99.667 E0.10334
G1 X126.235 Y99.185 E0.12412
G1 X126.343 Y98.727 E0.14243
G1 X126.512 Y98.330 E0.16416
G1 X126.726 Y97.979 E0.18384
G1 X126.956 Y97.643 E0.20051
G1 X127.190 Y97.311 E0.21804
G1 X127.482 Y97.038 E0.23728
G1 X128.143 Y97.133 E0.25946
G0 X128.326 Y96.375 F7200
;segType:Infill
G1 X128.746 Y97.102 E0.28738 F1500
G0 X128.490 Y97.102 F7200
G1 X129.027 Y96.172 E0.32308 F1500
G0 X130.800 Y97.102 F7200
G1 X131.299 Y96.237 E0.35630 F1500
G0 X130.460 Y96.070 F7200
G1 X131.056 Y97.102 E0.39591 F1500
G0 X133.842 Y97.695 F7200
;segType:Perimeter
G1 X134.443 Y98.223 E0.42252 F600
G1 X134.796 Y100.000 E0.48278
G1 X134.432 Y101.835 E0.54503
G1 X133.392 Y103.391 E0.60726
G1 X131.836 Y104.431 E0.66950
G1 X130.000 Y104.796 E0.73175
G1 X128.165 Y104.431 E0.79401
G1 X126.609 Y103.391 E0.85624
G1 X125.569 Y101.835 E0.91848
G1 X125.204 Y100.000 E0.98074
G1 X125.569 Y98.164 E1.04299
G1 X126.609 Y96.608 E1.10523
G1 X128.165 Y95.568 E1.16746
G1 X130.000 Y95.204 E1.22971
G1 X131.836 Y95.568 E1.29196
G1 X133.392 Y96.608 E1.35420
G1 X134.398 Y98.114 E1.41444
G0 X134.443 Y98.223 F7200
G0 X134.755 Y99.792
G0 X134.388 Y100.000
G0 X134.254 Y99.321
;segType:Loop
G1 X134.388 Y100.000 E1.43746 F1200
G1 X134.055 Y101.679 E1.49442
G1 X133.104 Y103.103 E1.55136
G1 X131.680 Y104.054 E1.60830
G1 X130.000 Y104.388 E1.66526
G1 X128.321 Y104.054 E1.72222
G1 X126.897 Y103.103 E1.77917
G1 X125.946 Y101.679 E1.83611
G1 X125.612 Y100.000 E1.89308
G1 X125.946 Y98.320 E1.95004
G1 X126.897 Y96.896 E2.00698
G1 X128.321 Y95.945 E2.06392
G1 X130.000 Y95.612 E2.12088
G1 X131.680 Y95.945 E2.17784
G1 X133.104 Y96.896 E2.23478
G1 X134.055 Y98.320 E2.29172
G1 X134.215 Y99.124 E2.31900
G0 X133.475 Y101.899 F7200
;segType:HShell
G0 X133.506 Y101.647
G1 X133.177 Y102.168 E2.34667 F1200
G1 X132.944 Y102.499 E2.36328
G1 X132.697 Y102.819 E2.38161
G1 X132.179 Y102.866 E2.39892
G1 X131.613 Y102.866 E2.41774
G1 X131.048 Y102.866 E2.43655
G1 X130.482 Y102.866 E2.45537
G1 X129.916 Y102.866 E2.47418
G1 X129.351 Y102.866 E2.49300
G0 F3000 E1.49300
G0 X129.206 Y103.863 F7200
G0 F3000 E2.49300
;segType:Infill
G1 X129.763 Y102.898 E2.53007 F1500
G0 X129.783 Y102.898 F7200
G1 X130.387 Y103.944 E2.57027 F1500
G0 X132.279 Y103.221 F7200
G1 X132.093 Y102.898 E2.58267 F1500
G0 X131.639 Y103.648 F7200
G1 X132.072 Y102.898 E2.61150 F1500
G0 X132.428 Y103.121 F7200
G1 X127.573 Y103.121 E2.77299 F1500
G0 X127.621 Y103.153 F7200
G1 X127.505 Y102.952 E2.78071 F1500
G0 X128.266 Y102.669 F7200
;segType:Perimeter
G1 X127.788 Y102.027 E2.80732 F600
G1 X127.474 Y101.605 E2.82481
G1 X127.241 Y101.181 E2.84089
G1 X127.081 Y100.722 E2.85706
G1 X127.000 Y100.243 E2.87323
G1 X127.000 Y99.756 E2.88941
G1 X127.081 Y99.277 E2.90558
G1 X127.241 Y98.818 E2.92176
G1 X127.474 Y98.395 E2.93783
G1 X127.824 Y97.924 E2.95732
G1 X132.176 Y97.924 E3.10208
G1 X132.526 Y98.395 E3.12158
G1 X132.759 Y98.818 E3.13764
G1 X132.919 Y99.277 E3.15382
G1 X133.000 Y99.756 E3.16999
G1 X133.000 Y100.243 E3.18617
G1 X132.919 Y100.722 E3.20235
G1 X132.759 Y101.181 E3.21852
G1 X132.526 Y101.605 E3.23459
G1 X132.176 Y102.075 E3.25408
G1 X127.884 Y102.075 E3.39684
G0 X127.788 Y102.027 F7200
G0 X127.474 Y101.605
G0 X127.241 Y101.181
G0 X127.081 Y100.722
G0 X127.063 Y100.619
G0 X126.692 Y100.822
G0 X126.874 Y101.345
G0 X126.876 Y101.348
;segType:Loop
G1 X126.874 Y101.345 E3.39694 F1200
G1 X126.692 Y100.822 E3.41535
G1 X126.600 Y100.276 E3.43376
G1 X126.600 Y99.723 E3.45218
G1 X126.692 Y99.177 E3.47059
G1 X126.874 Y98.654 E3.48901
G1 X127.137 Y98.178 E3.50710
G1 X127.623 Y97.524 E3.53418
G1 X132.377 Y97.524 E3.69231
G1 X132.863 Y98.178 E3.71940
G1 X133.126 Y98.654 E3.73749
G1 X133.308 Y99.177 E3.75591
G1 X133.400 Y99.723 E3.77432
G1 X133.400 Y100.276 E3.79273
G1 X133.308 Y100.822 E3.81115
G1 X133.126 Y101.345 E3.82956
G1 X132.863 Y101.822 E3.84766
G1 X132.377 Y102.475 E3.87474
G1 X127.623 Y102.475 E4.03286
G1 X127.137 Y101.822 E4.05994
G1 X126.972 Y101.523 E4.07129
G0 X127.622 Y102.835 F7200
;segType:HShell
G0 X127.371 Y102.866
G1 X128.219 Y102.866 E4.09951 F1200
G1 X128.785 Y102.866 E4.11833
G0 X132.092 Y103.345 F7200
G0 X131.923 Y103.459
G1 X132.431 Y103.119 E4.13868 F1200
G0 X133.701 Y101.560 F7200
G0 X133.539 Y101.681
G1 X133.726 Y101.019 E4.17390 F1200
G1 X133.816 Y100.543 E4.19219
G1 X133.876 Y100.037 E4.21133
G1 X133.809 Y99.405 E4.23840
G1 X133.608 Y98.639 E4.26598
G0 X133.152 Y97.616 F7200
G1 X132.530 Y96.995 E4.29521 F1200
G0 X132.384 Y96.848 F7200
G0 X132.524 Y96.706
G1 X132.102 Y97.133 E4.31516 F1200
G1 X131.537 Y97.133 E4.33398
G1 X130.971 Y97.133 E4.35279
G1 X130.405 Y97.133 E4.37161
G1 X129.840 Y97.133 E4.39042
G1 X129.274 Y97.133 E4.40924
G1 X128.708 Y97.133 E4.42805
G0 X127.608 Y97.164 F7200
G1 X127.546 Y97.102 E4.43099 F1200
; ------------------------------------
; Layer #9
; ------------------------------------
G92 E0 ;reset extr
G0 F3000 E-1.00000
G0 F600 Z2.000
G0 X127.224 Y96.678 F7200
G0 X127.866 Y97.524
G0 X127.623 Y97.524
G0 X127.137 Y98.178
G0 X126.874 Y98.654
G0 X126.692 Y99.177
G0 X126.600 Y99.723
G0 X126.600 Y100.276
G0 X126.692 Y100.822
G0 X126.874 Y101.345
G0 X127.137 Y101.822
G0 X127.623 Y102.475
G0 X131.622 Y102.475
G0 X132.437 Y103.548
G0 X132.219 Y103.261
G0 F3000 E0.00000
;segType:Infill
G1 X127.782 Y103.261 E0.14755 F1500
G0 X127.518 Y102.835 F7200
G1 X127.753 Y103.241 E0.16316 F1500
G0 X127.423 Y102.810 F7200
G1 X127.335 Y102.962 E0.16901 F1500
G0 X126.230 Y101.261 F7200
G1 X126.464 Y101.261 E0.17678 F1500
G0 X126.312 Y100.735 F7200
G1 X126.173 Y100.975 E0.18602 F1500
G0 X126.030 Y100.258 F7200
G1 X126.315 Y100.750 E0.20493 F1500
G0 X126.313 Y99.261 F7200
G1 X126.126 Y99.261 E0.21114 F1500
G0 X126.831 Y97.644 F7200
G1 X126.942 Y97.837 E0.21853 F1500
G0 X127.370 Y97.261 F7200
G1 X127.087 Y97.261 E0.22794 F1500
G0 X128.374 Y97.164 F7200
G1 X128.936 Y96.190 E0.26534 F1500
G0 X128.385 Y96.336 F7200
G1 X128.863 Y97.164 E0.29717 F1500
G0 X130.683 Y97.164 F7200
G1 X131.227 Y96.222 E0.33334 F1500
G0 X130.551 Y96.088 F7200
G1 X131.172 Y97.164 E0.37466 F1500
G0 X132.630 Y97.261 F7200
G1 X132.914 Y97.261 E0.38410 F1500
G0 X132.926 Y97.279 F7200
G1 X132.803 Y97.493 E0.39231 F1500
G0 X133.842 Y97.695 F7200
;segType:Perimeter
G1 X134.443 Y98.223 E0.41892 F600
G1 X134.796 Y100.000 E0.47918
G1 X134.432 Y101.835 E0.54143
G1 X133.392 Y103.391 E0.60366
G1 X131.836 Y104.431 E0.66590
G1 X130.000 Y104.796 E0.72815
G1 X128.165 Y104.431 E0.79041
G1 X126.609 Y103.391 E0.85264
G1 X125.569 Y101.835 E0.91488
G1 X125.204 Y100.000 E0.97713
G1 X125.569 Y98.164 E1.03939
G1 X126.609 Y96.608 E1.10162
G1 X128.165 Y95.568 E1.16386
G1 X130.000 Y95.204 E1.22611
G1 X131.836 Y95.568 E1.28836
G1 X133.392 Y96.608 E1.35059
G1 X134.398 Y98.114 E1.41083
G0 X134.443 Y98.223 F7200
G0 X134.755 Y99.792
G0 X134.388 Y100.000
G0 X134.254 Y99.321
;segType:Loop
G1 X134.388 Y100.000 E1.43386 F1200
G1 X134.055 Y101.679 E1.49081
G1 X133.104 Y103.103 E1.54775
G1 X131.680 Y104.054 E1.60470
G1 X130.000 Y104.388 E1.66166
G1 X128.321 Y104.054 E1.71862
G1 X126.897 Y103.103 E1.77557
G1 X125.946 Y101.679 E1.83251
G1 X125.612 Y100.000 E1.88947
G1 X125.946 Y98.320 E1.94643
G1 X126.897 Y96.896 E2.00338
G1 X128.321 Y95.945 E2.06032
G1 X130.000 Y95.612 E2.11728
G1 X131.680 Y95.945 E2.17424
G1 X133.104 Y96.896 E2.23118
G1 X134.055 Y98.320 E2.28812
G1 X134.215 Y99.124 E2.31540
G0 F3000 E1.31540
G0 X133.687 Y99.261 F7200
G0 F3000 E2.31540
;segType:Infill
G1 X133.875 Y99.261 E2.32163 F1500
G0 X133.761 Y99.833 F7200
G1 X133.930 Y99.540 E2.33289 F1500
G0 X133.536 Y101.261 F7200
G1 X133.771 Y101.261 E2.34069 F1500
G0 X133.706 Y101.553 F7200
G1 X133.537 Y101.259 E2.35196 F1500
G0 X132.137 Y102.835 F7200
G1 X132.337 Y103.182 E2.36527 F1500
G0 F3000 E1.36527
G0 X132.028 Y102.835 F7200
G0 F3000 E2.36527
G1 X131.517 Y103.719 E2.39923 F1500
G0 X130.460 Y103.930 F7200
G1 X129.828 Y102.835 E2.44128 F1500
G0 X129.133 Y103.848 F7200
G1 X129.718 Y102.835 E2.48020 F1500
G0 F3000 E1.48020
G0 X129.030 Y102.475 F7200
G0 X127.623 Y102.475
G0 X127.137 Y101.822
G0 X126.876 Y101.348
G0 F3000 E2.48020
;segType:Loop
G1 X126.874 Y101.345 E2.48030 F1200
G1 X126.692 Y100.822 E2.49871
G1 X126.600 Y100.276 E2.51712
G1 X126.600 Y99.723 E2.53554
G1 X126.692 Y99.177 E2.55395
G1 X126.874 Y98.654 E2.57237
G1 X127.137 Y98.178 E2.59046
G1 X127.623 Y97.524 E2.61754
G1 X132.377 Y97.524 E2.77567
G1 X132.863 Y98.178 E2.80276
G1 X133.126 Y98.654 E2.82085
G1 X133.308 Y99.177 E2.83927
G1 X133.400 Y99.723 E2.85768
G1 X133.400 Y100.276 E2.87609
G1 X133.308 Y100.822 E2.89451
G1 X133.126 Y101.345 E2.91292
G1 X132.863 Y101.822 E2.93102
G1 X132.377 Y102.475 E2.95810
G1 X127.623 Y102.475 E3.11622
G1 X127.137 Y101.822 E3.14330
G1 X126.972 Y101.523 E3.15465
G0 X128.266 Y102.669 F7200
;segType:Perimeter
G1 X127.788 Y102.027 E3.18126 F600
G1 X127.474 Y101.605 E3.19875
G1 X127.241 Y101.181 E3.21483
G1 X127.081 Y100.722 E3.23100
G1 X127.000 Y100.243 E3.24718
G1 X127.000 Y99.756 E3.26336
G1 X127.081 Y99.277 E3.27952
G1 X127.241 Y98.818 E3.29570
G1 X127.474 Y98.395 E3.31177
G1 X127.824 Y97.924 E3.33127
G1 X132.176 Y97.924 E3.47602
G1 X132.526 Y98.395 E3.49552
G1 X132.759 Y98.818 E3.51158
G1 X132.919 Y99.277 E3.52776
G1 X133.000 Y99.756 E3.54393
G1 X133.000 Y100.243 E3.56011
G1 X132.919 Y100.722 E3.57629
G1 X132.759 Y101.181 E3.59246
G1 X132.526 Y101.605 E3.60853
G1 X132.176 Y102.075 E3.62802
G1 X127.884 Y102.075 E3.77078
G0 X127.788 Y102.027 F7200
G0 X127.474 Y101.605
G0 X127.241 Y101.181
G0 X127.081 Y100.722
G0 X127.063 Y100.619
; ------------------------------------
; Layer #10
; ------------------------------------
G92 E0 ;reset extr
G0 F3000 E-1.00000
G0 F600 Z2.200
G0 X126.692 Y100.822 F7200
G0 X126.615 Y100.367
G0 X126.874 Y101.345
G0 X127.137 Y101.822
G0 X127.623 Y102.475
G0 X130.363 Y102.475
G0 X132.361 Y103.599
G0 X132.009 Y103.401
G0 F3000 E0.00000
;segType:Infill
G1 X127.992 Y103.401 E0.13362 F1500
G0 X127.599 Y102.835 F7200
G1 X127.885 Y103.329 E0.15260 F1500
G0 X127.378 Y102.749 F7200
G1 X127.277 Y102.923 E0.15930 F1500
G0 X126.258 Y101.401 F7200
G1 X126.512 Y101.401 E0.16777 F1500
G0 X126.294 Y100.626 F7200
G1 X126.152 Y100.871 E0.17717 F1500
G0 X125.988 Y100.044 F7200
G1 X126.281 Y100.552 E0.19668 F1500
G0 X126.289 Y99.401 F7200
G1 X126.098 Y99.401 E0.20302 F1500
G0 X126.874 Y97.579 F7200
G1 X126.987 Y97.775 E0.21055 F1500
G0 X127.266 Y97.401 F7200
G1 X126.993 Y97.401 E0.21961 F1500
G0 X128.293 Y97.164 F7200
G1 X128.845 Y96.208 E0.25632 F1500
G0 X128.443 Y96.297 F7200
G1 X128.944 Y97.164 E0.28964 F1500
G0 X130.602 Y97.164 F7200
G1 X131.154 Y96.208 E0.32636 F1500
G0 X130.643 Y96.106 F7200
G1 X131.253 Y97.164 E0.36699 F1500
G0 X132.883 Y97.214 F7200
G1 X132.757 Y97.432 E0.37534 F1500
G0 X133.008 Y97.401 F7200
G1 X132.734 Y97.401 E0.38443 F1500
G0 X133.842 Y97.695 F7200
;segType:Perimeter
G1 X134.443 Y98.223 E0.41104 F600
G1 X134.796 Y100.000 E0.47130
G1 X134.432 Y101.835 E0.53355
G1 X133.392 Y103.391 E0.59578
G1 X131.836 Y104.431 E0.65802
G1 X130.000 Y104.796 E0.72027
G1 X128.165 Y104.431 E0.78253
G1 X126.609 Y103.391 E0.84476
G1 X125.569 Y101.835 E0.90700
G1 X125.204 Y100.000 E0.96925
G1 X125.569 Y98.164 E1.03151
G1 X126.609 Y96.608 E1.09375
G1 X128.165 Y95.568 E1.15598
G1 X130.000 Y95.204 E1.21823
G1 X131.836 Y95.568 E1.28048
G1 X133.392 Y96.608 E1.34272
G1 X134.398 Y98.114 E1.40296
G0 X134.443 Y98.223 F7200
G0 X134.755 Y99.792
G0 X134.388 Y100.000
G0 X134.254 Y99.321
;segType:Loop
G1 X134.388 Y100.000 E1.42598 F1200
G1 X134.055 Y101.679 E1.48294
G1 X133.104 Y103.103 E1.53988
G1 X131.680 Y104.054 E1.59682
G1 X130.000 Y104.388 E1.65378
G1 X128.321 Y104.054 E1.71074
G1 X126.897 Y103.103 E1.76769
G1 X125.946 Y101.679 E1.82463
G1 X125.612 Y100.000 E1.88159
G1 X125.946 Y98.320 E1.93856
G1 X126.897 Y96.896 E1.99550
G1 X128.321 Y95.945 E2.05244
G1 X130.000 Y95.612 E2.10940
G1 X131.680 Y95.945 E2.16636
G1 X133.104 Y96.896 E2.22330
G1 X134.055 Y98.320 E2.28024
G1 X134.215 Y99.124 E2.30752
G0 F3000 E1.30752
G0 X133.711 Y99.401 F7200
G0 F3000 E2.30752
;segType:Infill
G1 X133.902 Y99.401 E2.31388 F1500
G0 X133.761 Y99.693 F7200
G1 X133.909 Y99.436 E2.32377 F1500
G0 X133.567 Y101.172 F7200
G1 X133.732 Y101.457 E2.33472 F1500
G0 F3000 E1.33472
G0 X133.488 Y101.401 F7200
G0 F3000 E2.33472
G1 X133.743 Y101.401 E2.34322 F1500
G0 X132.218 Y102.835 F7200
G1 X132.396 Y103.143 E2.35503 F1500
G0 X131.947 Y102.835 F7200
G1 X131.426 Y103.737 E2.38969 F1500
G0 X130.532 Y103.915 F7200
G1 X129.909 Y102.835 E2.43118 F1500
G0 X129.061 Y103.834 F7200
G1 X129.637 Y102.835 E2.46955 F1500
G0 F3000 E1.46955
G0 X128.969 Y102.475 F7200
G0 X127.623 Y102.475
G0 X127.137 Y101.822
G0 X126.876 Y101.348
G0 F3000 E2.46955
;segType:Loop
G1 X126.874 Y101.345 E2.46965 F1200
G1 X126.692 Y100.822 E2.48806
G1 X126.600 Y100.276 E2.50647
