; #disp params :
; Printmode:0
; Layer:175
; Zmax:120.127 mm
; Xmax:150.054 mm
; Ymax:36 mm
; Xmin:109.873 mm
; Ymin:0.3 mm
; E0diam:0.4 mm
; E0len:0.643607 m
; E0temp:215 C
; Bedtemp:215 C
; Time:17.865 min
; #params end
; GCode generated by CraftWare

G28 X Y ; home horizontally
G28 Z ; home vertically


M104 S215 ;set head temp (no wait)
M190 S60 ;set bed temp (wait)
M109 S215 ;set head temp (wait)

; ------------------------------------
; Raft Layer #0
; ------------------------------------
M106 S0 ;turn off fan
G21 ; mm
G90 ; abs
G92 E0 ;reset extr
G0 F600 Z0.300
;segType:Raft
G0 F3000 E-1.00000
G0 F600 Z2.300
G0 X109.936 Y106.626 F5400
G0 F600 Z0.300
G0 F3000 E0.00000
G1 X109.936 Y92.624 E0.69852 F600
G1 X110.061 Y92.249 E0.71824
G1 X110.061 Y91.749 E0.74319
G1 X110.311 Y90.999 E0.78264
G1 X110.623 Y90.311 E0.82033
G1 X110.998 Y89.686 E0.85670
G1 X111.436 Y89.124 E0.89224
G1 X118.936 Y81.623 E1.42145
G1 X119.499 Y81.186 E1.45702
G1 X120.124 Y80.811 E1.49338
G1 X120.374 Y80.561 E1.51103
G1 X121.499 Y80.186 E1.57019
G1 X121.999 Y80.186 E1.59514
G1 X122.374 Y80.061 E1.61486
G1 X131.750 Y80.061 E2.08262
G0 X131.875 Y80.061 F5400
G1 X136.876 Y80.061 E2.33209 F600
G1 X137.813 Y80.123 E2.37899
G1 X139.063 Y80.373 E2.44259
G1 X140.314 Y81.123 E2.51532
G1 X140.876 Y81.561 E2.55086
G1 X148.377 Y89.061 E3.08007
G1 X148.814 Y89.624 E3.11564
G1 X149.189 Y90.249 E3.15201
G1 X149.439 Y90.499 E3.16965
G1 X149.689 Y91.249 E3.20909
G1 X149.814 Y92.124 E3.25319
G1 X149.939 Y92.499 E3.27292
G1 X149.939 Y107.376 E4.01510
G1 X149.814 Y108.251 E4.05920
G1 X149.627 Y109.064 E4.10082
G1 X149.314 Y109.751 E4.13848
G1 X148.877 Y110.314 E4.17405
G1 X148.502 Y110.939 E4.21042
G1 X145.001 Y114.439 E4.45738
G0 X144.876 Y114.564 F5400
G1 X140.876 Y118.564 E4.73963 F600
G1 X140.251 Y118.939 E4.77599
G1 X139.689 Y119.377 E4.81153
G1 X139.001 Y119.689 E4.84923
G1 X137.751 Y119.939 E4.91283
G1 X137.501 Y120.064 E4.92678
G1 X134.500 Y120.064 E5.07646
G0 X134.375 Y120.064 F5400
G1 X122.374 Y120.064 E5.67519 F600
G1 X121.624 Y119.814 E5.71464
G1 X121.124 Y119.814 E5.73959
G1 X120.436 Y119.502 E5.77728
G1 X119.811 Y119.127 E5.81365
G1 X118.686 Y118.252 E5.88476
G1 X111.686 Y111.251 E6.37869
G1 X110.811 Y110.126 E6.44980
G1 X110.436 Y109.501 E6.48616
G1 X110.061 Y108.376 E6.54533
G1 X110.061 Y107.876 E6.57028
G1 X109.936 Y107.501 E6.59000
G1 X109.936 Y106.876 E6.62118
G0 X111.146 Y109.751 F5400
G1 X111.146 Y90.374 E7.58789 F600
G0 X113.812 Y87.374 F5400
G1 X113.812 Y112.876 E8.86019 F600
G0 X116.479 Y115.501 F5400
G1 X116.479 Y84.749 E10.39445 F600
G0 X119.146 Y82.124 F5400
G1 X119.146 Y118.127 E12.19064 F600
G0 X121.813 Y119.502 F5400
G1 X121.813 Y80.623 E14.13029 F600
G0 X124.479 Y80.498 F5400
G1 X124.479 Y119.752 E16.08864 F600
G0 X127.146 Y119.752 F5400
G1 X127.146 Y80.498 E18.04699 F600
G0 X129.813 Y80.498 F5400
G1 X129.813 Y119.752 E20.00535 F600
G0 X132.479 Y119.752 F5400
G1 X132.479 Y80.498 E21.96370 F600
G0 X135.146 Y80.498 F5400
G1 X135.146 Y119.752 E23.92205 F600
G0 X137.813 Y119.627 F5400
G1 X137.813 Y80.623 E25.86793 F600
G0 X140.479 Y81.873 F5400
G1 X140.479 Y118.377 E27.68908 F600
G0 X143.146 Y115.751 F5400
G1 X143.146 Y84.499 E29.24828 F600
G0 X145.813 Y87.124 F5400
G1 X145.813 Y113.126 E30.54553 F600
G0 X148.479 Y110.126 F5400
G1 X148.479 Y89.999 E31.54965 F600



; ------------------------------------
; Raft Layer #1
; ------------------------------------
G92 E0 ;reset extr
G0 F600 Z0.600
;segType:Raft
G0 X149.241 Y90.249 F7200
G1 X120.114 Y119.377 E2.05508 F1800
G0 X118.978 Y118.627 F7200
G1 X148.480 Y89.124 E4.13662 F1800
G0 X147.470 Y88.249 F7200
G1 X118.093 Y117.626 E6.20935 F1800
G0 X117.082 Y116.751 F7200
G1 X146.584 Y87.249 E8.29089 F1800
G0 X145.574 Y86.374 F7200
G1 X116.197 Y115.751 E10.36361 F1800
G0 X115.311 Y114.751 F7200
G1 X144.688 Y85.374 E12.43633 F1800
G0 X143.813 Y84.363 F7200
G1 X114.311 Y113.866 E14.51787 F1800
G0 X113.436 Y112.855 F7200
G1 X142.813 Y83.478 E16.59060 F1800
G0 X141.938 Y82.467 F7200
G1 X112.436 Y111.970 E18.67214 F1800
G0 X111.561 Y110.959 F7200
G1 X140.938 Y81.582 E20.74486 F1800
G0 X139.813 Y80.821 F7200
G1 X110.811 Y109.824 E22.79112 F1800
G0 X110.186 Y108.563 F7200
G1 X138.438 Y80.311 E24.78447 F1800
G0 X136.688 Y80.175 F7200
G1 X110.061 Y106.802 E26.66314 F1800
G0 X110.061 Y104.917 F7200
G1 X134.812 Y80.165 E28.40952 F1800
G0 X132.937 Y80.154 F7200
G1 X110.061 Y103.031 E30.02360 F1800
G0 X110.061 Y101.145 F7200
G1 X131.062 Y80.144 E31.50537 F1800
G0 X129.187 Y80.133 F7200
G1 X110.061 Y99.260 E32.85485 F1800
G0 X110.061 Y97.374 F7200
G1 X127.312 Y80.123 E34.07202 F1800
G0 X125.437 Y80.112 F7200
G1 X110.061 Y95.489 E35.15690 F1800
G0 X110.061 Y93.603 F7200
G1 X123.562 Y80.102 E36.10946 F1800
G0 X121.437 Y80.341 F7200
G1 X110.311 Y91.467 E36.89445 F1800
G0 X121.499 Y119.877 F7200
G1 X149.751 Y91.624 E38.88779 F1800
G0 X150.012 Y93.249 F7200
G1 X123.135 Y120.127 E40.78411 F1800
G0 X125.021 Y120.127 F7200
G1 X150.022 Y95.125 E42.54813 F1800
G0 X150.033 Y97.000 F7200
G1 X126.906 Y120.127 E44.17985 F1800
G0 X128.792 Y120.127 F7200
G1 X150.043 Y98.875 E45.67927 F1800
G0 X150.054 Y100.750 F7200
G1 X130.678 Y120.127 E47.04638 F1800
G0 X132.563 Y120.127 F7200
G1 X149.939 Y102.750 E48.27238 F1800
G0 X149.950 Y104.625 F7200
G1 X134.449 Y120.127 E49.36607 F1800
G0 X136.334 Y120.127 F7200
G1 X149.960 Y106.501 E50.32746 F1800
G0 X149.721 Y108.626 F7200
G1 X138.470 Y119.877 E51.12127 F1800



; ------------------------------------
; Raft Layer #2
; ------------------------------------
G92 E0 ;reset extr
G0 F600 Z0.800
;segType:Raft
G0 F3000 E-1.00000
G0 F600 Z2.800
G0 X120.999 Y119.788 F7200
G0 F600 Z0.800
G0 F3000 E0.00000
G1 X138.751 Y119.788 E0.59042 F2400
G1 X139.626 Y119.388 E0.62242
G1 X120.124 Y119.388 E1.27104
G1 X119.624 Y118.988 E1.29234
G1 X140.126 Y118.988 E1.97423
G1 X140.751 Y118.588 E1.99891
G1 X118.999 Y118.588 E2.72238
G1 X118.499 Y118.188 E2.74368
G1 X141.251 Y118.188 E3.50041
G1 X141.626 Y117.788 E3.51865
G1 X118.124 Y117.788 E4.30033
G1 X117.749 Y117.388 E4.31856
G1 X142.001 Y117.388 E5.12519
G1 X142.376 Y116.988 E5.14343
G1 X117.374 Y116.988 E5.97500
G1 X116.999 Y116.588 E5.99324
G1 X142.751 Y116.588 E6.84976
G1 X143.251 Y116.188 E6.87105
G1 X116.499 Y116.188 E7.76084
G1 X116.124 Y115.788 E7.77907
G1 X143.626 Y115.788 E8.69380
G1 X144.001 Y115.388 E8.71204
G1 X115.749 Y115.388 E9.65172
G1 X115.374 Y114.988 E9.66995
G1 X144.376 Y114.988 E10.63458
G1 X144.751 Y114.588 E10.65282
G1 X114.999 Y114.588 E11.64239
G1 X114.499 Y114.188 E11.66369
G1 X145.251 Y114.188 E12.68652
G1 X145.626 Y113.788 E12.70476
G1 X114.124 Y113.788 E13.75254
G1 X113.749 Y113.388 E13.77078
G1 X146.001 Y113.388 E14.84351
G1 X146.376 Y112.988 E14.86174
G1 X113.374 Y112.988 E15.95942
G1 X112.999 Y112.588 E15.97766
G1 X146.751 Y112.588 E17.10028
G1 X147.251 Y112.188 E17.12158
G1 X112.499 Y112.188 E18.27746
G1 X112.124 Y111.788 E18.29570
G1 X147.626 Y111.788 E19.47653
G1 X148.002 Y111.388 E19.49477
G1 X111.748 Y111.388 E20.70055
G1 X111.373 Y110.988 E20.71878
G1 X148.377 Y110.988 E21.94951
G1 X148.627 Y110.588 E21.96520
G1 X111.123 Y110.588 E23.21256
G1 X110.748 Y110.188 E23.23080
G1 X149.002 Y110.188 E24.50311
G1 X149.252 Y109.788 E24.51880
G1 X110.498 Y109.788 E25.80773
G1 X110.248 Y109.388 E25.82342
G1 X149.502 Y109.388 E27.12899
G1 X149.627 Y108.988 E27.14293
G1 X110.123 Y108.988 E28.45682
G1 X110.123 Y108.588 E28.47012
G1 X149.627 Y108.588 E29.78401
G1 X149.752 Y108.188 E29.79794
G1 X109.998 Y108.188 E31.12015
G1 X109.873 Y107.788 E31.13408
G1 X149.877 Y107.788 E32.46460
G1 X149.877 Y107.388 E32.47791
G1 X109.873 Y107.388 E33.80842
G1 X109.873 Y106.988 E33.82173
G1 X149.877 Y106.988 E35.15225
G1 X149.877 Y106.588 E35.16555
G1 X109.873 Y106.588 E36.49607
G1 X109.873 Y106.188 E36.50937
G1 X149.877 Y106.188 E37.83989
G1 X149.877 Y105.788 E37.85320
G1 X109.873 Y105.788 E39.18371
G1 X109.873 Y105.388 E39.19702
G1 X149.877 Y105.388 E40.52754
G1 X149.877 Y104.988 E40.54084
G1 X109.873 Y104.988 E41.87136
G1 X109.873 Y104.588 E41.88466
G1 X149.877 Y104.588 E43.21518
G1 X149.877 Y104.188 E43.22849
G1 X109.873 Y104.188 E44.55900
G1 X109.873 Y103.788 E44.57231
G1 X149.877 Y103.788 E45.90283
G1 X149.877 Y103.388 E45.91613
G1 X109.873 Y103.388 E47.24665
G1 X109.873 Y102.988 E47.25996
G1 X149.877 Y102.988 E48.59047
G1 X149.877 Y102.588 E48.60378
G1 X109.873 Y102.588 E49.93429
G1 X109.873 Y102.188 E49.94760
G1 X149.877 Y102.188 E51.27812
G1 X149.877 Y101.788 E51.29142
G1 X109.873 Y101.788 E52.62194
G1 X109.873 Y101.388 E52.63524
G1 X149.877 Y101.388 E53.96576
G1 X149.877 Y100.988 E53.97907
G1 X109.873 Y100.988 E55.30958
G1 X109.873 Y100.588 E55.32289
G1 X149.877 Y100.588 E56.65341
G1 X149.877 Y100.188 E56.66671
G1 X109.873 Y100.188 E57.99723
G1 X109.873 Y99.788 E58.01053
G1 X149.877 Y99.788 E59.34105
G1 X149.877 Y99.388 E59.35436
G1 X109.873 Y99.388 E60.68487
G1 X109.873 Y98.988 E60.69818
G1 X149.877 Y98.988 E62.02870
G1 X149.877 Y98.588 E62.04200
G1 X109.873 Y98.588 E63.37252
G1 X109.873 Y98.188 E63.38582
G1 X149.877 Y98.188 E64.71634
G1 X149.877 Y97.788 E64.72965
G1 X109.873 Y97.788 E66.06016
G1 X109.873 Y97.388 E66.07347
G1 X149.877 Y97.388 E67.40398
G1 X149.877 Y96.988 E67.41728
G1 X109.873 Y96.988 E68.74780
G1 X109.873 Y96.588 E68.76110
G1 X149.877 Y96.588 E70.09162
G1 X149.877 Y96.188 E70.10492
G1 X109.873 Y96.188 E71.43543
G1 X109.873 Y95.788 E71.44874
G1 X149.877 Y95.788 E72.77925
G1 X149.877 Y95.388 E72.79256
G1 X109.873 Y95.388 E74.12307
G1 X109.873 Y94.988 E74.13638
G1 X149.877 Y94.988 E75.46689
G1 X149.877 Y94.588 E75.48020
G1 X109.873 Y94.588 E76.81071
G1 X109.873 Y94.188 E76.82402
G1 X149.877 Y94.188 E78.15453
G1 X149.877 Y93.788 E78.16783
G1 X109.873 Y93.788 E79.49835
G1 X109.873 Y93.388 E79.51165
G1 X149.877 Y93.388 E80.84217
G1 X149.877 Y92.988 E80.85547
G1 X109.873 Y92.988 E82.18598
G1 X109.873 Y92.588 E82.19929
G1 X149.877 Y92.588 E83.52980
G1 X149.752 Y92.188 E83.54374
G1 X109.998 Y92.188 E84.86594
G1 X109.998 Y91.788 E84.87924
G1 X149.752 Y91.788 E86.20145
G1 X149.627 Y91.388 E86.21539
G1 X110.123 Y91.388 E87.52927
G1 X110.248 Y90.988 E87.54321
G1 X149.502 Y90.988 E88.84879
G1 X149.377 Y90.588 E88.86272
G1 X110.373 Y90.588 E90.15998
G1 X110.623 Y90.188 E90.17567
G1 X149.127 Y90.188 E91.45629
G1 X148.877 Y89.788 E91.47198
G1 X110.873 Y89.788 E92.73597
G1 X111.123 Y89.388 E92.75166
G1 X148.627 Y89.388 E93.99902
G1 X148.252 Y88.988 E94.01725
G1 X111.498 Y88.988 E95.23966
G1 X111.873 Y88.588 E95.25790
G1 X147.876 Y88.588 E96.45536
G1 X147.501 Y88.188 E96.47359
G1 X112.249 Y88.188 E97.64611
G1 X112.749 Y87.788 E97.66741
G1 X147.001 Y87.788 E98.80666
G1 X146.626 Y87.388 E98.82490
G1 X113.124 Y87.388 E99.93920
G1 X113.499 Y86.988 E99.95744
G1 X146.251 Y86.988 E101.04680
G1 X145.876 Y86.588 E101.06503
G1 X113.874 Y86.588 E102.12945
G1 X114.249 Y86.188 E102.14768
G1 X145.501 Y86.188 E103.18715
G1 X145.001 Y85.788 E103.20845
G1 X114.749 Y85.788 E104.21465
G1 X115.124 Y85.388 E104.23289
G1 X144.626 Y85.388 E105.21414
G1 X144.251 Y84.988 E105.23238
G1 X115.499 Y84.988 E106.18868
G1 X115.874 Y84.588 E106.20692
G1 X143.876 Y84.588 E107.13828
G1 X143.501 Y84.188 E107.15651
G1 X116.249 Y84.188 E108.06293
G1 X116.749 Y83.788 E108.08423
G1 X143.001 Y83.788 E108.95738
G1 X142.626 Y83.388 E108.97562
G1 X117.124 Y83.388 E109.82382
G1 X117.499 Y82.987 E109.84206
G1 X142.251 Y82.987 E110.66531
G1 X141.876 Y82.587 E110.68355
G1 X117.874 Y82.587 E111.48186
G1 X118.249 Y82.188 E111.50009
G1 X141.501 Y82.188 E112.27345
G1 X141.001 Y81.787 E112.29475
G1 X118.749 Y81.787 E113.03485
G1 X119.124 Y81.388 E113.05309
G1 X140.626 Y81.388 E113.76823
G1 X140.001 Y80.987 E113.79292
G1 X119.749 Y80.987 E114.46649
G1 X120.249 Y80.587 E114.48779
G1 X139.501 Y80.587 E115.12811
G0 X138.376 Y80.187 F7200
G1 X121.374 Y80.187 E115.69357 F2400



; ------------------------------------
; Raft Layer #3
; ------------------------------------
M106 S255 ;set fan speed
G92 E0 ;reset extr
G0 F600 Z1.000
;segType:Raft
G0 F3000 E-1.00000
G0 F600 Z3.000
G0 X149.412 Y90.499 F7200
G0 F600 Z1.000
G0 F3000 E0.00000
G1 X149.412 Y109.751 E0.64031 F2400
G1 X149.012 Y110.251 E0.66161
G1 X149.012 Y89.999 E1.33518
G1 X148.612 Y89.374 E1.35986
G1 X148.612 Y110.751 E2.07086
G1 X148.212 Y111.251 E2.09216
G1 X148.212 Y88.999 E2.83226
G1 X147.812 Y88.499 E2.85356
G1 X147.812 Y111.751 E3.62692
G1 X147.412 Y112.126 E3.64515
G1 X147.412 Y88.124 E4.44346
G1 X147.012 Y87.749 E4.46170
G1 X147.012 Y112.501 E5.28496
G1 X146.612 Y112.876 E5.30320
G1 X146.612 Y87.374 E6.15140
G1 X146.212 Y86.999 E6.16964
G1 X146.212 Y113.251 E7.04279
G1 X145.812 Y113.751 E7.06409
G1 X145.812 Y86.499 E7.97050
G1 X145.412 Y86.124 E7.98874
G1 X145.412 Y114.126 E8.92010
G1 X145.012 Y114.501 E8.93834
G1 X145.012 Y85.749 E9.89464
G1 X144.612 Y85.374 E9.91288
G1 X144.612 Y114.876 E10.89414
G1 X144.212 Y115.251 E10.91237
G1 X144.212 Y84.999 E11.91858
G1 X143.812 Y84.499 E11.93988
G1 X143.812 Y115.751 E12.97934
G1 X143.412 Y116.126 E12.99758
G1 X143.412 Y84.124 E14.06199
G1 X143.012 Y83.749 E14.08023
G1 X143.012 Y116.501 E15.16959
G1 X142.612 Y116.876 E15.18783
G1 X142.612 Y83.374 E16.30213
G1 X142.212 Y82.999 E16.32037
G1 X142.212 Y117.251 E17.45963
G1 X141.812 Y117.751 E17.48092
G1 X141.812 Y82.499 E18.65344
G1 X141.412 Y82.124 E18.67168
G1 X141.412 Y118.127 E19.86914
G1 X141.012 Y118.502 E19.88738
G1 X141.012 Y81.748 E21.10979
G1 X140.612 Y81.373 E21.12803
G1 X140.612 Y118.752 E22.37123
G1 X140.212 Y119.002 E22.38692
G1 X140.212 Y81.123 E23.64675
G1 X139.812 Y80.873 E23.66244
G1 X139.812 Y119.377 E24.94306
G1 X139.412 Y119.627 E24.95875
G1 X139.412 Y80.623 E26.25600
G1 X139.012 Y80.373 E26.27169
G1 X139.012 Y119.752 E27.58142
G1 X138.612 Y119.877 E27.59536
G1 X138.612 Y80.373 E28.90924
G1 X138.212 Y80.248 E28.92318
G1 X138.212 Y119.877 E30.24123
G1 X137.812 Y120.002 E30.25516
G1 X137.812 Y80.123 E31.58152
G1 X137.412 Y80.123 E31.59483
G1 X137.412 Y120.127 E32.92534
G1 X137.012 Y120.127 E32.93865
G1 X137.012 Y80.123 E34.26917
G1 X136.612 Y80.123 E34.28247
G1 X136.612 Y120.127 E35.61299
G1 X136.212 Y120.127 E35.62629
G1 X136.212 Y80.123 E36.95681
G1 X135.812 Y80.123 E36.97012
G1 X135.812 Y120.127 E38.30063
G1 X135.412 Y120.127 E38.31394
G1 X135.412 Y80.123 E39.64446
G1 X135.012 Y80.123 E39.65776
G1 X135.012 Y120.127 E40.98828
G1 X134.612 Y120.127 E41.00158
G1 X134.612 Y80.123 E42.33210
G1 X134.212 Y80.123 E42.34541
G1 X134.212 Y120.127 E43.67592
G1 X133.812 Y120.127 E43.68923
G1 X133.812 Y80.123 E45.01975
G1 X133.412 Y80.123 E45.03305
G1 X133.412 Y120.127 E46.36357
G1 X133.012 Y120.127 E46.37688
G1 X133.012 Y80.123 E47.70739
G1 X132.612 Y80.123 E47.72070
G1 X132.612 Y120.127 E49.05121
G1 X132.212 Y120.127 E49.06452
G1 X132.212 Y80.123 E50.39504
G1 X131.812 Y80.123 E50.40834
G1 X131.812 Y120.127 E51.73886
G1 X131.412 Y120.127 E51.75217
G1 X131.412 Y80.123 E53.08268
G1 X131.012 Y80.123 E53.09599
G1 X131.012 Y120.127 E54.42650
G1 X130.612 Y120.127 E54.43981
G1 X130.612 Y80.123 E55.77033
G1 X130.212 Y80.123 E55.78363
G1 X130.212 Y120.127 E57.11415
G1 X129.812 Y120.127 E57.12746
G1 X129.812 Y80.123 E58.45797
G1 X129.412 Y80.123 E58.47128
G1 X129.412 Y120.127 E59.80179
G1 X129.012 Y120.127 E59.81510
G1 X129.012 Y80.123 E61.14562
G1 X128.612 Y80.123 E61.15892
G1 X128.612 Y120.127 E62.48944
G1 X128.212 Y120.127 E62.50275
G1 X128.212 Y80.123 E63.83326
G1 X127.812 Y80.123 E63.84657
G1 X127.812 Y120.127 E65.17708
G1 X127.412 Y120.127 E65.19039
G1 X127.412 Y80.123 E66.52090
G1 X127.012 Y80.123 E66.53421
G1 X127.012 Y120.127 E67.86472
G1 X126.612 Y120.127 E67.87802
G1 X126.612 Y80.123 E69.20854
G1 X126.212 Y80.123 E69.22184
G1 X126.212 Y120.127 E70.55236
G1 X125.812 Y120.127 E70.56566
G1 X125.812 Y80.123 E71.89617
G1 X125.412 Y80.123 E71.90948
G1 X125.412 Y120.127 E73.23999
G1 X125.012 Y120.127 E73.25330
G1 X125.012 Y80.123 E74.58381
G1 X124.612 Y80.123 E74.59712
G1 X124.612 Y120.127 E75.92763
G1 X124.212 Y120.127 E75.94094
G1 X124.212 Y80.123 E77.27145
G1 X123.812 Y80.123 E77.28475
G1 X123.812 Y120.127 E78.61527
G1 X123.412 Y120.127 E78.62857
G1 X123.412 Y80.123 E79.95909
G1 X123.012 Y80.123 E79.97239
G1 X123.012 Y120.127 E81.30290
G1 X122.612 Y120.127 E81.31621
G1 X122.612 Y80.123 E82.64672
G1 X122.212 Y80.123 E82.66003
G1 X122.212 Y120.002 E83.98638
G1 X121.812 Y120.002 E83.99969
G1 X121.812 Y80.248 E85.32188
G1 X121.412 Y80.373 E85.33582
G1 X121.412 Y119.877 E86.64971
G1 X121.012 Y119.752 E86.66365
G1 X121.012 Y80.373 E87.97338
G1 X120.612 Y80.498 E87.98732
G1 X120.612 Y119.752 E89.29289
G1 X120.212 Y119.502 E89.30858
G1 X120.212 Y80.748 E90.59752
G1 X119.812 Y80.998 E90.61320
G1 X119.812 Y119.252 E91.88551
G1 X119.412 Y118.877 E91.90375
G1 X119.412 Y81.373 E93.15111
G1 X119.012 Y81.623 E93.16679
G1 X119.012 Y118.627 E94.39752
G1 X118.612 Y118.252 E94.41576
G1 X118.612 Y81.999 E95.62154
G1 X118.212 Y82.374 E95.63977
G1 X118.212 Y117.876 E96.82060
G1 X117.812 Y117.501 E96.83884
G1 X117.812 Y82.749 E97.99472
G1 X117.412 Y83.249 E98.01602
G1 X117.412 Y117.001 E99.13864
G1 X117.012 Y116.626 E99.15688
G1 X117.012 Y83.624 E100.25455
G1 X116.612 Y83.999 E100.27279
G1 X116.612 Y116.251 E101.34552
G1 X116.212 Y115.876 E101.36375
G1 X116.212 Y84.374 E102.41154
G1 X115.812 Y84.749 E102.42977
G1 X115.812 Y115.501 E103.45261
G1 X115.412 Y115.001 E103.47391
G1 X115.412 Y85.249 E104.46348
G1 X115.012 Y85.624 E104.48171
G1 X115.012 Y114.626 E105.44633
G1 X114.612 Y114.251 E105.46457
G1 X114.612 Y85.999 E106.40424
G1 X114.212 Y86.374 E106.42248
G1 X114.212 Y113.876 E107.33720
G1 X113.812 Y113.501 E107.35544
G1 X113.812 Y86.749 E108.24522
G1 X113.412 Y87.249 E108.26653
G1 X113.412 Y113.001 E109.12305
G1 X113.012 Y112.626 E109.14128
G1 X113.012 Y87.624 E109.97285
G1 X112.612 Y87.999 E109.99109
G1 X112.612 Y112.251 E110.79771
G1 X112.212 Y111.876 E110.81595
G1 X112.212 Y88.374 E111.59763
G1 X111.812 Y88.749 E111.61586
G1 X111.812 Y111.501 E112.37259
G1 X111.412 Y111.001 E112.39389
G1 X111.412 Y89.249 E113.11736
G1 X111.012 Y89.749 E113.13866
G1 X111.012 Y110.376 E113.82471
G1 X110.612 Y109.876 E113.84601
G1 X110.612 Y90.374 E114.49464
G1 X110.212 Y91.124 E114.52291
G1 X110.212 Y109.126 E115.12164
G0 X149.812 Y108.501 F7200
G1 X149.812 Y91.749 E115.67879 F2400


; ------------------------------------
; Layer #0
; ------------------------------------
G21 ; mm
G90 ; abs
G92 E0 ;reset extr
G0 F600 Z1.450
;segType:InnerHair
G0 F3000 E-1.00000
G0 X133.750 Y101.315 F5400
G0 F3000 E0.00000
G1 X133.715 Y101.429 E0.00362 F2400
G1 X133.680 Y101.543 E0.00748
G0 X133.707 Y101.485 F5400
G0 X133.425 Y102.011
G0 X133.357 Y102.105
G0 X132.901 Y102.780
G0 X132.832 Y102.873
G0 X132.670 Y103.034
G1 X132.561 Y103.086 E0.00980 F2400
G1 X132.437 Y103.124 E0.01310
G1 X132.313 Y103.162 E0.01720
G1 X132.189 Y103.199 E0.02212
G0 X132.228 Y103.187 F5400
G0 X132.342 Y103.153
G0 X132.457 Y103.118
G0 X132.571 Y103.083
G1 X132.670 Y103.034 E0.02393 F2400
G1 X132.751 Y102.953 E0.02622
G1 X132.832 Y102.873 E0.02891
G1 X132.901 Y102.780 E0.03174
G1 X132.966 Y102.684 E0.03458
G1 X133.032 Y102.588 E0.03740
G1 X133.097 Y102.491 E0.04022
G1 X133.162 Y102.395 E0.04302
G1 X133.227 Y102.298 E0.04582
G1 X133.292 Y102.202 E0.04860
G1 X133.357 Y102.105 E0.05137
G1 X133.425 Y102.011 E0.05406
G1 X133.481 Y101.906 E0.05706
G1 X133.538 Y101.801 E0.06029
G1 X133.594 Y101.695 E0.06374
G1 X133.651 Y101.590 E0.06742
G1 X133.707 Y101.485 E0.07133
G1 X133.773 Y101.201 E0.07959
G1 X133.798 Y101.086 E0.08285
G1 X133.822 Y100.972 E0.08608
G1 X133.847 Y100.858 E0.08927
G1 X133.872 Y100.743 E0.09241
G1 X133.897 Y100.629 E0.09552
G1 X133.910 Y100.515 E0.09874
G1 X133.926 Y100.401 E0.10211
G1 X133.941 Y100.286 E0.10563
G1 X133.956 Y100.172 E0.10928
G1 X133.971 Y100.058 E0.11307
G1 X133.975 Y99.943 E0.11677
G1 X133.959 Y99.829 E0.12037
G1 X133.943 Y99.715 E0.12385
G1 X133.927 Y99.601 E0.12720
G1 X133.911 Y99.486 E0.13043
G1 X133.895 Y99.372 E0.13353
G1 X133.872 Y99.258 E0.13667
G1 X133.846 Y99.143 E0.13988
G1 X133.821 Y99.029 E0.14314
G1 X133.795 Y98.915 E0.14647
G1 X133.770 Y98.801 E0.14985
G1 X133.744 Y98.686 E0.15328
G1 X133.667 Y98.434 E0.16145
G1 X133.609 Y98.331 E0.16494
G1 X133.551 Y98.227 E0.16824
G1 X133.494 Y98.123 E0.17135
G1 X133.436 Y98.019 E0.17426
G1 X133.378 Y97.915 E0.17698
G1 X133.312 Y97.819 E0.17968
G1 X133.246 Y97.723 E0.18240
G1 X133.181 Y97.628 E0.18515
G1 X133.115 Y97.532 E0.18792
G1 X133.049 Y97.436 E0.19073
G1 X132.983 Y97.340 E0.19356
G1 X132.918 Y97.244 E0.19641
G1 X132.852 Y97.148 E0.19929
G1 X132.770 Y97.068 E0.20173
G1 X132.688 Y96.988 E0.20376
G0 X132.571 Y96.916 F5400
G0 X132.457 Y96.882
G0 X132.342 Y96.847
G0 X132.228 Y96.812
G1 X132.220 Y96.810 E0.20406 F2400
G1 X132.344 Y96.848 E0.20797
G1 X132.468 Y96.885 E0.21107
G1 X132.592 Y96.923 E0.21335
G0 X132.688 Y96.988 F5400
G0 X132.852 Y97.148
G0 X133.312 Y97.819
G0 X133.378 Y97.915
G0 X133.667 Y98.434
G1 X133.725 Y98.537 E0.21719 F2400
G0 X133.842 Y97.695 F5400
;segType:Perimeter
G1 X134.443 Y98.223 E0.24380 F1200
G1 X134.796 Y100.000 E0.30405
G1 X134.432 Y101.835 E0.36630
G1 X133.392 Y103.391 E0.42854
G1 X131.836 Y104.431 E0.49077
G1 X130.000 Y104.796 E0.55303
G1 X128.165 Y104.431 E0.61528
G1 X126.609 Y103.391 E0.67752
G1 X125.569 Y101.835 E0.73976
G1 X125.204 Y100.000 E0.80201
G1 X125.569 Y98.164 E0.86427
G1 X126.609 Y96.608 E0.92650
G1 X128.165 Y95.568 E0.98874
G1 X130.000 Y95.204 E1.05099
G1 X131.836 Y95.568 E1.11324
G1 X133.392 Y96.608 E1.17547
G1 X134.398 Y98.114 E1.23571
G0 X134.443 Y98.223 F5400
G0 X134.755 Y99.792
G0 X134.388 Y100.000
G0 X134.254 Y99.321
;segType:Loop
G1 X134.388 Y100.000 E1.25873 F2400
G1 X134.055 Y101.679 E1.31569
G1 X133.104 Y103.103 E1.37263
G1 X131.680 Y104.054 E1.42958
G1 X130.000 Y104.388 E1.48654
G1 X128.321 Y104.054 E1.54350
G1 X126.897 Y103.103 E1.60045
G1 X125.946 Y101.679 E1.65739
G1 X125.612 Y100.000 E1.71435
G1 X125.946 Y98.320 E1.77131
G1 X126.897 Y96.896 E1.82826
G1 X128.321 Y95.945 E1.88520
G1 X130.000 Y95.612 E1.94216
G1 X131.680 Y95.945 E1.99912
G1 X133.104 Y96.896 E2.05605
G1 X134.055 Y98.320 E2.11300
G1 X134.215 Y99.124 E2.14028
G0 F3000 E1.14028
G0 X134.215 Y99.124 F5400
G0 X133.556 Y99.656
G0 X133.580 Y99.950
G0 X133.536 Y100.591
G0 X133.388 Y101.219
G0 X133.136 Y101.821
G0 X132.487 Y102.771
G0 X129.695 Y102.771
G0 X128.202 Y103.975
G0 X128.321 Y104.054
G0 X128.512 Y103.725
G0 F3000 E2.14028
;segType:HShell
G1 X127.918 Y103.131 E2.16822 F2400
G0 X128.484 Y103.131 F5400
G1 X129.218 Y103.865 E2.20277 F2400
G0 X129.925 Y104.006 F5400
G1 X129.050 Y103.131 E2.24392 F2400
G0 X129.615 Y103.131 F5400
G1 X130.422 Y103.937 E2.28185 F2400
G0 X130.893 Y103.843 F5400
G1 X130.181 Y103.131 E2.31536 F2400
G0 X130.747 Y103.131 F5400
G1 X131.365 Y103.749 E2.34445 F2400
G0 X131.753 Y103.572 F5400
G1 X131.312 Y103.131 E2.36518 F2400
G0 X132.092 Y103.345 F5400
G1 X131.878 Y103.131 E2.37526 F2400
G0 X131.176 Y102.771 F5400
;segType:Loop
G1 X127.516 Y102.771 E2.49701 F2400
G1 X126.913 Y101.911 E2.53193
G1 X126.645 Y101.320 E2.55352
G1 X126.481 Y100.697 E2.57494
G1 X126.418 Y100.053 E2.59646
G1 X126.463 Y99.408 E2.61798
G1 X126.610 Y98.781 E2.63940
G1 X126.863 Y98.178 E2.66115
G1 X127.511 Y97.229 E2.69936
G1 X132.482 Y97.229 E2.86470
G1 X133.086 Y98.088 E2.89961
G1 X133.355 Y98.683 E2.92133
G1 X133.535 Y99.399 E2.94590
G1 X133.580 Y99.950 E2.96429
G1 X133.536 Y100.591 E2.98566
G1 X133.388 Y101.219 E3.00709
G1 X133.136 Y101.821 E3.02883
G1 X132.487 Y102.771 E3.06708
G1 X131.376 Y102.771 E3.10404
G0 X133.016 Y102.371 F5400
;segType:Perimeter
G1 X132.216 Y102.371 E3.13065 F1200
G1 X127.724 Y102.371 E3.28007
G1 X127.262 Y101.712 E3.30682
G1 X127.023 Y101.185 E3.32606
G1 X126.876 Y100.626 E3.34528
G1 X126.820 Y100.047 E3.36463
G1 X126.860 Y99.468 E3.38396
G1 X126.992 Y98.904 E3.40320
G1 X127.216 Y98.370 E3.42249
G1 X127.722 Y97.629 E3.45233
G1 X132.274 Y97.629 E3.60373
G1 X132.737 Y98.287 E3.63047
G1 X132.976 Y98.815 E3.64975
G1 X133.139 Y99.465 E3.67204
G1 X133.179 Y99.953 E3.68833
G1 X133.139 Y100.531 E3.70762
G1 X133.007 Y101.095 E3.72686
G1 X132.783 Y101.629 E3.74614
G1 X132.310 Y102.321 E3.77402
G0 X132.216 Y102.371 F5400
G0 X130.616 Y102.371
G0 F3000 E2.77402
G0 X131.838 Y96.869 F5400
G0 F3000 E3.77402
;segType:HShell
G1 X131.183 Y96.214 E3.80484 F2400
G0 X130.477 Y96.074 F5400
G1 X131.273 Y96.869 E3.84225 F2400
G0 X130.707 Y96.869 F5400
G1 X129.847 Y96.009 E3.88268 F2400
G0 X129.375 Y96.103 F5400
G1 X130.141 Y96.869 E3.91871 F2400
G0 X129.576 Y96.869 F5400
G1 X128.903 Y96.197 E3.95033 F2400
G0 X128.440 Y96.299 F5400
G1 X129.010 Y96.869 E3.97716 F2400
G0 X128.444 Y96.869 F5400
G1 X128.101 Y96.525 E3.99332 F2400
G0 X127.749 Y96.820 F5400
;segType:InnerHair
G1 X127.625 Y96.857 E3.99702 F2400
G1 X127.501 Y96.895 E3.99990
G1 X127.377 Y96.933 E4.00198
G0 X127.289 Y97.006 F5400
G0 X127.208 Y97.087
G0 X127.131 Y97.171
G0 X126.609 Y97.943
G0 X126.546 Y98.042
G0 X126.320 Y98.462
G1 X126.319 Y98.458 E4.00213 F2400
G1 X126.284 Y98.572 E4.00573
G1 X126.249 Y98.686 E4.00909
G0 X126.226 Y98.801 F5400
G0 X126.103 Y99.372
G0 X126.089 Y99.486
G0 X126.028 Y99.943
G0 X126.024 Y100.058
G0 X126.108 Y100.629
G0 X126.124 Y100.743
G0 X126.256 Y101.315
G1 X126.281 Y101.429 E4.01253 F2400
G1 X126.317 Y101.543 E4.01634
G1 X126.275 Y101.462 E4.01930
G0 X126.333 Y101.565 F5400
G0 X126.622 Y102.085
G0 X126.688 Y102.180
G0 X127.148 Y102.852
G0 X127.311 Y103.012
G1 X127.408 Y103.076 E4.02135 F2400
G1 X127.532 Y103.114 E4.02444
G1 X127.656 Y103.152 E4.02834
G1 X127.780 Y103.189 E4.03305
G0 X127.771 Y103.186 F5400
G0 X127.657 Y103.152
G0 X127.542 Y103.117
G0 X127.428 Y103.082
G1 X127.311 Y103.012 E4.03544 F2400
G1 X127.230 Y102.932 E4.03785
G1 X127.148 Y102.852 E4.04066
G1 X127.082 Y102.756 E4.04349
G1 X127.017 Y102.660 E4.04629
G1 X126.951 Y102.564 E4.04907
G1 X126.885 Y102.468 E4.05182
G1 X126.820 Y102.372 E4.05455
G1 X126.754 Y102.276 E4.05725
G1 X126.688 Y102.180 E4.05993
G1 X126.622 Y102.085 E4.06257
G1 X126.564 Y101.981 E4.06546
G1 X126.507 Y101.877 E4.06854
G1 X126.449 Y101.773 E4.07182
G1 X126.391 Y101.669 E4.07529
G1 X126.333 Y101.565 E4.07896
G1 X126.256 Y101.315 E4.08660
G1 X126.229 Y101.201 E4.08994
G1 X126.203 Y101.086 E4.09321
G1 X126.177 Y100.972 E4.09642
G1 X126.150 Y100.858 E4.09955
G1 X126.124 Y100.743 E4.10261
G1 X126.108 Y100.629 E4.10575
G1 X126.091 Y100.515 E4.10902
G1 X126.075 Y100.401 E4.11239
G1 X126.058 Y100.286 E4.11588
G1 X126.041 Y100.172 E4.11947
G1 X126.024 Y100.058 E4.12318
G1 X126.028 Y99.943 E4.12693
G1 X126.043 Y99.829 E4.13057
G1 X126.058 Y99.715 E4.13406
G1 X126.074 Y99.601 E4.13742
G1 X126.089 Y99.486 E4.14063
G1 X126.103 Y99.372 E4.14367
G1 X126.127 Y99.258 E4.14680
G1 X126.152 Y99.143 E4.14997
G1 X126.177 Y99.029 E4.15317
G1 X126.202 Y98.915 E4.15642
G1 X126.226 Y98.801 E4.15970
G1 X126.320 Y98.462 E4.17081
G1 X126.377 Y98.357 E4.17436
G1 X126.433 Y98.252 E4.17768
G1 X126.490 Y98.147 E4.18078
G1 X126.546 Y98.042 E4.18364
G1 X126.609 Y97.943 E4.18640
G1 X126.674 Y97.846 E4.18916
G1 X126.739 Y97.750 E4.19193
G1 X126.805 Y97.654 E4.19471
G1 X126.870 Y97.557 E4.19750
G1 X126.935 Y97.461 E4.20030
G1 X127.000 Y97.364 E4.20312
G1 X127.065 Y97.268 E4.20595
G1 X127.131 Y97.171 E4.20879
G1 X127.208 Y97.087 E4.21127
G1 X127.289 Y97.006 E4.21334
; ------------------------------------
; Layer #1
; ------------------------------------
G92 E0 ;reset extr
G0 F3000 E-1.00000
G0 F600 Z1.400
G0 X127.209 Y96.688 F7200
G0 X127.447 Y97.634
G0 X127.080 Y98.131
G0 X126.813 Y98.668
G0 X126.640 Y99.241
G0 X126.563 Y99.836
G0 X126.586 Y100.436
G0 X126.706 Y101.022
G0 X126.924 Y101.585
G0 X127.270 Y102.144
G0 X127.641 Y102.611
G0 X128.700 Y102.611
G0 X129.103 Y104.210
G0 X129.005 Y103.823
G0 F3000 E0.00000
;segType:HShell
G1 X129.857 Y102.971 E0.04008 F1200
G0 X130.423 Y102.971 F7200
G1 X129.477 Y103.917 E0.08458 F1200
G0 X129.949 Y104.011 F7200
G1 X130.989 Y102.971 E0.13349 F1200
G0 X131.555 Y102.971 F7200
G1 X130.630 Y103.896 E0.17699 F1200
G0 X131.336 Y103.755 F7200
G1 X132.120 Y102.971 E0.21389 F1200
G0 X133.750 Y100.972 F7200
;segType:InnerHair
G1 X133.779 Y100.858 E0.21841 F1200
G1 X133.798 Y100.743 E0.22291
G1 X133.817 Y100.629 E0.22749
G0 X133.756 Y101.335 F7200
;segType:HShell
G0 X133.485 Y101.889
G1 X133.792 Y100.734 E0.28715 F1200
G1 X133.904 Y100.056 E0.31174
G1 X133.785 Y99.609 E0.33698
G0 X133.732 Y98.915 F7200
;segType:InnerHair
G1 X133.750 Y99.029 E0.34154 F1200
G1 X133.773 Y99.143 E0.34613
G1 X133.796 Y99.258 E0.35071
G1 X133.819 Y99.372 E0.35528
G1 X133.842 Y99.486 E0.35985
G0 X133.730 Y98.533 F7200
;segType:HShell
G1 X133.570 Y98.693 E0.36740 F1200
G0 F3000 E-0.63260
G0 X133.842 Y97.695 F7200
G0 F3000 E0.36740
;segType:Perimeter
G1 X134.443 Y98.223 E0.39401 F600
G1 X134.796 Y100.000 E0.45426
G1 X134.432 Y101.835 E0.51651
G1 X133.392 Y103.391 E0.57875
G1 X131.836 Y104.431 E0.64098
G1 X130.000 Y104.796 E0.70324
G1 X128.165 Y104.431 E0.76549
G1 X126.609 Y103.391 E0.82773
G1 X125.569 Y101.835 E0.88996
G1 X125.204 Y100.000 E0.95222
G1 X125.569 Y98.164 E1.01447
G1 X126.609 Y96.608 E1.07671
G1 X128.165 Y95.568 E1.13895
G1 X130.000 Y95.204 E1.20120
G1 X131.836 Y95.568 E1.26345
G1 X133.392 Y96.608 E1.32568
G1 X134.398 Y98.114 E1.38592
G0 X134.443 Y98.223 F7200
G0 X134.755 Y99.792
G0 X134.388 Y100.000
G0 X134.254 Y99.321
;segType:Loop
G1 X134.388 Y100.000 E1.40894 F1200
G1 X134.055 Y101.679 E1.46590
G1 X133.104 Y103.103 E1.52284
G1 X131.680 Y104.054 E1.57979
G1 X130.000 Y104.388 E1.63675
G1 X128.321 Y104.054 E1.69371
G1 X126.897 Y103.103 E1.75065
G1 X125.946 Y101.679 E1.80760
G1 X125.612 Y100.000 E1.86456
G1 X125.946 Y98.320 E1.92152
G1 X126.897 Y96.896 E1.97846
G1 X128.321 Y95.945 E2.03540
G1 X130.000 Y95.612 E2.09236
G1 X131.680 Y95.945 E2.14932
G1 X133.104 Y96.896 E2.20626
G1 X134.055 Y98.320 E2.26320
G1 X134.215 Y99.124 E2.29049
G0 F3000 E1.29049
G0 X134.215 Y99.124 F7200
G0 X132.933 Y98.159
G0 X132.912 Y98.121
G0 X132.371 Y97.389
G0 X131.910 Y97.389
G0 X129.644 Y95.682
G0 X130.000 Y95.612
G0 X130.051 Y95.989
G0 F3000 E2.29049
;segType:HShell
G1 X129.012 Y97.029 E2.33939 F1200
G0 X128.446 Y97.029 F7200
G1 X129.371 Y96.104 E2.38288 F1200
G0 X128.665 Y96.244 F7200
G1 X127.880 Y97.029 E2.41979 F1200
G0 X126.223 Y100.383 F7200
G1 X126.206 Y100.400 E2.42063 F1200
G0 X126.249 Y99.029 F7200
;segType:InnerHair
G1 X126.221 Y99.143 E2.42513 F1200
G1 X126.201 Y99.258 E2.42963
G1 X126.182 Y99.372 E2.43420
G0 X126.482 Y98.427 F7200
;segType:HShell
G0 X126.441 Y98.185
G1 X126.208 Y99.267 E2.47600 F1200
G1 X126.096 Y99.944 E2.50042
G0 X126.268 Y101.086 F7200
;segType:InnerHair
G1 X126.250 Y100.972 E2.50496 F1200
G1 X126.227 Y100.858 E2.50954
G1 X126.204 Y100.743 E2.51411
G1 X126.181 Y100.629 E2.51867
G1 X126.158 Y100.515 E2.52323
G0 X126.271 Y101.466 F7200
;segType:HShell
G1 X126.426 Y101.311 E2.53053 F1200
G0 X127.619 Y102.947 F7200
G0 X127.337 Y102.946
G1 X127.998 Y103.134 E2.55337 F1200
G1 X128.450 Y103.247 E2.59162
G0 X128.534 Y103.729 F7200
G1 X129.292 Y102.971 E2.62728 F1200
G0 F3000 E1.62728
G0 X132.910 Y102.211 F7200
G0 F3000 E2.62728
;segType:Perimeter
G1 X132.110 Y102.211 E2.65389 F600
G1 X127.834 Y102.211 E2.79609
G1 X127.598 Y101.913 E2.80872
G1 X127.283 Y101.406 E2.82858
G1 X127.091 Y100.909 E2.84630
G1 X126.984 Y100.388 E2.86400
G1 X126.964 Y99.855 E2.88175
G1 X127.033 Y99.325 E2.89949
G1 X127.187 Y98.816 E2.91718
G1 X127.423 Y98.340 E2.93486
G1 X127.830 Y97.789 E2.95766
G1 X132.169 Y97.789 E3.10199
G1 X132.574 Y98.337 E3.12465
G1 X132.718 Y98.598 E3.13457
G1 X132.908 Y99.090 E3.15211
G1 X133.015 Y99.611 E3.16981
G1 X133.035 Y100.144 E3.18756
G1 X132.967 Y100.674 E3.20530
G1 X132.813 Y101.183 E3.22300
G1 X132.576 Y101.659 E3.24068
G1 X132.205 Y102.163 E3.26149
G0 X132.110 Y102.211 F7200
G0 X130.510 Y102.211
G0 X131.070 Y102.611
;segType:Loop
G1 X127.641 Y102.611 E3.37552 F1200
G1 X127.270 Y102.144 E3.39535
G1 X126.924 Y101.585 E3.41722
G1 X126.706 Y101.022 E3.43730
G1 X126.586 Y100.436 E3.45720
G1 X126.563 Y99.836 E3.47716
G1 X126.640 Y99.241 E3.49711
G1 X126.813 Y98.668 E3.51702
G1 X127.080 Y98.131 E3.53698
G1 X127.628 Y97.389 E3.56766
G1 X132.371 Y97.389 E3.72543
G1 X132.912 Y98.121 E3.75568
G1 X133.081 Y98.429 E3.76738
G1 X133.293 Y98.977 E3.78692
G1 X133.414 Y99.563 E3.80683
G1 X133.436 Y100.163 E3.82679
G1 X133.359 Y100.758 E3.84674
G1 X133.186 Y101.331 E3.86665
G1 X132.919 Y101.868 E3.88661
G1 X132.372 Y102.611 E3.91730
G1 X131.270 Y102.611 E3.95395
G0 X132.494 Y103.019 F7200
;segType:InnerHair
G1 X132.618 Y102.982 E3.95763 F1200
G0 X132.683 Y102.886 F7200
G0 X132.766 Y102.807
G0 X132.837 Y102.716
G0 X133.237 Y102.146
G0 X133.301 Y102.048
G0 X133.419 Y101.844
G1 X133.360 Y101.946 E3.96215 F1200
G1 X133.301 Y102.048 E3.96651
G1 X133.237 Y102.146 E3.97080
G1 X133.170 Y102.241 E3.97511
G1 X133.103 Y102.336 E3.97947
G1 X133.037 Y102.431 E3.98388
G1 X132.970 Y102.526 E3.98835
G1 X132.903 Y102.621 E3.99286
G1 X132.837 Y102.716 E3.99743
G1 X132.766 Y102.807 E4.00191
G1 X132.683 Y102.886 E4.00597
G1 X132.457 Y103.030 E4.01579
G1 X132.494 Y103.019 E4.01712
G0 F3000 E3.01712
G0 X133.058 Y103.133 F7200
G0 X130.463 Y102.611
G0 X127.641 Y102.611
G0 X127.270 Y102.144
G0 X127.146 Y101.944
G0 X125.964 Y101.706
G0 X126.558 Y101.826
G0 F3000 E4.01712
G0 X126.625 Y101.920 F7200
G0 X126.942 Y102.412
G0 X127.011 Y102.504
G0 X127.147 Y102.691
G0 X127.300 Y102.862
G0 X127.384 Y102.940
G1 X127.475 Y103.009 E4.02093 F1200
G1 X127.599 Y103.047 E4.02602
G1 X127.384 Y102.940 E4.03427
G1 X127.300 Y102.862 E4.03852
G1 X127.147 Y102.691 E4.04753
G1 X127.079 Y102.598 E4.05199
G1 X127.011 Y102.504 E4.05636
G1 X126.942 Y102.412 E4.06059
G1 X126.878 Y102.314 E4.06492
G1 X126.815 Y102.215 E4.06929
G1 X126.752 Y102.117 E4.07369
G1 X126.688 Y102.019 E4.07814
G1 X126.625 Y101.920 E4.08262
G1 X126.558 Y101.826 E4.08701
G0 F3000 E3.08701
G0 X126.436 Y102.413 F7200
G0 X126.718 Y101.054
G0 X126.706 Y101.022
G0 X126.586 Y100.436
G0 X126.563 Y99.836
G0 X126.640 Y99.241
G0 X126.813 Y98.668
G0 X127.080 Y98.131
G0 X127.421 Y97.669
G0 X127.691 Y96.366
G0 X127.568 Y96.962
G0 F3000 E4.08701
G1 X127.444 Y97.000 E4.09109 F1200
G0 X127.357 Y97.075 F7200
G0 X127.275 Y97.154
G0 X127.196 Y97.237
G0 X126.796 Y97.806
G0 X126.728 Y97.901
G0 X126.610 Y98.105
G1 X126.669 Y98.003 E4.09551 F1200
G1 X126.728 Y97.901 E4.09979
G1 X126.796 Y97.806 E4.10405
G1 X126.863 Y97.712 E4.10838
G1 X126.929 Y97.617 E4.11275
G1 X126.996 Y97.522 E4.11718
G1 X127.063 Y97.427 E4.12165
G1 X127.129 Y97.332 E4.12619
G1 X127.196 Y97.237 E4.13077
G1 X127.275 Y97.154 E4.13502
G1 X127.357 Y97.075 E4.13890
G1 X127.542 Y96.970 E4.14666
G1 X127.568 Y96.962 E4.14765
G0 F3000 E3.14765
G0 X126.981 Y96.841 F7200
G0 X129.636 Y97.389
G0 X132.371 Y97.389
G0 X132.863 Y98.055
G0 X134.040 Y98.298
G0 X133.442 Y98.174
G0 F3000 E4.14765
G0 X133.377 Y98.077 F7200
G0 X133.255 Y97.876
G0 X133.187 Y97.782
G0 X132.787 Y97.213
G0 X132.622 Y97.055
G1 X132.525 Y96.990 E4.15150 F1200
G1 X132.401 Y96.952 E4.15660
G0 X132.457 Y96.969 F7200
G1 X132.622 Y97.055 E4.16278 F1200
G1 X132.704 Y97.134 E4.16695
G1 X132.787 Y97.213 E4.17149
G1 X132.854 Y97.308 E4.17605
G1 X132.921 Y97.403 E4.18056
G1 X132.987 Y97.498 E4.18501
G1 X133.054 Y97.593 E4.18941
G1 X133.121 Y97.688 E4.19376
G1 X133.187 Y97.782 E4.19805
G1 X133.255 Y97.876 E4.20226
G1 X133.316 Y97.977 E4.20664
G1 X133.377 Y98.077 E4.21112
G1 X133.442 Y98.174 E4.21554
G0 F3000 E3.21554
G0 X134.062 Y98.358 F7200
G0 X132.814 Y97.988
G0 X132.371 Y97.389
G0 X130.792 Y97.389
G0 X129.577 Y97.029
G0 F3000 E4.21554
;segType:HShell
G1 X130.523 Y96.083 E4.26004 F1200
G0 X130.995 Y96.176 F7200
G1 X130.143 Y97.029 E4.30012 F1200
G0 X130.709 Y97.029 F7200
G1 X131.467 Y96.270 E4.33581 F1200
G0 X131.324 Y96.696 F7200
G1 X132.003 Y96.866 E4.39397 F1200
; ------------------------------------
; Layer #2
; ------------------------------------
G92 E0 ;reset extr
G0 F3000 E-1.00000
G0 F600 Z1.600
G0 X128.101 Y96.525 F7200
G0 F3000 E0.00000
;segType:HShell
G1 X128.764 Y97.188 E0.03118 F1200
G0 X129.329 Y97.188 F7200
G1 X128.440 Y96.299 E0.07302 F1200
G0 X128.903 Y96.197 F7200
G1 X129.895 Y97.188 E0.11967 F1200
G0 X130.461 Y97.188 F7200
G1 X129.375 Y96.103 E0.17072 F1200
G0 X129.847 Y96.009 F7200
G1 X131.026 Y97.188 E0.22618 F1200
G0 X131.592 Y97.188 F7200
G1 X130.477 Y96.074 E0.27861 F1200
G0 X131.183 Y96.214 F7200
G1 X132.158 Y97.188 E0.32445 F1200
G0 F3000 E-0.67555
G0 X132.384 Y96.848 F7200
G0 F3000 E0.32445
G1 X133.152 Y97.616 E0.36057 F1200
G0 X133.842 Y97.695 F7200
;segType:Perimeter
G1 X134.443 Y98.223 E0.38718 F600
G1 X134.796 Y100.000 E0.44744
G1 X134.432 Y101.835 E0.50969
G1 X133.392 Y103.391 E0.57192
G1 X131.836 Y104.431 E0.63416
G1 X130.000 Y104.796 E0.69641
G1 X128.165 Y104.431 E0.75867
G1 X126.609 Y103.391 E0.82090
G1 X125.569 Y101.835 E0.88314
G1 X125.204 Y100.000 E0.94539
G1 X125.569 Y98.164 E1.00765
G1 X126.609 Y96.608 E1.06989
G1 X128.165 Y95.568 E1.13212
G1 X130.000 Y95.204 E1.19437
G1 X131.836 Y95.568 E1.25662
G1 X133.392 Y96.608 E1.31885
G1 X134.398 Y98.114 E1.37909
G0 X134.443 Y98.223 F7200
G0 X134.755 Y99.792
G0 X134.388 Y100.000
G0 X134.254 Y99.321
;segType:Loop
G1 X134.388 Y100.000 E1.40212 F1200
G1 X134.055 Y101.679 E1.45908
G1 X133.104 Y103.103 E1.51602
G1 X131.680 Y104.054 E1.57296
G1 X130.000 Y104.388 E1.62992
G1 X128.321 Y104.054 E1.68688
G1 X126.897 Y103.103 E1.74383
G1 X125.946 Y101.679 E1.80077
G1 X125.612 Y100.000 E1.85773
G1 X125.946 Y98.320 E1.91469
G1 X126.897 Y96.896 E1.97164
G1 X128.321 Y95.945 E2.02858
G1 X130.000 Y95.612 E2.08554
G1 X131.680 Y95.945 E2.14250
G1 X133.104 Y96.896 E2.19944
G1 X134.055 Y98.320 E2.25638
G1 X134.215 Y99.124 E2.28366
G0 F3000 E1.28366
G0 X134.215 Y99.124 F7200
G0 X133.291 Y100.181
G0 X133.291 Y100.276
G0 X133.198 Y100.822
G0 X133.016 Y101.345
G0 X132.749 Y101.830
G0 X132.256 Y102.451
G0 X131.307 Y102.451
G0 X130.992 Y102.811
G0 F3000 E2.28366
;segType:HShell
G1 X131.753 Y103.572 E2.31947 F1200
G0 X131.599 Y103.135 F7200
G1 X132.277 Y102.965 E2.37763 F1200
G1 X132.657 Y102.779 E2.41280
G1 X132.908 Y102.464 E2.43937
G1 X133.147 Y102.137 E2.46600
G0 X133.786 Y98.817 F7200
G1 X133.186 Y98.217 E2.49422 F1200
G0 X133.705 Y99.018 F7200
G1 X133.821 Y99.983 E2.55882 F1200
G1 X133.769 Y100.496 E2.59876
G1 X133.681 Y100.974 E2.62890
G1 X133.561 Y101.420 E2.65767
G1 X133.361 Y101.785 E2.69070
G0 X132.803 Y102.051 F7200
;segType:Perimeter
G1 X132.003 Y102.051 E2.71731 F600
G1 X127.937 Y102.051 E2.85253
G1 X127.585 Y101.607 E2.87136
G1 X127.351 Y101.181 E2.88753
G1 X127.190 Y100.722 E2.90371
G1 X127.109 Y100.243 E2.91989
G1 X127.109 Y99.756 E2.93606
G1 X127.190 Y99.277 E2.95223
G1 X127.351 Y98.818 E2.96841
G1 X127.585 Y98.392 E2.98458
G1 X127.937 Y97.948 E3.00342
G1 X132.063 Y97.948 E3.14063
G1 X132.415 Y98.392 E3.15946
G1 X132.649 Y98.818 E3.17563
G1 X132.810 Y99.277 E3.19181
G1 X132.891 Y99.756 E3.20798
G1 X132.891 Y100.243 E3.22416
G1 X132.810 Y100.722 E3.24034
G1 X132.649 Y101.181 E3.25651
G1 X132.415 Y101.607 E3.27269
G1 X132.100 Y102.004 E3.28952
G0 X132.003 Y102.051 F7200
G0 X130.403 Y102.051
G0 X130.963 Y102.451
;segType:Loop
G1 X127.744 Y102.451 E3.39657 F1200
G1 X127.251 Y101.830 E3.42294
G1 X126.984 Y101.345 E3.44136
G1 X126.801 Y100.822 E3.45977
G1 X126.709 Y100.276 E3.47819
G1 X126.709 Y99.723 E3.49659
G1 X126.801 Y99.177 E3.51500
G1 X126.984 Y98.654 E3.53342
G1 X127.251 Y98.169 E3.55183
G1 X127.744 Y97.548 E3.57821
G1 X132.256 Y97.548 E3.72826
G1 X132.749 Y98.169 E3.75463
G1 X133.016 Y98.654 E3.77305
G1 X133.198 Y99.177 E3.79146
G1 X133.291 Y99.723 E3.80987
G1 X133.291 Y100.276 E3.82829
G1 X133.198 Y100.822 E3.84671
G1 X133.016 Y101.345 E3.86512
G1 X132.749 Y101.830 E3.88353
G1 X132.256 Y102.451 E3.90990
G1 X131.163 Y102.451 E3.94626
G0 X130.426 Y102.811 F7200
;segType:HShell
G1 X131.365 Y103.749 E3.99041 F1200
G0 X130.893 Y103.843 F7200
G1 X129.861 Y102.811 E4.03898 F1200
G0 X129.295 Y102.811 F7200
G1 X130.422 Y103.937 E4.09197 F1200
G0 X129.925 Y104.006 F7200
G1 X128.729 Y102.811 E4.14819 F1200
G0 X128.164 Y102.811 F7200
G1 X129.218 Y103.865 E4.19779 F1200
G0 X128.512 Y103.725 F7200
G1 X127.598 Y102.811 E4.24079 F1200
G0 X127.464 Y102.676 F7200
G1 X126.275 Y101.488 E4.29669 F1200
G0 F3000 E3.29669
G0 X126.551 Y101.199 F7200
G0 F3000 E4.29669
G0 X126.422 Y101.352 F7200
G1 X126.184 Y100.266 E4.37021 F1200
G1 X126.206 Y99.722 E4.41493
G1 X126.281 Y99.231 E4.44860
G1 X126.383 Y98.768 E4.47792
G1 X126.547 Y98.366 E4.50919
G1 X126.761 Y98.014 E4.53718
G1 X126.989 Y97.676 E4.56215
G1 X127.228 Y97.349 E4.58751
G1 X127.527 Y97.083 E4.61567
G1 X127.980 Y96.970 E4.64032
; ------------------------------------
; Layer #3
; ------------------------------------
G92 E0 ;reset extr
G0 F3000 E-1.00000
G0 F600 Z1.800
G0 X129.949 Y104.011 F7200
G0 F3000 E0.00000
;segType:HShell
G1 X131.149 Y102.811 E0.05645 F1200
G0 X131.715 Y102.811 F7200
G1 X130.630 Y103.896 E0.10748 F1200
G0 X131.336 Y103.755 F7200
G1 X132.280 Y102.811 E0.15191 F1200
G0 X132.905 Y102.752 F7200
G1 X132.753 Y102.904 E0.15903 F1200
G0 X133.007 Y102.084 F7200
G1 X133.756 Y101.335 E0.19427 F1200
G0 X133.642 Y101.166 F7200
G1 X133.831 Y100.129 E0.26170 F1200
G1 X133.784 Y99.610 E0.30411
G1 X133.700 Y99.128 E0.33544
G1 X133.591 Y98.672 E0.36452
G1 X133.407 Y98.290 E0.39720
G0 X133.842 Y97.695 F7200
;segType:Perimeter
G1 X134.443 Y98.223 E0.42381 F600
G1 X134.796 Y100.000 E0.48406
G1 X134.432 Y101.835 E0.54631
G1 X133.392 Y103.391 E0.60854
G1 X131.836 Y104.431 E0.67078
G1 X130.000 Y104.796 E0.73304
G1 X128.165 Y104.431 E0.79529
G1 X126.609 Y103.391 E0.85753
G1 X125.569 Y101.835 E0.91976
G1 X125.204 Y100.000 E0.98202
G1 X125.569 Y98.164 E1.04427
G1 X126.609 Y96.608 E1.10651
G1 X128.165 Y95.568 E1.16874
G1 X130.000 Y95.204 E1.23099
G1 X131.836 Y95.568 E1.29324
G1 X133.392 Y96.608 E1.35548
G1 X134.398 Y98.114 E1.41572
G0 X134.443 Y98.223 F7200
G0 X134.755 Y99.792
G0 X134.388 Y100.000
G0 X134.254 Y99.321
;segType:Loop
G1 X134.388 Y100.000 E1.43874 F1200
G1 X134.055 Y101.679 E1.49570
G1 X133.104 Y103.103 E1.55264
G1 X131.680 Y104.054 E1.60959
G1 X130.000 Y104.388 E1.66655
G1 X128.321 Y104.054 E1.72351
G1 X126.897 Y103.103 E1.78045
G1 X125.946 Y101.679 E1.83740
G1 X125.612 Y100.000 E1.89436
G1 X125.946 Y98.320 E1.95132
G1 X126.897 Y96.896 E2.00826
G1 X128.321 Y95.945 E2.06520
G1 X130.000 Y95.612 E2.12216
G1 X131.680 Y95.945 E2.17912
G1 X133.104 Y96.896 E2.23606
G1 X134.055 Y98.320 E2.29300
G1 X134.215 Y99.124 E2.32029
G0 F3000 E1.32029
G0 X134.215 Y99.124 F7200
G0 X133.159 Y99.063
G0 X133.016 Y98.654
G0 X132.749 Y98.169
G0 X132.256 Y97.548
G0 X127.744 Y97.548
G0 X127.251 Y98.169
G0 X126.984 Y98.654
G0 X126.966 Y98.706
G0 X125.882 Y98.643
G0 X126.245 Y98.664
G0 F3000 E2.32029
;segType:HShell
G1 X126.990 Y97.918 E2.35536 F1200
G0 X126.358 Y98.834 F7200
G1 X126.169 Y99.871 E2.42268 F1200
G1 X126.216 Y100.390 E2.46503
G1 X126.300 Y100.871 E2.49631
G1 X126.409 Y101.328 E2.52532
G1 X126.593 Y101.710 E2.55793
G1 X126.807 Y102.062 E2.58526
G1 X127.041 Y102.394 E2.60957
G1 X127.279 Y102.721 E2.63552
G1 X127.625 Y102.940 E2.66429
G0 X127.835 Y103.296 F7200
G1 X128.321 Y102.811 E2.68712 F1200
G0 X128.886 Y102.811 F7200
G1 X128.174 Y103.523 E2.72061 F1200
G0 X128.534 Y103.729 F7200
G1 X129.452 Y102.811 E2.76381 F1200
G0 X130.018 Y102.811 F7200
G1 X129.005 Y103.823 E2.81142 F1200
G0 X129.477 Y103.917 F7200
G1 X130.583 Y102.811 E2.86345 F1200
G0 X132.803 Y102.051 F7200
;segType:Perimeter
G1 X132.003 Y102.051 E2.89006 F600
G1 X127.937 Y102.051 E3.02528
G1 X127.585 Y101.607 E3.04411
G1 X127.351 Y101.181 E3.06028
G1 X127.190 Y100.722 E3.07646
G1 X127.109 Y100.243 E3.09264
G1 X127.109 Y99.756 E3.10881
G1 X127.190 Y99.277 E3.12498
G1 X127.351 Y98.818 E3.14116
G1 X127.585 Y98.392 E3.15733
G1 X127.937 Y97.948 E3.17616
G1 X132.063 Y97.948 E3.31338
G1 X132.415 Y98.392 E3.33221
G1 X132.649 Y98.818 E3.34838
G1 X132.810 Y99.277 E3.36456
G1 X132.891 Y99.756 E3.38073
G1 X132.891 Y100.243 E3.39691
G1 X132.810 Y100.722 E3.41309
G1 X132.649 Y101.181 E3.42926
G1 X132.415 Y101.607 E3.44544
G1 X132.100 Y102.004 E3.46227
G0 X132.003 Y102.051 F7200
G0 X130.403 Y102.051
G0 X130.963 Y102.451
;segType:Loop
G1 X127.744 Y102.451 E3.56932 F1200
G1 X127.251 Y101.830 E3.59569
G1 X126.984 Y101.345 E3.61410
G1 X126.801 Y100.822 E3.63251
G1 X126.709 Y100.276 E3.65093
G1 X126.709 Y99.723 E3.66934
G1 X126.801 Y99.177 E3.68775
G1 X126.984 Y98.654 E3.70617
G1 X127.251 Y98.169 E3.72457
G1 X127.744 Y97.548 E3.75095
G1 X132.256 Y97.548 E3.90101
G1 X132.749 Y98.169 E3.92739
G1 X133.016 Y98.654 E3.94579
G1 X133.199 Y99.177 E3.96422
G1 X133.291 Y99.723 E3.98263
G1 X133.291 Y100.276 E4.00103
G1 X133.199 Y100.822 E4.01945
G1 X133.016 Y101.345 E4.03786
G1 X132.749 Y101.830 E4.05628
G1 X132.256 Y102.451 E4.08265
G1 X131.163 Y102.451 E4.11900
G0 F3000 E3.11900
G0 X132.256 Y102.451 F7200
G0 X132.749 Y101.830
G0 X133.016 Y101.345
G0 X133.199 Y100.822
G0 X133.291 Y100.276
G0 X133.291 Y99.723
G0 X133.199 Y99.177
G0 X133.016 Y98.654
G0 X132.963 Y98.557
G0 X133.474 Y97.451
G0 X133.297 Y97.834
G0 F3000 E4.11900
;segType:HShell
G0 X133.310 Y98.104 F7200
G1 X132.960 Y97.606 E4.15559 F1200
G1 X132.721 Y97.279 E4.18162
G1 X132.375 Y97.059 E4.21044
G1 X131.923 Y96.946 E4.24087
G0 X131.115 Y97.188 F7200
G1 X131.827 Y96.476 E4.27437 F1200
G0 X131.467 Y96.270 F7200
G1 X130.549 Y97.188 E4.31756 F1200
G0 X129.983 Y97.188 F7200
G1 X130.995 Y96.176 E4.36516 F1200
G0 X130.523 Y96.083 F7200
G1 X129.418 Y97.188 E4.41716 F1200
G0 X128.852 Y97.188 F7200
G1 X130.051 Y95.989 E4.47357 F1200
G0 X129.371 Y96.104 F7200
G1 X128.286 Y97.188 E4.52458 F1200
G0 X127.721 Y97.188 F7200
G1 X128.665 Y96.244 E4.56899 F1200
G0 X127.248 Y97.095 F7200
G1 X127.096 Y97.247 E4.57611 F1200
; ------------------------------------
; Layer #4
; ------------------------------------
G92 E0 ;reset extr
G0 F3000 E-1.00000
G0 F600 Z2.000
G0 X127.762 Y96.752 F7200
G0 F3000 E0.00000
;segType:HShell
G0 X127.668 Y96.941 F7200
G1 X128.604 Y97.029 E0.07696 F1200
G1 X129.170 Y97.029 E0.11452
G1 X129.735 Y97.029 E0.15207
G1 X130.301 Y97.029 E0.18963
G1 X130.867 Y97.029 E0.22718
G1 X131.432 Y97.029 E0.26473
G1 X131.998 Y97.029 E0.30229
G0 X131.580 Y96.311 F7200
;segType:Infill
G1 X131.258 Y96.869 E0.32371 F1500
G0 X130.598 Y96.869 F7200
G1 X130.095 Y95.998 E0.35718 F1500
G0 X129.392 Y96.100 F7200
G1 X128.948 Y96.869 E0.38672 F1500
G0 X128.093 Y96.530 F7200
G1 X128.288 Y96.869 E0.39972 F1500
G0 X128.048 Y96.561 F7200
G1 X131.953 Y96.561 E0.52961 F1500
G0 X133.842 Y97.695 F7200
;segType:Perimeter
G1 X134.443 Y98.223 E0.55622 F600
G1 X134.796 Y100.000 E0.61647
G1 X134.432 Y101.835 E0.67872
G1 X133.392 Y103.391 E0.74096
G1 X131.836 Y104.431 E0.80319
G1 X130.000 Y104.796 E0.86545
G1 X128.165 Y104.431 E0.92770
G1 X126.609 Y103.391 E0.98994
G1 X125.569 Y101.835 E1.05218
G1 X125.204 Y100.000 E1.11443
G1 X125.569 Y98.164 E1.17669
G1 X126.609 Y96.608 E1.23892
G1 X128.165 Y95.568 E1.30116
G1 X130.000 Y95.204 E1.36341
G1 X131.836 Y95.568 E1.42566
G1 X133.392 Y96.608 E1.48789
G1 X134.398 Y98.114 E1.54813
G0 X134.443 Y98.223 F7200
G0 X134.755 Y99.792
G0 X134.388 Y100.000
G0 X134.254 Y99.321
;segType:Loop
G1 X134.388 Y100.000 E1.57115 F1200
G1 X134.055 Y101.679 E1.62811
G1 X133.104 Y103.103 E1.68505
G1 X131.680 Y104.054 E1.74200
G1 X130.000 Y104.388 E1.79896
G1 X128.321 Y104.054 E1.85592
G1 X126.897 Y103.103 E1.91286
G1 X125.946 Y101.679 E1.96981
G1 X125.612 Y100.000 E2.02677
G1 X125.946 Y98.320 E2.08373
G1 X126.897 Y96.896 E2.14068
G1 X128.321 Y95.945 E2.19762
G1 X130.000 Y95.612 E2.25458
G1 X131.680 Y95.945 E2.31153
G1 X133.104 Y96.896 E2.36847
G1 X134.055 Y98.320 E2.42542
G1 X134.215 Y99.124 E2.45270
G0 X133.786 Y98.817 F7200
;segType:HShell
G1 X133.186 Y98.217 E2.48093 F1200
G0 X133.705 Y99.018 F7200
G1 X133.821 Y99.983 E2.54553 F1200
G1 X133.769 Y100.496 E2.58549
G1 X133.681 Y100.974 E2.61566
G1 X133.561 Y101.420 E2.64443
G1 X133.361 Y101.786 E2.67746
G1 X133.147 Y102.137 E2.70422
G1 X132.908 Y102.464 E2.72804
G1 X132.657 Y102.779 E2.75467
G1 X132.277 Y102.965 E2.78124
G1 X131.718 Y102.971 E2.81745
G1 X131.152 Y102.971 E2.85512
G1 X130.587 Y102.971 E2.89278
G1 X130.021 Y102.971 E2.93044
G1 X129.455 Y102.971 E2.96810
G0 F3000 E1.96810
G0 X129.496 Y103.921 F7200
G0 F3000 E2.96810
;segType:Infill
G1 X129.952 Y103.131 E2.99842 F1500
G0 X129.594 Y103.131 F7200
G1 X130.097 Y104.002 E3.03187 F1500
G0 X131.904 Y103.131 F7200
G1 X132.046 Y103.377 E3.04129 F1500
G0 X132.803 Y102.051 F7200
;segType:Perimeter
G1 X132.003 Y102.051 E3.06790 F600
G1 X127.937 Y102.051 E3.20312
G1 X127.585 Y101.607 E3.22195
G1 X127.351 Y101.181 E3.23812
G1 X127.190 Y100.722 E3.25430
G1 X127.109 Y100.243 E3.27048
G1 X127.109 Y99.756 E3.28665
G1 X127.190 Y99.277 E3.30282
G1 X127.351 Y98.818 E3.31900
G1 X127.585 Y98.392 E3.33517
G1 X127.937 Y97.948 E3.35401
G1 X132.063 Y97.948 E3.49122
G1 X132.415 Y98.392 E3.51005
G1 X132.649 Y98.818 E3.52622
G1 X132.810 Y99.277 E3.54240
G1 X132.891 Y99.756 E3.55857
G1 X132.891 Y100.243 E3.57475
G1 X132.810 Y100.722 E3.59093
G1 X132.649 Y101.181 E3.60710
G1 X132.415 Y101.607 E3.62328
G1 X132.100 Y102.004 E3.64011
G0 X132.003 Y102.051 F7200
G0 X130.403 Y102.051
G0 X130.963 Y102.451
;segType:Loop
G1 X127.744 Y102.451 E3.74716 F1200
G1 X127.251 Y101.830 E3.77353
G1 X126.984 Y101.345 E3.79194
G1 X126.801 Y100.822 E3.81036
G1 X126.709 Y100.276 E3.82877
G1 X126.709 Y99.723 E3.84718
G1 X126.801 Y99.177 E3.86559
G1 X126.984 Y98.654 E3.88401
G1 X127.251 Y98.169 E3.90242
G1 X127.744 Y97.548 E3.92879
G1 X132.256 Y97.548 E4.07885
G1 X132.749 Y98.169 E4.10523
G1 X133.016 Y98.654 E4.12363
G1 X133.199 Y99.177 E4.14206
G1 X133.291 Y99.723 E4.16047
G1 X133.291 Y100.276 E4.17887
G1 X133.199 Y100.822 E4.19729
G1 X133.016 Y101.345 E4.21570
G1 X132.749 Y101.830 E4.23412
G1 X132.256 Y102.451 E4.26049
G1 X131.163 Y102.451 E4.29685
G0 X131.163 Y102.451 F7200
G0 X132.358 Y103.601
G0 X132.092 Y103.345
;segType:HShell
G0 F3000 E3.29685
G0 X132.001 Y103.840 F7200
G0 X132.258 Y102.447
G0 X132.749 Y101.830
G0 X133.016 Y101.345
G0 X133.199 Y100.822
G0 X133.291 Y100.276
G0 X133.291 Y99.723
G0 X133.199 Y99.177
G0 X133.016 Y98.654
G0 X132.974 Y98.578
G0 X133.245 Y97.109
G0 X133.152 Y97.616
G0 F3000 E4.29685
G1 X132.384 Y96.848 E4.33297 F1200
G0 X128.440 Y96.299 F7200
G0 X128.609 Y96.185
G1 X128.101 Y96.525 E4.35331 F1200
G0 X127.423 Y96.979 F7200
G0 X127.677 Y96.950
G1 X127.228 Y97.349 E4.39030 F1200
G1 X126.989 Y97.676 E4.41845
G1 X126.761 Y98.014 E4.44381
G1 X126.547 Y98.366 E4.46878
G1 X126.383 Y98.768 E4.49677
G1 X126.281 Y99.231 E4.52805
G1 X126.206 Y99.722 E4.55737
G1 X126.184 Y100.266 E4.59104
G1 X126.343 Y100.990 E4.63575
G0 X126.275 Y101.488 F7200
G1 X127.464 Y102.676 E4.69166 F1200
G0 X128.041 Y102.971 F7200
G1 X128.889 Y102.971 E4.74813 F1200
G0 X127.598 Y102.811 F7200
G1 X127.918 Y103.131 E4.76318 F1200
; ------------------------------------
; Layer #5
; ------------------------------------
G92 E0 ;reset extr
G0 F3000 E-1.00000
G0 F600 Z2.200
G0 X127.666 Y103.616 F7200
G0 X128.271 Y102.451
G0 X132.256 Y102.451
G0 X132.749 Y101.830
G0 X133.016 Y101.345
G0 X133.199 Y100.822
G0 X133.291 Y100.276
G0 X133.291 Y99.723
G0 X133.199 Y99.177
G0 X133.016 Y98.654
G0 X132.749 Y98.169
G0 X132.256 Y97.548
G0 X130.815 Y97.548
G0 X131.085 Y97.029
G0 F3000 E0.00000
;segType:Infill
G1 X131.517 Y96.280 E0.02876 F1500
G0 X132.163 Y96.701 F7200
G1 X127.838 Y96.701 E0.17258 F1500
G0 X126.237 Y98.701 F7200
G1 X126.427 Y98.701 E0.17890 F1500
G0 X126.332 Y101.261 F7200
G1 X126.256 Y101.392 E0.18393 F1500
G0 X126.534 Y101.689 F7200
G1 X126.266 Y101.226 E0.20171 F1500
G0 X127.184 Y102.816 F7200
G1 X127.226 Y102.889 E0.20452 F1500
G0 X127.655 Y102.970 F7200
G1 X127.569 Y103.118 E0.21022 F1500
G0 X129.423 Y103.906 F7200
G1 X129.963 Y102.971 E0.24614 F1500
G0 X129.583 Y102.971 F7200
G1 X130.170 Y103.987 E0.28518 F1500
G0 X131.892 Y102.971 F7200
G1 X132.104 Y103.338 E0.29926 F1500
G0 X132.273 Y102.971 F7200
G1 X132.034 Y103.384 E0.31514 F1500
G0 X133.434 Y101.641 F7200
G1 X133.510 Y101.772 E0.32019 F1500
G0 X133.715 Y100.701 F7200
G1 X133.882 Y100.701 E0.32573 F1500
G0 X134.013 Y99.957 F7200
G1 X133.772 Y100.374 E0.34175 F1500
G0 X133.763 Y98.701 F7200
G1 X133.572 Y98.701 E0.34810 F1500
G0 X133.842 Y97.695 F7200
;segType:Perimeter
G1 X134.443 Y98.223 E0.37471 F600
G1 X134.796 Y100.000 E0.43496
G1 X134.432 Y101.835 E0.49721
G1 X133.392 Y103.391 E0.55945
G1 X131.836 Y104.431 E0.62168
G1 X130.000 Y104.796 E0.68394
G1 X128.165 Y104.431 E0.74619
G1 X126.609 Y103.391 E0.80843
G1 X125.569 Y101.835 E0.87066
G1 X125.204 Y100.000 E0.93292
G1 X125.569 Y98.164 E0.99517
G1 X126.609 Y96.608 E1.05741
G1 X128.165 Y95.568 E1.11964
G1 X130.000 Y95.204 E1.18189
G1 X131.836 Y95.568 E1.24415
G1 X133.392 Y96.608 E1.30638
G1 X134.398 Y98.114 E1.36662
G0 X134.443 Y98.223 F7200
G0 X134.755 Y99.792
G0 X134.388 Y100.000
G0 X134.254 Y99.321
;segType:Loop
G1 X134.388 Y100.000 E1.38964 F1200
G1 X134.055 Y101.679 E1.44660
G1 X133.104 Y103.103 E1.50354
G1 X131.680 Y104.054 E1.56049
G1 X130.000 Y104.388 E1.61745
G1 X128.321 Y104.054 E1.67441
G1 X126.897 Y103.103 E1.73135
G1 X125.946 Y101.679 E1.78830
G1 X125.612 Y100.000 E1.84526
G1 X125.946 Y98.320 E1.90222
G1 X126.897 Y96.896 E1.95916
G1 X128.321 Y95.945 E2.01610
G1 X130.000 Y95.612 E2.07306
G1 X131.680 Y95.945 E2.13002
G1 X133.104 Y96.896 E2.18696
G1 X134.055 Y98.320 E2.24390
G1 X134.215 Y99.124 E2.27119
G0 X132.599 Y97.401 F7200
;segType:HShell
G0 X132.894 Y97.388
G1 X132.375 Y97.059 E2.31442 F1200
G1 X131.760 Y97.108 E2.34486
G1 X131.195 Y97.108 E2.36367
G1 X130.629 Y97.108 E2.38248
G1 X130.063 Y97.108 E2.40130
G1 X129.497 Y97.108 E2.42011
G1 X128.932 Y97.108 E2.43893
G1 X128.366 Y97.108 E2.45774
G1 X127.800 Y97.108 E2.47656
G0 X127.096 Y97.247 F7200
G1 X127.248 Y97.095 E2.48367 F1200
G0 X126.990 Y97.918 F7200
G1 X126.482 Y98.427 E2.50760 F1200
G0 X126.312 Y99.163 F7200
G1 X126.486 Y98.989 E2.51578 F1200
G0 X126.349 Y99.691 F7200
G1 X126.203 Y99.837 E2.52267 F1200
G0 X126.223 Y100.383 F7200
G1 X126.349 Y100.257 E2.52859 F1200
G0 X126.206 Y100.400 F7200
G1 X126.083 Y100.523 E2.53435 F1200
G0 X126.424 Y100.748 F7200
G1 X126.177 Y100.995 E2.54595 F1200
G0 X126.426 Y101.311 F7200
G1 X126.548 Y101.189 E2.55169 F1200
G0 X126.710 Y101.593 F7200
G1 X126.477 Y101.826 E2.56263 F1200
G0 X126.704 Y102.165 F7200
G1 X126.910 Y101.958 E2.57235 F1200
G0 X127.151 Y102.283 F7200
G1 X126.930 Y102.504 E2.58273 F1200
G0 X127.157 Y102.843 F7200
G1 X127.402 Y102.598 E2.59424 F1200
G0 X127.496 Y103.070 F7200
G0 F3000 E1.59424
G0 X127.755 Y102.811 F7200
G0 F3000 E2.59424
G1 X127.619 Y102.947 E2.60064 F1200
G0 X128.160 Y102.971 F7200
G1 X128.321 Y102.811 E2.60817 F1200
G0 X128.886 Y102.811 F7200
G1 X128.726 Y102.971 E2.61571 F1200
G0 X129.292 Y102.971 F7200
G1 X129.452 Y102.811 E2.62324 F1200
G0 X130.018 Y102.811 F7200
G1 X129.857 Y102.971 E2.63077 F1200
G0 X130.423 Y102.971 F7200
G1 X130.583 Y102.811 E2.63831 F1200
G0 X131.149 Y102.811 F7200
G1 X130.989 Y102.971 E2.64584 F1200
G0 X131.555 Y102.971 F7200
G1 X131.715 Y102.811 E2.65338 F1200
G0 X132.280 Y102.811 F7200
G1 X132.120 Y102.971 E2.66091 F1200
G0 X132.753 Y102.904 F7200
G0 X132.637 Y103.302
G1 X133.212 Y101.879 E2.71198 F1200
G0 F3000 E1.71198
G0 X132.803 Y102.051 F7200
G0 F3000 E2.71198
;segType:Perimeter
G1 X132.003 Y102.051 E2.73858 F600
G1 X127.937 Y102.051 E2.87380
G1 X127.585 Y101.607 E2.89263
G1 X127.351 Y101.181 E2.90881
G1 X127.190 Y100.722 E2.92498
G1 X127.109 Y100.243 E2.94116
G1 X127.109 Y99.756 E2.95733
G1 X127.190 Y99.277 E2.97350
G1 X127.351 Y98.818 E2.98968
G1 X127.585 Y98.392 E3.00585
G1 X127.937 Y97.948 E3.02469
G1 X132.063 Y97.948 E3.16190
G1 X132.415 Y98.392 E3.18074
G1 X132.649 Y98.818 E3.19690
G1 X132.810 Y99.277 E3.21309
G1 X132.891 Y99.756 E3.22926
G1 X132.891 Y100.243 E3.24543
G1 X132.810 Y100.722 E3.26161
G1 X132.649 Y101.181 E3.27778
G1 X132.415 Y101.607 E3.29396
G1 X132.100 Y102.004 E3.31079
G0 X132.003 Y102.051 F7200
G0 X130.403 Y102.051
G0 X130.963 Y102.451
;segType:Loop
G1 X127.744 Y102.451 E3.41784 F1200
G1 X127.251 Y101.830 E3.44421
G1 X126.984 Y101.345 E3.46262
G1 X126.801 Y100.822 E3.48104
G1 X126.709 Y100.276 E3.49946
G1 X126.709 Y99.723 E3.51786
G1 X126.801 Y99.177 E3.53627
G1 X126.984 Y98.654 E3.55469
G1 X127.251 Y98.169 E3.57310
G1 X127.744 Y97.548 E3.59947
G1 X132.256 Y97.548 E3.74954
G1 X132.749 Y98.169 E3.77591
G1 X133.016 Y98.654 E3.79432
G1 X133.199 Y99.177 E3.81274
G1 X133.291 Y99.723 E3.83115
G1 X133.291 Y100.276 E3.84956
G1 X133.199 Y100.822 E3.86797
G1 X133.016 Y101.345 E3.88639
G1 X132.749 Y101.830 E3.90480
G1 X132.256 Y102.451 E3.93117
G1 X131.163 Y102.451 E3.96753
G0 F3000 E2.96753
G0 X132.256 Y102.451 F7200
G0 X132.749 Y101.830
G0 X133.016 Y101.345
G0 X133.199 Y100.822
G0 X133.291 Y100.276
G0 X133.291 Y99.723
G0 X133.199 Y99.177
G0 X133.016 Y98.654
G0 X132.749 Y98.169
G0 X132.256 Y97.548
G0 X130.808 Y97.548
G0 X130.771 Y97.029
G0 F3000 E3.96753
;segType:Infill
G1 X130.186 Y96.016 E4.00643 F1500
G0 X129.301 Y96.118 F7200
G1 X128.775 Y97.029 E4.04141 F1500
G0 F3000 E3.04141
G0 X128.151 Y96.491 F7200
G0 F3000 E4.04141
G1 X128.461 Y97.029 E4.06204 F1500
G0 F3000 E3.06204
G0 X129.121 Y97.548 F7200
G0 X132.256 Y97.548
G0 X132.749 Y98.169
G0 X133.016 Y98.654
G0 X133.199 Y99.177
G0 X133.291 Y99.723
G0 X133.291 Y100.276
G0 X133.207 Y100.770
G0 X134.096 Y101.471
G0 X133.514 Y101.012
G0 F3000 E4.06204
;segType:HShell
G0 X133.395 Y101.413 F7200
G1 X134.011 Y99.949 E4.11488 F1200
G1 X133.855 Y99.539 E4.12947
G1 X133.700 Y99.128 E4.14406
G1 X133.511 Y98.752 E4.17314
G1 X133.407 Y98.290 E4.18889
G1 X133.193 Y97.938 E4.21630
G1 X132.960 Y97.606 E4.24069
G0 X132.166 Y96.703 F7200
G0 X133.796 Y100.163 F7200
G0 X133.728 Y100.514
G1 X133.713 Y99.681 E4.26842 F1200
; ------------------------------------
; Layer #6
; ------------------------------------
G92 E0 ;reset extr
G0 F3000 E-1.00000
G0 F600 Z2.400
G0 X133.618 Y100.500 F7200
G0 F3000 E0.00000
;segType:Infill
G1 X133.992 Y99.853 E0.02485 F1500
G0 X133.463 Y98.841 F7200
G1 X133.791 Y98.841 E0.03578 F1500
G0 X131.444 Y96.265 F7200
G1 X130.912 Y97.188 E0.07122 F1500
G0 X130.944 Y97.188 F7200
G1 X130.277 Y96.034 E0.11556 F1500
G0 X129.210 Y96.136 F7200
G1 X128.602 Y97.188 E0.15598 F1500
G0 X128.634 Y97.188 F7200
G1 X128.210 Y96.453 E0.18423 F1500
G0 X127.629 Y96.841 F7200
G1 X132.372 Y96.841 E0.34200 F1500
G0 X133.056 Y97.474 F7200
G1 X132.888 Y97.765 E0.35319 F1500
G0 X132.453 Y97.797 F7200
G0 X133.647 Y97.709
G0 X133.842 Y97.695
;segType:Perimeter
G1 X134.443 Y98.223 E0.37980 F600
G1 X134.796 Y100.000 E0.44005
G1 X134.432 Y101.835 E0.50230
G1 X133.392 Y103.391 E0.56454
G1 X131.836 Y104.431 E0.62677
G1 X130.000 Y104.796 E0.68903
G1 X128.165 Y104.431 E0.75128
G1 X126.609 Y103.391 E0.81352
G1 X125.569 Y101.835 E0.87576
G1 X125.204 Y100.000 E0.93801
G1 X125.569 Y98.164 E1.00027
G1 X126.609 Y96.608 E1.06250
G1 X128.165 Y95.568 E1.12474
G1 X130.000 Y95.204 E1.18699
G1 X131.836 Y95.568 E1.24924
G1 X133.392 Y96.608 E1.31147
G1 X134.398 Y98.114 E1.37171
G0 X134.443 Y98.223 F7200
G0 X134.755 Y99.792
G0 X134.388 Y100.000
G0 X134.254 Y99.321
;segType:Loop
G1 X134.388 Y100.000 E1.39473 F1200
G1 X134.055 Y101.679 E1.45169
G1 X133.104 Y103.103 E1.50863
G1 X131.680 Y104.054 E1.56558
G1 X130.000 Y104.388 E1.62254
G1 X128.321 Y104.054 E1.67950
G1 X126.897 Y103.103 E1.73645
G1 X125.946 Y101.679 E1.79339
G1 X125.612 Y100.000 E1.85035
G1 X125.946 Y98.320 E1.90731
G1 X126.897 Y96.896 E1.96426
G1 X128.321 Y95.945 E2.02120
G1 X130.000 Y95.612 E2.07816
G1 X131.680 Y95.945 E2.13512
G1 X133.104 Y96.896 E2.19205
G1 X134.055 Y98.320 E2.24900
G1 X134.215 Y99.124 E2.27628
G0 F3000 E1.27628
G0 X134.215 Y99.124 F7200
G0 X133.129 Y98.976
G0 X133.016 Y98.654
G0 X132.749 Y98.169
G0 X132.256 Y97.548
G0 X127.744 Y97.548
G0 X127.251 Y98.169
G0 X127.248 Y98.176
G0 X126.143 Y98.025
G0 X126.865 Y98.124
G0 F3000 E2.27628
;segType:Infill
G1 X126.701 Y97.839 E2.28721 F1500
G0 X126.537 Y98.841 F7200
G1 X126.210 Y98.841 E2.29812 F1500
G0 X126.146 Y100.841 F7200
G1 X126.439 Y100.841 E2.30787 F1500
G0 X126.452 Y100.913 F7200
G1 X126.235 Y101.288 E2.32226 F1500
G0 X126.158 Y100.899 F7200
G1 X127.358 Y102.977 E2.40209 F1500
G0 X127.665 Y102.811 F7200
G1 X127.510 Y103.079 E2.41240 F1500
G0 X127.156 Y102.841 F7200
G1 X132.845 Y102.841 E2.60164 F1500
G0 X130.963 Y102.451 F7200
;segType:Loop
G1 X127.744 Y102.451 E2.70869 F1200
G1 X127.251 Y101.830 E2.73506
G1 X126.984 Y101.345 E2.75348
G1 X126.801 Y100.822 E2.77189
G1 X126.709 Y100.276 E2.79031
G1 X126.709 Y99.723 E2.80872
G1 X126.801 Y99.177 E2.82712
G1 X126.984 Y98.654 E2.84555
G1 X127.251 Y98.169 E2.86395
G1 X127.744 Y97.548 E2.89033
G1 X132.256 Y97.548 E3.04039
G1 X132.749 Y98.169 E3.06676
G1 X133.016 Y98.654 E3.08517
G1 X133.199 Y99.177 E3.10359
G1 X133.291 Y99.723 E3.12200
G1 X133.291 Y100.276 E3.14041
G1 X133.199 Y100.822 E3.15883
G1 X133.016 Y101.345 E3.17724
G1 X132.749 Y101.830 E3.19565
G1 X132.256 Y102.451 E3.22202
G1 X131.163 Y102.451 E3.25838
G0 X132.803 Y102.051 F7200
;segType:Perimeter
G1 X132.003 Y102.051 E3.28499 F600
G1 X127.937 Y102.051 E3.42020
G1 X127.585 Y101.607 E3.43903
G1 X127.351 Y101.181 E3.45521
G1 X127.190 Y100.722 E3.47138
G1 X127.109 Y100.243 E3.48756
G1 X127.109 Y99.756 E3.50373
G1 X127.190 Y99.277 E3.51990
G1 X127.351 Y98.818 E3.53609
G1 X127.585 Y98.392 E3.55225
G1 X127.937 Y97.948 E3.57109
G1 X132.063 Y97.948 E3.70830
G1 X132.415 Y98.392 E3.72714
G1 X132.649 Y98.818 E3.74331
G1 X132.810 Y99.277 E3.75949
G1 X132.891 Y99.756 E3.77566
G1 X132.891 Y100.243 E3.79183
G1 X132.810 Y100.722 E3.80801
G1 X132.649 Y101.181 E3.82419
G1 X132.415 Y101.607 E3.84036
G1 X132.100 Y102.004 E3.85719
G0 X132.003 Y102.051 F7200
G0 X130.403 Y102.051
G0 X129.975 Y102.811
;segType:Infill
G1 X129.351 Y103.892 E3.89871 F1500
G0 F3000 E2.89871
G0 X129.571 Y102.811 F7200
G0 F3000 E3.89871
G1 X130.242 Y103.973 E3.94334 F1500
G0 X131.881 Y102.811 F7200
G1 X132.162 Y103.299 E3.96208 F1500
G0 X131.902 Y103.472 F7200
G1 X132.284 Y102.811 E3.98749 F1500
G0 X133.576 Y101.747 F7200
G1 X133.377 Y101.403 E4.00072 F1500
G0 X133.854 Y100.841 F7200
G1 X133.561 Y100.841 E4.01048 F1500
G0 X133.420 Y101.279 F7200
;segType:HShell
G0 X133.641 Y100.368 F7200
G0 X133.635 Y100.646
G1 X133.651 Y99.813 E4.03819 F1200
G0 X133.186 Y98.217 F7200
G1 X133.186 Y98.217 E4.03820 F1200
; ------------------------------------
; Layer #7
; ------------------------------------
G92 E0 ;reset extr
G0 F3000 E-1.00000
G0 F600 Z2.600
G0 X133.511 Y98.981 F7200
G0 F3000 E0.00000
;segType:Infill
G1 X133.819 Y98.981 E0.01023 F1500
G0 X131.372 Y96.251 F7200
G1 X130.831 Y97.188 E0.04622 F1500
G0 X131.025 Y97.188 F7200
G1 X130.369 Y96.052 E0.08986 F1500
G0 X129.118 Y96.154 F7200
G1 X128.521 Y97.188 E0.12958 F1500
G0 X128.715 Y97.188 F7200
G1 X128.268 Y96.414 E0.15934 F1500
G0 X127.419 Y96.981 F7200
G1 X132.582 Y96.981 E0.33104 F1500
G0 X133.013 Y97.409 F7200
G1 X132.841 Y97.706 E0.34247 F1500
G0 X132.385 Y97.711 F7200
G0 X133.639 Y97.697
G0 X133.842 Y97.695
;segType:Perimeter
G1 X134.443 Y98.223 E0.36908 F600
G1 X134.796 Y100.000 E0.42933
G1 X134.432 Y101.835 E0.49158
G1 X133.392 Y103.391 E0.55381
G1 X131.836 Y104.431 E0.61605
G1 X130.000 Y104.796 E0.67831
G1 X128.165 Y104.431 E0.74056
G1 X126.609 Y103.391 E0.80280
G1 X125.569 Y101.835 E0.86503
G1 X125.204 Y100.000 E0.92729
G1 X125.569 Y98.164 E0.98954
G1 X126.609 Y96.608 E1.05178
G1 X128.165 Y95.568 E1.11401
G1 X130.000 Y95.204 E1.17626
G1 X131.836 Y95.568 E1.23851
G1 X133.392 Y96.608 E1.30075
G1 X134.398 Y98.114 E1.36099
G0 X134.443 Y98.223 F7200
G0 X134.755 Y99.792
G0 X134.388 Y100.000
G0 X134.254 Y99.321
;segType:Loop
G1 X134.388 Y100.000 E1.38401 F1200
G1 X134.055 Y101.679 E1.44097
G1 X133.104 Y103.103 E1.49791
G1 X131.680 Y104.054 E1.55486
G1 X130.000 Y104.388 E1.61182
G1 X128.321 Y104.054 E1.66878
G1 X126.897 Y103.103 E1.72572
G1 X125.946 Y101.679 E1.78267
G1 X125.612 Y100.000 E1.83963
G1 X125.946 Y98.320 E1.89659
G1 X126.897 Y96.896 E1.95353
G1 X128.321 Y95.945 E2.01047
G1 X130.000 Y95.612 E2.06743
G1 X131.680 Y95.945 E2.12439
G1 X133.104 Y96.896 E2.18133
G1 X134.055 Y98.320 E2.23827
G1 X134.215 Y99.124 E2.26556
G0 F3000 E1.26556
G0 X134.215 Y99.124 F7200
G0 X133.226 Y99.338
G0 X133.291 Y99.723
G0 X133.291 Y100.276
G0 X133.199 Y100.822
G0 X133.016 Y101.345
G0 X132.749 Y101.830
G0 X132.256 Y102.451
G0 X127.744 Y102.451
G0 X127.251 Y101.830
G0 X126.984 Y101.345
G0 X126.801 Y100.822
G0 X126.786 Y100.729
G0 X125.799 Y100.942
G0 X126.433 Y100.805
G0 F3000 E2.26556
;segType:Infill
G1 X126.215 Y101.184 E2.28011 F1500
G0 X126.115 Y100.685 F7200
G1 X127.490 Y103.065 E2.37152 F1500
G0 F3000 E1.37152
G0 X127.585 Y102.811 F7200
G0 F3000 E2.37152
G1 X127.452 Y103.040 E2.38033 F1500
G0 X127.363 Y102.981 F7200
G1 X132.638 Y102.981 E2.55576 F1500
G0 X133.971 Y99.749 F7200
G1 X133.651 Y100.303 E2.57707 F1500
G0 X133.525 Y100.981 F7200
G1 X133.826 Y100.981 E2.58711 F1500
G0 X133.620 Y101.683 F7200
G1 X133.408 Y101.316 E2.60120 F1500
G0 X132.803 Y102.051 F7200
;segType:Perimeter
G1 X132.003 Y102.051 E2.62781 F600
G1 X127.937 Y102.051 E2.76303
G1 X127.585 Y101.607 E2.78186
G1 X127.351 Y101.181 E2.79803
G1 X127.190 Y100.722 E2.81421
G1 X127.109 Y100.243 E2.83038
G1 X127.109 Y99.756 E2.84656
G1 X127.190 Y99.277 E2.86273
G1 X127.351 Y98.818 E2.87891
G1 X127.585 Y98.392 E2.89508
G1 X127.937 Y97.948 E2.91391
G1 X132.063 Y97.948 E3.05113
G1 X132.415 Y98.392 E3.06996
G1 X132.649 Y98.818 E3.08613
G1 X132.810 Y99.277 E3.10231
G1 X132.891 Y99.756 E3.11848
G1 X132.891 Y100.243 E3.13466
G1 X132.810 Y100.722 E3.15084
G1 X132.649 Y101.181 E3.16701
G1 X132.415 Y101.607 E3.18319
G1 X132.100 Y102.004 E3.20002
G0 X132.003 Y102.051 F7200
G0 X130.403 Y102.051
G0 X130.963 Y102.451
;segType:Loop
G1 X127.744 Y102.451 E3.30707 F1200
G1 X127.251 Y101.830 E3.33344
G1 X126.984 Y101.345 E3.35185
G1 X126.801 Y100.822 E3.37026
G1 X126.709 Y100.276 E3.38868
G1 X126.709 Y99.723 E3.40709
G1 X126.801 Y99.177 E3.42550
G1 X126.984 Y98.654 E3.44392
G1 X127.251 Y98.169 E3.46232
G1 X127.744 Y97.548 E3.48870
G1 X132.256 Y97.548 E3.63876
G1 X132.749 Y98.169 E3.66514
G1 X133.016 Y98.654 E3.68354
G1 X133.199 Y99.177 E3.70197
G1 X133.291 Y99.723 E3.72037
G1 X133.291 Y100.276 E3.73878
G1 X133.199 Y100.822 E3.75720
G1 X133.016 Y101.345 E3.77561
G1 X132.749 Y101.830 E3.79403
G1 X132.256 Y102.451 E3.82040
G1 X131.163 Y102.451 E3.85675
G0 X131.961 Y102.811 F7200
;segType:Infill
G1 X132.221 Y103.260 E3.87399 F1500
G0 X132.203 Y102.811 F7200
G1 X131.771 Y103.560 E3.90278 F1500
G0 X130.315 Y103.959 F7200
G1 X129.652 Y102.811 E3.94686 F1500
G0 X129.894 Y102.811 F7200
G1 X129.278 Y103.877 E3.98782 F1500
G0 X126.475 Y100.981 F7200
G1 X126.174 Y100.981 E3.99784 F1500
G0 X126.182 Y98.981 F7200
G1 X126.489 Y98.981 E4.00804 F1500
G0 X126.744 Y97.774 F7200
G1 X126.905 Y98.052 E4.01872 F1500
; ------------------------------------
; Layer #8
; ------------------------------------
G92 E0 ;reset extr
G0 F3000 E-1.00000
G0 F600 Z2.800
G0 X126.421 Y97.609 F7200
G0 X127.178 Y98.303
G0 X126.984 Y98.654
G0 X126.801 Y99.177
G0 X126.709 Y99.723
G0 X126.709 Y100.276
G0 X126.801 Y100.822
G0 X126.984 Y101.345
G0 X127.251 Y101.830
G0 X127.744 Y102.451
G0 X131.698 Y102.451
G0 X132.701 Y103.371
G0 X132.428 Y103.121
G0 F3000 E0.00000
;segType:Infill
G1 X127.573 Y103.121 E0.16149 F1500
G0 X127.532 Y102.762 F7200
G1 X127.394 Y103.001 E0.17067 F1500
G0 X127.621 Y103.153 F7200
G1 X127.033 Y102.135 E0.20979 F1500
G0 X126.202 Y101.121 F7200
G1 X126.524 Y101.121 E0.22051 F1500
G0 X126.194 Y101.079 F7200
G1 X126.415 Y100.696 E0.23522 F1500
G0 X126.641 Y101.456 F7200
G1 X126.073 Y100.471 E0.27303 F1500
G0 X126.446 Y99.121 F7200
G1 X126.154 Y99.121 E0.28274 F1500
G0 X126.787 Y97.709 F7200
G1 X126.944 Y97.980 E0.29315 F1500
G0 X127.210 Y97.121 F7200
G1 X132.791 Y97.121 E0.47880 F1500
G0 X132.969 Y97.344 F7200
G1 X132.794 Y97.647 E0.49045 F1500
G0 X132.317 Y97.625 F7200
G0 X133.631 Y97.686
G0 X133.842 Y97.695
;segType:Perimeter
G1 X134.443 Y98.223 E0.51706 F600
G1 X134.796 Y100.000 E0.57731
G1 X134.432 Y101.835 E0.63956
G1 X133.392 Y103.391 E0.70180
G1 X131.836 Y104.431 E0.76403
G1 X130.000 Y104.796 E0.82629
G1 X128.165 Y104.431 E0.88854
G1 X126.609 Y103.391 E0.95078
G1 X125.569 Y101.835 E1.01301
G1 X125.204 Y100.000 E1.07527
G1 X125.569 Y98.164 E1.13752
G1 X126.609 Y96.608 E1.19976
G1 X128.165 Y95.568 E1.26200
G1 X130.000 Y95.204 E1.32425
G1 X131.836 Y95.568 E1.38650
G1 X133.392 Y96.608 E1.44873
G1 X134.398 Y98.114 E1.50897
G0 X134.443 Y98.223 F7200
G0 X134.755 Y99.792
G0 X134.388 Y100.000
G0 X134.254 Y99.321
;segType:Loop
G1 X134.388 Y100.000 E1.53199 F1200
G1 X134.055 Y101.679 E1.58895
G1 X133.104 Y103.103 E1.64589
G1 X131.680 Y104.054 E1.70284
G1 X130.000 Y104.388 E1.75980
G1 X128.321 Y104.054 E1.81676
G1 X126.897 Y103.103 E1.87370
G1 X125.946 Y101.679 E1.93065
G1 X125.612 Y100.000 E1.98761
G1 X125.946 Y98.320 E2.04457
G1 X126.897 Y96.896 E2.10152
G1 X128.321 Y95.945 E2.15846
G1 X130.000 Y95.612 E2.21541
G1 X131.680 Y95.945 E2.27237
G1 X133.104 Y96.896 E2.32931
G1 X134.055 Y98.320 E2.38625
G1 X134.215 Y99.124 E2.41354
G0 F3000 E1.41354
G0 X134.215 Y99.124 F7200
G0 X133.043 Y98.732
G0 X133.016 Y98.654
G0 X132.749 Y98.169
G0 X132.256 Y97.548
G0 X129.514 Y97.548
G0 X128.440 Y97.188
G0 F3000 E2.41354
;segType:Infill
G1 X129.027 Y96.172 E2.45257 F1500
G0 X128.326 Y96.375 F7200
G1 X128.796 Y97.188 E2.48382 F1500
G0 X130.750 Y97.188 F7200
G1 X131.299 Y96.237 E2.52036 F1500
G0 X130.460 Y96.070 F7200
G1 X131.106 Y97.188 E2.56331 F1500
G0 X133.847 Y99.121 F7200
G1 X133.554 Y99.121 E2.57304 F1500
G0 X133.651 Y100.163 F7200
G1 X133.951 Y99.644 E2.59297 F1500
G0 X133.476 Y101.121 F7200
G1 X133.799 Y101.121 E2.60371 F1500
G0 X133.663 Y101.618 F7200
G1 X133.438 Y101.228 E2.61866 F1500
G0 F3000 E1.61866
G0 X132.947 Y101.471 F7200
G0 X132.749 Y101.830
G0 X132.256 Y102.451
G0 X130.963 Y102.451
G0 X130.963 Y102.451
G0 F3000 E2.61866
;segType:Loop
G1 X127.744 Y102.451 E2.72571 F1200
G1 X127.251 Y101.830 E2.75208
G1 X126.984 Y101.345 E2.77049
G1 X126.801 Y100.822 E2.78891
G1 X126.709 Y100.276 E2.80733
G1 X126.709 Y99.723 E2.82573
G1 X126.801 Y99.177 E2.84414
G1 X126.984 Y98.654 E2.86256
G1 X127.251 Y98.169 E2.88097
G1 X127.744 Y97.548 E2.90734
G1 X132.256 Y97.548 E3.05741
G1 X132.749 Y98.169 E3.08378
G1 X133.016 Y98.654 E3.10219
G1 X133.199 Y99.177 E3.12061
G1 X133.291 Y99.723 E3.13902
G1 X133.291 Y100.276 E3.15743
G1 X133.199 Y100.822 E3.17584
G1 X133.016 Y101.345 E3.19426
G1 X132.749 Y101.830 E3.21267
G1 X132.256 Y102.451 E3.23904
G1 X131.163 Y102.451 E3.27540
G0 X132.803 Y102.051 F7200
;segType:Perimeter
G1 X132.003 Y102.051 E3.30201 F600
G1 X127.937 Y102.051 E3.43722
G1 X127.585 Y101.607 E3.45605
G1 X127.351 Y101.181 E3.47223
G1 X127.190 Y100.722 E3.48840
G1 X127.109 Y100.243 E3.50458
G1 X127.109 Y99.756 E3.52075
G1 X127.190 Y99.277 E3.53692
G1 X127.351 Y98.818 E3.55311
G1 X127.585 Y98.392 E3.56927
G1 X127.937 Y97.948 E3.58811
G1 X132.063 Y97.948 E3.72532
G1 X132.415 Y98.392 E3.74416
G1 X132.649 Y98.818 E3.76033
G1 X132.810 Y99.277 E3.77651
G1 X132.891 Y99.756 E3.79268
G1 X132.891 Y100.243 E3.80885
G1 X132.810 Y100.722 E3.82503
G1 X132.649 Y101.181 E3.84120
G1 X132.415 Y101.607 E3.85738
G1 X132.100 Y102.004 E3.87421
G0 X132.003 Y102.051 F7200
G0 X130.403 Y102.051
G0 X129.813 Y102.811
;segType:Infill
G1 X129.206 Y103.863 E3.91462 F1500
G0 F3000 E2.91462
G0 X129.733 Y102.811 F7200
G0 F3000 E3.91462
G1 X130.387 Y103.944 E3.95815 F1500
G0 X131.639 Y103.648 F7200
G1 X132.122 Y102.811 E3.99032 F1500
G0 F3000 E2.99032
G0 X132.279 Y103.221 F7200
G0 F3000 E3.99032
G1 X132.042 Y102.811 E4.00605 F1500
; ------------------------------------
; Layer #9
; ------------------------------------
G92 E0 ;reset extr
G0 F3000 E-1.00000
G0 F600 Z3.000
G0 X132.219 Y103.261 F7200
G0 F3000 E0.00000
;segType:Infill
G1 X127.782 Y103.261 E0.14755 F1500
G0 X127.335 Y102.962 F7200
G1 X127.485 Y102.703 E0.15750 F1500
G0 X127.753 Y103.241 F7200
G1 X127.329 Y102.507 E0.18570 F1500
G0 X126.230 Y101.261 F7200
G1 X126.573 Y101.261 E0.19712 F1500
G0 X126.397 Y100.588 F7200
G1 X126.173 Y100.975 E0.21199 F1500
G0 X126.518 Y101.102 F7200
G1 X126.030 Y100.258 E0.24440 F1500
G0 X126.422 Y99.261 F7200
G1 X126.126 Y99.261 E0.25425 F1500
G0 X126.831 Y97.644 F7200
G1 X126.990 Y97.919 E0.26482 F1500
G0 X127.513 Y97.261 F7200
G1 X127.087 Y97.261 E0.27898 F1500
G0 X128.360 Y97.188 F7200
G1 X128.936 Y96.190 E0.31731 F1500
G0 X128.385 Y96.336 F7200
G1 X128.877 Y97.188 E0.35006 F1500
G0 X130.669 Y97.188 F7200
G1 X131.227 Y96.222 E0.38716 F1500
G0 X130.551 Y96.088 F7200
G1 X131.186 Y97.188 E0.42940 F1500
G0 X132.487 Y97.261 F7200
G1 X132.914 Y97.261 E0.44359 F1500
G0 X132.926 Y97.279 F7200
G1 X132.747 Y97.588 E0.45547 F1500
G0 X133.842 Y97.695 F7200
;segType:Perimeter
G1 X134.443 Y98.223 E0.48208 F600
G1 X134.796 Y100.000 E0.54233
G1 X134.432 Y101.835 E0.60458
G1 X133.392 Y103.391 E0.66682
G1 X131.836 Y104.431 E0.72906
G1 X130.000 Y104.796 E0.79131
G1 X128.165 Y104.431 E0.85357
G1 X126.609 Y103.391 E0.91580
G1 X125.569 Y101.835 E0.97804
G1 X125.204 Y100.000 E1.04029
G1 X125.569 Y98.164 E1.10255
G1 X126.609 Y96.608 E1.16478
G1 X128.165 Y95.568 E1.22702
G1 X130.000 Y95.204 E1.28927
G1 X131.836 Y95.568 E1.35152
G1 X133.392 Y96.608 E1.41375
G1 X134.398 Y98.114 E1.47399
G0 X134.443 Y98.223 F7200
G0 X134.755 Y99.792
G0 X134.388 Y100.000
G0 X134.254 Y99.321
;segType:Loop
G1 X134.388 Y100.000 E1.49702 F1200
G1 X134.055 Y101.679 E1.55397
G1 X133.104 Y103.103 E1.61091
G1 X131.680 Y104.054 E1.66786
G1 X130.000 Y104.388 E1.72482
G1 X128.321 Y104.054 E1.78178
G1 X126.897 Y103.103 E1.83873
G1 X125.946 Y101.679 E1.89567
G1 X125.612 Y100.000 E1.95263
G1 X125.946 Y98.320 E2.00959
G1 X126.897 Y96.896 E2.06654
G1 X128.321 Y95.945 E2.12348
G1 X130.000 Y95.612 E2.18044
G1 X131.680 Y95.945 E2.23740
G1 X133.104 Y96.896 E2.29434
G1 X134.055 Y98.320 E2.35128
G1 X134.215 Y99.124 E2.37856
G0 F3000 E1.37856
G0 X134.215 Y99.124 F7200
G0 X133.291 Y99.983
G0 X133.291 Y100.276
G0 X133.199 Y100.822
G0 X133.016 Y101.345
G0 X132.749 Y101.830
G0 X132.256 Y102.451
G0 X130.637 Y102.451
G0 X128.808 Y104.151
G0 X129.133 Y103.848
G0 F3000 E2.37856
;segType:Infill
G1 X129.732 Y102.811 E2.41841 F1500
G0 X129.814 Y102.811 F7200
G1 X130.460 Y103.930 E2.46138 F1500
G0 X131.517 Y103.719 F7200
G1 X132.042 Y102.811 E2.49627 F1500
G0 X132.123 Y102.811 F7200
G1 X132.337 Y103.182 E2.51051 F1500
G0 X133.578 Y99.261 F7200
G1 X133.875 Y99.261 E2.52038 F1500
G0 X133.651 Y100.023 F7200
G1 X133.930 Y99.540 E2.53894 F1500
G0 X133.469 Y101.141 F7200
G1 X133.706 Y101.553 E2.55475 F1500
G0 F3000 E1.55475
G0 X133.427 Y101.261 F7200
G0 F3000 E2.55475
G1 X133.771 Y101.261 E2.56619 F1500
G0 F3000 E1.56619
G0 X134.172 Y101.091 F7200
G0 X132.847 Y101.652
G0 X132.749 Y101.830
G0 X132.256 Y102.451
G0 X130.963 Y102.451
G0 X130.963 Y102.451
G0 F3000 E2.56619
;segType:Loop
G1 X127.744 Y102.451 E2.67324 F1200
G1 X127.251 Y101.830 E2.69961
G1 X126.984 Y101.345 E2.71802
G1 X126.801 Y100.822 E2.73643
G1 X126.709 Y100.276 E2.75485
G1 X126.709 Y99.723 E2.77326
G1 X126.801 Y99.177 E2.79167
G1 X126.984 Y98.654 E2.81009
G1 X127.251 Y98.169 E2.82849
G1 X127.744 Y97.548 E2.85487
G1 X132.256 Y97.548 E3.00493
G1 X132.749 Y98.169 E3.03131
G1 X133.016 Y98.654 E3.04971
G1 X133.199 Y99.177 E3.06814
G1 X133.291 Y99.723 E3.08654
G1 X133.291 Y100.276 E3.10495
G1 X133.199 Y100.822 E3.12337
G1 X133.016 Y101.345 E3.14178
G1 X132.749 Y101.830 E3.16020
G1 X132.256 Y102.451 E3.18657
G1 X131.163 Y102.451 E3.22292
G0 X132.803 Y102.051 F7200
;segType:Perimeter
G1 X132.003 Y102.051 E3.24953 F600
G1 X127.937 Y102.051 E3.38475
G1 X127.585 Y101.607 E3.40358
G1 X127.351 Y101.181 E3.41975
G1 X127.190 Y100.722 E3.43593
G1 X127.109 Y100.243 E3.45211
G1 X127.109 Y99.756 E3.46828
G1 X127.190 Y99.277 E3.48445
G1 X127.351 Y98.818 E3.50063
G1 X127.585 Y98.392 E3.51680
G1 X127.937 Y97.948 E3.53563
G1 X132.063 Y97.948 E3.67285
G1 X132.415 Y98.392 E3.69168
G1 X132.649 Y98.818 E3.70785
G1 X132.810 Y99.277 E3.72403
G1 X132.891 Y99.756 E3.74020
G1 X132.891 Y100.243 E3.75638
G1 X132.810 Y100.722 E3.77256
G1 X132.649 Y101.181 E3.78873
G1 X132.415 Y101.607 E3.80491
G1 X132.100 Y102.004 E3.82174
G0 X132.003 Y102.051 F7200
G0 X130.403 Y102.051
; ------------------------------------
; Layer #10
; ------------------------------------
G92 E0 ;reset extr
G0 F3000 E-1.00000
G0 F600 Z3.200
G0 X130.879 Y102.451 F7200
G0 X132.296 Y103.642
G0 X132.009 Y103.401
G0 F3000 E0.00000
;segType:Infill
G1 X127.992 Y103.401 E0.13362 F1500
G0 X127.585 Y102.811 F7200
G1 X127.885 Y103.329 E0.15353 F1500
G0 X127.438 Y102.644 F7200
G1 X127.277 Y102.923 E0.16424 F1500
G0 X126.258 Y101.401 F7200
G1 X126.622 Y101.401 E0.17636 F1500
G0 X126.378 Y100.480 F7200
G1 X126.152 Y100.871 E0.19139 F1500
G0 F3000 E-0.80861
G0 X126.436 Y100.820 F7200
G0 F3000 E0.19139
G1 X125.988 Y100.044 E0.22120 F1500
G0 X126.398 Y99.401 F7200
G1 X126.098 Y99.401 E0.23118 F1500
G0 X126.874 Y97.579 F7200
G1 X127.037 Y97.860 E0.24198 F1500
G0 X127.401 Y97.401 F7200
G1 X126.993 Y97.401 E0.25555 F1500
G0 X128.279 Y97.188 F7200
G1 X128.845 Y96.208 E0.29319 F1500
G0 X128.443 Y96.297 F7200
G1 X128.958 Y97.188 E0.32743 F1500
G0 X130.588 Y97.188 F7200
G1 X131.154 Y96.208 E0.36509 F1500
G0 X130.643 Y96.106 F7200
G1 X131.267 Y97.188 E0.40664 F1500
G0 X132.883 Y97.214 F7200
G1 X132.701 Y97.529 E0.41875 F1500
G0 F3000 E-0.58125
G0 X133.008 Y97.401 F7200
G0 F3000 E0.41875
G1 X132.599 Y97.401 E0.43235 F1500
G0 X133.842 Y97.695 F7200
;segType:Perimeter
G1 X134.443 Y98.223 E0.45896 F600
G1 X134.796 Y100.000 E0.51921
G1 X134.432 Y101.835 E0.58146
G1 X133.392 Y103.391 E0.64370
G1 X131.836 Y104.431 E0.70593
G1 X130.000 Y104.796 E0.76819
G1 X128.165 Y104.431 E0.83044
G1 X126.609 Y103.391 E0.89268
G1 X125.569 Y101.835 E0.95491
G1 X125.204 Y100.000 E1.01717
G1 X125.569 Y98.164 E1.07943
G1 X126.609 Y96.608 E1.14166
G1 X128.165 Y95.568 E1.20390
G1 X130.000 Y95.204 E1.26615
G1 X131.836 Y95.568 E1.32840
G1 X133.392 Y96.608 E1.39063
G1 X134.398 Y98.114 E1.45087
G0 X134.443 Y98.223 F7200
G0 X134.755 Y99.792
G0 X134.388 Y100.000
G0 X134.254 Y99.321
;segType:Loop
G1 X134.388 Y100.000 E1.47389 F1200
G1 X134.055 Y101.679 E1.53085
G1 X133.104 Y103.103 E1.58779
G1 X131.680 Y104.054 E1.64474
G1 X130.000 Y104.388 E1.70170
G1 X128.321 Y104.054 E1.75866
G1 X126.897 Y103.103 E1.81560
G1 X125.946 Y101.679 E1.87255
G1 X125.612 Y100.000 E1.92951
G1 X125.946 Y98.320 E1.98647
G1 X126.897 Y96.896 E2.04342
G1 X128.321 Y95.945 E2.10036
G1 X130.000 Y95.612 E2.15731
G1 X131.680 Y95.945 E2.21427
G1 X133.104 Y96.896 E2.27121
G1 X134.055 Y98.320 E2.32815
G1 X134.215 Y99.124 E2.35544
G0 F3000 E1.35544
G0 X134.215 Y99.124 F7200
G0 X133.291 Y99.969
G0 X133.291 Y100.276
G0 X133.199 Y100.822
G0 X133.016 Y101.345
G0 X132.749 Y101.830
G0 X132.256 Y102.451
G0 X130.574 Y102.451
G0 X128.731 Y104.136
G0 X129.061 Y103.834
G0 F3000 E2.35544
;segType:Infill
G1 X129.651 Y102.811 E2.39474 F1500
G0 X129.895 Y102.811 F7200
G1 X130.532 Y103.915 E2.43715 F1500
G0 X131.426 Y103.737 F7200
G1 X131.961 Y102.811 E2.47274 F1500
G0 X132.204 Y102.811 F7200
G1 X132.396 Y103.143 E2.48548 F1500
G0 X133.602 Y99.401 F7200
G1 X133.902 Y99.401 E2.49549 F1500
G0 X133.651 Y99.883 F7200
G1 X133.909 Y99.436 E2.51267 F1500
G0 X133.499 Y101.054 F7200
G1 X133.732 Y101.457 E2.52815 F1500
G0 F3000 E1.52815
G0 X133.378 Y101.401 F7200
G0 F3000 E2.52815
G1 X133.743 Y101.401 E2.54030 F1500
G0 F3000 E1.54030
G0 X134.140 Y101.251 F7200
G0 X132.786 Y101.762
G0 X132.749 Y101.830
G0 X132.256 Y102.451
G0 X130.963 Y102.451
G0 X130.963 Y102.451
G0 F3000 E2.54030
;segType:Loop
G1 X127.744 Y102.451 E2.64734 F1200
G1 X127.251 Y101.830 E2.67372
G1 X126.984 Y101.345 E2.69213
G1 X126.801 Y100.822 E2.71054
G1 X126.709 Y100.276 E2.72896
G1 X126.709 Y99.723 E2.74737
G1 X126.801 Y99.177 E2.76578
G1 X126.984 Y98.654 E2.78420
G1 X127.251 Y98.169 E2.80260
G1 X127.744 Y97.548 E2.82898
G1 X132.256 Y97.548 E2.97904
G1 X132.749 Y98.169 E3.00542
G1 X133.016 Y98.654 E3.02382
G1 X133.199 Y99.177 E3.04224
G1 X133.291 Y99.723 E3.06065
G1 X133.291 Y100.276 E3.07906
G1 X133.199 Y100.822 E3.09748
G1 X133.016 Y101.345 E3.11589
G1 X132.749 Y101.830 E3.13430
G1 X132.256 Y102.451 E3.16068
G1 X131.163 Y102.451 E3.19703
G0 X132.803 Y102.051 F7200
;segType:Perimeter
G1 X132.003 Y102.051 E3.22364 F600
G1 X127.937 Y102.051 E3.35886
G1 X127.585 Y101.607 E3.37769
G1 X127.351 Y101.181 E3.39386
G1 X127.190 Y100.722 E3.41004
G1 X127.109 Y100.243 E3.42621
G1 X127.109 Y99.756 E3.44239
G1 X127.190 Y99.277 E3.45856
G1 X127.351 Y98.818 E3.47474
G1 X127.585 Y98.392 E3.49091
G1 X127.937 Y97.948 E3.50974
G1 X132.063 Y97.948 E3.64696
G1 X132.415 Y98.392 E3.66579
G1 X132.649 Y98.818 E3.68196
G1 X132.810 Y99.277 E3.69814
G1 X132.891 Y99.756 E3.71431
G1 X132.891 Y100.243 E3.73049
G1 X132.810 Y100.722 E3.74666
G1 X132.649 Y101.181 E3.76284
G1 X132.415 Y101.607 E3.77901
G1 X132.100 Y102.004 E3.79585
G0 X132.003 Y102.051 F7200
G0 X130.403 Y102.051
; ------------------------------------
; Layer #11
; ------------------------------------
G92 E0 ;reset extr
G0 F3000 E-1.00000
G0 F600 Z3.400
G0 X130.778 Y102.451 F7200
G0 X132.049 Y103.807
G0 X131.800 Y103.541
G0 F3000 E0.00000
;segType:Infill
G1 X128.201 Y103.541 E0.11968 F1500
G0 X128.016 Y103.417 F7200
G1 X127.666 Y102.811 E0.14297 F1500
G0 X127.391 Y102.585 F7200
G1 X127.219 Y102.884 E0.15445 F1500
G0 X126.287 Y101.541 F7200
G1 X126.681 Y101.541 E0.16755 F1500
G0 X126.360 Y100.371 F7200
G1 X126.132 Y100.767 E0.18275 F1500
G0 F3000 E-0.81725
G0 X126.402 Y100.622 F7200
G0 F3000 E0.18275
G1 X125.995 Y99.917 E0.20982 F1500
G0 X126.375 Y99.541 F7200
G1 X126.070 Y99.541 E0.21995 F1500
G0 X126.918 Y97.514 F7200
G1 X127.083 Y97.801 E0.23098 F1500
G0 X127.290 Y97.541 F7200
G1 X126.900 Y97.541 E0.24396 F1500
G0 X128.198 Y97.188 F7200
G1 X128.753 Y96.226 E0.28090 F1500
G0 X128.511 Y96.274 F7200
G1 X129.039 Y97.188 E0.31599 F1500
G0 X130.507 Y97.188 F7200
G1 X131.082 Y96.193 E0.35420 F1500
G0 X130.734 Y96.124 F7200
G1 X131.348 Y97.188 E0.39505 F1500
G0 X132.838 Y97.152 F7200
G1 X132.654 Y97.470 E0.40729 F1500
G0 X133.101 Y97.541 F7200
G1 X132.710 Y97.541 E0.42030 F1500
G0 X133.842 Y97.695 F7200
;segType:Perimeter
G1 X134.443 Y98.223 E0.44691 F600
G1 X134.796 Y100.000 E0.50716
G1 X134.432 Y101.835 E0.56941
G1 X133.392 Y103.391 E0.63165
G1 X131.836 Y104.431 E0.69389
G1 X130.000 Y104.796 E0.75614
G1 X128.165 Y104.431 E0.81840
G1 X126.609 Y103.391 E0.88063
G1 X125.569 Y101.835 E0.94287
G1 X125.204 Y100.000 E1.00512
G1 X125.569 Y98.164 E1.06738
G1 X126.609 Y96.608 E1.12961
G1 X128.165 Y95.568 E1.19185
G1 X130.000 Y95.204 E1.25410
G1 X131.836 Y95.568 E1.31635
G1 X133.392 Y96.608 E1.37858
G1 X134.398 Y98.114 E1.43882
G0 X134.443 Y98.223 F7200
G0 X134.755 Y99.792
G0 X134.388 Y100.000
G0 X134.254 Y99.321
;segType:Loop
G1 X134.388 Y100.000 E1.46185 F1200
G1 X134.055 Y101.679 E1.51880
G1 X133.104 Y103.103 E1.57574
G1 X131.680 Y104.054 E1.63269
G1 X130.000 Y104.388 E1.68965
G1 X128.321 Y104.054 E1.74661
G1 X126.897 Y103.103 E1.80356
G1 X125.946 Y101.679 E1.86050
G1 X125.612 Y100.000 E1.91746
G1 X125.946 Y98.320 E1.97442
G1 X126.897 Y96.896 E2.03137
G1 X128.321 Y95.945 E2.08831
G1 X130.000 Y95.612 E2.14527
G1 X131.680 Y95.945 E2.20223
G1 X133.104 Y96.896 E2.25917
G1 X134.055 Y98.320 E2.31611
G1 X134.215 Y99.124 E2.34339
G0 F3000 E1.34339
G0 X134.215 Y99.124 F7200
G0 X133.291 Y99.954
G0 X133.291 Y100.276
G0 X133.199 Y100.822
G0 X133.016 Y101.345
G0 X132.749 Y101.830
G0 X132.256 Y102.451
G0 X130.512 Y102.451
G0 X128.653 Y104.120
G0 X128.988 Y103.820
G0 F3000 E2.34339
;segType:Infill
G1 X129.571 Y102.811 E2.38213 F1500
G0 X129.975 Y102.811 F7200
G1 X130.605 Y103.901 E2.42400 F1500
G0 X131.334 Y103.756 F7200
G1 X131.880 Y102.811 E2.46028 F1500
G0 X132.285 Y102.811 F7200
G1 X132.454 Y103.104 E2.47153 F1500
G0 X133.625 Y99.541 F7200
G1 X133.930 Y99.541 E2.48167 F1500
G0 X133.651 Y99.743 F7200
G1 X133.889 Y99.332 E2.49748 F1500
G0 X133.753 Y101.353 F7200
G1 X133.530 Y100.967 E2.51231 F1500
G0 X133.319 Y101.541 F7200
G1 X133.714 Y101.541 E2.52545 F1500
G0 X130.963 Y102.451 F7200
;segType:Loop
G1 X127.744 Y102.451 E2.63249 F1200
G1 X127.251 Y101.830 E2.65887
G1 X126.984 Y101.345 E2.67728
G1 X126.801 Y100.822 E2.69569
G1 X126.709 Y100.276 E2.71411
G1 X126.709 Y99.723 E2.73252
G1 X126.801 Y99.177 E2.75092
G1 X126.984 Y98.654 E2.76935
G1 X127.251 Y98.169 E2.78775
G1 X127.744 Y97.548 E2.81413
G1 X132.256 Y97.548 E2.96419
G1 X132.749 Y98.169 E2.99057
G1 X133.016 Y98.654 E3.00897
G1 X133.199 Y99.177 E3.02739
G1 X133.291 Y99.723 E3.04580
G1 X133.291 Y100.276 E3.06421
G1 X133.199 Y100.822 E3.08263
G1 X133.016 Y101.345 E3.10104
G1 X132.749 Y101.830 E3.11945
G1 X132.256 Y102.451 E3.14583
G1 X131.163 Y102.451 E3.18218
G0 X132.803 Y102.051 F7200
;segType:Perimeter
G1 X132.003 Y102.051 E3.20879 F600
G1 X127.937 Y102.051 E3.34401
G1 X127.585 Y101.607 E3.36284
G1 X127.351 Y101.181 E3.37901
G1 X127.190 Y100.722 E3.39518
G1 X127.109 Y100.243 E3.41136
G1 X127.109 Y99.756 E3.42754
G1 X127.190 Y99.277 E3.44371
G1 X127.351 Y98.818 E3.45989
G1 X127.585 Y98.392 E3.47606
G1 X127.937 Y97.948 E3.49489
G1 X132.063 Y97.948 E3.63211
G1 X132.415 Y98.392 E3.65094
G1 X132.649 Y98.818 E3.66711
G1 X132.810 Y99.277 E3.68329
G1 X132.891 Y99.756 E3.69946
G1 X132.891 Y100.243 E3.71564
G1 X132.810 Y100.722 E3.73181
G1 X132.649 Y101.181 E3.74799
G1 X132.415 Y101.607 E3.76416
G1 X132.100 Y102.004 E3.78100
G0 X132.003 Y102.051 F7200
G0 X130.403 Y102.051
; ------------------------------------
; Layer #12
; ------------------------------------
G92 E0 ;reset extr
G0 F3000 E-1.00000
G0 F600 Z3.600
G0 X130.694 Y102.451 F7200
G0 X131.802 Y103.972
G0 X131.590 Y103.681
G0 F3000 E0.00000
;segType:Infill
G1 X128.411 Y103.681 E0.10574 F1500
G0 X128.148 Y103.505 F7200
G1 X127.747 Y102.811 E0.13241 F1500
G0 X127.344 Y102.526 F7200
G1 X127.160 Y102.845 E0.14466 F1500
G0 X126.380 Y101.681 F7200
G1 X126.758 Y101.681 E0.15721 F1500
G0 X126.349 Y100.250 F7200
G1 X126.111 Y100.663 E0.17305 F1500
G0 X126.369 Y100.424 F7200
G1 X126.016 Y99.813 E0.19652 F1500
G0 X126.351 Y99.681 F7200
G1 X126.042 Y99.681 E0.20679 F1500
G0 X126.961 Y97.449 F7200
G1 X127.130 Y97.742 E0.21804 F1500
G0 X127.179 Y97.681 F7200
G1 X126.806 Y97.681 E0.23044 F1500
G0 X128.117 Y97.188 F7200
G1 X128.662 Y96.245 E0.26668 F1500
G0 X128.584 Y96.260 F7200
G1 X129.120 Y97.188 E0.30233 F1500
G0 X130.426 Y97.188 F7200
G1 X131.009 Y96.179 E0.34109 F1500
G0 X130.825 Y96.143 F7200
G1 X131.429 Y97.188 E0.38125 F1500
G0 X132.779 Y97.113 F7200
G1 X132.607 Y97.411 E0.39272 F1500
G0 X133.195 Y97.681 F7200
G1 X132.821 Y97.681 E0.40515 F1500
G0 X132.356 Y97.675 F7200
G0 X133.636 Y97.692
G0 X133.842 Y97.695
;segType:Perimeter
G1 X134.443 Y98.223 E0.43175 F600
G1 X134.796 Y100.000 E0.49201
G1 X134.432 Y101.835 E0.55426
G1 X133.392 Y103.391 E0.61649
G1 X131.836 Y104.431 E0.67873
G1 X130.000 Y104.796 E0.74098
G1 X128.165 Y104.431 E0.80324
G1 X126.609 Y103.391 E0.86548
G1 X125.569 Y101.835 E0.92771
G1 X125.204 Y100.000 E0.98997
G1 X125.569 Y98.164 E1.05222
G1 X126.609 Y96.608 E1.11446
G1 X128.165 Y95.568 E1.17669
G1 X130.000 Y95.204 E1.23894
G1 X131.836 Y95.568 E1.30119
G1 X133.392 Y96.608 E1.36343
G1 X134.398 Y98.114 E1.42367
G0 X134.443 Y98.223 F7200
G0 X134.755 Y99.792
G0 X134.388 Y100.000
G0 X134.254 Y99.321
;segType:Loop
G1 X134.388 Y100.000 E1.44669 F1200
G1 X134.055 Y101.679 E1.50365
G1 X133.104 Y103.103 E1.56059
G1 X131.680 Y104.054 E1.61753
G1 X130.000 Y104.388 E1.67450
G1 X128.321 Y104.054 E1.73146
G1 X126.897 Y103.103 E1.78840
G1 X125.946 Y101.679 E1.84535
G1 X125.612 Y100.000 E1.90231
G1 X125.946 Y98.320 E1.95927
G1 X126.897 Y96.896 E2.01621
G1 X128.321 Y95.945 E2.07315
G1 X130.000 Y95.612 E2.13011
G1 X131.680 Y95.945 E2.18707
G1 X133.104 Y96.896 E2.24401
G1 X134.055 Y98.320 E2.30095
G1 X134.215 Y99.124 E2.32824
G0 F3000 E1.32824
G0 X134.215 Y99.124 F7200
G0 X133.291 Y99.940
G0 X133.291 Y100.276
G0 X133.199 Y100.822
G0 X133.016 Y101.345
G0 X132.749 Y101.830
G0 X132.256 Y102.451
G0 X130.449 Y102.451
G0 X128.576 Y104.105
G0 X128.916 Y103.805
G0 F3000 E2.32824
;segType:Infill
G1 X129.490 Y102.811 E2.36642 F1500
G0 X130.056 Y102.811 F7200
G1 X130.677 Y103.886 E2.40773 F1500
G0 X131.243 Y103.774 F7200
G1 X131.799 Y102.811 E2.44472 F1500
G0 X132.366 Y102.811 F7200
G1 X132.512 Y103.065 E2.45447 F1500
G0 X133.868 Y99.227 F7200
G1 X133.639 Y99.623 E2.46968 F1500
G0 X133.649 Y99.681 F7200
G1 X133.958 Y99.681 E2.47995 F1500
G0 X133.773 Y101.249 F7200
G1 X133.555 Y100.871 E2.49444 F1500
G0 X133.242 Y101.681 F7200
G1 X133.621 Y101.681 E2.50702 F1500
G0 X130.963 Y102.451 F7200
;segType:Loop
G1 X127.744 Y102.451 E2.61407 F1200
G1 X127.251 Y101.830 E2.64044
G1 X126.984 Y101.345 E2.65886
G1 X126.801 Y100.822 E2.67727
G1 X126.709 Y100.276 E2.69569
G1 X126.709 Y99.723 E2.71410
G1 X126.801 Y99.177 E2.73250
G1 X126.984 Y98.654 E2.75093
G1 X127.251 Y98.169 E2.76933
G1 X127.744 Y97.548 E2.79571
G1 X132.256 Y97.548 E2.94577
G1 X132.749 Y98.169 E2.97215
G1 X133.016 Y98.654 E2.99055
G1 X133.199 Y99.177 E3.00897
G1 X133.291 Y99.723 E3.02738
G1 X133.291 Y100.276 E3.04579
G1 X133.199 Y100.822 E3.06421
G1 X133.016 Y101.345 E3.08262
G1 X132.749 Y101.830 E3.10103
G1 X132.256 Y102.451 E3.12740
G1 X131.163 Y102.451 E3.16376
G0 X132.803 Y102.051 F7200
;segType:Perimeter
G1 X132.003 Y102.051 E3.19037 F600
G1 X127.937 Y102.051 E3.32558
G1 X127.585 Y101.607 E3.34441
G1 X127.351 Y101.181 E3.36059
G1 X127.190 Y100.722 E3.37676
G1 X127.109 Y100.243 E3.39294
G1 X127.109 Y99.756 E3.40912
G1 X127.190 Y99.277 E3.42529
G1 X127.351 Y98.818 E3.44147
G1 X127.585 Y98.392 E3.45764
G1 X127.937 Y97.948 E3.47647
G1 X132.063 Y97.948 E3.61369
G1 X132.415 Y98.392 E3.63252
G1 X132.649 Y98.818 E3.64869
G1 X132.810 Y99.277 E3.66487
G1 X132.891 Y99.756 E3.68104
G1 X132.891 Y100.243 E3.69721
G1 X132.810 Y100.722 E3.71339
G1 X132.649 Y101.181 E3.72957
G1 X132.415 Y101.607 E3.74574
G1 X132.100 Y102.004 E3.76258
G0 X132.003 Y102.051 F7200
G0 X130.403 Y102.051
; ------------------------------------
; Layer #13
; ------------------------------------
G92 E0 ;reset extr
G0 F3000 E-1.00000
G0 F600 Z3.800
G0 X129.409 Y102.811 F7200
G0 F3000 E0.00000
;segType:Infill
G1 X128.843 Y103.791 E0.03763 F1500
G0 X128.280 Y103.593 F7200
G1 X127.828 Y102.811 E0.06769 F1500
G0 X127.298 Y102.467 F7200
G1 X127.116 Y102.782 E0.07976 F1500
G0 X126.474 Y101.821 F7200
G1 X126.835 Y101.821 E0.09176 F1500
G0 X126.037 Y99.709 F7200
G1 X126.349 Y100.250 E0.11253 F1500
G0 X126.349 Y100.110 F7200
G1 X126.090 Y100.559 E0.12975 F1500
G0 X126.349 Y99.821 F7200
G1 X126.014 Y99.821 E0.14088 F1500
G0 X126.713 Y97.821 F7200
G1 X127.068 Y97.821 E0.15269 F1500
G0 X127.177 Y97.683 F7200
G1 X127.004 Y97.385 E0.16418 F1500
G0 X128.036 Y97.188 F7200
G1 X128.571 Y96.263 E0.19972 F1500
G0 X128.656 Y96.246 F7200
G1 X129.200 Y97.188 E0.23592 F1500
G0 X130.346 Y97.188 F7200
G1 X130.937 Y96.165 E0.27523 F1500
G0 X130.917 Y96.161 F7200
G1 X131.510 Y97.188 E0.31470 F1500
G0 X132.560 Y97.352 F7200
G1 X132.721 Y97.074 E0.32540 F1500
G0 X133.288 Y97.821 F7200
G1 X132.932 Y97.821 E0.33724 F1500
G0 X132.518 Y97.878 F7200
G0 X133.655 Y97.721
G0 X133.842 Y97.695
;segType:Perimeter
G1 X134.443 Y98.223 E0.36385 F600
G1 X134.796 Y100.000 E0.42410
G1 X134.432 Y101.835 E0.48635
G1 X133.392 Y103.391 E0.54859
G1 X131.836 Y104.431 E0.61083
G1 X130.000 Y104.796 E0.67308
G1 X128.165 Y104.431 E0.73534
G1 X126.609 Y103.391 E0.79757
G1 X125.569 Y101.835 E0.85981
G1 X125.204 Y100.000 E0.92206
G1 X125.569 Y98.164 E0.98432
G1 X126.609 Y96.608 E1.04655
G1 X128.165 Y95.568 E1.10879
G1 X130.000 Y95.204 E1.17104
G1 X131.836 Y95.568 E1.23329
G1 X133.392 Y96.608 E1.29552
G1 X134.398 Y98.114 E1.35576
G0 X134.443 Y98.223 F7200
G0 X134.755 Y99.792
G0 X134.388 Y100.000
G0 X134.254 Y99.321
;segType:Loop
G1 X134.388 Y100.000 E1.37879 F1200
G1 X134.055 Y101.679 E1.43575
G1 X133.104 Y103.103 E1.49268
G1 X131.680 Y104.054 E1.54963
G1 X130.000 Y104.388 E1.60659
G1 X128.321 Y104.054 E1.66355
G1 X126.897 Y103.103 E1.72050
G1 X125.946 Y101.679 E1.77744
G1 X125.612 Y100.000 E1.83440
G1 X125.946 Y98.320 E1.89136
G1 X126.897 Y96.896 E1.94831
G1 X128.321 Y95.945 E2.00525
G1 X130.000 Y95.612 E2.06221
G1 X131.680 Y95.945 E2.11917
G1 X133.104 Y96.896 E2.17611
G1 X134.055 Y98.320 E2.23305
G1 X134.215 Y99.124 E2.26033
G0 F3000 E1.26033
G0 X134.215 Y99.124 F7200
G0 X133.291 Y99.956
G0 X133.291 Y100.276
G0 X133.199 Y100.822
G0 X133.016 Y101.345
G0 X132.749 Y101.830
G0 X132.256 Y102.451
G0 X130.518 Y102.451
G0 X128.661 Y104.122
G0 X128.995 Y103.821
G0 F3000 E2.26033
;segType:Infill
G1 X131.006 Y103.821 E2.32719 F1500
G0 X130.137 Y102.811 F7200
G1 X130.750 Y103.872 E2.36794 F1500
G0 X131.152 Y103.792 F7200
G1 X131.718 Y102.811 E2.40563 F1500
G0 X132.439 Y102.798 F7200
G1 X132.571 Y103.026 E2.41435 F1500
G0 X133.621 Y99.515 F7200
G1 X133.847 Y99.123 E2.42941 F1500
G0 X133.651 Y99.821 F7200
G1 X133.986 Y99.821 E2.44054 F1500
G0 X133.794 Y101.144 F7200
G1 X133.574 Y100.763 E2.45519 F1500
G0 X133.165 Y101.821 F7200
G1 X133.527 Y101.821 E2.46723 F1500
G0 X130.963 Y102.451 F7200
;segType:Loop
G1 X127.744 Y102.451 E2.57427 F1200
G1 X127.251 Y101.830 E2.60064
G1 X126.984 Y101.345 E2.61906
G1 X126.801 Y100.822 E2.63747
G1 X126.709 Y100.276 E2.65589
G1 X126.709 Y99.723 E2.67430
G1 X126.801 Y99.177 E2.69270
G1 X126.984 Y98.654 E2.71113
G1 X127.251 Y98.169 E2.72953
G1 X127.744 Y97.548 E2.75591
G1 X132.256 Y97.548 E2.90597
G1 X132.749 Y98.169 E2.93235
G1 X133.016 Y98.654 E2.95075
G1 X133.199 Y99.177 E2.96917
G1 X133.291 Y99.723 E2.98758
G1 X133.291 Y100.276 E3.00599
G1 X133.199 Y100.822 E3.02441
G1 X133.016 Y101.345 E3.04282
G1 X132.749 Y101.830 E3.06123
G1 X132.256 Y102.451 E3.08760
G1 X131.163 Y102.451 E3.12396
G0 X132.803 Y102.051 F7200
;segType:Perimeter
G1 X132.003 Y102.051 E3.15057 F600
G1 X127.937 Y102.051 E3.28578
G1 X127.585 Y101.607 E3.30461
G1 X127.351 Y101.181 E3.32079
G1 X127.190 Y100.722 E3.33696
G1 X127.109 Y100.243 E3.35314
G1 X127.109 Y99.756 E3.36932
G1 X127.190 Y99.277 E3.38549
G1 X127.351 Y98.818 E3.40167
G1 X127.585 Y98.392 E3.41784
G1 X127.937 Y97.948 E3.43667
G1 X132.063 Y97.948 E3.57389
G1 X132.415 Y98.392 E3.59272
G1 X132.649 Y98.818 E3.60889
G1 X132.810 Y99.277 E3.62507
G1 X132.891 Y99.756 E3.64124
G1 X132.891 Y100.243 E3.65742
G1 X132.810 Y100.722 E3.67359
G1 X132.649 Y101.181 E3.68977
G1 X132.415 Y101.607 E3.70594
G1 X132.100 Y102.004 E3.72278
G0 X132.003 Y102.051 F7200
G0 X130.403 Y102.051
; ------------------------------------
; Layer #14
; ------------------------------------
G92 E0 ;reset extr
G0 F3000 E-1.00000
G0 F600 Z4.000
G0 X129.328 Y102.811 F7200
G0 F3000 E0.00000
;segType:Infill
G1 X128.771 Y103.776 E0.03708 F1500
G0 X128.411 Y103.681 F7200
G1 X127.909 Y102.811 E0.07051 F1500
G0 X127.251 Y102.409 F7200
G1 X127.073 Y102.717 E0.08235 F1500
G0 X126.568 Y101.961 F7200
G1 X126.912 Y101.961 E0.09381 F1500
G0 X125.987 Y99.961 F7200
G1 X126.349 Y99.961 E0.10587 F1500
G0 X126.349 Y99.970 F7200
G1 X126.070 Y100.455 E0.12446 F1500
G0 X126.058 Y99.605 F7200
G1 X126.349 Y100.109 E0.14386 F1500
G0 X126.957 Y97.961 F7200
G1 X126.619 Y97.961 E0.15508 F1500
G0 X127.224 Y97.625 F7200
G1 X127.048 Y97.320 E0.16679 F1500
G0 X127.955 Y97.188 F7200
G1 X128.479 Y96.281 E0.20164 F1500
G0 X128.729 Y96.231 F7200
G1 X129.281 Y97.188 E0.23840 F1500
G0 X130.265 Y97.188 F7200
G1 X130.864 Y96.150 E0.27826 F1500
G0 X131.008 Y96.179 F7200
G1 X131.591 Y97.188 E0.31703 F1500
G0 X132.513 Y97.293 F7200
G1 X132.663 Y97.035 E0.32696 F1500
G0 X133.382 Y97.961 F7200
G1 X133.043 Y97.961 E0.33822 F1500
G0 X132.680 Y98.082 F7200
G0 X133.675 Y97.751
G0 X133.842 Y97.695
;segType:Perimeter
G1 X134.443 Y98.223 E0.36483 F600
G1 X134.796 Y100.000 E0.42508
G1 X134.432 Y101.835 E0.48733
G1 X133.392 Y103.391 E0.54957
G1 X131.836 Y104.431 E0.61180
G1 X130.000 Y104.796 E0.67406
G1 X128.165 Y104.431 E0.73631
G1 X126.609 Y103.391 E0.79855
G1 X125.569 Y101.835 E0.86079
G1 X125.204 Y100.000 E0.92304
G1 X125.569 Y98.164 E0.98530
G1 X126.609 Y96.608 E1.04753
G1 X128.165 Y95.568 E1.10977
G1 X130.000 Y95.204 E1.17202
G1 X131.836 Y95.568 E1.23427
G1 X133.392 Y96.608 E1.29650
G1 X134.398 Y98.114 E1.35674
G0 X134.443 Y98.223 F7200
G0 X134.755 Y99.792
G0 X134.388 Y100.000
G0 X134.254 Y99.321
;segType:Loop
G1 X134.388 Y100.000 E1.37976 F1200
G1 X134.055 Y101.679 E1.43672
G1 X133.104 Y103.103 E1.49366
G1 X131.680 Y104.054 E1.55061
G1 X130.000 Y104.388 E1.60757
G1 X128.321 Y104.054 E1.66453
G1 X126.897 Y103.103 E1.72147
G1 X125.946 Y101.679 E1.77842
G1 X125.612 Y100.000 E1.83538
G1 X125.946 Y98.320 E1.89234
G1 X126.897 Y96.896 E1.94928
G1 X128.321 Y95.945 E2.00622
G1 X130.000 Y95.612 E2.06318
G1 X131.680 Y95.945 E2.12014
G1 X133.104 Y96.896 E2.17708
G1 X134.055 Y98.320 E2.23402
G1 X134.215 Y99.124 E2.26131
G0 F3000 E1.26131
G0 X134.215 Y99.124 F7200
G0 X133.291 Y100.114
G0 X133.291 Y100.276
G0 X133.199 Y100.822
G0 X133.016 Y101.345
G0 X132.749 Y101.830
G0 X132.256 Y102.451
G0 X131.109 Y102.451
G0 X129.410 Y104.271
G0 X129.699 Y103.961
G0 F3000 E2.26131
;segType:Infill
G1 X130.302 Y103.961 E2.28135 F1500
G0 F3000 E1.28135
G0 X130.218 Y102.811 F7200
G0 F3000 E2.28135
G1 X130.822 Y103.858 E2.32155 F1500
G0 X131.060 Y103.810 F7200
G1 X131.637 Y102.811 E2.35994 F1500
G0 X132.486 Y102.739 F7200
G1 X132.629 Y102.987 E2.36943 F1500
G0 X133.603 Y99.407 F7200
G1 X133.827 Y99.019 E2.38432 F1500
G0 X133.651 Y99.961 F7200
G1 X134.014 Y99.961 E2.39638 F1500
G0 X133.815 Y101.040 F7200
G1 X133.592 Y100.655 E2.41119 F1500
G0 X133.088 Y101.961 F7200
G1 X133.433 Y101.961 E2.42268 F1500
G0 X130.963 Y102.451 F7200
;segType:Loop
G1 X127.744 Y102.451 E2.52972 F1200
G1 X127.251 Y101.830 E2.55609
G1 X126.984 Y101.345 E2.57451
G1 X126.801 Y100.822 E2.59292
G1 X126.709 Y100.276 E2.61134
G1 X126.709 Y99.723 E2.62975
G1 X126.801 Y99.177 E2.64815
G1 X126.984 Y98.654 E2.66658
G1 X127.251 Y98.169 E2.68498
G1 X127.744 Y97.548 E2.71136
G1 X132.256 Y97.548 E2.86142
G1 X132.749 Y98.169 E2.88780
G1 X133.016 Y98.654 E2.90620
G1 X133.199 Y99.177 E2.92462
G1 X133.291 Y99.723 E2.94303
G1 X133.291 Y100.276 E2.96144
G1 X133.199 Y100.822 E2.97986
G1 X133.016 Y101.345 E2.99827
G1 X132.749 Y101.830 E3.01668
G1 X132.256 Y102.451 E3.04305
G1 X131.163 Y102.451 E3.07941
G0 X132.803 Y102.051 F7200
;segType:Perimeter
G1 X132.003 Y102.051 E3.10602 F600
G1 X127.937 Y102.051 E3.24123
G1 X127.585 Y101.607 E3.26006
G1 X127.351 Y101.181 E3.27624
G1 X127.190 Y100.722 E3.29241
G1 X127.109 Y100.243 E3.30859
G1 X127.109 Y99.756 E3.32477
G1 X127.190 Y99.277 E3.34094
G1 X127.351 Y98.818 E3.35712
G1 X127.585 Y98.392 E3.37329
G1 X127.937 Y97.948 E3.39212
G1 X132.063 Y97.948 E3.52934
G1 X132.415 Y98.392 E3.54817
G1 X132.649 Y98.818 E3.56434
G1 X132.810 Y99.277 E3.58052
G1 X132.891 Y99.756 E3.59669
G1 X132.891 Y100.243 E3.61286
G1 X132.810 Y100.722 E3.62904
G1 X132.649 Y101.181 E3.64522
G1 X132.415 Y101.607 E3.66139
G1 X132.100 Y102.004 E3.67823
G0 X132.003 Y102.051 F7200
G0 X130.403 Y102.051
; ------------------------------------
; Layer #15
; ------------------------------------
G92 E0 ;reset extr
G0 F3000 E-1.00000
G0 F600 Z4.200
G0 X128.356 Y96.355 F7200
G0 F3000 E0.00000
;segType:Infill
G1 X127.874 Y97.188 E0.03200 F1500
G0 X127.271 Y97.566 F7200
G1 X127.091 Y97.255 E0.04394 F1500
G0 X126.525 Y98.101 F7200
G1 X126.877 Y98.101 E0.05565 F1500
G0 X125.999 Y100.101 F7200
G1 X126.349 Y100.101 E0.06729 F1500
G0 X126.078 Y99.500 F7200
G1 X126.349 Y99.969 E0.08530 F1500
G0 X126.349 Y99.830 F7200
G1 X126.049 Y100.350 E0.10528 F1500
G0 X127.007 Y102.101 F7200
G1 X126.661 Y102.101 E0.11676 F1500
G0 X127.204 Y102.350 F7200
G1 X127.029 Y102.652 E0.12837 F1500
G0 X127.990 Y102.811 F7200
G1 X128.518 Y103.726 E0.16352 F1500
G0 X128.698 Y103.762 F7200
G1 X129.247 Y102.811 E0.20005 F1500
G0 X130.299 Y102.811 F7200
G1 X130.895 Y103.843 E0.23970 F1500
G0 X130.969 Y103.828 F7200
G1 X131.556 Y102.811 E0.27877 F1500
G0 X132.533 Y102.681 F7200
G1 X132.687 Y102.948 E0.28903 F1500
G0 X133.340 Y102.101 F7200
G1 X132.993 Y102.101 E0.30055 F1500
G0 X133.610 Y100.546 F7200
G1 X133.835 Y100.936 E0.31551 F1500
G0 X133.651 Y100.101 F7200
G1 X134.001 Y100.101 E0.32715 F1500
G0 X133.806 Y98.915 F7200
G1 X133.584 Y99.299 E0.34189 F1500
G0 X133.476 Y98.101 F7200
G1 X133.123 Y98.101 E0.35363 F1500
G0 X132.809 Y98.278 F7200
G0 X133.693 Y97.779
G0 X133.842 Y97.695
;segType:Perimeter
G1 X134.443 Y98.223 E0.38024 F600
G1 X134.796 Y100.000 E0.44050
G1 X134.432 Y101.835 E0.50275
G1 X133.392 Y103.391 E0.56498
G1 X131.836 Y104.431 E0.62722
G1 X130.000 Y104.796 E0.68947
G1 X128.165 Y104.431 E0.75173
G1 X126.609 Y103.391 E0.81396
G1 X125.569 Y101.835 E0.87620
G1 X125.204 Y100.000 E0.93845
G1 X125.569 Y98.164 E1.00071
G1 X126.609 Y96.608 E1.06294
G1 X128.165 Y95.568 E1.12518
G1 X130.000 Y95.204 E1.18743
G1 X131.836 Y95.568 E1.24968
G1 X133.392 Y96.608 E1.31191
G1 X134.398 Y98.114 E1.37215
G0 X134.443 Y98.223 F7200
G0 X134.755 Y99.792
G0 X134.388 Y100.000
G0 X134.254 Y99.321
;segType:Loop
G1 X134.388 Y100.000 E1.39518 F1200
G1 X134.055 Y101.679 E1.45214
