;FLAVOR:RepRap
;TIME:703
;Filament used: 0.477564m
;Layer height: 0.2
;MINX:115.207
;MINY:90.208
;MINZ:0.36
;MAXX:134.791
;MAXY:109.791
;MAXZ:36.11
;Generated with Cura_SteamEngine 4.8.0
T0
M190 S60
M104 S215
M109 S215
M82 ;absolute extrusion mode
;Craftbot Start Script
G28 X0Y0 ;home xy
G28 Z0 ;home z
G91 ;relative movements
G0 F100 ;speed 100mm/sec
G0 X15 Y15 Z0.4 E12 ;purge nozzle - move to xy15
G90 ;Absolute movements
M83 ;relative extrusion mode
G1 F1500 E-6.5
;LAYER_COUNT:174
;LAYER:-6
M107
G0 F7200 X117.899 Y93.57 Z0.36
;TYPE:SUPPORT-INTERFACE
G1 F1500 E6.5
G1 F1350 X118.102 Y93.336 E0.03709
G1 X118.305 Y93.131 E0.03454
G1 X118.518 Y92.943 E0.03402
G1 X118.848 Y92.687 E0.05001
G1 X118.987 Y92.586 E0.02057
G1 X120.46 Y91.601 E0.21217
G1 X120.58 Y91.526 E0.01694
G1 X120.9 Y91.341 E0.04426
G1 X121.168 Y91.206 E0.03593
G1 X121.418 Y91.1 E0.03251
G1 X121.718 Y90.996 E0.03802
G1 X122.128 Y90.885 E0.05086
G1 X122.293 Y90.846 E0.0203
G1 X124.017 Y90.505 E0.21042
G1 X124.161 Y90.481 E0.01748
G1 X124.555 Y90.43 E0.04757
G1 X124.82 Y90.411 E0.03181
G1 X125.116 Y90.409 E0.03544
G1 X125.409 Y90.427 E0.03515
G1 X125.849 Y90.483 E0.05311
G1 X125.976 Y90.503 E0.01539
G1 X127.734 Y90.852 E0.2146
G1 X127.848 Y90.878 E0.014
G1 X128.246 Y90.984 E0.04932
G1 X128.487 Y91.065 E0.03044
G1 X128.761 Y91.175 E0.03535
G1 X129.055 Y91.318 E0.03915
G1 X129.4 Y91.515 E0.04757
G1 X129.548 Y91.607 E0.02087
G1 X131.03 Y92.598 E0.21347
G1 X131.137 Y92.675 E0.01578
G1 X131.442 Y92.908 E0.04596
G1 X131.657 Y93.095 E0.03412
G1 X131.847 Y93.281 E0.03184
G1 X132.069 Y93.532 E0.04012
G1 X132.302 Y93.835 E0.04577
G1 X132.426 Y94.006 E0.02529
G1 X133.373 Y95.423 E0.20407
G1 X133.486 Y95.603 E0.02545
G1 X133.662 Y95.905 E0.04185
G1 X133.79 Y96.164 E0.03459
G1 X133.9 Y96.424 E0.0338
G1 X133.999 Y96.709 E0.03613
G1 X134.11 Y97.113 E0.05017
G1 X134.154 Y97.298 E0.02277
G1 X134.494 Y99.015 E0.20958
G1 X134.518 Y99.154 E0.01689
G1 X134.568 Y99.527 E0.04506
G1 X134.589 Y99.825 E0.03577
G1 X134.591 Y100.113 E0.03448
G1 X134.574 Y100.397 E0.03407
G1 X134.518 Y100.84 E0.05347
G1 X134.494 Y100.985 E0.0176
G1 X134.15 Y102.721 E0.2119
G1 X134.118 Y102.855 E0.0165
G1 X134.015 Y103.244 E0.04818
G1 X133.935 Y103.485 E0.0304
G1 X133.819 Y103.772 E0.03707
G1 X133.692 Y104.033 E0.03475
G1 X133.473 Y104.417 E0.05293
G1 X133.4 Y104.535 E0.01661
G1 X132.399 Y106.035 E0.21592
G1 X132.333 Y106.126 E0.01346
G1 X132.094 Y106.439 E0.04715
G1 X131.909 Y106.652 E0.03378
G1 X131.712 Y106.852 E0.03361
G1 X131.476 Y107.061 E0.03775
G1 X131.137 Y107.326 E0.05152
G1 X131.02 Y107.408 E0.01711
G1 X129.556 Y108.386 E0.21081
G1 X129.399 Y108.485 E0.02222
G1 X129.089 Y108.665 E0.04292
G1 X128.837 Y108.79 E0.03368
G1 X128.575 Y108.901 E0.03407
G1 X128.284 Y109.002 E0.03688
G1 X127.862 Y109.117 E0.05237
G1 X127.735 Y109.147 E0.01563
G1 X125.997 Y109.493 E0.21219
G1 X125.828 Y109.521 E0.02051
G1 X125.47 Y109.569 E0.04325
G1 X125.178 Y109.59 E0.03505
G1 X124.891 Y109.592 E0.03437
G1 X124.594 Y109.574 E0.03563
G1 X124.174 Y109.52 E0.0507
G1 X123.998 Y109.492 E0.02134
G1 X122.266 Y109.147 E0.21146
G1 X122.129 Y109.116 E0.01682
G1 X121.775 Y109.021 E0.04389
G1 X121.49 Y108.925 E0.03601
G1 X121.219 Y108.816 E0.03497
G1 X120.965 Y108.692 E0.03384
G1 X120.591 Y108.478 E0.05159
G1 X120.452 Y108.392 E0.01957
G1 X118.992 Y107.416 E0.21028
G1 X118.848 Y107.313 E0.0212
G1 X118.57 Y107.101 E0.04186
G1 X118.336 Y106.898 E0.03709
G1 X118.148 Y106.712 E0.03167
G1 X117.931 Y106.467 E0.03919
G1 X117.684 Y106.147 E0.0484
G1 X117.583 Y106.008 E0.02057
G1 X116.599 Y104.534 E0.21221
G1 X116.52 Y104.408 E0.01781
G1 X116.336 Y104.091 E0.04389
G1 X116.21 Y103.836 E0.03406
G1 X116.1 Y103.575 E0.03391
G1 X115.998 Y103.283 E0.03703
G1 X115.879 Y102.848 E0.054
G1 X115.855 Y102.747 E0.01243
G1 X115.498 Y100.952 E0.21914
G1 X115.484 Y100.865 E0.01055
G1 X115.429 Y100.451 E0.05001
G1 X115.41 Y100.178 E0.03277
G1 X115.408 Y99.886 E0.03496
G1 X115.425 Y99.6 E0.03431
G1 X115.481 Y99.165 E0.05252
G1 X115.506 Y99.003 E0.01963
G1 X115.853 Y97.266 E0.21209
G1 X115.884 Y97.129 E0.01682
G1 X115.977 Y96.78 E0.04325
G1 X116.077 Y96.483 E0.03752
G1 X116.184 Y96.219 E0.03411
G1 X116.306 Y95.968 E0.03342
G1 X116.522 Y95.591 E0.05202
G1 X116.608 Y95.452 E0.01957
G1 X117.584 Y93.992 E0.21028
G1 X117.687 Y93.848 E0.0212
G1 X117.899 Y93.57 E0.04186
G0 F7200 X118.4 Y93.047
G1 F1350 X118.4 Y106.953 E1.66506
G0 F7200 X120 Y108.089
G1 F1350 X120 Y91.908 E1.93746
G0 F7200 X121.6 Y91.036
G1 F1350 X121.6 Y108.962 E2.1464
G0 F7200 X123.2 Y109.333
G1 F1350 X123.2 Y90.666 E2.23512
G0 F7200 X124.8 Y90.412
G1 F1350 X124.8 Y109.586 E2.29583
G0 F7200 X126.4 Y109.413
G1 F1350 X126.4 Y90.588 E2.25404
G0 F7200 X128 Y90.919
G1 F1350 X128 Y109.08 E2.17453
G0 F7200 X129.6 Y108.357
G1 F1350 X129.6 Y91.642 E2.0014
G0 F7200 X131.2 Y92.724
G1 F1350 X131.2 Y107.277 E1.74253
G0 F7200 X132.8 Y105.435
G1 F1350 X132.8 Y94.566 E1.30142
G0 F7200 X134.4 Y98.541
G1 F1350 X134.4 Y101.46 E0.34951
G0 F7200 X116.8 Y104.835
G1 F1350 X116.8 Y95.164 E1.15797
G0 F600 X116.8 Y95.164 Z0.66
G0 F7200 X115.991 Y103.263
;TIME_ELAPSED:15.104493
;LAYER:-5
;TYPE:SUPPORT
G1 F1350 X121.735 Y109.007 E0.81054
G1 X121.489 Y108.925 E0.02587
G1 X121.218 Y108.815 E0.02918
G1 X120.964 Y108.692 E0.02816
G1 X120.59 Y108.477 E0.04304
G1 X120.451 Y108.392 E0.01626
G1 X118.991 Y107.415 E0.17529
G1 X118.846 Y107.312 E0.01775
G1 X118.569 Y107.101 E0.03474
G1 X118.335 Y106.898 E0.03091
G1 X118.147 Y106.712 E0.02639
G1 X117.93 Y106.466 E0.03273
G1 X117.683 Y106.147 E0.04026
G1 X117.581 Y106.008 E0.0172
G1 X116.598 Y104.533 E0.17687
G1 X116.519 Y104.407 E0.01484
G1 X116.335 Y104.091 E0.03649
G1 X116.209 Y103.836 E0.02838
G1 X116.099 Y103.574 E0.02835
G1 X115.997 Y103.283 E0.03077
G0 F7200 X121.735 Y109.007
G1 F1350 X121.774 Y109.021 E0.00413
G1 X122.127 Y109.115 E0.03645
G1 X122.265 Y109.146 E0.01411
G1 X123.543 Y109.401 E0.13003
G1 X115.597 Y101.454 E1.12134
G1 X115.497 Y100.952 E0.05107
G1 X115.483 Y100.864 E0.00889
G1 X115.428 Y100.45 E0.04167
G1 X115.409 Y100.177 E0.02731
G1 X115.406 Y99.885 E0.02914
G1 X115.408 Y99.851 E0.0034
G1 X125.146 Y109.59 E1.37421
G1 X125.177 Y109.59 E0.00309
G1 X125.469 Y109.569 E0.02921
G1 X125.826 Y109.52 E0.03596
G1 X125.996 Y109.492 E0.01719
G1 X126.385 Y109.414 E0.03959
G1 X115.582 Y98.612 E1.52435
G1 X115.817 Y97.432 E0.12005
G1 X127.564 Y109.18 E1.6577
G1 X127.733 Y109.146 E0.0172
G1 X127.861 Y109.117 E0.0131
G1 X128.283 Y109.001 E0.04367
G1 X128.573 Y108.9 E0.03064
G1 X128.662 Y108.863 E0.00962
G1 X116.135 Y96.336 E1.7677
G1 X116.183 Y96.218 E0.01271
G1 X116.305 Y95.967 E0.02785
G1 X116.521 Y95.59 E0.04335
G1 X116.607 Y95.452 E0.01622
G1 X116.63 Y95.416 E0.00426
G1 X129.581 Y108.368 E1.8276
G1 X130.429 Y107.801 E0.10179
G1 X117.196 Y94.569 E1.86725
G1 X117.583 Y93.991 E0.06941
G1 X117.685 Y93.847 E0.01761
G1 X117.773 Y93.731 E0.01453
G1 X131.265 Y107.224 E1.90394
G1 X131.475 Y107.06 E0.02659
G1 X131.711 Y106.852 E0.03139
G1 X131.908 Y106.652 E0.02801
G1 X132.001 Y106.545 E0.01415
G1 X118.454 Y92.998 E1.91163
G1 X118.517 Y92.942 E0.00841
G1 X118.846 Y92.686 E0.0416
G1 X118.986 Y92.585 E0.01723
G1 X119.267 Y92.397 E0.03373
G1 X132.601 Y105.731 E1.88157
G1 X133.167 Y104.883 E0.10173
G1 X120.115 Y91.831 E1.84178
G1 X120.459 Y91.6 E0.04135
G1 X120.579 Y91.525 E0.01412
G1 X120.899 Y91.341 E0.03683
G1 X120.993 Y91.294 E0.01049
G1 X133.704 Y104.006 E1.79373
G1 X133.818 Y103.772 E0.02597
G1 X133.934 Y103.485 E0.03089
G1 X134.014 Y103.243 E0.02543
G1 X134.086 Y102.973 E0.02788
G1 X122.025 Y90.912 E1.70194
G1 X122.127 Y90.884 E0.01055
G1 X122.292 Y90.846 E0.01689
G1 X123.194 Y90.668 E0.09174
G1 X134.331 Y101.804 E1.57148
G1 X134.493 Y100.984 E0.0834
G1 X134.517 Y100.84 E0.01457
G1 X134.546 Y100.605 E0.02363
G1 X124.392 Y90.45 E1.43291
G1 X124.554 Y90.429 E0.0163
G1 X124.819 Y90.411 E0.0265
G1 X125.115 Y90.409 E0.02954
G1 X125.408 Y90.426 E0.02928
G1 X125.836 Y90.481 E0.04306
G1 X134.519 Y99.163 E1.22519
G1 X134.517 Y99.154 E0.00092
G1 X134.493 Y99.014 E0.01417
G1 X134.175 Y97.406 E0.16355
G1 X127.593 Y90.824 E0.92879
G1 X127.733 Y90.851 E0.01423
G1 X127.847 Y90.878 E0.01169
G1 X128.245 Y90.984 E0.0411
G1 X128.486 Y91.064 E0.02534
G1 X128.76 Y91.175 E0.0295
G1 X129.054 Y91.317 E0.03258
G1 X129.399 Y91.515 E0.03969
G1 X129.547 Y91.607 E0.01739
G1 X130.282 Y92.098 E0.0882
G1 X132.9 Y94.716 E0.36943
G0 F7200 X132.425 Y94.005
G1 F1350 X132.301 Y93.835 E0.021
G1 X132.067 Y93.531 E0.03828
G1 X131.846 Y93.28 E0.03337
G1 X131.656 Y93.094 E0.02653
G1 X131.441 Y92.908 E0.02837
G1 X131.135 Y92.674 E0.03844
G1 X131.029 Y92.597 E0.01307
G1 X130.282 Y92.098 E0.08964
G0 F600 X130.282 Y92.098 Z0.86
G0 F7200 X126 Y90.303
;TIME_ELAPSED:29.650075
;LAYER:-4
;TYPE:SUPPORT-INTERFACE
G1 F1800 X125.873 Y90.283 E0.00428
G1 X125.111 Y90.208 E0.02547
G1 X124.522 Y90.231 E0.01961
G1 X123.991 Y90.305 E0.01783
G1 X123.513 Y90.4 E0.01621
G1 X126.489 Y90.4 E0.09898
G1 X127.778 Y90.656 E0.04371
G1 X128.286 Y90.786 E0.01744
G1 X128.325 Y90.8 E0.00138
G1 X121.719 Y90.8 E0.21972
G1 X121.345 Y90.913 E0.01299
G1 X120.811 Y91.161 E0.01958
G1 X120.745 Y91.2 E0.00255
G1 X129.234 Y91.2 E0.28235
G1 X129.511 Y91.348 E0.01045
G1 X129.659 Y91.439 E0.00578
G1 X129.9 Y91.6 E0.00964
G1 X120.102 Y91.6 E0.32588
G1 X119.503 Y92 E0.02396
G1 X130.498 Y92 E0.3657
G1 X131.097 Y92.4 E0.02396
G1 X118.905 Y92.4 E0.40551
G1 X118.87 Y92.423 E0.00139
G1 X118.737 Y92.52 E0.00548
G1 X118.397 Y92.8 E0.01465
G1 X131.62 Y92.8 E0.4398
G1 X132.007 Y93.158 E0.01753
G1 X132.042 Y93.2 E0.00182
G1 X117.969 Y93.2 E0.46807
G1 X117.742 Y93.445 E0.01111
G1 X117.627 Y93.6 E0.00642
G1 X132.37 Y93.6 E0.49035
G1 X132.465 Y93.717 E0.00501
G1 X132.584 Y93.882 E0.00677
G1 X132.663 Y94 E0.00472
G1 X117.338 Y94 E0.50971
G1 X117.071 Y94.4 E0.016
G1 X132.931 Y94.4 E0.52751
G1 X133.199 Y94.8 E0.01601
G1 X116.803 Y94.8 E0.54533
G1 X116.536 Y95.2 E0.016
G1 X133.467 Y95.2 E0.56313
G1 X133.543 Y95.315 E0.00458
G1 X133.714 Y95.6 E0.01105
G1 X116.291 Y95.6 E0.57949
G1 X116.076 Y96 E0.0151
G1 X133.926 Y96 E0.59369
G1 X134.087 Y96.351 E0.01284
G1 X134.102 Y96.4 E0.0017
G1 X115.905 Y96.4 E0.60523
G1 X115.788 Y96.716 E0.01121
G1 X115.767 Y96.8 E0.00288
G1 X134.224 Y96.8 E0.61388
G1 X134.305 Y97.066 E0.00925
G1 X134.337 Y97.2 E0.00458
G1 X115.664 Y97.2 E0.62107
G1 X115.658 Y97.222 E0.00076
G1 X115.583 Y97.6 E0.01282
G1 X134.418 Y97.6 E0.62645
G1 X134.497 Y98 E0.01356
G1 X115.503 Y98 E0.63174
G1 X115.424 Y98.4 E0.01356
G1 X134.577 Y98.4 E0.63703
G1 X134.656 Y98.8 E0.01356
G1 X115.344 Y98.8 E0.64232
G1 X115.309 Y98.972 E0.00584
G1 X115.281 Y99.145 E0.00583
G1 X115.276 Y99.2 E0.00184
G1 X134.723 Y99.2 E0.64681
G1 X134.767 Y99.512 E0.01048
G1 X134.771 Y99.6 E0.00293
G1 X115.237 Y99.6 E0.6497
G1 X115.208 Y99.898 E0.00996
G1 X115.212 Y100 E0.0034
G1 X134.787 Y100 E0.65107
G1 X134.791 Y100.107 E0.00356
G1 X134.762 Y100.4 E0.00979
G1 X115.228 Y100.4 E0.6497
G1 X115.232 Y100.49 E0.003
G1 X115.275 Y100.8 E0.01041
G1 X134.723 Y100.8 E0.64684
G1 X134.718 Y100.856 E0.00187
G1 X134.69 Y101.023 E0.00563
G1 X134.654 Y101.2 E0.00601
G1 X115.343 Y101.2 E0.64229
G1 X115.423 Y101.6 E0.01357
G1 X134.575 Y101.6 E0.637
G1 X134.496 Y102 E0.01356
G1 X115.502 Y102 E0.63174
G1 X115.582 Y102.4 E0.01357
G1 X134.416 Y102.4 E0.62642
G1 X134.344 Y102.767 E0.01244
G1 X134.335 Y102.8 E0.00114
G1 X115.662 Y102.8 E0.62107
G1 X115.688 Y102.908 E0.00369
G1 X115.777 Y103.2 E0.01015
G1 X134.233 Y103.2 E0.61385
G1 X134.211 Y103.287 E0.00298
G1 X134.095 Y103.6 E0.0111
G1 X115.899 Y103.6 E0.6052
G1 X115.916 Y103.655 E0.00191
G1 X116.075 Y104 E0.01263
G1 X133.922 Y104 E0.59359
G1 X133.708 Y104.4 E0.01509
G1 X116.287 Y104.4 E0.57942
G1 X116.436 Y104.65 E0.00968
G1 X116.536 Y104.8 E0.006
G1 X133.462 Y104.8 E0.56296
G1 X133.195 Y105.2 E0.016
G1 X116.803 Y105.2 E0.5452
G1 X117.07 Y105.6 E0.016
G1 X132.928 Y105.6 E0.52744
G1 X132.661 Y106 E0.016
G1 X117.337 Y106 E0.50968
G1 X117.421 Y106.125 E0.00501
G1 X117.521 Y106.264 E0.0057
G1 X117.633 Y106.4 E0.00586
G1 X132.373 Y106.4 E0.49025
G1 X132.257 Y106.555 E0.00644
G1 X132.031 Y106.8 E0.01109
G1 X117.962 Y106.8 E0.46794
G1 X118.007 Y106.854 E0.00234
G1 X118.382 Y107.2 E0.01697
G1 X131.602 Y107.2 E0.4397
G1 X131.259 Y107.482 E0.01477
G1 X131.126 Y107.577 E0.00544
G1 X131.091 Y107.6 E0.00139
G1 X118.908 Y107.6 E0.40521
G1 X119.506 Y108 E0.02393
G1 X130.493 Y108 E0.36543
G1 X129.894 Y108.4 E0.02396
G1 X120.104 Y108.4 E0.32562
G1 X120.335 Y108.554 E0.00923
G1 X120.491 Y108.65 E0.00609
G1 X120.77 Y108.8 E0.01054
G1 X129.251 Y108.8 E0.28208
G1 X129.189 Y108.837 E0.0024
G1 X128.648 Y109.086 E0.01981
G1 X128.272 Y109.2 E0.01307
G1 X121.686 Y109.2 E0.21905
G1 X121.716 Y109.211 E0.00106
G1 X122.222 Y109.341 E0.01738
G1 X123.521 Y109.6 E0.04406
G1 X126.479 Y109.6 E0.09838
G1 X126.023 Y109.691 E0.01547
G1 X125.479 Y109.769 E0.01828
G1 X124.896 Y109.791 E0.0194
G1 X124.149 Y109.719 E0.02496
G1 X123.973 Y109.69 E0.00593
G0 F600 X123.973 Y109.69 Z1.06
G0 F7200 X125.999 Y90.303
;TIME_ELAPSED:56.061311
;LAYER:-3
;TYPE:SUPPORT-INTERFACE
G1 F1800 X125.872 Y90.283 E0.00428
G1 X125.599 Y90.257 E0.00912
G1 X125.599 Y109.752 E0.64841
G1 X125.478 Y109.769 E0.00406
G1 X125.199 Y109.78 E0.00929
G1 X125.199 Y90.217 E0.65067
G1 X125.11 Y90.208 E0.00298
G1 X124.799 Y90.22 E0.01035
G1 X124.799 Y109.781 E0.6506
G1 X124.399 Y109.743 E0.01336
G1 X124.399 Y90.248 E0.64841
G1 X123.999 Y90.303 E0.01343
G1 X123.999 Y109.694 E0.64495
G1 X123.972 Y109.69 E0.00091
G1 X123.599 Y109.615 E0.01265
G1 X123.599 Y90.382 E0.63969
G1 X123.199 Y90.462 E0.01357
G1 X123.199 Y109.535 E0.63437
G1 X122.799 Y109.456 E0.01356
G1 X122.799 Y90.541 E0.62912
G1 X122.399 Y90.62 E0.01356
G1 X122.399 Y109.376 E0.62383
G1 X122.221 Y109.341 E0.00603
G1 X121.999 Y109.283 E0.00763
G1 X121.999 Y90.714 E0.61761
G1 X121.599 Y90.835 E0.0139
G1 X121.599 Y109.168 E0.60976
G1 X121.199 Y109.02 E0.01419
G1 X121.199 Y90.98 E0.60001
G1 X120.81 Y91.161 E0.01427
G1 X120.799 Y91.167 E0.00042
G1 X120.799 Y108.815 E0.58697
G1 X120.49 Y108.65 E0.01165
G1 X120.399 Y108.594 E0.00355
G1 X120.399 Y91.403 E0.57177
G1 X120.353 Y91.431 E0.00179
G1 X119.999 Y91.667 E0.01415
G1 X119.999 Y108.329 E0.55418
G1 X119.599 Y108.062 E0.016
G1 X119.599 Y91.935 E0.53639
G1 X119.199 Y92.202 E0.016
G1 X119.199 Y107.794 E0.51859
G1 X118.885 Y107.585 E0.01255
G1 X118.799 Y107.52 E0.00359
G1 X118.799 Y92.473 E0.50047
G1 X118.736 Y92.519 E0.00259
G1 X118.399 Y92.795 E0.01449
G1 X118.399 Y107.215 E0.47961
G1 X118.006 Y106.853 E0.01777
G1 X117.999 Y106.844 E0.00038
G1 X117.999 Y93.164 E0.455
G1 X117.741 Y93.444 E0.01266
G1 X117.599 Y93.634 E0.00789
G1 X117.599 Y106.358 E0.4232
G1 X117.52 Y106.263 E0.00411
G1 X117.42 Y106.124 E0.0057
G1 X117.199 Y105.793 E0.01324
G1 X117.199 Y94.205 E0.38542
G1 X116.799 Y94.803 E0.02393
G1 X116.799 Y105.194 E0.34561
G1 X116.435 Y104.649 E0.0218
G1 X116.399 Y104.588 E0.00236
G1 X116.399 Y95.406 E0.30539
G1 X116.348 Y95.49 E0.00327
G1 X116.001 Y96.136 E0.02439
G1 X115.999 Y96.141 E0.00018
G1 X115.999 Y103.836 E0.25594
G1 X115.915 Y103.654 E0.00667
G1 X115.687 Y102.907 E0.02598
G1 X115.657 Y102.779 E0.00437
G1 X115.599 Y102.487 E0.0099
G1 X115.599 Y97.511 E0.1655
G0 F7200 X115.308 Y98.971
G1 F1800 X115.28 Y99.144 E0.00583
G1 X115.207 Y99.897 E0.02516
G1 X115.231 Y100.489 E0.01971
G1 X115.301 Y100.99 E0.01683
G1 X115.599 Y102.487 E0.05077
G0 F7200 X125.999 Y90.303
G1 F1800 X125.999 Y109.695 E0.64498
G1 X126.022 Y109.691 E0.00078
G1 X126.399 Y109.616 E0.01278
G1 X126.399 Y90.383 E0.63969
G1 X126.799 Y90.462 E0.01356
G1 X126.799 Y109.536 E0.6344
G1 X127.199 Y109.457 E0.01356
G1 X127.199 Y90.542 E0.62912
G1 X127.599 Y90.621 E0.01356
G1 X127.599 Y109.377 E0.62383
G1 X127.766 Y109.343 E0.00567
G1 X127.92 Y109.307 E0.00526
G1 X127.999 Y109.283 E0.00275
G1 X127.999 Y90.713 E0.61764
G1 X128.285 Y90.786 E0.00982
G1 X128.399 Y90.828 E0.00404
G1 X128.399 Y109.162 E0.60979
G1 X128.647 Y109.086 E0.00863
G1 X128.799 Y109.017 E0.00555
G1 X128.799 Y90.976 E0.60005
G1 X128.839 Y90.99 E0.00141
G1 X129.199 Y91.183 E0.01359
G1 X129.199 Y108.831 E0.58697
G1 X129.599 Y108.593 E0.01548
G1 X129.599 Y91.403 E0.57174
G1 X129.658 Y91.439 E0.0023
