;FLAVOR:RepRap
;TIME:656
;Filament used: 0.391139m
;Layer height: 0.2
;MINX:116.205
;MINY:91.205
;MINZ:0.3
;MAXX:133.795
;MAXY:108.795
;MAXZ:34.9
;Generated with Cura_SteamEngine 4.8.0
T0
M190 S60
M104 S215
M109 S215
M82 ;absolute extrusion mode
; Craftbot+ Custom Start G-code

G28 X0Y0 ;home xy

G28 Z0 ;home z

G92 E0 ; Reset Extruder

G1 Z5.0 F3000 ; Move Z Axis up little to prevent scratching of Heat Bed

G1 X0.5 Y20 Z0.3 F5000.0 ; Move to start position

G1 X0.5 Y150.0 Z0.3 F1500.0 E15 ; Draw the first line

G1 X1.0 Y150.0 Z0.3 F5000.0 ; Move to side a little

G1 X1.0 Y20 Z0.3 F1500.0 E30 ; Draw the second line

G92 E0 ; Reset Extruder

G1 Z2.0 F3000 ; Move Z Axis up little to prevent scratching of Heat Bed

; End of custom start GCode
M83 ;relative extrusion mode
G1 F4800 E-1.2
;LAYER_COUNT:174
;LAYER:0
M107
G0 F4500 X118.646 Y93.916 Z0.3
;TYPE:SKIRT
G1 F4800 E1.2
G1 F3000 X119.044 Y93.535 E0.02749
G1 X119.351 Y93.306 E0.01911
G1 X120.972 Y92.221 E0.09732
G1 X121.451 Y91.949 E0.02748
G1 X121.964 Y91.748 E0.02749
G1 X122.348 Y91.651 E0.01976
G1 X124.262 Y91.272 E0.09734
G1 X124.809 Y91.205 E0.02749
G1 X125.36 Y91.217 E0.0275
G1 X125.738 Y91.272 E0.01906
G1 X127.652 Y91.651 E0.09734
G1 X128.183 Y91.797 E0.02747
G1 X128.688 Y92.019 E0.02752
G1 X129.028 Y92.221 E0.01973
G1 X130.649 Y93.306 E0.09732
G1 X131.083 Y93.645 E0.02747
G1 X131.464 Y94.043 E0.02749
G1 X131.693 Y94.35 E0.01911
G1 X132.778 Y95.971 E0.09732
G1 X133.05 Y96.45 E0.02748
G1 X133.251 Y96.963 E0.02749
G1 X133.347 Y97.345 E0.01965
G1 X133.727 Y99.259 E0.09735
G1 X133.795 Y99.806 E0.0275
G1 X133.783 Y100.357 E0.0275
G1 X133.727 Y100.739 E0.01926
G1 X133.347 Y102.653 E0.09735
G1 X133.201 Y103.184 E0.02747
G1 X132.98 Y103.689 E0.0275
G1 X132.778 Y104.026 E0.0196
G1 X131.693 Y105.648 E0.09736
G1 X131.355 Y106.082 E0.02744
G1 X130.957 Y106.463 E0.02749
G1 X130.647 Y106.694 E0.01929
G1 X129.026 Y107.778 E0.09729
G1 X128.547 Y108.05 E0.02748
G1 X128.034 Y108.25 E0.02747
G1 X127.656 Y108.346 E0.01946
G1 X125.742 Y108.727 E0.09736
G1 X125.195 Y108.795 E0.0275
G1 X124.644 Y108.783 E0.0275
G1 X124.258 Y108.727 E0.01946
G1 X122.344 Y108.346 E0.09736
G1 X121.813 Y108.199 E0.02749
G1 X121.309 Y107.978 E0.02746
G1 X120.974 Y107.778 E0.01947
G1 X119.353 Y106.694 E0.09729
G1 X118.918 Y106.355 E0.02751
G1 X118.537 Y105.957 E0.02749
G1 X118.307 Y105.648 E0.01922
G1 X117.222 Y104.026 E0.09736
G1 X116.949 Y103.547 E0.02751
G1 X116.749 Y103.033 E0.02752
G1 X116.653 Y102.653 E0.01955
G1 X116.273 Y100.739 E0.09735
G1 X116.205 Y100.192 E0.0275
G1 X116.217 Y99.641 E0.0275
G1 X116.273 Y99.259 E0.01926
G1 X116.653 Y97.345 E0.09735
G1 X116.799 Y96.814 E0.02747
G1 X117.02 Y96.309 E0.0275
G1 X117.222 Y95.971 E0.01964
G1 X118.307 Y94.35 E0.09732
G1 X118.646 Y93.916 E0.02747
G0 F4500 X118.962 Y94.163
G1 F3000 X119.343 Y93.808 E0.02598
G1 X119.574 Y93.639 E0.01428
G1 X121.195 Y92.554 E0.09732
G1 X121.649 Y92.298 E0.026
G1 X122.137 Y92.114 E0.02602
G1 X122.426 Y92.044 E0.01484
G1 X124.34 Y91.665 E0.09734
G1 X124.857 Y91.603 E0.02598
G1 X125.378 Y91.621 E0.02601
G1 X125.66 Y91.665 E0.01424
G1 X127.574 Y92.044 E0.09734
G1 X128.076 Y92.184 E0.026
G1 X128.551 Y92.399 E0.02601
G1 X128.805 Y92.554 E0.01485
G1 X130.426 Y93.639 E0.09732
G1 X130.836 Y93.961 E0.02601
G1 X131.191 Y94.342 E0.02598
G1 X131.36 Y94.573 E0.01428
G1 X132.445 Y96.194 E0.09732
G1 X132.701 Y96.648 E0.026
G1 X132.885 Y97.136 E0.02602
G1 X132.955 Y97.423 E0.01474
G1 X133.335 Y99.337 E0.09735
G1 X133.397 Y99.854 E0.02598
G1 X133.379 Y100.375 E0.02601
G1 X133.335 Y100.661 E0.01444
G1 X132.955 Y102.575 E0.09735
G1 X132.815 Y103.077 E0.026
G1 X132.599 Y103.552 E0.02603
G1 X132.446 Y103.803 E0.01467
G1 X131.361 Y105.425 E0.09736
G1 X131.039 Y105.835 E0.02601
G1 X130.658 Y106.191 E0.02601
G1 X130.425 Y106.361 E0.01439
G1 X128.804 Y107.445 E0.09729
G1 X128.35 Y107.701 E0.026
G1 X127.862 Y107.884 E0.026
G1 X127.578 Y107.954 E0.01459
G1 X125.664 Y108.335 E0.09736
G1 X125.146 Y108.397 E0.02603
G1 X124.626 Y108.379 E0.02596
G1 X124.336 Y108.335 E0.01463
G1 X122.422 Y107.954 E0.09736
G1 X121.92 Y107.813 E0.02601
G1 X121.446 Y107.597 E0.02599
G1 X121.196 Y107.445 E0.0146
G1 X119.575 Y106.361 E0.09729
G1 X119.165 Y106.039 E0.02601
G1 X118.81 Y105.658 E0.02598
G1 X118.639 Y105.425 E0.01442
G1 X117.554 Y103.803 E0.09736
G1 X117.298 Y103.349 E0.026
G1 X117.115 Y102.861 E0.026
G1 X117.045 Y102.575 E0.01469
G1 X116.665 Y100.661 E0.09735
G1 X116.603 Y100.144 E0.02598
G1 X116.621 Y99.623 E0.02601
G1 X116.665 Y99.337 E0.01444
G1 X117.045 Y97.423 E0.09735
G1 X117.185 Y96.921 E0.026
G1 X117.401 Y96.446 E0.02603
G1 X117.555 Y96.194 E0.01473
G1 X118.64 Y94.573 E0.09732
G1 X118.962 Y94.163 E0.02601
G0 F4500 X119.276 Y94.412
G1 F3000 X119.796 Y93.971 E0.03402
G1 X121.417 Y92.886 E0.09732
G1 X121.845 Y92.648 E0.02443
G1 X122.503 Y92.436 E0.03449
G1 X124.417 Y92.057 E0.09734
G1 X124.904 Y92.002 E0.02445
G1 X125.583 Y92.057 E0.03399
G1 X127.497 Y92.436 E0.09734
G1 X127.968 Y92.57 E0.02443
G1 X128.583 Y92.886 E0.0345
G1 X130.204 Y93.971 E0.09732
G1 X130.587 Y94.275 E0.0244
G1 X131.028 Y94.795 E0.03402
G1 X132.113 Y96.416 E0.09732
G1 X132.351 Y96.844 E0.02443
G1 X132.563 Y97.501 E0.03444
G1 X132.943 Y99.415 E0.09735
G1 X132.998 Y99.901 E0.0244
G1 X132.943 Y100.583 E0.03414
G1 X132.563 Y102.497 E0.09735
G1 X132.428 Y102.968 E0.02444
G1 X132.114 Y103.581 E0.03436
G1 X131.029 Y105.203 E0.09736
G1 X130.724 Y105.586 E0.02443
G1 X130.203 Y106.029 E0.03412
G1 X128.582 Y107.113 E0.09729
G1 X128.154 Y107.351 E0.02443
G1 X127.5 Y107.561 E0.03427
G1 X125.586 Y107.942 E0.09736
G1 X125.099 Y107.998 E0.02446
G1 X124.414 Y107.942 E0.03429
G1 X122.5 Y107.561 E0.09736
G1 X122.03 Y107.427 E0.02438
G1 X121.418 Y107.113 E0.03432
G1 X119.797 Y106.029 E0.09729
G1 X119.414 Y105.724 E0.02443
G1 X118.971 Y105.203 E0.03412
G1 X117.886 Y103.581 E0.09736
G1 X117.648 Y103.153 E0.02443
G1 X117.437 Y102.497 E0.03438
G1 X117.057 Y100.583 E0.09735
G1 X117.002 Y100.097 E0.0244
G1 X117.057 Y99.415 E0.03414
G1 X117.437 Y97.501 E0.09735
G1 X117.572 Y97.03 E0.02444
G1 X117.887 Y96.416 E0.03443
G1 X118.972 Y94.795 E0.09732
G1 X119.276 Y94.412 E0.0244
G0 F4500 X119.59 Y94.663
G1 F3000 X120.019 Y94.303 E0.02794
G1 X121.64 Y93.218 E0.09732
G1 X122.039 Y92.999 E0.02271
G1 X122.581 Y92.829 E0.02834
G1 X124.495 Y92.45 E0.09734
G1 X124.948 Y92.401 E0.02273
G1 X125.505 Y92.45 E0.0279
G1 X127.419 Y92.829 E0.09734
G1 X127.857 Y92.956 E0.02275
G1 X128.36 Y93.218 E0.02829
G1 X129.981 Y94.303 E0.09732
G1 X130.336 Y94.589 E0.02274
G1 X130.696 Y95.018 E0.02794
G1 X131.781 Y96.639 E0.09732
G1 X132 Y97.038 E0.02271
G1 X132.17 Y97.579 E0.02829
G1 X132.55 Y99.493 E0.09735
G1 X132.599 Y99.946 E0.02273
G1 X132.55 Y100.505 E0.028
G1 X132.17 Y102.419 E0.09735
G1 X132.043 Y102.857 E0.02275
G1 X131.781 Y103.359 E0.02825
G1 X130.696 Y104.981 E0.09736
G1 X130.411 Y105.336 E0.02271
G1 X129.98 Y105.696 E0.02802
G1 X128.359 Y106.78 E0.09729
G1 X127.96 Y106.999 E0.02271
G1 X127.422 Y107.169 E0.02815
G1 X125.508 Y107.55 E0.09736
G1 X125.055 Y107.599 E0.02273
G1 X124.492 Y107.55 E0.02819
G1 X122.578 Y107.169 E0.09736
G1 X122.141 Y107.041 E0.02272
G1 X121.641 Y106.78 E0.02814
G1 X120.02 Y105.696 E0.09729
G1 X119.665 Y105.411 E0.02271
G1 X119.304 Y104.981 E0.02801
G1 X118.219 Y103.359 E0.09736
G1 X118 Y102.959 E0.02275
G1 X117.83 Y102.419 E0.02824
G1 X117.45 Y100.505 E0.09735
G1 X117.401 Y100.052 E0.02273
G1 X117.45 Y99.493 E0.028
G1 X117.83 Y97.579 E0.09735
G1 X117.957 Y97.141 E0.02275
G1 X118.219 Y96.639 E0.02825
G1 X119.304 Y95.018 E0.09732
G1 X119.59 Y94.663 E0.02274
G0 F4500 X119.902 Y94.916
G1 F3000 X120.241 Y94.636 E0.02194
G1 X121.862 Y93.551 E0.09732
G1 X122.231 Y93.352 E0.02092
G1 X122.659 Y93.221 E0.02233
G1 X124.573 Y92.842 E0.09734
G1 X124.99 Y92.8 E0.02091
G1 X125.427 Y92.842 E0.0219
G1 X127.341 Y93.221 E0.09734
G1 X127.743 Y93.341 E0.02093
G1 X128.138 Y93.551 E0.02232
G1 X129.759 Y94.636 E0.09732
G1 X130.083 Y94.901 E0.02088
G1 X130.363 Y95.24 E0.02194
G1 X131.448 Y96.861 E0.09732
G1 X131.647 Y97.23 E0.02092
G1 X131.778 Y97.657 E0.02228
G1 X132.158 Y99.571 E0.09735
G1 X132.2 Y99.988 E0.02091
G1 X132.158 Y100.427 E0.022
G1 X131.778 Y102.341 E0.09735
G1 X131.658 Y102.743 E0.02093
G1 X131.449 Y103.136 E0.02221
G1 X130.364 Y104.758 E0.09736
G1 X130.098 Y105.083 E0.02095
G1 X129.758 Y105.364 E0.02201
G1 X128.137 Y106.448 E0.09729
G1 X127.768 Y106.646 E0.02089
G1 X127.344 Y106.777 E0.02214
G1 X125.43 Y107.158 E0.09736
G1 X125.013 Y107.2 E0.02091
G1 X124.57 Y107.158 E0.0222
G1 X122.656 Y106.777 E0.09736
G1 X122.255 Y106.656 E0.0209
G1 X121.863 Y106.448 E0.02214
G1 X120.242 Y105.364 E0.09729
G1 X119.917 Y105.099 E0.02092
G1 X119.636 Y104.758 E0.02204
G1 X118.551 Y103.136 E0.09736
G1 X118.353 Y102.767 E0.02089
G1 X118.222 Y102.341 E0.02224
G1 X117.842 Y100.427 E0.09735
G1 X117.8 Y100.01 E0.02091
G1 X117.842 Y99.571 E0.022
G1 X118.222 Y97.657 E0.09735
G1 X118.342 Y97.255 E0.02093
G1 X118.552 Y96.861 E0.02227
G1 X119.637 Y95.24 E0.09732
G1 X119.902 Y94.916 E0.02088
G0 F4500 X120.212 Y95.172
G1 F3000 X120.464 Y94.968 E0.01618
G1 X122.085 Y93.883 E0.09732
G1 X122.42 Y93.707 E0.01888
G1 X122.736 Y93.613 E0.01645
G1 X124.65 Y93.234 E0.09734
G1 X125.028 Y93.2 E0.01893
G1 X125.35 Y93.234 E0.01615
G1 X127.264 Y93.613 E0.09734
G1 X127.626 Y93.726 E0.01892
G1 X127.915 Y93.883 E0.01641
G1 X129.536 Y94.968 E0.09732
G1 X129.827 Y95.211 E0.01891
G1 X130.031 Y95.463 E0.01618
G1 X131.116 Y97.084 E0.09732
G1 X131.292 Y97.419 E0.01888
G1 X131.386 Y97.734 E0.0164
G1 X131.766 Y99.648 E0.09735
G1 X131.8 Y100.026 E0.01893
G1 X131.766 Y100.35 E0.01625
G1 X131.386 Y102.264 E0.09735
G1 X131.273 Y102.625 E0.01887
G1 X131.116 Y102.914 E0.01641
G1 X130.031 Y104.536 E0.09736
G1 X129.788 Y104.827 E0.01891
G1 X129.536 Y105.031 E0.01618
G1 X127.915 Y106.115 E0.09729
G1 X127.579 Y106.292 E0.01895
G1 X127.265 Y106.384 E0.01632
G1 X125.351 Y106.765 E0.09736
G1 X124.974 Y106.8 E0.01889
G1 X124.649 Y106.765 E0.01631
G1 X122.735 Y106.384 E0.09736
G1 X122.373 Y106.272 E0.0189
G1 X122.085 Y106.115 E0.01636
G1 X120.464 Y105.031 E0.09729
G1 X120.173 Y104.789 E0.01888
G1 X119.969 Y104.536 E0.01621
G1 X118.884 Y102.914 E0.09736
G1 X118.708 Y102.578 E0.01892
G1 X118.614 Y102.264 E0.01635
G1 X118.234 Y100.35 E0.09735
G1 X118.2 Y99.972 E0.01893
G1 X118.234 Y99.648 E0.01625
G1 X118.614 Y97.734 E0.09735
G1 X118.727 Y97.373 E0.01887
G1 X118.884 Y97.084 E0.01641
G1 X119.969 Y95.463 E0.09732
G1 X120.212 Y95.172 E0.01891
G0 F4500 X120.519 Y95.432
G1 F3000 X120.686 Y95.301 E0.01059
G1 X122.307 Y94.216 E0.09732
G1 X122.605 Y94.064 E0.01669
G1 X122.814 Y94.006 E0.01082
G1 X124.728 Y93.627 E0.09734
G1 X125.061 Y93.601 E0.01666
G1 X125.272 Y93.627 E0.01061
G1 X127.186 Y94.006 E0.09734
G1 X127.504 Y94.109 E0.01668
G1 X127.693 Y94.216 E0.01084
G1 X129.314 Y95.301 E0.09732
G1 X129.567 Y95.518 E0.01663
G1 X129.698 Y95.685 E0.01059
G1 X130.783 Y97.306 E0.09732
G1 X130.935 Y97.604 E0.01669
G1 X130.993 Y97.812 E0.01077
G1 X131.373 Y99.726 E0.09735
G1 X131.399 Y100.059 E0.01666
G1 X131.373 Y100.272 E0.01071
G1 X130.993 Y102.186 E0.09735
G1 X130.89 Y102.503 E0.01663
G1 X130.784 Y102.691 E0.01077
G1 X129.699 Y104.313 E0.09736
G1 X129.481 Y104.567 E0.0167
G1 X129.313 Y104.699 E0.01066
G1 X127.692 Y105.783 E0.09729
G1 X127.394 Y105.934 E0.01667
G1 X127.187 Y105.992 E0.01073
G1 X125.273 Y106.373 E0.09736
G1 X124.94 Y106.399 E0.01666
G1 X124.727 Y106.373 E0.01071
G1 X122.813 Y105.992 E0.09736
G1 X122.495 Y105.888 E0.01669
G1 X122.308 Y105.783 E0.0107
G1 X120.687 Y104.699 E0.09729
G1 X120.433 Y104.481 E0.0167
G1 X120.301 Y104.313 E0.01066
G1 X119.216 Y102.691 E0.09736
G1 X119.065 Y102.394 E0.01662
G1 X119.007 Y102.186 E0.01077
G1 X118.627 Y100.272 E0.09735
G1 X118.601 Y99.939 E0.01666
G1 X118.627 Y99.726 E0.01071
G1 X119.007 Y97.812 E0.09735
G1 X119.11 Y97.495 E0.01663
G1 X119.217 Y97.306 E0.01084
G1 X120.302 Y95.685 E0.09732
G1 X120.519 Y95.432 E0.01663
G0 F4500 X120.634 Y95.908
G1 F3000 X120.909 Y95.633 E0.0194
G1 X122.53 Y94.548 E0.09732
G1 X122.892 Y94.398 E0.01955
G1 X124.806 Y94.019 E0.09734
G1 X125.194 Y94.019 E0.01936
G1 X127.108 Y94.398 E0.09734
G1 X127.47 Y94.548 E0.01955
G1 X129.091 Y95.633 E0.09732
G1 X129.366 Y95.908 E0.0194
G1 X130.451 Y97.529 E0.09732
G1 X130.601 Y97.89 E0.0195
G1 X130.981 Y99.804 E0.09735
G1 X130.981 Y100.194 E0.01946
G1 X130.601 Y102.108 E0.09735
G1 X130.451 Y102.469 E0.0195
G1 X129.366 Y104.091 E0.09736
G1 X129.091 Y104.366 E0.0194
G1 X127.47 Y105.45 E0.09729
G1 X127.109 Y105.6 E0.0195
G1 X125.195 Y105.981 E0.09736
G1 X124.805 Y105.981 E0.01946
G1 X122.891 Y105.6 E0.09736
G1 X122.53 Y105.45 E0.0195
G1 X120.909 Y104.366 E0.09729
G1 X120.634 Y104.091 E0.0194
G1 X119.549 Y102.469 E0.09736
G1 X119.399 Y102.108 E0.0195
G1 X119.019 Y100.194 E0.09735
G1 X119.019 Y99.804 E0.01946
G1 X119.399 Y97.89 E0.09735
G1 X119.549 Y97.529 E0.0195
G1 X120.634 Y95.908 E0.09732
G0 F4500 X120.966 Y96.13
G1 F3000 X121.131 Y95.965 E0.01164
G1 X122.752 Y94.88 E0.09732
G1 X122.969 Y94.79 E0.01172
G1 X124.883 Y94.411 E0.09734
G1 X125.117 Y94.411 E0.01167
G1 X127.031 Y94.79 E0.09734
G1 X127.248 Y94.88 E0.01172
G1 X128.869 Y95.965 E0.09732
G1 X129.034 Y96.13 E0.01164
G1 X130.119 Y97.751 E0.09732
G1 X130.209 Y97.968 E0.01172
G1 X130.589 Y99.882 E0.09735
G1 X130.589 Y100.116 E0.01167
G1 X130.209 Y102.03 E0.09735
G1 X130.119 Y102.247 E0.01172
G1 X129.034 Y103.869 E0.09736
G1 X128.869 Y104.034 E0.01164
G1 X127.248 Y105.118 E0.09729
G1 X127.031 Y105.207 E0.0117
G1 X125.117 Y105.588 E0.09736
G1 X124.883 Y105.588 E0.01167
G1 X122.969 Y105.207 E0.09736
G1 X122.752 Y105.118 E0.0117
G1 X121.131 Y104.034 E0.09729
G1 X120.966 Y103.869 E0.01164
G1 X119.881 Y102.247 E0.09736
G1 X119.791 Y102.03 E0.01172
G1 X119.411 Y100.116 E0.09735
G1 X119.411 Y99.882 E0.01167
G1 X119.791 Y97.968 E0.09735
G1 X119.881 Y97.751 E0.01172
G1 X120.966 Y96.13 E0.09732
G0 F4500 X121.299 Y96.353
G1 F3000 X121.354 Y96.298 E0.00388
G1 X122.975 Y95.213 E0.09732
G1 X123.047 Y95.183 E0.00389
G1 X124.961 Y94.804 E0.09734
G1 X125.039 Y94.804 E0.00389
G1 X126.953 Y95.183 E0.09734
G1 X127.025 Y95.213 E0.00389
G1 X128.646 Y96.298 E0.09732
G1 X128.701 Y96.353 E0.00388
G1 X129.786 Y97.974 E0.09732
G1 X129.816 Y98.046 E0.00389
G1 X130.196 Y99.96 E0.09735
G1 X130.196 Y100.038 E0.00389
G1 X129.816 Y101.952 E0.09735
G1 X129.786 Y102.024 E0.00389
G1 X128.701 Y103.646 E0.09736
G1 X128.646 Y103.701 E0.00388
G1 X127.025 Y104.785 E0.09729
G1 X126.953 Y104.815 E0.00389
G1 X125.039 Y105.196 E0.09736
G1 X124.961 Y105.196 E0.00389
G1 X123.047 Y104.815 E0.09736
G1 X122.975 Y104.785 E0.00389
G1 X121.354 Y103.701 E0.09729
G1 X121.299 Y103.646 E0.00388
G1 X120.214 Y102.024 E0.09736
G1 X120.184 Y101.952 E0.00389
G1 X119.804 Y100.038 E0.09735
G1 X119.804 Y99.96 E0.00389
G1 X120.184 Y98.046 E0.09735
G1 X120.214 Y97.974 E0.00389
G1 X121.299 Y96.353 E0.09732
G1 F4800 E-1.2
;MESH:LEGO_Axel_v4.stl
G0 F4500 X121.911 Y96.91
G0 X126.641 Y96.035
G0 X126.836 Y95.567
;TYPE:WALL-OUTER
G1 F4800 E1.2
G1 F3000 X128.392 Y96.607 E0.09337
G1 X129.432 Y98.163 E0.09337
G1 X129.797 Y99.999 E0.09339
G1 X129.432 Y101.835 E0.09339
G1 X128.392 Y103.392 E0.09341
G1 X126.836 Y104.431 E0.09334
G1 X125 Y104.797 E0.0934
G1 X123.164 Y104.431 E0.0934
G1 X121.608 Y103.392 E0.09334
G1 X120.568 Y101.835 E0.09341
G1 X120.203 Y99.999 E0.09339
G1 X120.568 Y98.163 E0.09339
G1 X121.608 Y96.607 E0.09337
G1 X123.164 Y95.567 E0.09337
G1 X125 Y95.203 E0.09338
G1 X126.836 Y95.567 E0.09338
G0 F4500 X127.002 Y95.678
G0 X126.724 Y96.093
G0 X122.443 Y97.114
G0 X121.794 Y98.047
G0 X121.362 Y99.334
G0 X121.363 Y100.674
G0 X121.676 Y101.68
G0 X122.259 Y102.732
G0 X122.671 Y102.45
G1 F3000 X127.326 Y102.45 E0.23224
G1 X127.817 Y101.738 E0.04315
G1 X128.055 Y101.186 E0.02999
G1 X128.201 Y100.603 E0.02998
G1 X128.25 Y99.999 E0.03023
G1 X128.201 Y99.395 E0.03023
G1 X128.055 Y98.812 E0.02998
G1 X127.817 Y98.26 E0.02999
G1 X127.326 Y97.549 E0.04311
G1 X122.671 Y97.549 E0.23224
G1 X122.181 Y98.26 E0.04308
G1 X121.94 Y98.821 E0.03046
G1 X121.797 Y99.405 E0.03
G1 X121.747 Y99.999 E0.02974
G1 X121.798 Y100.603 E0.03024
G1 X121.942 Y101.186 E0.02996
G1 X122.181 Y101.738 E0.03001
