; G-Code generated by Simplify3D(R) Version 4.1.2
; Feb 20, 2021 at 11:47:55 PM
; Settings Summary
;   processName,0.002
;   applyToModels,LEGO_Axel_v6
;   profileName,0.002
;   profileVersion,2021-02-20 23:27:52
;   baseProfile,Simplify3D PLA for CraftBot(2)
;   printMaterial,PLA
;   printQuality,Fast
;   printExtruders,
;   extruderName,Primary Extruder
;   extruderToolheadNumber,0
;   extruderDiameter,0.4
;   extruderAutoWidth,0
;   extruderWidth,0.4
;   extrusionMultiplier,1
;   extruderUseRetract,1
;   extruderRetractionDistance,0.6
;   extruderExtraRestartDistance,0
;   extruderRetractionZLift,0
;   extruderRetractionSpeed,2400
;   extruderUseCoasting,0
;   extruderCoastingDistance,0.2
;   extruderUseWipe,0
;   extruderWipeDistance,5
;   primaryExtruder,0
;   layerHeight,0.2
;   topSolidLayers,4
;   bottomSolidLayers,4
;   perimeterOutlines,2
;   printPerimetersInsideOut,1
;   startPointOption,2
;   startPointOriginX,0
;   startPointOriginY,0
;   sequentialIslands,0
;   spiralVaseMode,0
;   firstLayerHeightPercentage,100
;   firstLayerWidthPercentage,100
;   firstLayerUnderspeed,0.8
;   useRaft,1
;   raftExtruder,0
;   raftTopLayers,3
;   raftBaseLayers,2
;   raftOffset,6
;   raftSeparationDistance,0.14
;   raftTopInfill,100
;   aboveRaftSpeedMultiplier,0.3
;   useSkirt,0
;   skirtExtruder,0
;   skirtLayers,1
;   skirtOutlines,2
;   skirtOffset,4
;   usePrimePillar,0
;   primePillarExtruder,999
;   primePillarWidth,12
;   primePillarLocation,7
;   primePillarSpeedMultiplier,1
;   useOozeShield,0
;   oozeShieldExtruder,999
;   oozeShieldOffset,2
;   oozeShieldOutlines,1
;   oozeShieldSidewallShape,1
;   oozeShieldSidewallAngle,30
;   oozeShieldSpeedMultiplier,1
;   infillExtruder,0
;   internalInfillPattern,Full Honeycomb
;   externalInfillPattern,Rectilinear
;   infillPercentage,40
;   outlineOverlapPercentage,20
;   infillExtrusionWidthPercentage,100
;   minInfillLength,5
;   infillLayerInterval,1
;   internalInfillAngles,0,120,-120
;   overlapInternalInfillAngles,0
;   externalInfillAngles,45,-45
;   generateSupport,1
;   supportExtruder,0
;   supportInfillPercentage,30
;   supportExtraInflation,0
;   supportBaseLayers,0
;   denseSupportExtruder,0
;   denseSupportLayers,0
;   denseSupportInfillPercentage,70
;   supportLayerInterval,1
;   supportHorizontalPartOffset,0.3
;   supportUpperSeparationLayers,1
;   supportLowerSeparationLayers,1
;   supportType,0
;   supportGridSpacing,4
;   maxOverhangAngle,65
;   supportAngles,0
;   temperatureName,Primary Extruder,Heated Bed
;   temperatureNumber,0,0
;   temperatureSetpointCount,1,1
;   temperatureSetpointLayers,1,1
;   temperatureSetpointTemperatures,215,60
;   temperatureStabilizeAtStartup,1,0
;   temperatureHeatedBed,0,1
;   fanLayers,1
;   fanSpeeds,100
;   blipFanToFullPower,1
;   adjustSpeedForCooling,1
;   minSpeedLayerTime,5
;   minCoolingSpeedSlowdown,20
;   increaseFanForCooling,0
;   minFanLayerTime,45
;   maxCoolingFanSpeed,100
;   increaseFanForBridging,0
;   bridgingFanSpeed,100
;   use5D,1
;   relativeEdistances,0
;   allowEaxisZeroing,1
;   independentExtruderAxes,0
;   includeM10123,0
;   stickySupport,1
;   applyToolheadOffsets,0
;   gcodeXoffset,0
;   gcodeYoffset,0
;   gcodeZoffset,0
;   overrideMachineDefinition,1
;   machineTypeOverride,0
;   strokeXoverride,250
;   strokeYoverride,200
;   strokeZoverride,200
;   originOffsetXoverride,0
;   originOffsetYoverride,0
;   originOffsetZoverride,0
;   homeXdirOverride,-1
;   homeYdirOverride,-1
;   homeZdirOverride,-1
;   flipXoverride,1
;   flipYoverride,-1
;   flipZoverride,1
;   toolheadOffsets,0,0|0,0|0,0|0,0|0,0|0,0
;   overrideFirmwareConfiguration,1
;   firmwareTypeOverride,RepRap (Marlin/Repetier/Sprinter)
;   GPXconfigOverride,r2
;   baudRateOverride,115200
;   overridePrinterModels,0
;   printerModelsOverride
;   startingGcode,M906 X50 ,M906 E50,M4003 S270 ,M1203 A3000 D3000  F1200,G28 X0 Y0,G28 Z0,G1 X1 Y1 E0 F240,G1 X1 Y100 E20 F240,G1 X1 Y20 E40 F240,G1 X8 Y1 F240,G92 E0 ,G92 X0 Y0 ,
;   layerChangeGcode,
;   retractionGcode,
;   toolChangeGcode,
;   endingGcode,G1 X0 Y0 F2400 ,;G1 Z195 F2400 ; move bed to bottom,M140 S0,M104 S0,M106 S0,
;   exportFileFormat,gcode
;   celebration,0
;   celebrationSong,Random Song
;   postProcessing,
;   defaultSpeed,4800
;   outlineUnderspeed,0.5
;   solidInfillUnderspeed,0.8
;   supportUnderspeed,1
;   rapidXYspeed,6000
;   rapidZspeed,500
;   minBridgingArea,20
;   bridgingExtraInflation,0
;   bridgingExtrusionMultiplier,1
;   bridgingSpeedMultiplier,1
;   useFixedBridgingAngle,0
;   fixedBridgingAngle,0
;   applyBridgingToPerimeters,0
;   filamentDiameters,1.75|1.75|1.75|1.75|1.75|1.75
;   filamentPricesPerKg,46|46|46|46|46|46
;   filamentDensities,1.25|1.25|1.25|1.25|1.25|1.25
;   useMinPrintHeight,0
;   minPrintHeight,0
;   useMaxPrintHeight,0
;   maxPrintHeight,0
;   useDiaphragm,0
;   diaphragmLayerInterval,20
;   robustSlicing,1
;   mergeAllIntoSolid,0
;   onlyRetractWhenCrossingOutline,1
;   retractBetweenLayers,1
;   useRetractionMinTravel,1
;   retractionMinTravel,2
;   retractWhileWiping,0
;   onlyWipeOutlines,0
;   avoidCrossingOutline,0
;   maxMovementDetourFactor,3
;   toolChangeRetractionDistance,0
;   toolChangeExtraRestartDistance,0
;   toolChangeRetractionSpeed,360
;   externalThinWallType,0
;   internalThinWallType,2
;   thinWallAllowedOverlapPercentage,10
;   singleExtrusionMinLength,1
;   singleExtrusionMinPrintingWidthPercentage,50
;   singleExtrusionMaxPrintingWidthPercentage,200
;   singleExtrusionEndpointExtension,0.2
;   horizontalSizeCompensation,0
G90
M82
M106 S255
M140 S60
M104 S215 T0
M109 S215 T0
M906 X50 
M906 E50
M4003 S270 
M1203 A3000 D3000  F1200
G28 X0 Y0
G28 Z0
G1 X1 Y1 E0 F240
G1 X1 Y100 E20 F240
G1 X1 Y20 E40 F240
G1 X8 Y1 F240
G92 E0 
G92 X0 Y0 
; process 0.002
; layer 1, Z = 0.500
T0
G92 E0.0000
G1 E-0.6000 F2400
; feature raft
; tool H0.500 W0.800
G1 Z0.500 F500
G1 X117.115 Y92.893 F6000
G1 E0.0000 F2400
G92 E0.0000
G1 X117.894 Y92.114 E0.1833 F960
G1 X120.434 Y90.417 E0.6913
G1 X121.454 Y89.994 E0.8750
G1 X124.450 Y89.399 E1.3829
G1 X125.551 Y89.399 E1.5660
G1 X128.547 Y89.994 E2.0739
G1 X129.567 Y90.417 E2.2575
G1 X132.106 Y92.114 E2.7655
G1 X132.886 Y92.894 E2.9488
G1 X134.583 Y95.433 E3.4568
G1 X135.006 Y96.453 E3.6404
G1 X135.600 Y99.449 E4.1483
G1 X135.600 Y100.550 E4.3314
G1 X135.006 Y103.546 E4.8393
G1 X134.583 Y104.566 E5.0230
G1 X132.886 Y107.105 E5.5309
G1 X132.106 Y107.885 E5.7143
G1 X129.568 Y109.582 E6.2221
G1 X128.549 Y110.004 E6.4055
G1 X125.552 Y110.600 E6.9136
G1 X124.449 Y110.600 E7.0972
G1 X121.452 Y110.004 E7.6052
G1 X120.433 Y109.582 E7.7886
G1 X117.894 Y107.885 E8.2965
G1 X117.115 Y107.105 E8.4798
G1 X115.418 Y104.567 E8.9876
G1 X114.996 Y103.548 E9.1711
G1 X114.399 Y100.551 E9.6791
G1 X114.399 Y99.448 E9.8627
G1 X114.996 Y96.451 E10.3707
G1 X115.418 Y95.432 E10.5542
G1 X117.115 Y92.893 E11.0620
G92 E0.0000
G1 E-0.6000 F2400
G1 X121.043 Y90.857 F6000
G1 E0.0000 F2400
G92 E0.0000
G1 X128.958 Y90.857 E1.3162 F960
G1 X129.264 Y90.984 E1.3713
G1 X131.698 Y92.611 E1.8583
G1 X132.230 Y93.143 E1.9834
G1 X117.771 Y93.143 E4.3880
G1 X117.612 Y93.301 E4.4253
G1 X116.190 Y95.429 E4.8508
G1 X133.811 Y95.429 E7.7810
G1 X134.016 Y95.736 E7.8425
G1 X134.390 Y96.640 E8.0052
G1 X134.604 Y97.714 E8.1874
G1 X115.397 Y97.714 E11.3814
G1 X115.039 Y99.511 E11.6860
G1 X115.039 Y100.000 E11.7674
G1 X134.960 Y100.000 E15.0803
G1 X134.960 Y100.487 E15.1613
G1 X134.603 Y102.286 E15.4662
G1 X115.397 Y102.286 E18.6602
G1 X115.611 Y103.361 E18.8425
G1 X115.985 Y104.263 E19.0050
G1 X116.191 Y104.571 E19.0666
G1 X133.810 Y104.571 E21.9966
G1 X132.389 Y106.697 E22.4218
G1 X132.229 Y106.857 E22.4594
G1 X117.772 Y106.857 E24.8637
G1 X118.302 Y107.388 E24.9886
G1 X120.737 Y109.015 E25.4754
G1 X121.046 Y109.143 E25.5311
G1 X128.955 Y109.143 E26.8464
G92 E0.0000
G1 E-0.6000 F2400
; layer 2, Z = 1.000
G1 Z1.000 F500
G1 X129.568 Y109.582 F6000
G1 E0.0000 F2400
G92 E0.0000
G1 X128.549 Y110.004 E0.1834 F1200
G1 X125.552 Y110.600 E0.6915
G1 X124.449 Y110.600 E0.8751
G1 X121.452 Y110.004 E1.3831
G1 X120.433 Y109.582 E1.5665
G1 X117.894 Y107.885 E2.0743
G1 X117.115 Y107.105 E2.2577
G1 X115.418 Y104.567 E2.7655
G1 X114.996 Y103.548 E2.9489
G1 X114.399 Y100.551 E3.4570
G1 X114.399 Y99.448 E3.6406
G1 X114.996 Y96.451 E4.1486
G1 X115.418 Y95.432 E4.3320
G1 X117.115 Y92.893 E4.8399
G1 X117.894 Y92.114 E5.0232
G1 X120.434 Y90.417 E5.5312
G1 X121.454 Y89.994 E5.7148
G1 X124.450 Y89.399 E6.2227
G1 X125.551 Y89.399 E6.4058
G1 X128.547 Y89.994 E6.9137
G1 X129.567 Y90.417 E7.0974
G1 X132.106 Y92.114 E7.6053
G1 X132.886 Y92.894 E7.7887
G1 X134.583 Y95.433 E8.2966
G1 X135.006 Y96.453 E8.4803
G1 X135.600 Y99.449 E8.9882
G1 X135.600 Y100.550 E9.1713
G1 X135.006 Y103.546 E9.6792
G1 X134.583 Y104.566 E9.8629
G1 X132.886 Y107.105 E10.3708
G1 X132.106 Y107.885 E10.5542
G1 X129.568 Y109.582 E11.0620
G1 X128.955 Y109.143 F6000
G92 E0.0000
G1 X121.046 Y109.143 E1.3153 F1200
G1 X120.737 Y109.015 E1.3710
G1 X118.302 Y107.388 E1.8579
G1 X117.772 Y106.857 E1.9827
G1 X132.229 Y106.857 E4.3870
G1 X132.389 Y106.697 E4.4246
G1 X133.810 Y104.571 E4.8498
G1 X116.191 Y104.571 E7.7798
G1 X115.985 Y104.263 E7.8415
G1 X115.611 Y103.361 E8.0039
G1 X115.397 Y102.286 E8.1862
G1 X134.603 Y102.286 E11.3802
G1 X134.960 Y100.487 E11.6851
G1 X134.960 Y100.000 E11.7662
G1 X115.039 Y100.000 E15.0790
G1 X115.039 Y99.511 E15.1604
G1 X115.397 Y97.714 E15.4650
G1 X134.604 Y97.714 E18.6591
G1 X134.390 Y96.640 E18.8412
G1 X134.016 Y95.736 E19.0039
G1 X133.811 Y95.429 E19.0654
G1 X116.190 Y95.429 E21.9956
G1 X117.612 Y93.301 E22.4211
G1 X117.771 Y93.143 E22.4584
G1 X132.230 Y93.143 E24.8631
G1 X131.698 Y92.611 E24.9882
G1 X129.264 Y90.984 E25.4751
G1 X128.958 Y90.857 E25.5302
G1 X121.043 Y90.857 E26.8464
G92 E0.0000
G1 E-0.6000 F2400
; layer 3, Z = 1.222
; tool H0.222 W0.400
G1 Z1.222 F500
G1 X116.958 Y92.769 F6000
G1 E0.0000 F2400
G92 E0.0000
G1 X117.770 Y91.957 E0.0425 F3600
G1 X119.475 Y90.817 E0.1183
G1 X115.818 Y94.474 E0.3094
G1 X115.241 Y95.338 E0.3478
G1 X115.043 Y95.815 E0.3669
G1 X120.816 Y90.042 E0.6686
G1 X121.396 Y89.802 E0.6918
G1 X121.678 Y89.746 E0.7024
G1 X114.747 Y96.676 E1.0646
G1 X114.607 Y97.383 E1.0912
G1 X122.383 Y89.606 E1.4976
G1 X123.089 Y89.466 E1.5242
G1 X114.466 Y98.089 E1.9749
G1 X114.325 Y98.795 E2.0015
G1 X123.795 Y89.326 E2.4964
G1 X124.430 Y89.199 E2.5204
G1 X124.487 Y89.199 E2.5225
G1 X114.199 Y99.487 E3.0601
G1 X114.199 Y100.053 E3.0810
G1 X125.053 Y89.199 E3.6482
G1 X125.571 Y89.199 E3.6674
G1 X125.610 Y89.207 E3.6689
G1 X114.207 Y100.610 E4.2648
G1 X114.301 Y101.082 E4.2826
G1 X126.082 Y89.301 E4.8983
G1 X126.554 Y89.395 E4.9161
G1 X114.395 Y101.554 E5.5516
G1 X114.489 Y102.026 E5.5694
G1 X127.026 Y89.488 E6.2246
G1 X127.498 Y89.582 E6.2424
G1 X114.583 Y102.497 E6.9174
G1 X114.677 Y102.969 E6.9352
G1 X127.970 Y89.676 E7.6299
G1 X128.442 Y89.770 E7.6477
G1 X114.771 Y103.441 E8.3622
G1 X114.804 Y103.606 E8.3684
G1 X114.911 Y103.866 E8.3788
G1 X128.867 Y89.910 E9.1082
G1 X129.267 Y90.076 E9.1242
G1 X115.077 Y104.266 E9.8658
G1 X115.244 Y104.665 E9.8818
G1 X129.666 Y90.243 E10.6356
G1 X130.005 Y90.469 E10.6507
G1 X115.470 Y105.004 E11.4103
G1 X115.697 Y105.343 E11.4254
G1 X130.344 Y90.696 E12.1909
G1 X130.684 Y90.922 E12.2060
G1 X115.923 Y105.683 E12.9774
G1 X116.150 Y106.022 E12.9925
G1 X131.023 Y91.149 E13.7698
G1 X131.362 Y91.376 E13.7849
G1 X116.377 Y106.361 E14.5680
G1 X116.603 Y106.700 E14.5831
G1 X131.701 Y91.602 E15.3721
G1 X132.040 Y91.829 E15.3872
G1 X116.830 Y107.039 E16.1821
G1 X116.960 Y107.233 E16.1908
G1 X117.080 Y107.354 E16.1971
G1 X132.355 Y92.079 E16.9954
G1 X132.638 Y92.362 E17.0102
G1 X117.363 Y107.637 E17.8085
G1 X117.646 Y107.920 E17.8232
G1 X132.921 Y92.645 E18.6215
G1 X133.041 Y92.766 E18.6278
G1 X133.171 Y92.960 E18.6365
G1 X117.961 Y108.170 E19.4314
G1 X118.300 Y108.397 E19.4465
G1 X133.398 Y93.299 E20.2355
G1 X133.624 Y93.638 E20.2506
G1 X118.639 Y108.623 E21.0338
G1 X118.978 Y108.850 E21.0488
G1 X133.851 Y93.977 E21.8261
G1 X134.078 Y94.317 E21.8412
G1 X119.317 Y109.077 E22.6126
G1 X119.657 Y109.303 E22.6277
G1 X134.304 Y94.656 E23.3932
G1 X134.531 Y94.995 E23.4083
G1 X119.996 Y109.530 E24.1679
G1 X120.335 Y109.756 E24.1830
G1 X134.757 Y95.334 E24.9368
G1 X134.760 Y95.338 E24.9370
G1 X134.924 Y95.733 E24.9528
G1 X120.734 Y109.923 E25.6944
G1 X121.134 Y110.089 E25.7104
G1 X135.090 Y96.133 E26.4398
G1 X135.198 Y96.395 E26.4502
G1 X135.230 Y96.558 E26.4564
G1 X121.559 Y110.229 E27.1709
G1 X122.031 Y110.323 E27.1887
G1 X135.324 Y97.030 E27.8834
G1 X135.418 Y97.502 E27.9012
G1 X122.503 Y110.417 E28.5762
G1 X122.974 Y110.511 E28.5940
G1 X135.512 Y97.974 E29.2492
G1 X135.605 Y98.446 E29.2670
G1 X123.446 Y110.605 E29.9025
G1 X123.918 Y110.699 E29.9202
G1 X135.699 Y98.918 E30.5360
G1 X135.793 Y99.390 E30.5537
G1 X124.390 Y110.793 E31.1497
G1 X124.429 Y110.800 E31.1512
G1 X124.948 Y110.800 E31.1703
G1 X135.800 Y99.948 E31.7375
G1 X135.800 Y100.513 E31.7584
G1 X125.513 Y110.800 E32.2961
G1 X125.572 Y110.800 E32.2983
G1 X126.205 Y110.675 E32.3221
G1 X135.674 Y101.205 E32.8170
G1 X135.534 Y101.911 E32.8436
G1 X126.911 Y110.534 E33.2943
G1 X127.617 Y110.393 E33.3209
G1 X135.394 Y102.617 E33.7273
G1 X135.254 Y103.323 E33.7539
G1 X128.324 Y110.253 E34.1161
G1 X128.607 Y110.196 E34.1268
G1 X129.185 Y109.957 E34.1499
G1 X134.958 Y104.185 E34.4516
G1 X134.760 Y104.661 E34.4706
G1 X134.183 Y105.525 E34.5091
G1 X130.526 Y109.182 E34.7002
G1 X132.231 Y108.042 E34.7760
G1 X133.043 Y107.230 E34.8184
G92 E0.0000
G1 E-0.6000 F2400
; layer 4, Z = 1.444
G1 Z1.444 F500
G1 X132.228 Y91.955 F6000
G1 E0.0000 F2400
G92 E0.0000
G1 X133.045 Y92.772 E0.0427 F3600
G1 X134.185 Y94.477 E0.1185
G1 X130.523 Y90.815 E0.3099
G1 X129.662 Y90.239 E0.3482
G1 X129.184 Y90.042 E0.3673
G1 X134.958 Y95.816 E0.6691
G1 X135.198 Y96.395 E0.6923
G1 X135.254 Y96.678 E0.7029
G1 X128.322 Y89.746 E1.0652
G1 X127.616 Y89.606 E1.0918
G1 X135.394 Y97.384 E1.4983
G1 X135.534 Y98.089 E1.5249
G1 X126.911 Y89.466 E1.9756
G1 X126.205 Y89.325 E2.0022
G1 X135.675 Y98.795 E2.4971
G1 X135.800 Y99.429 E2.5210
G1 X135.800 Y99.487 E2.5231
G1 X125.513 Y89.199 E3.0608
G1 X124.948 Y89.199 E3.0817
G1 X135.800 Y100.052 E3.6489
G1 X135.800 Y100.570 E3.6680
G1 X135.792 Y100.610 E3.6695
G1 X124.390 Y89.208 E4.2655
G1 X123.918 Y89.301 E4.2832
G1 X135.699 Y101.082 E4.8990
G1 X135.605 Y101.554 E4.9167
G1 X123.446 Y89.395 E5.5522
G1 X122.974 Y89.489 E5.5700
G1 X135.511 Y102.026 E6.2252
G1 X135.418 Y102.498 E6.2430
G1 X122.502 Y89.582 E6.9180
G1 X122.030 Y89.676 E6.9358
G1 X135.324 Y102.970 E7.6306
G1 X135.230 Y103.442 E7.6484
G1 X121.558 Y89.770 E8.3629
G1 X121.396 Y89.802 E8.3690
G1 X121.133 Y89.911 E8.3796
G1 X135.089 Y103.867 E9.1089
G1 X134.924 Y104.267 E9.1249
G1 X120.733 Y90.076 E9.8666
G1 X120.339 Y90.239 E9.8823
G1 X120.334 Y90.243 E9.8826
G1 X134.757 Y104.666 E10.6364
G1 X134.530 Y105.005 E10.6514
G1 X119.995 Y90.470 E11.4111
G1 X119.656 Y90.696 E11.4262
G1 X134.304 Y105.344 E12.1917
G1 X134.077 Y105.683 E12.2068
G1 X119.317 Y90.923 E12.9782
G1 X118.978 Y91.149 E12.9933
G1 X133.851 Y106.022 E13.7706
G1 X133.624 Y106.361 E13.7857
G1 X118.639 Y91.376 E14.5688
G1 X118.300 Y91.603 E14.5839
G1 X133.397 Y106.700 E15.3730
G1 X133.171 Y107.039 E15.3880
G1 X117.961 Y91.829 E16.1830
G1 X117.767 Y91.959 E16.1916
G1 X117.646 Y92.080 E16.1979
G1 X132.920 Y107.354 E16.9962
G1 X132.637 Y107.637 E17.0110
G1 X117.363 Y92.363 E17.8093
G1 X117.080 Y92.646 E17.8241
G1 X132.354 Y107.920 E18.6224
G1 X132.234 Y108.040 E18.6287
G1 X132.039 Y108.171 E18.6373
G1 X116.829 Y92.961 E19.4322
G1 X116.603 Y93.300 E19.4473
G1 X131.700 Y108.397 E20.2363
G1 X131.361 Y108.624 E20.2514
G1 X116.376 Y93.639 E21.0346
G1 X116.150 Y93.978 E21.0496
G1 X131.022 Y108.850 E21.8269
G1 X130.683 Y109.077 E21.8420
G1 X115.923 Y94.317 E22.6134
G1 X115.696 Y94.656 E22.6285
G1 X130.344 Y109.304 E23.3940
G1 X130.005 Y109.530 E23.4091
G1 X115.470 Y94.995 E24.1687
G1 X115.243 Y95.334 E24.1838
G1 X129.662 Y109.759 E24.9377
G1 X129.266 Y109.923 E24.9535
G1 X115.077 Y95.734 E25.6951
G1 X114.911 Y96.134 E25.7111
