; generated by Slic3r 1.3.0 on 2021-02-05 at 00:44:54

; external perimeters extrusion width = 0.44mm (1.59mm^3/s)
; perimeters extrusion width = 0.56mm (4.14mm^3/s)
; infill extrusion width = 0.50mm (5.48mm^3/s)
; solid infill extrusion width = 0.56mm (2.07mm^3/s)
; top infill extrusion width = 0.56mm (1.55mm^3/s)
; support material extrusion width = 0.44mm (4.76mm^3/s)

M107
M190 S60 ; set bed temperature and wait for it to be reached
M104 S215 ; set temperature
;Craftbot Start Script
G28 X0Y0 ;home xy
G28 Z0 ;home z
G91 ;relative movements
G0 F100 ;speed 100mm/sec
G0 X15 Y15 Z0.4 E12 ;purge nozzle - move to xy15
G90 ;Absolute movements
; Filament gcode

M109 S215 ; set temperature and wait for it to be reached
G21 ; set units to millimeters
G90 ; use absolute coordinates
M82 ; use absolute distances for extrusion
G92 E0
G1 Z0.200 F7800.000
G1 E-2.00000 F2400.00000
G92 E0
G1 X90.123 Y91.919 F7800.000
G1 E2.00000 F2400.00000
G1 F1800
G1 X91.921 Y90.122 E2.03718
G1 X93.966 Y88.755 E2.07318
G1 X96.318 Y87.781 E2.11042
G1 X98.732 Y87.302 E2.14643
G1 X101.270 Y87.302 E2.18356
G1 X103.683 Y87.781 E2.21955
G1 X106.035 Y88.755 E2.25680
G1 X108.080 Y90.122 E2.29279
G1 X109.878 Y91.919 E2.32998
G1 X111.245 Y93.965 E2.36597
G1 X112.219 Y96.317 E2.40322
G1 X112.698 Y98.730 E2.43921
G1 X112.698 Y101.269 E2.47635
G1 X112.219 Y103.682 E2.51234
G1 X111.245 Y106.034 E2.54959
G1 X109.878 Y108.079 E2.58558
G1 X108.081 Y109.877 E2.62277
G1 X106.035 Y111.244 E2.65876
G1 X103.686 Y112.217 E2.69596
G1 X101.273 Y112.697 E2.73196
G1 X98.728 Y112.697 E2.76919
G1 X96.315 Y112.217 E2.80519
G1 X93.966 Y111.244 E2.84239
G1 X91.920 Y109.877 E2.87838
G1 X90.123 Y108.079 E2.91557
G1 X88.756 Y106.034 E2.95156
G1 X87.783 Y103.686 E2.98875
G1 X87.303 Y101.272 E3.02476
G1 X87.303 Y98.727 E3.06199
G1 X87.783 Y96.314 E3.09799
G1 X88.756 Y93.965 E3.13519
G1 X90.090 Y91.969 E3.17031
G1 E1.17031 F2400.00000
G92 E0
G1 X94.441 Y97.545 F7800.000
G1 E2.00000 F2400.00000
G1 F1800
G1 X94.441 Y102.454 E2.05515
G1 X95.235 Y103.642 E2.07121
G1 X95.235 Y96.357 E2.15306
G1 X95.685 Y95.684 E2.16215
G1 X96.029 Y95.454 E2.16681
G1 X96.029 Y104.545 E2.26895
G1 X96.823 Y105.076 E2.27968
G1 X96.823 Y94.923 E2.39376
G1 X97.618 Y94.392 E2.40449
G1 X97.618 Y105.607 E2.53048
G1 X97.664 Y105.638 E2.53112
G1 X98.412 Y105.787 E2.53968
G1 X98.412 Y94.212 E2.66972
G1 X99.206 Y94.055 E2.67881
G1 X99.206 Y105.945 E2.81240
G1 X100.000 Y106.103 E2.82150
G1 X100.000 Y93.897 E2.95864
G1 X100.794 Y94.055 E2.96773
G1 X100.794 Y105.945 E3.10132
G1 X101.588 Y105.787 E3.11042
G1 X101.588 Y94.212 E3.24047
G1 X102.336 Y94.361 E3.24904
G1 X102.382 Y94.392 E3.24966
G1 X102.382 Y105.607 E3.37567
G1 X103.177 Y105.077 E3.38640
G1 X103.177 Y94.922 E3.50049
G1 X103.971 Y95.453 E3.51122
G1 X103.971 Y104.546 E3.61338
G1 X104.316 Y104.315 E3.61805
G1 X104.765 Y103.644 E3.62712
G1 X104.765 Y96.355 E3.70901
G1 X105.559 Y97.544 E3.72506
G1 X105.559 Y102.455 E3.78025
G1 Z0.500 F7800.000
G1 X101.127 Y103.940 F7800.000
G1 F1203.87
G1 X99.684 Y101.440 E3.82627
G1 X96.109 Y101.440 E3.88325
G1 X95.231 Y102.961 E3.91124
G1 X95.956 Y104.044 E3.93202
G1 X97.811 Y105.284 E3.96759
G1 X100.001 Y105.720 E4.00318
G1 X100.372 Y105.646 E4.00921
G1 X101.127 Y104.337 E4.03331
G1 X103.607 Y104.337 E4.07284
G1 X104.045 Y104.044 E4.08124
G1 X104.115 Y103.940 E4.08324
G1 X101.127 Y103.940 E4.13087
G1 X101.127 Y98.146 F7800.000
G1 F1203.87
G1 X99.684 Y95.646 E4.17689
G1 X96.417 Y95.646 E4.22897
G1 X95.956 Y95.955 E4.23781
G1 X95.777 Y96.222 E4.24295
G1 X94.666 Y98.146 E4.27836
G1 X94.649 Y98.146 E4.27864
G1 X94.570 Y98.543 E4.28509
G1 X94.666 Y98.543 E4.28663
G1 X96.109 Y101.043 E4.33264
G1 X99.684 Y101.043 E4.38963
G1 X101.127 Y98.543 E4.43565
G1 X104.702 Y98.543 E4.49263
G1 X105.675 Y100.228 E4.52365
G1 X105.720 Y99.999 E4.52738
G1 X105.285 Y97.810 E4.56296
G1 X105.076 Y97.497 E4.56896
G1 X104.702 Y98.146 E4.58090
G1 X101.127 Y98.146 E4.63789
G1 X100.218 Y94.323 F7800.000
G1 F1203.87
G1 X100.001 Y94.280 E4.64143
G1 X97.811 Y94.715 E4.67701
G1 X97.011 Y95.249 E4.69235
G1 X99.684 Y95.249 E4.73496
G1 X100.218 Y94.323 E4.75200
G1 X102.125 Y94.116 F7800.000
G1 F1203.87
G1 X100.001 Y93.695 E4.78654
G1 X97.587 Y94.174 E4.82576
G1 X95.542 Y95.541 E4.86498
G1 X94.175 Y97.586 E4.90420
G1 X93.694 Y100.000 E4.94343
G1 X94.175 Y102.413 E4.98266
G1 X95.542 Y104.458 E5.02188
G1 X97.587 Y105.825 E5.06109
G1 X100.001 Y106.306 E5.10032
G1 X102.414 Y105.825 E5.13956
G1 X104.459 Y104.458 E5.17877
G1 X105.826 Y102.413 E5.21799
G1 X106.305 Y99.999 E5.25722
G1 X105.826 Y97.586 E5.29644
G1 X104.459 Y95.541 E5.33566
G1 X102.414 Y94.174 E5.37488
G1 X102.125 Y94.116 E5.37957
G1 Z0.800 F7800.000
G1 E3.37957 F2400.00000
G92 E0
G1 X100.001 Y93.886 F7800.000
G1 E2.00000 F2400.00000
G1 F3600
G1 X98.075 Y94.268 E2.03130
G1 X101.926 Y94.268 E2.09269
G1 X102.341 Y94.350 E2.09943
G1 X102.789 Y94.650 E2.10803
G1 X97.212 Y94.650 E2.19695
G1 X96.640 Y95.032 E2.20791
G1 X103.361 Y95.032 E2.31505
G1 X103.933 Y95.415 E2.32602
G1 X96.068 Y95.415 E2.45139
G1 X95.677 Y95.676 E2.45889
G1 X95.596 Y95.797 E2.46120
G1 X104.405 Y95.797 E2.60162
G1 X104.660 Y96.179 E2.60895
G1 X95.341 Y96.179 E2.75751
G1 X95.086 Y96.561 E2.76484
G1 X104.915 Y96.561 E2.92154
G1 X105.171 Y96.943 E2.92887
G1 X94.830 Y96.943 E3.09372
G1 X94.575 Y97.325 E3.10104
G1 X105.426 Y97.325 E3.27403
G1 X105.650 Y97.659 E3.28044
G1 X105.659 Y97.707 E3.28122
G1 X94.342 Y97.707 E3.46163
G1 X94.266 Y98.089 E3.46784
G1 X105.735 Y98.089 E3.65068
G1 X105.811 Y98.472 E3.65689
G1 X94.190 Y98.472 E3.84214
G1 X94.114 Y98.854 E3.84836
G1 X105.887 Y98.854 E4.03603
G1 X105.962 Y99.236 E4.04224
G1 X94.038 Y99.236 E4.23235
G1 X93.962 Y99.618 E4.23856
G1 X106.038 Y99.618 E4.43108
G1 X106.114 Y100.000 E4.43729
G1 X93.886 Y100.000 E4.63223
G1 X93.962 Y100.382 E4.63844
G1 X106.038 Y100.382 E4.83095
G1 X105.962 Y100.764 E4.83717
G1 X94.038 Y100.764 E5.02726
G1 X94.114 Y101.146 E5.03347
G1 X105.886 Y101.146 E5.22114
G1 X105.811 Y101.529 E5.22735
G1 X94.190 Y101.529 E5.41260
G1 X94.266 Y101.911 E5.41881
G1 X105.735 Y101.911 E5.60164
G1 X105.659 Y102.293 E5.60785
G1 X94.342 Y102.293 E5.78826
G1 X94.352 Y102.340 E5.78902
G1 X94.576 Y102.675 E5.79545
G1 X105.425 Y102.675 E5.96841
G1 X105.170 Y103.057 E5.97574
G1 X94.831 Y103.057 E6.14056
G1 X95.086 Y103.439 E6.14789
G1 X104.915 Y103.439 E6.30457
G1 X104.659 Y103.821 E6.31189
G1 X95.342 Y103.821 E6.46043
G1 X95.597 Y104.203 E6.46776
G1 X104.404 Y104.203 E6.60815
G1 X104.324 Y104.323 E6.61044
G1 X103.931 Y104.586 E6.61798
G1 X96.070 Y104.586 E6.74330
G1 X96.642 Y104.968 E6.75426
G1 X103.359 Y104.968 E6.86135
G1 X102.787 Y105.350 E6.87231
G1 X97.214 Y105.350 E6.96117
G1 X97.660 Y105.648 E6.96973
G1 X98.080 Y105.732 E6.97656
G1 X101.921 Y105.732 E7.03778
G1 X100.000 Y106.114 E7.06900
M106 S252.45
G1 Z1.100 F7800.000
G1 E5.06900 F2400.00000
G92 E0
G1 X106.114 Y100.000 F7800.000
G1 E2.00000 F2400.00000
G1 F3600
G1 X105.732 Y98.074 E2.03130
G1 X105.732 Y101.925 E2.09268
G1 X105.650 Y102.340 E2.09942
G1 X105.350 Y102.788 E2.10802
G1 X105.350 Y97.211 E2.19693
G1 X104.968 Y96.639 E2.20790
G1 X104.968 Y103.360 E2.31504
G1 X104.585 Y103.932 E2.32600
G1 X104.585 Y96.067 E2.45138
G1 X104.324 Y95.676 E2.45888
G1 X104.203 Y95.595 E2.46119
G1 X104.203 Y104.404 E2.60161
G1 X103.821 Y104.659 E2.60894
G1 X103.821 Y95.340 E2.75750
G1 X103.439 Y95.085 E2.76482
G1 X103.439 Y104.914 E2.92153
G1 X103.057 Y105.170 E2.92885
G1 X103.057 Y94.829 E3.09370
G1 X102.675 Y94.574 E3.10103
G1 X102.675 Y105.425 E3.27401
G1 X102.341 Y105.648 E3.28042
G1 X102.293 Y105.658 E3.28120
G1 X102.293 Y94.341 E3.46161
G1 X101.911 Y94.265 E3.46782
G1 X101.911 Y105.734 E3.65066
G1 X101.528 Y105.810 E3.65687
G1 X101.528 Y94.189 E3.84213
G1 X101.146 Y94.113 E3.84834
G1 X101.146 Y105.886 E4.03602
G1 X100.764 Y105.962 E4.04223
G1 X100.764 Y94.038 E4.23233
G1 X100.382 Y93.962 E4.23854
G1 X100.382 Y106.038 E4.43106
G1 X100.001 Y106.114 E4.43726
G1 X100.000 Y93.886 E4.63220
G1 X99.618 Y93.962 E4.63841
G1 X99.618 Y106.038 E4.83093
G1 X99.236 Y105.962 E4.83714
G1 X99.236 Y94.038 E5.02723
G1 X98.854 Y94.114 E5.03344
G1 X98.854 Y105.886 E5.22112
G1 X98.471 Y105.810 E5.22733
G1 X98.471 Y94.189 E5.41258
G1 X98.089 Y94.265 E5.41879
G1 X98.089 Y105.734 E5.60162
G1 X97.707 Y105.658 E5.60783
G1 X97.707 Y94.341 E5.78823
G1 X97.660 Y94.350 E5.78899
G1 X97.325 Y94.575 E5.79542
G1 X97.325 Y105.424 E5.96839
G1 X96.943 Y105.169 E5.97571
G1 X96.943 Y94.830 E6.14054
G1 X96.561 Y95.085 E6.14786
G1 X96.561 Y104.914 E6.30454
G1 X96.179 Y104.658 E6.31187
G1 X96.179 Y95.341 E6.46041
G1 X95.797 Y95.596 E6.46774
G1 X95.797 Y104.403 E6.60813
G1 X95.677 Y104.323 E6.61042
G1 X95.414 Y103.930 E6.61796
G1 X95.414 Y96.069 E6.74328
G1 X95.032 Y96.641 E6.75424
G1 X95.032 Y103.358 E6.86133
G1 X94.650 Y102.786 E6.87229
G1 X94.650 Y97.212 E6.96115
G1 X94.352 Y97.659 E6.96972
G1 X94.268 Y98.079 E6.97655
G1 X94.268 Y101.920 E7.03777
G1 X93.886 Y99.999 E7.06900
M106 S247.35
G1 Z1.400 F7800.000
G1 E5.06900 F2400.00000
G92 E0
G1 X100.001 Y93.886 F7800.000
G1 E2.00000 F2400.00000
G1 F3600
G1 X98.075 Y94.268 E2.03130
G1 X101.926 Y94.268 E2.09269
G1 X102.341 Y94.350 E2.09943
G1 X102.789 Y94.650 E2.10803
G1 X97.212 Y94.650 E2.19694
G1 X96.640 Y95.032 E2.20791
G1 X103.361 Y95.032 E2.31505
G1 X103.933 Y95.415 E2.32602
G1 X96.068 Y95.415 E2.45139
G1 X95.677 Y95.676 E2.45889
G1 X95.596 Y95.797 E2.46120
G1 X104.405 Y95.797 E2.60162
G1 X104.660 Y96.179 E2.60895
G1 X95.341 Y96.179 E2.75751
G1 X95.086 Y96.561 E2.76484
G1 X104.915 Y96.561 E2.92154
G1 X105.171 Y96.943 E2.92887
G1 X94.830 Y96.943 E3.09372
G1 X94.575 Y97.325 E3.10104
G1 X105.426 Y97.325 E3.27403
G1 X105.650 Y97.659 E3.28044
G1 X105.659 Y97.707 E3.28122
G1 X94.342 Y97.707 E3.46163
G1 X94.266 Y98.089 E3.46784
G1 X105.735 Y98.089 E3.65068
G1 X105.811 Y98.472 E3.65689
G1 X94.190 Y98.472 E3.84214
G1 X94.114 Y98.854 E3.84836
G1 X105.887 Y98.854 E4.03603
G1 X105.962 Y99.236 E4.04224
G1 X94.038 Y99.236 E4.23235
G1 X93.962 Y99.618 E4.23856
G1 X106.038 Y99.618 E4.43108
G1 X106.114 Y100.000 E4.43729
G1 X93.886 Y100.000 E4.63223
G1 X93.962 Y100.382 E4.63844
G1 X106.038 Y100.382 E4.83095
G1 X105.962 Y100.764 E4.83717
G1 X94.038 Y100.764 E5.02726
G1 X94.114 Y101.146 E5.03347
G1 X105.886 Y101.146 E5.22114
G1 X105.811 Y101.529 E5.22735
G1 X94.190 Y101.529 E5.41260
G1 X94.266 Y101.911 E5.41881
G1 X105.735 Y101.911 E5.60164
G1 X105.659 Y102.293 E5.60785
G1 X94.342 Y102.293 E5.78826
G1 X94.352 Y102.340 E5.78902
G1 X94.576 Y102.675 E5.79545
G1 X105.425 Y102.675 E5.96841
G1 X105.170 Y103.057 E5.97574
G1 X94.831 Y103.057 E6.14056
G1 X95.086 Y103.439 E6.14789
G1 X104.915 Y103.439 E6.30457
G1 X104.659 Y103.821 E6.31189
G1 X95.342 Y103.821 E6.46043
G1 X95.597 Y104.203 E6.46776
G1 X104.404 Y104.203 E6.60815
G1 X104.324 Y104.323 E6.61044
G1 X103.931 Y104.586 E6.61798
G1 X96.070 Y104.586 E6.74330
G1 X96.642 Y104.968 E6.75426
G1 X103.359 Y104.968 E6.86135
G1 X102.787 Y105.350 E6.87231
G1 X97.214 Y105.350 E6.96117
G1 X97.660 Y105.648 E6.96973
G1 X98.080 Y105.732 E6.97656
G1 X101.921 Y105.732 E7.03778
G1 X100.000 Y106.114 E7.06900
G1 Z2.000 F7800.000
G1 E5.06900 F2400.00000
G92 E0
G1 X102.518 Y102.815 F7800.000
G1 E2.00000 F2400.00000
M106 S255

G1 F3600
G1 X97.480 Y102.815 E2.08957
G1 X96.862 Y101.916 E2.10896
G1 X96.596 Y101.304 E2.12082
G1 X96.437 Y100.662 E2.13258
G1 X96.382 Y99.999 E2.14440
G1 X96.437 Y99.337 E2.15622
G1 X96.596 Y98.695 E2.16797
G1 X96.862 Y98.083 E2.17984
G1 X97.480 Y97.185 E2.19921
G1 X102.518 Y97.185 E2.28877
G1 X103.136 Y98.083 E2.30815
G1 X103.402 Y98.695 E2.32001
G1 X103.561 Y99.337 E2.33177
G1 X103.616 Y99.999 E2.34359
G1 X103.561 Y100.662 E2.35541
G1 X103.402 Y101.304 E2.36716
G1 X103.136 Y101.916 E2.37903
G1 X102.552 Y102.765 E2.39735
M106 S247.35

G1 X102.337 Y102.470 F7800.000
M106 S255

G1 F3600
G1 X97.661 Y102.470 E2.48048
G1 X97.164 Y101.749 E2.49606
G1 X96.923 Y101.193 E2.50682
G1 X96.778 Y100.606 E2.51757
G1 X96.728 Y99.999 E2.52840
G1 X96.778 Y99.393 E2.53922
G1 X96.923 Y98.806 E2.54997
G1 X97.164 Y98.250 E2.56074
G1 X97.661 Y97.529 E2.57630
G1 X102.337 Y97.529 E2.65943
G1 X102.834 Y98.250 E2.67499
G1 X103.075 Y98.806 E2.68576
G1 X103.220 Y99.393 E2.69651
G1 X103.270 Y99.999 E2.70733
G1 X103.220 Y100.606 E2.71815
G1 X103.075 Y101.193 E2.72891
G1 X102.834 Y101.749 E2.73967
G1 X102.371 Y102.421 E2.75418
M106 S247.35

G1 E0.75418 F2400.00000
G92 E0
G1 X102.244 Y96.851 F7800.000
G1 E2.00000 F2400.00000
M106 S255

G1 F3600
G1 X97.757 Y96.851 E2.07976
G1 X97.714 Y96.709 E2.08241
G1 X98.437 Y96.226 E2.09786
G1 X100.000 Y95.915 E2.12620
G1 X101.564 Y96.226 E2.15454
G1 X102.287 Y96.709 E2.17000
G1 X102.261 Y96.794 E2.17158
M106 S247.35

G1 E0.17158 F2400.00000
G92 E0
G1 X102.285 Y103.291 F7800.000
G1 E2.00000 F2400.00000
M106 S255

G1 F3600
G1 X101.564 Y103.773 E2.01543
G1 X100.000 Y104.085 E2.04377
G1 X98.437 Y103.773 E2.07211
G1 X97.716 Y103.291 E2.08754
G1 X97.759 Y103.149 E2.09018
G1 X102.242 Y103.149 E2.16989
G1 X102.268 Y103.234 E2.17147
M106 S247.35

G1 X102.471 Y103.569 F7800.000
M106 S255

G1 F3600
G1 X101.694 Y104.088 E2.18808
G1 X100.000 Y104.425 E2.21878
G1 X98.307 Y104.088 E2.24948
G1 X96.871 Y103.129 E2.28018
G1 X95.912 Y101.693 E2.31087
G1 X95.575 Y99.999 E2.34157
G1 X95.912 Y98.306 E2.37228
G1 X96.871 Y96.870 E2.40297
G1 X98.307 Y95.911 E2.43366
G1 X100.000 Y95.575 E2.46436
G1 X101.694 Y95.911 E2.49507
G1 X103.130 Y96.870 E2.52576
G1 X104.089 Y98.306 E2.55645
G1 X104.425 Y99.999 E2.58715
G1 X104.089 Y101.693 E2.61785
G1 X103.130 Y103.129 E2.64854
G1 X102.521 Y103.536 E2.66156
M106 S247.35

G1 X102.662 Y103.855 F7800.000
M106 S255

G1 F3600
G1 X101.829 Y104.412 E2.67939
G1 X100.000 Y104.776 E2.71252
G1 X98.172 Y104.412 E2.74566
G1 X96.623 Y103.377 E2.77879
G1 X95.588 Y101.828 E2.81192
G1 X95.224 Y99.999 E2.84505
G1 X95.588 Y98.171 E2.87819
G1 X96.623 Y96.622 E2.91132
G1 X98.172 Y95.587 E2.94444
G1 X100.000 Y95.224 E2.97758
G1 X101.829 Y95.587 E3.01072
G1 X103.378 Y96.622 E3.04384
G1 X104.413 Y98.171 E3.07697
G1 X104.776 Y99.999 E3.11010
G1 X104.413 Y101.828 E3.14324
G1 X103.378 Y103.377 E3.17636
G1 X102.712 Y103.822 E3.19060
M106 S247.35

G1 X100.876 Y103.693 F7800.000
M106 S255

G1 F3600
G1 X100.571 Y103.388 E3.20079
G1 X99.848 Y103.388 E3.21787
G1 X100.273 Y103.813 E3.23207
G1 X100.153 Y103.837 E3.23497
G1 X99.430 Y103.693 E3.25238
G1 X99.125 Y103.388 E3.26257
M106 S247.35

G1 E1.26257 F2400.00000
G92 E0
G1 X100.878 Y96.612 F7800.000
G1 E2.00000 F2400.00000
M106 S255

G1 F3600
G1 X100.573 Y96.307 E2.01027
G1 X99.848 Y96.163 E2.02789
G1 X99.728 Y96.186 E2.03081
G1 X100.153 Y96.612 E2.04513
G1 X99.427 Y96.612 E2.06241
G1 X99.122 Y96.307 E2.07269
M106 S247.35

G1 Z2.200 F7800.000
G1 E0.07269 F2400.00000
G92 E0
G1 X102.578 Y102.928 F7800.000
G1 E2.00000 F2400.00000
G1 F900
G1 X97.420 Y102.928 E2.07545
G1 X96.762 Y101.971 E2.09243
G1 X96.489 Y101.340 E2.10250
G1 X96.325 Y100.681 E2.11244
G1 X96.269 Y99.999 E2.12244
G1 X96.325 Y99.318 E2.13243
G1 X96.489 Y98.659 E2.14238
G1 X96.763 Y98.028 E2.15244
G1 X97.421 Y97.072 E2.16941
G1 X102.577 Y97.072 E2.24485
G1 X103.235 Y98.028 E2.26183
G1 X103.509 Y98.659 E2.27189
G1 X103.673 Y99.318 E2.28184
G1 X103.729 Y99.999 E2.29183
G1 X103.673 Y100.681 E2.30183
G1 X103.509 Y101.340 E2.31177
G1 X103.236 Y101.971 E2.32183
G1 X102.612 Y102.878 E2.33794
G1 X102.337 Y102.470 F7800.000
G1 F900
G1 X97.661 Y102.470 E2.39048
G1 X97.164 Y101.749 E2.40033
G1 X96.923 Y101.193 E2.40713
G1 X96.778 Y100.606 E2.41392
G1 X96.728 Y99.999 E2.42076
G1 X96.778 Y99.393 E2.42760
G1 X96.923 Y98.806 E2.43440
G1 X97.164 Y98.250 E2.44120
G1 X97.661 Y97.529 E2.45103
G1 X102.337 Y97.529 E2.50357
G1 X102.834 Y98.250 E2.51341
G1 X103.075 Y98.806 E2.52021
G1 X103.220 Y99.393 E2.52700
G1 X103.270 Y99.999 E2.53384
G1 X103.220 Y100.606 E2.54068
G1 X103.075 Y101.193 E2.54748
G1 X102.834 Y101.749 E2.55428
G1 X102.371 Y102.421 E2.56345
G1 X102.268 Y102.864 F7800.000
G1 E0.56345 F2400.00000
G92 E0
G1 X100.268 Y96.555 F7800.000
G1 E2.00000 F2400.00000
G1 F900
G1 X99.733 Y96.555 E2.00781
G1 X99.706 Y96.275 E2.01193
G1 X100.000 Y96.217 E2.01632
G1 X100.295 Y96.275 E2.02072
