; #disp params :
; Printmode:0
; Layer:355
; Zmax:110.126 mm
; Xmax:154.94 mm
; Ymax:36.6 mm
; Xmin:134.875 mm
; Ymin:0.3 mm
; E0diam:0.4 mm
; E0len:0.369664 m
; E0temp:215 C
; Bedtemp:215 C
; Time:28.1609 min
; #params end
; GCode generated by CraftWare

G28 X Y ; home horizontally
G28 Z ; home vertically


M104 S215 ;set head temp (no wait)
M190 S60 ;set bed temp (wait)
M109 S215 ;set head temp (wait)

; ------------------------------------
; Raft Layer #0
; ------------------------------------
M106 S0 ;turn off fan
G21 ; mm
G90 ; abs
G92 E0 ;reset extr
G0 F600 Z0.300
;segType:Raft
G0 F3000 E-1.00000
G0 F600 Z2.300
G0 X147.501 Y110.064 F5400
G0 F600 Z0.300
G0 F3000 E0.00000
G1 X142.501 Y110.064 E0.24947 F600
G1 X140.876 Y109.689 E0.33268
G1 X140.188 Y109.376 E0.37038
G1 X139.626 Y108.938 E0.40591
G1 X139.001 Y108.563 E0.44228
G1 X136.563 Y106.126 E0.61429
G1 X136.125 Y105.563 E0.64983
G1 X135.750 Y104.938 E0.68620
G1 X135.312 Y104.375 E0.72177
G1 X135.187 Y104.000 E0.74149
G1 X135.187 Y103.500 E0.76644
G1 X134.937 Y102.750 E0.80588
G1 X134.937 Y97.750 E1.05535
G1 X135.000 Y97.312 E1.07742
G0 X135.062 Y97.250 F5400
G1 X135.062 Y96.750 E1.10237 F600
G1 X135.312 Y96.000 E1.14181
G1 X135.625 Y95.312 E1.17951
G1 X136.125 Y94.562 E1.22448
G0 X136.188 Y94.375 F5400
G1 X139.188 Y91.374 E1.43616 F600
G1 X139.813 Y90.999 E1.47253
G1 X140.376 Y90.561 E1.50810
G1 X141.501 Y90.186 E1.56727
G1 X142.001 Y90.186 E1.59222
G1 X142.376 Y90.061 E1.61194
G1 X147.376 Y90.061 E1.86141
G1 X147.751 Y90.186 E1.88113
G1 X148.251 Y90.186 E1.90608
G1 X149.001 Y90.436 E1.94553
G1 X149.689 Y90.749 E1.98322
G1 X150.314 Y91.124 E2.01959
G1 X150.877 Y91.562 E2.05513
G1 X153.377 Y94.062 E2.23153
G1 X153.814 Y94.625 E2.26710
G1 X154.190 Y95.250 E2.30347
G1 X154.440 Y95.500 E2.32111
G1 X154.690 Y96.250 E2.36055
G1 X154.815 Y97.125 E2.40466
G1 X154.940 Y97.500 E2.42438
G1 X154.940 Y98.000 E2.44932
G0 X154.940 Y98.125 F5400
G1 X154.940 Y102.625 E2.67385 F600
G1 X154.565 Y104.250 E2.75706
G1 X153.814 Y105.500 E2.82979
G1 X153.377 Y106.063 E2.86536
G1 X150.877 Y108.563 E3.04177
G1 X150.251 Y108.938 E3.07813
G1 X149.689 Y109.376 E3.11367
G1 X149.001 Y109.689 E3.15137
G1 X147.564 Y110.001 E3.22475
G0 X147.480 Y109.626 F5400
G1 X147.480 Y90.624 E4.17274 F600
G0 X144.813 Y90.499 F5400
G1 X144.813 Y109.751 E5.13321 F600
G0 X142.147 Y109.626 F5400
G1 X142.147 Y90.624 E6.08120 F600
G0 X139.480 Y91.749 F5400
G1 X139.480 Y108.376 E6.91070 F600
G0 X136.813 Y105.875 F5400
G1 X136.813 Y94.375 E7.48448 F600
G0 X150.147 Y91.624 F5400
G1 X150.147 Y108.626 E8.33269 F600
G0 X152.813 Y106.126 F5400
G1 X152.813 Y94.125 E8.93142 F600



; ------------------------------------
; Raft Layer #1
; ------------------------------------
G92 E0 ;reset extr
G0 F600 Z0.600
;segType:Raft
G0 F3000 E-1.00000
G0 F600 Z2.600
G0 X153.137 Y93.687 F7200
G0 F600 Z0.600
G0 F3000 E0.00000
G1 X138.636 Y108.188 E1.02313 F1800
G0 X137.750 Y107.188 F7200
G1 X152.127 Y92.812 E2.03744 F1800
G0 X151.127 Y91.927 F7200
G1 X136.750 Y106.303 E3.05175 F1800
G0 X135.875 Y105.292 F7200
G1 X150.126 Y91.041 E4.05724 F1800
G0 X148.876 Y90.406 F7200
G1 X135.250 Y104.032 E5.01863 F1800
G0 X134.875 Y102.521 F7200
G1 X147.376 Y90.020 E5.90064 F1800
G0 X145.501 Y90.010 F7200
G1 X134.875 Y100.635 E6.65035 F1800
G0 X134.875 Y98.750 F7200
G1 X143.626 Y89.999 E7.26776 F1800
G0 X141.626 Y90.114 F7200
G1 X135.000 Y96.739 E7.73522 F1800
G0 X139.771 Y108.938 F7200
G1 X153.898 Y94.812 E8.73189 F1800
G0 X154.658 Y95.938 F7200
G1 X141.032 Y109.563 E9.69328 F1800
G0 X142.543 Y109.938 F7200
G1 X154.919 Y97.563 E10.56647 F1800
G0 X154.929 Y99.438 F7200
G1 X144.428 Y109.938 E11.30736 F1800
G0 X146.314 Y109.938 F7200
G1 X154.815 Y101.438 E11.90713 F1800
G0 X154.575 Y103.563 F7200
G1 X148.450 Y109.688 E12.33931 F1800



; ------------------------------------
; Raft Layer #2
; ------------------------------------
G92 E0 ;reset extr
G0 F600 Z0.800
;segType:Raft
G0 X148.751 Y109.788 F7200
G1 X141.001 Y109.788 E0.25779 F2400
G1 X140.126 Y109.388 E0.28979
G1 X149.626 Y109.388 E0.60579
G1 X150.126 Y108.988 E0.62708
G1 X139.626 Y108.988 E0.97635
G1 X139.001 Y108.588 E1.00103
G1 X150.751 Y108.588 E1.39187
G1 X151.252 Y108.188 E1.41316
G1 X138.500 Y108.188 E1.83727
G1 X138.125 Y107.788 E1.85550
G1 X151.627 Y107.788 E2.30455
G1 X152.002 Y107.388 E2.32279
G1 X137.750 Y107.388 E2.79679
G1 X137.375 Y106.988 E2.81502
G1 X152.377 Y106.988 E3.31397
G1 X152.752 Y106.588 E3.33220
G1 X137.000 Y106.588 E3.85610
G1 X136.500 Y106.188 E3.87739
G1 X153.252 Y106.188 E4.43455
G1 X153.502 Y105.788 E4.45024
G1 X136.250 Y105.788 E5.02402
G1 X136.000 Y105.388 E5.03971
G1 X153.752 Y105.388 E5.63013
G1 X154.002 Y104.988 E5.64582
G1 X135.750 Y104.988 E6.25286
G1 X135.500 Y104.588 E6.26855
G1 X154.252 Y104.588 E6.89223
G1 X154.502 Y104.188 E6.90792
G1 X135.250 Y104.188 E7.54823
G1 X135.125 Y103.788 E7.56217
G1 X154.627 Y103.788 E8.21080
G1 X154.752 Y103.388 E8.22474
G1 X135.000 Y103.388 E8.88168
G1 X135.000 Y102.988 E8.89498
G1 X154.752 Y102.988 E9.55193
G1 X154.877 Y102.588 E9.56586
G1 X134.875 Y102.588 E10.23112
G1 X134.875 Y102.188 E10.24443
G1 X154.877 Y102.188 E10.90968
G1 X154.877 Y101.788 E10.92299
G1 X134.875 Y101.788 E11.58825
G1 X134.875 Y101.388 E11.60155
G1 X154.877 Y101.388 E12.26681
G1 X154.877 Y100.988 E12.28011
G1 X134.875 Y100.988 E12.94537
G1 X134.875 Y100.588 E12.95868
G1 X154.877 Y100.588 E13.62393
G1 X154.877 Y100.188 E13.63724
G1 X134.875 Y100.188 E14.30250
G1 X134.875 Y99.788 E14.31580
G1 X154.877 Y99.788 E14.98106
G1 X154.877 Y99.388 E14.99436
G1 X134.875 Y99.388 E15.65962
G1 X134.875 Y98.988 E15.67292
G1 X154.877 Y98.988 E16.33818
G1 X154.877 Y98.588 E16.35149
G1 X134.875 Y98.588 E17.01675
G1 X134.875 Y98.188 E17.03005
G1 X154.877 Y98.188 E17.69531
G1 X154.877 Y97.788 E17.70861
G1 X134.875 Y97.788 E18.37387
G1 X134.875 Y97.388 E18.38717
G1 X154.877 Y97.388 E19.05243
G1 X154.752 Y96.988 E19.06637
G1 X135.000 Y96.988 E19.72331
G1 X135.125 Y96.588 E19.73725
G1 X154.627 Y96.588 E20.38588
G1 X154.627 Y96.188 E20.39918
G1 X135.125 Y96.188 E21.04781
G1 X135.250 Y95.788 E21.06175
G1 X154.502 Y95.788 E21.70206
G1 X154.252 Y95.388 E21.71775
G1 X135.500 Y95.388 E22.34143
G1 X135.750 Y94.988 E22.35712
G1 X154.002 Y94.988 E22.96417
G1 X153.752 Y94.588 E22.97986
G1 X136.000 Y94.588 E23.57027
G1 X136.250 Y94.188 E23.58596
G1 X153.502 Y94.188 E24.15975
G1 X153.002 Y93.788 E24.18104
G1 X136.750 Y93.788 E24.72157
G1 X137.125 Y93.388 E24.73980
G1 X152.627 Y93.388 E25.25538
G1 X152.252 Y92.988 E25.27361
G1 X137.500 Y92.988 E25.76424
G1 X137.875 Y92.588 E25.78248
G1 X151.877 Y92.588 E26.24816
G1 X151.502 Y92.188 E26.26639
G1 X138.250 Y92.188 E26.70713
G1 X138.750 Y91.788 E26.72843
G1 X151.002 Y91.788 E27.13590
G1 X150.626 Y91.388 E27.15413
G1 X139.126 Y91.388 E27.53665
G1 X139.751 Y90.988 E27.56134
G1 X150.001 Y90.988 E27.90228
G1 X149.501 Y90.588 E27.92358
G1 X140.251 Y90.588 E28.23126
G0 X141.376 Y90.188 F7200
G1 X148.251 Y90.188 E28.45994 F2400



; ------------------------------------
; Raft Layer #3
; ------------------------------------
M106 S255 ;set fan speed
G92 E0 ;reset extr
G0 F600 Z1.000
;segType:Raft
G0 F3000 E-1.00000
G0 F600 Z3.000
G0 X154.813 Y96.750 F7200
G0 F600 Z1.000
G0 F3000 E0.00000
G1 X154.813 Y103.500 E0.22452 F2400
G0 X154.413 Y104.625 F7200
G1 X154.413 Y95.500 E0.52805 F2400
G1 X154.013 Y95.000 E0.54935
G1 X154.013 Y105.250 E0.89029
G1 X153.613 Y105.750 E0.91159
G1 X153.613 Y94.375 E1.28996
G1 X153.213 Y94.000 E1.30819
G1 X153.213 Y106.251 E1.71566
G1 X152.813 Y106.751 E1.73696
G1 X152.813 Y93.499 E2.17769
G1 X152.413 Y93.124 E2.19593
G1 X152.413 Y107.126 E2.66161
G1 X152.013 Y107.501 E2.67985
G1 X152.013 Y92.749 E3.17048
G1 X151.613 Y92.374 E3.18871
G1 X151.613 Y107.876 E3.70429
G1 X151.213 Y108.251 E3.72253
G1 X151.213 Y91.999 E4.26305
G1 X150.813 Y91.499 E4.28435
G1 X150.813 Y108.751 E4.85813
G1 X150.413 Y109.001 E4.87382
G1 X150.413 Y91.249 E5.46424
G1 X150.013 Y90.999 E5.47993
G1 X150.013 Y109.251 E6.08698
G1 X149.613 Y109.501 E6.10266
G1 X149.613 Y90.749 E6.72634
G1 X149.213 Y90.499 E6.74203
G1 X149.213 Y109.751 E7.38234
G1 X148.813 Y109.876 E7.39628
G1 X148.813 Y90.374 E8.04491
G1 X148.413 Y90.374 E8.05821
G1 X148.413 Y109.876 E8.70684
G1 X148.013 Y110.001 E8.72078
G1 X148.013 Y90.249 E9.37772
G1 X147.613 Y90.124 E9.39166
G1 X147.613 Y110.001 E10.05276
G1 X147.213 Y110.126 E10.06670
G1 X147.213 Y90.124 E10.73196
G1 X146.813 Y90.124 E10.74526
G1 X146.813 Y110.126 E11.41052
G1 X146.413 Y110.126 E11.42382
G1 X146.413 Y90.124 E12.08908
G1 X146.013 Y90.124 E12.10239
G1 X146.013 Y110.126 E12.76764
G1 X145.613 Y110.126 E12.78095
G1 X145.613 Y90.124 E13.44621
G1 X145.213 Y90.124 E13.45951
G1 X145.213 Y110.126 E14.12477
G1 X144.813 Y110.126 E14.13807
G1 X144.813 Y90.124 E14.80333
G1 X144.413 Y90.124 E14.81664
G1 X144.413 Y110.126 E15.48189
G1 X144.013 Y110.126 E15.49520
G1 X144.013 Y90.124 E16.16046
G1 X143.613 Y90.124 E16.17376
G1 X143.613 Y110.126 E16.83902
G1 X143.213 Y110.126 E16.85232
G1 X143.213 Y90.124 E17.51758
G1 X142.813 Y90.124 E17.53088
G1 X142.813 Y110.126 E18.19614
G1 X142.413 Y110.126 E18.20945
G1 X142.413 Y90.124 E18.87470
G1 X142.013 Y90.249 E18.88864
G1 X142.013 Y110.001 E19.54559
G1 X141.613 Y109.876 E19.55953
G1 X141.613 Y90.249 E20.21231
G1 X141.213 Y90.374 E20.22625
G1 X141.213 Y109.876 E20.87487
G1 X140.813 Y109.751 E20.88881
G1 X140.813 Y90.374 E21.53328
G1 X140.413 Y90.624 E21.54897
G1 X140.413 Y109.501 E22.17681
G1 X140.013 Y109.251 E22.19250
G1 X140.013 Y90.874 E22.80370
G1 X139.613 Y91.124 E22.81939
G1 X139.613 Y109.001 E23.41397
G1 X139.213 Y108.751 E23.42966
G1 X139.213 Y91.374 E24.00760
G1 X138.813 Y91.749 E24.02584
G1 X138.813 Y108.501 E24.58299
G1 X138.413 Y108.001 E24.60429
G1 X138.413 Y92.249 E25.12818
G1 X138.013 Y92.624 E25.14642
G1 X138.013 Y107.626 E25.64536
G1 X137.613 Y107.251 E25.66360
G1 X137.613 Y92.999 E26.13759
G1 X137.213 Y93.374 E26.15583
G1 X137.213 Y106.876 E26.60488
G1 X136.813 Y106.501 E26.62312
G1 X136.813 Y93.749 E27.04722
G1 X136.413 Y94.250 E27.06852
G1 X136.413 Y106.001 E27.45936
G1 X136.013 Y105.375 E27.48404
G1 X136.013 Y94.750 E27.83746
G1 X135.613 Y95.375 E27.86214
G1 X135.613 Y104.875 E28.17814
G1 X135.213 Y104.125 E28.20641
G1 X135.213 Y96.125 E28.47251


; ------------------------------------
; Layer #0
; ------------------------------------
G21 ; mm
G90 ; abs
G92 E0 ;reset extr
G0 F600 Z1.450
;segType:HShell
G0 F3000 E-1.00000
G0 X145.828 Y103.211 F5400
G0 F3000 E0.00000
G1 X146.366 Y103.749 E0.02533 F2400
G0 F3000 E-0.97467
G0 X146.393 Y103.211 F5400
G0 F3000 E0.02533
G1 X146.754 Y103.572 E0.04231 F2400
G0 X147.015 Y103.267 F5400
G1 X146.959 Y103.211 E0.04497 F2400
G0 X147.458 Y103.161 F5400
;segType:InnerHair
G1 X147.343 Y103.196 E0.04785 F2400
G1 X147.229 Y103.231 E0.05143
G1 X147.115 Y103.265 E0.05569
G0 X147.099 Y103.270 F5400
G0 X147.223 Y103.233
G0 X147.347 Y103.195
G0 X147.471 Y103.157
G1 X147.864 Y102.904 E0.06336 F2400
G1 X147.934 Y102.812 E0.06535
G1 X147.999 Y102.716 E0.06734
G1 X148.064 Y102.619 E0.06932
G1 X148.130 Y102.523 E0.07128
G1 X148.195 Y102.427 E0.07322
G1 X148.260 Y102.330 E0.07515
G1 X148.326 Y102.234 E0.07706
G1 X148.391 Y102.138 E0.07896
G1 X148.453 Y102.038 E0.08095
G1 X148.510 Y101.934 E0.08318
G1 X148.567 Y101.829 E0.08562
G1 X148.624 Y101.724 E0.08828
G1 X148.681 Y101.620 E0.09114
G1 X148.738 Y101.515 E0.09422
G1 X148.723 Y101.543 E0.09504
G1 X148.759 Y101.429 E0.09783
G1 X148.785 Y101.315 E0.10050
G1 X148.810 Y101.201 E0.10311
G1 X148.836 Y101.086 E0.10568
G1 X148.861 Y100.972 E0.10818
G1 X148.887 Y100.858 E0.11063
G1 X148.912 Y100.743 E0.11303
G1 X148.930 Y100.629 E0.11549
G1 X148.946 Y100.515 E0.11807
G1 X148.962 Y100.401 E0.12078
G1 X148.978 Y100.286 E0.12361
G1 X148.994 Y100.172 E0.12657
G1 X149.010 Y100.058 E0.12965
G1 X149.010 Y99.943 E0.13271
G1 X148.994 Y99.829 E0.13567
G1 X148.978 Y99.715 E0.13850
G1 X148.962 Y99.601 E0.14121
G1 X148.946 Y99.486 E0.14379
G1 X148.930 Y99.372 E0.14625
G1 X148.913 Y99.258 E0.14861
G1 X148.887 Y99.143 E0.15107
G1 X148.862 Y99.029 E0.15357
G1 X148.836 Y98.915 E0.15613
G1 X148.811 Y98.801 E0.15874
G1 X148.785 Y98.686 E0.16141
G0 X148.759 Y98.572 F5400
G0 X148.724 Y98.458
G1 X148.757 Y98.507 E0.16292 F2400
G1 X148.696 Y98.406 E0.16581
G1 X148.639 Y98.302 E0.16852
G1 X148.582 Y98.197 E0.17102
G1 X148.525 Y98.093 E0.17330
G1 X148.468 Y97.988 E0.17537
G1 X148.408 Y97.886 E0.17729
G1 X148.342 Y97.790 E0.17920
G1 X148.277 Y97.694 E0.18113
G1 X148.212 Y97.597 E0.18307
G1 X148.146 Y97.501 E0.18503
G1 X148.081 Y97.405 E0.18701
G1 X148.016 Y97.309 E0.18900
G1 X147.950 Y97.212 E0.19101
G1 X147.885 Y97.116 E0.19303
G1 X147.804 Y97.036 E0.19461
G0 X147.503 Y96.852 F5400
G0 X147.379 Y96.814
G0 X147.255 Y96.777
G0 X147.131 Y96.739
G1 X147.115 Y96.734 E0.19520 F2400
G1 X147.229 Y96.769 E0.19879
G1 X147.343 Y96.803 E0.20168
G1 X147.458 Y96.838 E0.20388
G0 X148.843 Y97.695 F5400
;segType:Perimeter
G1 X149.444 Y98.223 E0.23049 F1200
G1 X149.797 Y100.000 E0.29075
G1 X149.433 Y101.835 E0.35300
G1 X148.393 Y103.391 E0.41523
G1 X146.837 Y104.431 E0.47747
G1 X145.002 Y104.796 E0.53972
G1 X143.166 Y104.431 E0.60198
G1 X141.610 Y103.391 E0.66421
G1 X140.570 Y101.835 E0.72645
G1 X140.205 Y100.000 E0.78870
G1 X140.570 Y98.164 E0.85096
G1 X141.610 Y96.608 E0.91320
G1 X143.166 Y95.568 E0.97543
G1 X145.002 Y95.204 E1.03768
G1 X146.837 Y95.568 E1.09993
G1 X148.393 Y96.608 E1.16217
G1 X149.399 Y98.114 E1.22241
G0 X149.444 Y98.223 F5400
G0 X149.756 Y99.792
G0 X149.255 Y99.321
;segType:Loop
G1 X149.389 Y100.000 E1.24543 F2400
G1 X149.056 Y101.679 E1.30239
G1 X148.105 Y103.103 E1.35933
G1 X146.681 Y104.054 E1.41627
G1 X145.002 Y104.388 E1.47323
G1 X143.322 Y104.054 E1.53019
G1 X141.898 Y103.103 E1.58714
G1 X140.947 Y101.679 E1.64408
G1 X140.613 Y100.000 E1.70104
G1 X140.947 Y98.320 E1.75801
G1 X141.898 Y96.896 E1.81495
G1 X143.322 Y95.945 E1.87189
G1 X145.002 Y95.612 E1.92885
G1 X146.681 Y95.945 E1.98581
G1 X148.105 Y96.896 E2.04275
G1 X149.056 Y98.320 E2.09969
G1 X149.216 Y99.124 E2.12697
G0 F3000 E1.12697
G0 X149.583 Y98.923 F5400
G0 X148.224 Y99.667
G0 X148.252 Y100.000
G0 X148.202 Y100.603
G0 X148.057 Y101.187
G0 X147.818 Y101.739
G0 X147.328 Y102.451
G0 X143.137 Y102.451
G0 X141.559 Y103.314
G0 X141.610 Y103.391
G0 X142.198 Y102.964
G0 F3000 E2.12697
;segType:InnerHair
G1 X142.117 Y102.884 E2.12893 F2400
G1 X142.052 Y102.788 E2.13091
G1 X141.986 Y102.692 E2.13287
G1 X141.921 Y102.595 E2.13482
G1 X141.856 Y102.499 E2.13675
G1 X141.790 Y102.403 E2.13867
G1 X141.725 Y102.306 E2.14057
G1 X141.660 Y102.210 E2.14246
G1 X141.594 Y102.114 E2.14433
G1 X141.534 Y102.012 E2.14636
G1 X141.477 Y101.908 E2.14861
G1 X141.420 Y101.803 E2.15108
G1 X141.363 Y101.698 E2.15377
G1 X141.306 Y101.594 E2.15666
G1 X141.245 Y101.493 E2.15962
G1 X141.278 Y101.543 E2.16114
G1 X141.243 Y101.429 E2.16391
G1 X141.217 Y101.315 E2.16655
G1 X141.191 Y101.201 E2.16914
G1 X141.166 Y101.086 E2.17168
G1 X141.140 Y100.972 E2.17416
G1 X141.115 Y100.858 E2.17659
G1 X141.089 Y100.743 E2.17896
G1 X141.072 Y100.629 E2.18141
G1 X141.056 Y100.515 E2.18398
G1 X141.040 Y100.401 E2.18668
G1 X141.023 Y100.286 E2.18949
G1 X141.007 Y100.172 E2.19243
G1 X140.991 Y100.058 E2.19549
G1 X140.991 Y99.943 E2.19853
G1 X141.007 Y99.829 E2.20147
G1 X141.023 Y99.715 E2.20428
G1 X141.039 Y99.601 E2.20697
G1 X141.055 Y99.486 E2.20953
G1 X141.071 Y99.372 E2.21196
G1 X141.089 Y99.258 E2.21431
G1 X141.114 Y99.143 E2.21674
G1 X141.140 Y99.029 E2.21922
G1 X141.165 Y98.915 E2.22175
G1 X141.191 Y98.801 E2.22434
G1 X141.216 Y98.686 E2.22699
G1 X141.242 Y98.572 E2.22969
G1 X141.278 Y98.458 E2.23270
G1 X141.291 Y98.432 E2.23341
G1 X141.348 Y98.328 E2.23615
G1 X141.406 Y98.223 E2.23867
G1 X141.463 Y98.119 E2.24099
G1 X141.520 Y98.014 E2.24309
G1 X141.577 Y97.909 E2.24497
G1 X141.643 Y97.814 E2.24685
G1 X141.708 Y97.718 E2.24875
G1 X141.773 Y97.621 E2.25067
G1 X141.839 Y97.525 E2.25260
G1 X141.904 Y97.429 E2.25455
G1 X141.970 Y97.333 E2.25651
G1 X142.035 Y97.236 E2.25849
G1 X142.100 Y97.140 E2.26049
G1 X142.177 Y97.056 E2.26215
G0 X142.468 Y96.862 F5400
G0 X142.592 Y96.824
G0 X142.716 Y96.786
G0 X142.840 Y96.749
G0 X142.964 Y96.711
G1 X142.886 Y96.735 E2.26506 F2400
G1 X142.772 Y96.769 E2.26863
G1 X142.658 Y96.804 E2.27151
G1 X142.543 Y96.839 E2.27370
G0 X142.177 Y97.056 F5400
G0 X142.100 Y97.140
G0 X141.643 Y97.814
G0 X141.577 Y97.909
G0 X141.291 Y98.432
G0 X141.216 Y98.686
G0 X141.089 Y99.258
G0 X141.071 Y99.372
G0 X140.991 Y99.943
G0 X140.991 Y100.058
G0 X141.072 Y100.629
G0 X141.089 Y100.743
G0 X141.217 Y101.315
G0 X141.306 Y101.594
G0 X141.534 Y102.012
G0 X141.594 Y102.114
G0 X142.117 Y102.884
G0 X142.198 Y102.964
G1 X142.543 Y103.161 E2.28097 F2400
G1 X142.658 Y103.195 E2.28384
G1 X142.772 Y103.230 E2.28740
G1 X142.886 Y103.265 E2.29165
G0 X143.000 Y103.212 F5400
;segType:HShell
G1 X143.513 Y103.725 E2.31578 F2400
G0 X144.219 Y103.865 F5400
G1 X143.565 Y103.211 E2.34656 F2400
G0 X144.131 Y103.211 F5400
G1 X144.926 Y104.006 E2.38395 F2400
G0 X145.423 Y103.937 F5400
G1 X144.696 Y103.211 E2.41812 F2400
G0 X145.262 Y103.211 F5400
G1 X145.894 Y103.843 E2.44786 F2400
G0 X148.068 Y102.451 F5400
;segType:Perimeter
G1 X147.268 Y102.451 E2.47447 F1200
G1 X142.672 Y102.451 E2.62733
G1 X142.182 Y101.739 E2.65607
G1 X141.943 Y101.187 E2.67609
G1 X141.800 Y100.612 E2.69578
G1 X141.748 Y100.000 E2.71622
G1 X141.798 Y99.396 E2.73638
G1 X141.943 Y98.812 E2.75638
G1 X142.182 Y98.260 E2.77640
G1 X142.672 Y97.549 E2.80511
G1 X147.328 Y97.549 E2.95996
G1 X147.818 Y98.260 E2.98867
G1 X148.057 Y98.812 E3.00869
G1 X148.202 Y99.396 E3.02869
G1 X148.252 Y100.000 E3.04883
G1 X148.202 Y100.603 E3.06898
G1 X148.057 Y101.187 E3.08898
G1 X147.818 Y101.739 E3.10900
G1 X147.362 Y102.401 E3.13574
G0 X147.268 Y102.451 F5400
G0 X145.668 Y102.451
G0 X146.228 Y102.851
;segType:Loop
G1 X142.462 Y102.851 E3.26100 F2400
G1 X141.831 Y101.934 E3.29803
G1 X141.563 Y101.315 E3.32044
G1 X141.405 Y100.678 E3.34229
G1 X141.347 Y100.000 E3.36491
G1 X141.402 Y99.331 E3.38725
G1 X141.563 Y98.684 E3.40943
G1 X141.831 Y98.065 E3.43185
G1 X142.462 Y97.149 E3.46885
G1 X147.538 Y97.149 E3.63767
G1 X148.169 Y98.065 E3.67467
G1 X148.437 Y98.684 E3.69709
G1 X148.598 Y99.331 E3.71927
G1 X148.653 Y100.000 E3.74159
G1 X148.598 Y100.668 E3.76391
G1 X148.437 Y101.315 E3.78608
G1 X148.169 Y101.934 E3.80850
G1 X147.538 Y102.851 E3.84552
G1 X146.428 Y102.851 E3.88245
G0 F3000 E2.88245
G0 X146.218 Y102.451 F5400
G0 X142.672 Y102.451
G0 X142.182 Y101.739
G0 X141.943 Y101.187
G0 X141.800 Y100.612
G0 X141.748 Y100.000
G0 X141.798 Y99.396
G0 X141.943 Y98.812
G0 X142.182 Y98.260
G0 X142.672 Y97.549
G0 X143.640 Y97.549
G0 X142.746 Y95.849
G0 X143.102 Y96.525
G0 F3000 E3.88245
;segType:HShell
G0 X143.007 Y96.714 F5400
G1 X143.686 Y96.544 E3.92897 F2400
G0 X143.904 Y96.197 F5400
G1 X144.497 Y96.789 E3.95684 F2400
G0 X145.063 Y96.789 F5400
G1 X144.376 Y96.103 E3.98911 F2400
G0 X144.848 Y96.009 F5400
G1 X145.628 Y96.789 E4.02579 F2400
G0 X146.194 Y96.789 F5400
G1 X145.478 Y96.074 E4.05945 F2400
G0 X146.184 Y96.214 F5400
G1 X146.760 Y96.789 E4.08651 F2400
G0 F3000 E3.08651
G0 X145.300 Y100.900 F5400
G0 F3000 E4.08651
;segType:Support
G1 X143.500 Y100.900 E4.13740 F2400
G1 X143.500 Y99.100 E4.18829
G1 X147.510 Y99.100 E4.30165
G1 X147.100 Y99.129 E4.31327
G1 X147.100 Y99.100 E4.31409
; ------------------------------------
; Layer #1
; ------------------------------------
G92 E0 ;reset extr
G0 F3000 E-1.00000
G0 F600 Z1.300
G0 X148.437 Y98.684 F7200
G0 X148.598 Y99.331
G0 X148.651 Y99.983
G0 X148.598 Y100.667
G0 X148.437 Y101.315
G0 X148.169 Y101.934
G0 X147.538 Y102.851
G0 X145.951 Y102.851
G0 X145.511 Y104.287
G0 X145.631 Y103.896
G0 F3000 E0.00000
;segType:HShell
G1 X146.316 Y103.211 E0.01611 F1200
G0 F3000 E-0.98389
G0 X146.337 Y103.755 F7200
G0 F3000 E0.01611
G1 X146.881 Y103.211 E0.02891 F1200
G0 X147.458 Y103.161 F7200
;segType:InnerHair
G1 X147.343 Y103.196 E0.03035 F1200
G1 X147.229 Y103.231 E0.03214
G1 X147.115 Y103.265 E0.03427
G0 X147.099 Y103.270 F7200
G0 X147.223 Y103.233
G0 X147.347 Y103.195
G0 X147.471 Y103.157
G1 X147.864 Y102.904 E0.03811 F1200
G1 X147.934 Y102.812 E0.03910
G1 X147.999 Y102.716 E0.04010
G1 X148.064 Y102.619 E0.04108
G1 X148.130 Y102.523 E0.04206
G1 X148.195 Y102.427 E0.04304
G1 X148.260 Y102.330 E0.04400
G1 X148.326 Y102.234 E0.04496
G1 X148.391 Y102.138 E0.04591
G1 X148.453 Y102.038 E0.04690
G1 X148.510 Y101.934 E0.04802
G1 X148.567 Y101.829 E0.04924
G1 X148.624 Y101.724 E0.05057
G1 X148.681 Y101.620 E0.05200
G1 X148.738 Y101.515 E0.05354
G1 X148.723 Y101.543 E0.05395
G1 X148.759 Y101.429 E0.05534
G1 X148.785 Y101.315 E0.05668
G1 X148.810 Y101.201 E0.05798
G1 X148.836 Y101.086 E0.05926
G1 X148.861 Y100.972 E0.06052
G1 X148.887 Y100.858 E0.06174
G1 X148.912 Y100.743 E0.06294
G1 X148.930 Y100.629 E0.06417
G1 X148.946 Y100.515 E0.06547
G1 X148.962 Y100.401 E0.06682
G1 X148.977 Y100.286 E0.06825
G1 X148.993 Y100.172 E0.06974
G1 X149.009 Y100.058 E0.07129
G1 X149.010 Y99.943 E0.07282
G1 X148.994 Y99.829 E0.07430
G1 X148.978 Y99.715 E0.07572
G1 X148.962 Y99.601 E0.07707
G1 X148.946 Y99.486 E0.07836
G1 X148.930 Y99.372 E0.07959
G1 X148.913 Y99.258 E0.08077
G1 X148.887 Y99.143 E0.08200
G1 X148.862 Y99.029 E0.08325
G1 X148.836 Y98.915 E0.08453
G1 X148.811 Y98.801 E0.08584
G1 X148.785 Y98.686 E0.08717
G0 X148.759 Y98.572 F7200
G0 X148.724 Y98.458
G1 X148.757 Y98.507 E0.08793 F1200
G1 X148.696 Y98.406 E0.08937
G1 X148.639 Y98.302 E0.09073
G1 X148.582 Y98.197 E0.09197
G1 X148.525 Y98.093 E0.09312
G1 X148.468 Y97.988 E0.09415
G1 X148.408 Y97.886 E0.09511
G1 X148.342 Y97.790 E0.09607
G1 X148.277 Y97.694 E0.09703
G1 X148.212 Y97.597 E0.09800
G1 X148.146 Y97.501 E0.09898
G1 X148.081 Y97.405 E0.09997
G1 X148.016 Y97.309 E0.10097
G1 X147.950 Y97.212 E0.10197
G1 X147.885 Y97.116 E0.10298
G1 X147.804 Y97.036 E0.10377
G0 X147.503 Y96.852 F7200
G0 X147.379 Y96.814
G0 X147.255 Y96.777
G0 X147.131 Y96.739
G1 X147.115 Y96.734 E0.10407 F1200
G1 X147.229 Y96.769 E0.10586
G1 X147.343 Y96.803 E0.10731
G1 X147.458 Y96.838 E0.10841
G0 X148.843 Y97.695 F7200
;segType:Perimeter
G1 X149.444 Y98.223 E0.12171 F600
G1 X149.797 Y100.000 E0.15184
G1 X149.433 Y101.835 E0.18297
G1 X148.393 Y103.391 E0.21408
G1 X146.837 Y104.431 E0.24520
G1 X145.002 Y104.796 E0.27633
G1 X143.166 Y104.431 E0.30746
G1 X141.610 Y103.391 E0.33857
G1 X140.570 Y101.835 E0.36969
G1 X140.205 Y100.000 E0.40082
G1 X140.570 Y98.164 E0.43195
G1 X141.610 Y96.608 E0.46307
G1 X143.166 Y95.568 E0.49418
G1 X145.002 Y95.204 E0.52531
G1 X146.837 Y95.568 E0.55643
G1 X148.393 Y96.608 E0.58755
G1 X149.399 Y98.114 E0.61767
G0 X149.444 Y98.223 F7200
G0 X149.756 Y99.792
G0 X149.389 Y100.000
G0 X149.255 Y99.321
;segType:Loop
G1 X149.389 Y100.000 E0.62918 F1200
G1 X149.056 Y101.679 E0.65766
G1 X148.105 Y103.103 E0.68613
G1 X146.681 Y104.054 E0.71460
G1 X145.002 Y104.388 E0.74308
G1 X143.322 Y104.054 E0.77156
G1 X141.898 Y103.103 E0.80004
G1 X140.947 Y101.679 E0.82851
G1 X140.613 Y100.000 E0.85699
G1 X140.947 Y98.320 E0.88547
G1 X141.898 Y96.896 E0.91394
G1 X143.322 Y95.945 E0.94241
G1 X145.002 Y95.612 E0.97089
G1 X146.681 Y95.945 E0.99937
G1 X148.105 Y96.896 E1.02784
G1 X149.056 Y98.320 E1.05631
G1 X149.216 Y99.124 E1.06995
G0 F3000 E0.06995
G0 X149.216 Y99.124 F7200
G0 X148.608 Y99.457
G0 X148.651 Y99.983
G0 X148.598 Y100.667
G0 X148.437 Y101.315
G0 X148.169 Y101.934
G0 X147.538 Y102.851
G0 X142.462 Y102.851
G0 X142.446 Y102.829
G0 X141.920 Y103.117
G0 X142.198 Y102.964
G0 F3000 E1.06995
;segType:InnerHair
G1 X142.117 Y102.884 E1.07093 F1200
G1 X142.052 Y102.788 E1.07192
G1 X141.986 Y102.692 E1.07290
G1 X141.921 Y102.595 E1.07388
G1 X141.856 Y102.499 E1.07484
G1 X141.790 Y102.403 E1.07580
G1 X141.725 Y102.306 E1.07675
G1 X141.660 Y102.210 E1.07770
G1 X141.594 Y102.114 E1.07863
G1 X141.534 Y102.012 E1.07965
G1 X141.477 Y101.908 E1.08077
G1 X141.420 Y101.803 E1.08201
G1 X141.363 Y101.698 E1.08335
G1 X141.306 Y101.594 E1.08480
G1 X141.245 Y101.493 E1.08628
G1 X141.278 Y101.543 E1.08704
G1 X141.243 Y101.429 E1.08842
G1 X141.217 Y101.315 E1.08974
G1 X141.191 Y101.201 E1.09104
G1 X141.166 Y101.086 E1.09231
G1 X141.140 Y100.972 E1.09355
G1 X141.115 Y100.858 E1.09476
G1 X141.089 Y100.743 E1.09595
G1 X141.072 Y100.629 E1.09718
G1 X141.056 Y100.515 E1.09847
G1 X141.040 Y100.401 E1.09981
G1 X141.024 Y100.286 E1.10122
G1 X141.007 Y100.172 E1.10269
G1 X140.991 Y100.058 E1.10423
G1 X140.991 Y99.943 E1.10574
G1 X141.007 Y99.829 E1.10721
G1 X141.023 Y99.715 E1.10862
G1 X141.039 Y99.601 E1.10996
G1 X141.055 Y99.486 E1.11124
G1 X141.071 Y99.372 E1.11246
G1 X141.089 Y99.258 E1.11363
G1 X141.114 Y99.143 E1.11485
G1 X141.140 Y99.029 E1.11609
G1 X141.165 Y98.915 E1.11736
G1 X141.191 Y98.801 E1.11865
G1 X141.216 Y98.686 E1.11997
G1 X141.242 Y98.572 E1.12132
G1 X141.278 Y98.458 E1.12283
G1 X141.291 Y98.432 E1.12318
G1 X141.348 Y98.328 E1.12455
G1 X141.406 Y98.223 E1.12582
G1 X141.463 Y98.119 E1.12697
G1 X141.520 Y98.014 E1.12802
G1 X141.577 Y97.909 E1.12897
G1 X141.643 Y97.814 E1.12991
G1 X141.708 Y97.718 E1.13085
G1 X141.773 Y97.621 E1.13181
G1 X141.839 Y97.525 E1.13278
G1 X141.904 Y97.429 E1.13375
G1 X141.970 Y97.333 E1.13473
G1 X142.035 Y97.236 E1.13572
G1 X142.100 Y97.140 E1.13672
G1 X142.177 Y97.056 E1.13755
G0 X142.468 Y96.862 F7200
G0 X142.592 Y96.824
G0 X142.716 Y96.786
G0 X142.840 Y96.749
G0 X142.964 Y96.711
G1 X142.886 Y96.735 E1.13901 F1200
G1 X142.772 Y96.769 E1.14079
G1 X142.658 Y96.804 E1.14223
G1 X142.543 Y96.839 E1.14333
G0 X142.177 Y97.056 F7200
G0 X142.100 Y97.140
G0 X141.643 Y97.814
G0 X141.577 Y97.909
G0 X141.291 Y98.432
G0 X141.216 Y98.686
G0 X141.089 Y99.258
G0 X141.071 Y99.372
G0 X140.991 Y99.943
G0 X140.991 Y100.058
G0 X141.072 Y100.629
G0 X141.089 Y100.743
G0 X141.217 Y101.315
G0 X141.306 Y101.594
G0 X141.534 Y102.012
G0 X141.594 Y102.114
G0 X142.117 Y102.884
G0 X142.198 Y102.964
G1 X142.543 Y103.161 E1.14696 F1200
G1 X142.658 Y103.195 E1.14840
G1 X142.772 Y103.230 E1.15018
G1 X142.886 Y103.265 E1.15230
G0 X143.487 Y103.211 F7200
;segType:HShell
G1 X143.175 Y103.523 E1.15964 F1200
G0 X144.053 Y103.211 F7200
G1 X143.535 Y103.729 E1.17183 F1200
G0 X144.006 Y103.823 F7200
G1 X144.618 Y103.211 E1.18622 F1200
G0 X145.184 Y103.211 F7200
G1 X144.478 Y103.917 E1.20282 F1200
G0 X144.950 Y104.011 F7200
G1 X145.750 Y103.211 E1.22164 F1200
G0 X148.068 Y102.451 F7200
;segType:Perimeter
G1 X147.268 Y102.451 E1.23494 F600
G1 X142.672 Y102.451 E1.31137
G1 X142.182 Y101.739 E1.32574
G1 X141.943 Y101.187 E1.33575
G1 X141.802 Y100.619 E1.34548
G1 X141.748 Y100.000 E1.35581
G1 X141.798 Y99.396 E1.36589
G1 X141.943 Y98.812 E1.37589
G1 X142.182 Y98.260 E1.38590
G1 X142.672 Y97.549 E1.40025
G1 X147.328 Y97.549 E1.47768
G1 X147.818 Y98.260 E1.49204
G1 X148.057 Y98.812 E1.50204
G1 X148.202 Y99.396 E1.51205
G1 X148.250 Y99.984 E1.52185
G1 X148.202 Y100.603 E1.53218
G1 X148.057 Y101.187 E1.54219
G1 X147.818 Y101.739 E1.55220
G1 X147.362 Y102.401 E1.56557
G0 X147.268 Y102.451 F7200
G0 X145.668 Y102.451
G0 X146.228 Y102.851
;segType:Loop
G1 X142.462 Y102.851 E1.62820 F1200
G1 X141.831 Y101.934 E1.64671
G1 X141.563 Y101.315 E1.65792
G1 X141.406 Y100.684 E1.66873
G1 X141.347 Y100.001 E1.68014
G1 X141.402 Y99.331 E1.69132
G1 X141.563 Y98.684 E1.70241
G1 X141.831 Y98.065 E1.71362
G1 X142.462 Y97.149 E1.73212
G1 X147.538 Y97.149 E1.81653
G1 X148.169 Y98.065 E1.83503
G1 X148.437 Y98.684 E1.84624
G1 X148.598 Y99.331 E1.85733
G1 X148.651 Y99.983 E1.86821
G1 X148.598 Y100.667 E1.87962
G1 X148.437 Y101.315 E1.89073
G1 X148.169 Y101.934 E1.90194
G1 X147.538 Y102.851 E1.92045
G1 X146.428 Y102.851 E1.93892
G0 F3000 E0.93892
G0 X146.428 Y102.851 F7200
G0 X147.538 Y102.851
G0 X148.169 Y101.934
G0 X148.437 Y101.315
G0 X148.598 Y100.667
G0 X148.651 Y99.983
G0 X148.598 Y99.331
G0 X148.437 Y98.684
G0 X148.169 Y98.065
G0 X147.538 Y97.149
G0 X144.044 Y97.149
G0 X143.524 Y95.905
G0 X143.666 Y96.244
G0 F3000 E1.93892
;segType:HShell
G1 X143.121 Y96.789 E1.95174 F1200
G0 X143.686 Y96.789 F7200
G1 X144.372 Y96.104 E1.96785 F1200
G0 X145.052 Y95.989 F7200
G1 X144.252 Y96.789 E1.98667 F1200
G0 X144.818 Y96.789 F7200
G1 X145.524 Y96.083 E2.00328 F1200
G0 X145.996 Y96.176 F7200
G1 X145.384 Y96.789 E2.01769 F1200
G0 X145.977 Y96.478 F7200
G1 X146.671 Y96.633 E2.04725 F1200
G0 F3000 E1.04725
G0 X145.300 Y100.900 F7200
G0 F3000 E2.04725
;segType:Support
G1 X143.500 Y100.900 E2.07269 F1200
G1 X143.500 Y99.100 E2.09814
G1 X147.510 Y99.100 E2.15482
G1 X147.100 Y99.149 E2.16065
G1 X147.100 Y99.100 E2.16134
; ------------------------------------
; Layer #2
; ------------------------------------
G92 E0 ;reset extr
G0 F3000 E-1.00000
G0 F600 Z1.400
G0 X148.057 Y98.812 F7200
G0 X148.202 Y99.396
G0 X148.252 Y100.000
G0 X148.202 Y100.603
G0 X148.057 Y101.187
G0 X147.818 Y101.739
G0 X147.328 Y102.451
G0 X145.828 Y103.211
G0 F3000 E0.00000
;segType:HShell
G0 X145.858 Y103.525 F7200
G1 X146.574 Y103.391 E0.03025 F1200
G1 X146.987 Y103.239 E0.04857
G0 X147.458 Y103.161 F7200
;segType:InnerHair
G1 X147.343 Y103.196 E0.05001 F1200
G1 X147.229 Y103.231 E0.05180
G1 X147.115 Y103.265 E0.05393
G0 X147.099 Y103.270 F7200
G0 X147.223 Y103.233
G0 X147.347 Y103.195
G0 X147.471 Y103.157
G1 X147.864 Y102.904 E0.05777 F1200
G1 X147.934 Y102.812 E0.05876
G1 X147.999 Y102.716 E0.05976
G1 X148.064 Y102.619 E0.06074
G1 X148.130 Y102.523 E0.06172
G1 X148.195 Y102.427 E0.06270
G1 X148.260 Y102.330 E0.06366
G1 X148.326 Y102.234 E0.06462
G1 X148.391 Y102.138 E0.06557
G1 X148.453 Y102.038 E0.06656
G1 X148.510 Y101.934 E0.06768
G1 X148.567 Y101.829 E0.06890
G1 X148.624 Y101.724 E0.07022
G1 X148.681 Y101.620 E0.07166
G1 X148.738 Y101.515 E0.07320
G1 X148.723 Y101.543 E0.07361
G1 X148.759 Y101.429 E0.07500
G1 X148.785 Y101.315 E0.07634
G1 X148.810 Y101.201 E0.07764
G1 X148.836 Y101.086 E0.07892
G1 X148.861 Y100.972 E0.08018
G1 X148.887 Y100.858 E0.08140
G1 X148.912 Y100.743 E0.08260
G1 X148.930 Y100.629 E0.08383
G1 X148.946 Y100.515 E0.08512
G1 X148.962 Y100.401 E0.08648
G1 X148.978 Y100.286 E0.08789
G1 X148.994 Y100.172 E0.08937
G1 X149.010 Y100.058 E0.09091
G1 X149.010 Y99.943 E0.09244
G1 X148.994 Y99.829 E0.09392
G1 X148.978 Y99.715 E0.09534
G1 X148.962 Y99.601 E0.09669
G1 X148.946 Y99.486 E0.09798
G1 X148.930 Y99.372 E0.09921
G1 X148.913 Y99.258 E0.10039
G1 X148.887 Y99.143 E0.10162
G1 X148.862 Y99.029 E0.10287
G1 X148.836 Y98.915 E0.10415
G1 X148.811 Y98.801 E0.10546
G1 X148.785 Y98.686 E0.10679
G0 X148.759 Y98.572 F7200
G0 X148.724 Y98.458
G1 X148.757 Y98.507 E0.10755 F1200
G1 X148.696 Y98.406 E0.10899
G1 X148.639 Y98.302 E0.11034
G1 X148.582 Y98.197 E0.11159
G1 X148.525 Y98.093 E0.11274
G1 X148.468 Y97.988 E0.11377
G1 X148.408 Y97.886 E0.11473
G1 X148.342 Y97.790 E0.11569
G1 X148.277 Y97.694 E0.11665
G1 X148.212 Y97.597 E0.11762
G1 X148.146 Y97.501 E0.11860
G1 X148.081 Y97.405 E0.11959
G1 X148.016 Y97.309 E0.12059
G1 X147.950 Y97.212 E0.12159
G1 X147.885 Y97.116 E0.12260
G1 X147.804 Y97.036 E0.12339
G0 X147.503 Y96.852 F7200
G0 X147.379 Y96.814
G0 X147.255 Y96.777
G0 X147.131 Y96.739
G1 X147.115 Y96.734 E0.12369 F1200
G1 X147.229 Y96.769 E0.12548
G1 X147.343 Y96.803 E0.12693
G1 X147.458 Y96.838 E0.12803
G0 X148.843 Y97.695 F7200
;segType:Perimeter
G1 X149.444 Y98.223 E0.14133 F600
G1 X149.797 Y100.000 E0.17146
G1 X149.433 Y101.835 E0.20258
G1 X148.393 Y103.391 E0.23370
G1 X146.837 Y104.431 E0.26482
G1 X145.002 Y104.796 E0.29595
G1 X143.166 Y104.431 E0.32707
G1 X141.610 Y103.391 E0.35819
G1 X140.570 Y101.835 E0.38931
G1 X140.205 Y100.000 E0.42044
G1 X140.570 Y98.164 E0.45157
G1 X141.610 Y96.608 E0.48268
G1 X143.166 Y95.568 E0.51380
G1 X145.002 Y95.204 E0.54493
G1 X146.837 Y95.568 E0.57605
G1 X148.393 Y96.608 E0.60717
G1 X149.399 Y98.114 E0.63729
G0 X149.444 Y98.223 F7200
G0 X149.756 Y99.792
G0 X149.255 Y99.321
;segType:Loop
G1 X149.389 Y100.000 E0.64880 F1200
G1 X149.056 Y101.679 E0.67728
G1 X148.105 Y103.103 E0.70575
G1 X146.681 Y104.054 E0.73422
G1 X145.002 Y104.388 E0.76270
G1 X143.322 Y104.054 E0.79118
G1 X141.898 Y103.103 E0.81966
G1 X140.947 Y101.679 E0.84813
G1 X140.613 Y100.000 E0.87661
G1 X140.947 Y98.320 E0.90509
G1 X141.898 Y96.896 E0.93356
G1 X143.322 Y95.945 E0.96203
G1 X145.002 Y95.612 E0.99051
G1 X146.681 Y95.945 E1.01899
G1 X148.105 Y96.896 E1.04746
G1 X149.056 Y98.320 E1.07593
G1 X149.216 Y99.124 E1.08957
G0 F3000 E0.08957
G0 X149.583 Y98.923 F7200
G0 X148.224 Y99.667
G0 X148.252 Y100.000
G0 X148.202 Y100.603
G0 X148.057 Y101.187
G0 X147.818 Y101.739
G0 X147.328 Y102.451
G0 X143.137 Y102.451
G0 X141.559 Y103.314
G0 X141.610 Y103.391
G0 X142.198 Y102.964
G0 F3000 E1.08957
;segType:InnerHair
G1 X142.117 Y102.884 E1.09055 F1200
G1 X142.052 Y102.788 E1.09154
G1 X141.986 Y102.692 E1.09252
G1 X141.921 Y102.595 E1.09350
G1 X141.856 Y102.499 E1.09446
G1 X141.790 Y102.403 E1.09542
G1 X141.725 Y102.306 E1.09637
G1 X141.660 Y102.210 E1.09732
G1 X141.594 Y102.114 E1.09825
G1 X141.534 Y102.012 E1.09926
G1 X141.477 Y101.908 E1.10039
G1 X141.420 Y101.803 E1.10163
G1 X141.363 Y101.698 E1.10297
G1 X141.306 Y101.594 E1.10442
G1 X141.245 Y101.493 E1.10590
G1 X141.278 Y101.543 E1.10666
G1 X141.243 Y101.429 E1.10804
G1 X141.217 Y101.315 E1.10936
G1 X141.191 Y101.201 E1.11066
G1 X141.166 Y101.086 E1.11192
G1 X141.140 Y100.972 E1.11317
G1 X141.115 Y100.858 E1.11438
G1 X141.089 Y100.743 E1.11557
G1 X141.071 Y100.629 E1.11679
G1 X141.055 Y100.515 E1.11807
G1 X141.039 Y100.401 E1.11941
G1 X141.023 Y100.286 E1.12081
G1 X141.007 Y100.172 E1.12228
G1 X140.991 Y100.058 E1.12381
G1 X140.991 Y99.943 E1.12533
G1 X141.007 Y99.829 E1.12680
G1 X141.023 Y99.715 E1.12821
G1 X141.039 Y99.601 E1.12955
G1 X141.055 Y99.486 E1.13083
G1 X141.071 Y99.372 E1.13205
G1 X141.089 Y99.258 E1.13322
G1 X141.114 Y99.143 E1.13443
G1 X141.140 Y99.029 E1.13568
G1 X141.165 Y98.915 E1.13694
G1 X141.191 Y98.801 E1.13824
G1 X141.216 Y98.686 E1.13956
G1 X141.242 Y98.572 E1.14091
G1 X141.278 Y98.458 E1.14242
G1 X141.291 Y98.432 E1.14277
G1 X141.348 Y98.328 E1.14414
G1 X141.406 Y98.223 E1.14540
G1 X141.463 Y98.119 E1.14656
G1 X141.520 Y98.014 E1.14761
G1 X141.577 Y97.909 E1.14855
G1 X141.643 Y97.814 E1.14949
G1 X141.708 Y97.718 E1.15044
G1 X141.773 Y97.621 E1.15140
G1 X141.839 Y97.525 E1.15237
G1 X141.904 Y97.429 E1.15334
G1 X141.970 Y97.333 E1.15432
G1 X142.035 Y97.236 E1.15531
G1 X142.100 Y97.140 E1.15631
G1 X142.177 Y97.056 E1.15714
G0 X142.468 Y96.862 F7200
G0 X142.592 Y96.824
G0 X142.716 Y96.786
G0 X142.840 Y96.749
G0 X142.964 Y96.711
G1 X142.886 Y96.735 E1.15859 F1200
G1 X142.772 Y96.769 E1.16038
G1 X142.658 Y96.804 E1.16182
G1 X142.543 Y96.839 E1.16292
G0 X142.177 Y97.056 F7200
G0 X142.100 Y97.140
G0 X141.643 Y97.814
G0 X141.577 Y97.909
G0 X141.291 Y98.432
G0 X141.216 Y98.686
G0 X141.089 Y99.258
G0 X141.071 Y99.372
G0 X140.991 Y99.943
G0 X140.991 Y100.058
G0 X141.071 Y100.629
G0 X141.089 Y100.743
G0 X141.217 Y101.315
G0 X141.306 Y101.594
G0 X141.534 Y102.012
G0 X141.594 Y102.114
G0 X142.117 Y102.884
G0 X142.198 Y102.964
G1 X142.543 Y103.161 E1.16655 F1200
G1 X142.658 Y103.195 E1.16799
G1 X142.772 Y103.230 E1.16977
G1 X142.886 Y103.265 E1.17189
G0 X143.000 Y103.212 F7200
;segType:HShell
G1 X143.513 Y103.725 E1.18396 F1200
G0 X144.219 Y103.865 F7200
G1 X143.565 Y103.211 E1.19935 F1200
G0 X144.131 Y103.211 F7200
G1 X144.926 Y104.006 E1.21804 F1200
G0 X145.423 Y103.937 F7200
G1 X144.696 Y103.211 E1.23513 F1200
G0 X145.262 Y103.211 F7200
G1 X145.894 Y103.843 E1.25000 F1200
G0 X148.068 Y102.451 F7200
;segType:Perimeter
G1 X147.268 Y102.451 E1.26330 F600
G1 X142.672 Y102.451 E1.33973
G1 X142.182 Y101.739 E1.35410
G1 X141.943 Y101.187 E1.36411
G1 X141.798 Y100.603 E1.37411
G1 X141.748 Y100.000 E1.38418
G1 X141.798 Y99.396 E1.39426
G1 X141.943 Y98.812 E1.40426
G1 X142.182 Y98.260 E1.41427
G1 X142.672 Y97.549 E1.42862
G1 X147.328 Y97.549 E1.50605
G1 X147.818 Y98.260 E1.52040
G1 X148.057 Y98.812 E1.53041
G1 X148.202 Y99.396 E1.54041
G1 X148.252 Y100.000 E1.55048
G1 X148.202 Y100.603 E1.56056
G1 X148.057 Y101.187 E1.57056
G1 X147.818 Y101.739 E1.58057
G1 X147.362 Y102.401 E1.59394
G0 X147.268 Y102.451 F7200
G0 X145.668 Y102.451
G0 X146.228 Y102.851
;segType:Loop
G1 X142.462 Y102.851 E1.65657 F1200
G1 X141.831 Y101.934 E1.67508
G1 X141.563 Y101.315 E1.68629
G1 X141.402 Y100.668 E1.69738
G1 X141.347 Y100.000 E1.70854
G1 X141.402 Y99.331 E1.71970
G1 X141.563 Y98.684 E1.73078
G1 X141.831 Y98.065 E1.74200
G1 X142.462 Y97.149 E1.76049
G1 X147.538 Y97.149 E1.84491
G1 X148.169 Y98.065 E1.86341
G1 X148.437 Y98.684 E1.87462
G1 X148.598 Y99.331 E1.88570
G1 X148.653 Y100.000 E1.89686
G1 X148.598 Y100.668 E1.90802
G1 X148.437 Y101.315 E1.91911
G1 X148.169 Y101.934 E1.93032
G1 X147.538 Y102.851 E1.94883
G1 X146.428 Y102.851 E1.96730
G0 F3000 E0.96730
G0 X146.450 Y102.451 F7200
G0 X147.328 Y102.451
G0 X147.818 Y101.739
G0 X148.057 Y101.187
G0 X148.202 Y100.603
G0 X148.252 Y100.000
G0 X148.202 Y99.396
G0 X148.057 Y98.812
G0 X147.818 Y98.260
G0 X147.328 Y97.549
G0 X146.718 Y97.549
G0 X146.760 Y96.789
G0 F3000 E1.96730
;segType:HShell
G1 X146.184 Y96.214 E1.98083 F1200
G0 X145.478 Y96.074 F7200
G1 X146.194 Y96.789 E1.99766 F1200
G0 X145.628 Y96.789 F7200
G1 X144.848 Y96.009 E2.01600 F1200
G0 X144.376 Y96.103 F7200
G1 X145.063 Y96.789 E2.03213 F1200
G0 X144.497 Y96.789 F7200
G1 X143.904 Y96.197 E2.04607 F1200
G0 X143.912 Y96.487 F7200
G1 X143.234 Y96.657 E2.07515 F1200
G0 F3000 E1.07515
G0 X145.300 Y100.900 F7200
G0 F3000 E2.07515
;segType:Support
G1 X143.500 Y100.900 E2.10059 F1200
G1 X143.500 Y99.100 E2.12604
G1 X147.510 Y99.100 E2.18272
G1 X147.100 Y99.168 E2.18859
G1 X147.100 Y99.100 E2.18956
; ------------------------------------
; Layer #3
; ------------------------------------
G92 E0 ;reset extr
G0 F3000 E-1.00000
G0 F600 Z1.500
G0 X148.437 Y98.684 F7200
G0 X148.598 Y99.331
G0 X148.653 Y100.000
G0 X148.598 Y100.668
G0 X148.437 Y101.315
G0 X148.169 Y101.934
G0 X147.538 Y102.851
G0 X145.951 Y102.851
G0 X145.511 Y104.287
G0 X145.631 Y103.896
G0 F3000 E0.00000
;segType:HShell
G1 X146.316 Y103.211 E0.01611 F1200
G0 F3000 E-0.98389
G0 X146.337 Y103.755 F7200
G0 F3000 E0.01611
G1 X146.881 Y103.211 E0.02891 F1200
G0 X147.458 Y103.161 F7200
;segType:InnerHair
G1 X147.343 Y103.196 E0.03035 F1200
G1 X147.229 Y103.231 E0.03214
G1 X147.115 Y103.265 E0.03427
G0 X147.099 Y103.270 F7200
G0 X147.223 Y103.233
G0 X147.347 Y103.195
G0 X147.471 Y103.157
G1 X147.864 Y102.904 E0.03811 F1200
G1 X147.934 Y102.812 E0.03910
G1 X147.999 Y102.716 E0.04010
G1 X148.064 Y102.619 E0.04108
G1 X148.130 Y102.523 E0.04206
G1 X148.195 Y102.427 E0.04304
G1 X148.260 Y102.330 E0.04400
G1 X148.326 Y102.234 E0.04496
G1 X148.391 Y102.138 E0.04591
G1 X148.453 Y102.038 E0.04690
G1 X148.510 Y101.934 E0.04802
G1 X148.567 Y101.829 E0.04924
G1 X148.624 Y101.724 E0.05057
G1 X148.681 Y101.620 E0.05200
G1 X148.738 Y101.515 E0.05354
G1 X148.723 Y101.543 E0.05395
G1 X148.759 Y101.429 E0.05534
G1 X148.785 Y101.315 E0.05668
G1 X148.810 Y101.201 E0.05798
G1 X148.836 Y101.086 E0.05926
G1 X148.861 Y100.972 E0.06052
G1 X148.887 Y100.858 E0.06174
G1 X148.912 Y100.743 E0.06294
G1 X148.930 Y100.629 E0.06417
G1 X148.946 Y100.515 E0.06546
G1 X148.962 Y100.401 E0.06682
G1 X148.978 Y100.286 E0.06823
G1 X148.994 Y100.172 E0.06971
G1 X149.010 Y100.058 E0.07125
G1 X149.010 Y99.943 E0.07278
G1 X148.994 Y99.829 E0.07426
G1 X148.978 Y99.715 E0.07568
G1 X148.962 Y99.601 E0.07703
G1 X148.946 Y99.486 E0.07832
G1 X148.930 Y99.372 E0.07955
G1 X148.913 Y99.258 E0.08073
G1 X148.887 Y99.143 E0.08196
G1 X148.862 Y99.029 E0.08321
G1 X148.836 Y98.915 E0.08449
G1 X148.811 Y98.801 E0.08580
G1 X148.785 Y98.686 E0.08713
G0 X148.759 Y98.572 F7200
G0 X148.724 Y98.458
G1 X148.757 Y98.507 E0.08789 F1200
G1 X148.696 Y98.406 E0.08933
G1 X148.639 Y98.302 E0.09069
G1 X148.582 Y98.197 E0.09193
G1 X148.525 Y98.093 E0.09308
G1 X148.468 Y97.988 E0.09411
G1 X148.408 Y97.886 E0.09507
G1 X148.342 Y97.790 E0.09603
G1 X148.277 Y97.694 E0.09699
G1 X148.212 Y97.597 E0.09796
G1 X148.146 Y97.501 E0.09894
G1 X148.081 Y97.405 E0.09993
G1 X148.016 Y97.309 E0.10093
G1 X147.950 Y97.212 E0.10193
G1 X147.885 Y97.116 E0.10294
G1 X147.804 Y97.036 E0.10373
G0 X147.503 Y96.852 F7200
G0 X147.379 Y96.814
G0 X147.255 Y96.777
G0 X147.131 Y96.739
G1 X147.115 Y96.734 E0.10403 F1200
G1 X147.229 Y96.769 E0.10582
G1 X147.343 Y96.803 E0.10727
G1 X147.458 Y96.838 E0.10837
G0 X148.843 Y97.695 F7200
;segType:Perimeter
G1 X149.444 Y98.223 E0.12167 F600
G1 X149.797 Y100.000 E0.15180
G1 X149.433 Y101.835 E0.18293
G1 X148.393 Y103.391 E0.21404
G1 X146.837 Y104.431 E0.24516
G1 X145.002 Y104.796 E0.27629
G1 X143.166 Y104.431 E0.30742
G1 X141.610 Y103.391 E0.33853
G1 X140.570 Y101.835 E0.36965
G1 X140.205 Y100.000 E0.40078
G1 X140.570 Y98.164 E0.43191
G1 X141.610 Y96.608 E0.46302
G1 X143.166 Y95.568 E0.49414
G1 X145.002 Y95.204 E0.52527
G1 X146.837 Y95.568 E0.55639
G1 X148.393 Y96.608 E0.58751
G1 X149.399 Y98.114 E0.61763
G0 X149.444 Y98.223 F7200
G0 X149.756 Y99.792
G0 X149.389 Y100.000
G0 X149.255 Y99.321
;segType:Loop
G1 X149.389 Y100.000 E0.62914 F1200
G1 X149.056 Y101.679 E0.65762
G1 X148.105 Y103.103 E0.68609
G1 X146.681 Y104.054 E0.71456
G1 X145.002 Y104.388 E0.74304
G1 X143.322 Y104.054 E0.77152
G1 X141.898 Y103.103 E0.80000
G1 X140.947 Y101.679 E0.82847
G1 X140.613 Y100.000 E0.85695
G1 X140.947 Y98.320 E0.88543
G1 X141.898 Y96.896 E0.91390
G1 X143.322 Y95.945 E0.94237
G1 X145.002 Y95.612 E0.97085
G1 X146.681 Y95.945 E0.99933
G1 X148.105 Y96.896 E1.02780
G1 X149.056 Y98.320 E1.05627
G1 X149.216 Y99.124 E1.06991
G0 F3000 E0.06991
G0 X149.216 Y99.124 F7200
G0 X148.608 Y99.457
G0 X148.653 Y100.000
G0 X148.598 Y100.668
G0 X148.437 Y101.315
G0 X148.169 Y101.934
G0 X147.538 Y102.851
G0 X142.462 Y102.851
G0 X142.446 Y102.829
G0 X141.920 Y103.117
G0 X142.198 Y102.964
G0 F3000 E1.06991
;segType:InnerHair
G1 X142.117 Y102.884 E1.07089 F1200
G1 X142.052 Y102.788 E1.07188
G1 X141.986 Y102.692 E1.07286
G1 X141.921 Y102.595 E1.07384
G1 X141.856 Y102.499 E1.07480
G1 X141.790 Y102.403 E1.07576
G1 X141.725 Y102.306 E1.07671
G1 X141.660 Y102.210 E1.07766
G1 X141.594 Y102.114 E1.07859
G1 X141.534 Y102.012 E1.07961
G1 X141.477 Y101.908 E1.08073
G1 X141.420 Y101.803 E1.08197
G1 X141.363 Y101.698 E1.08331
G1 X141.306 Y101.594 E1.08476
G1 X141.245 Y101.493 E1.08624
G1 X141.278 Y101.543 E1.08700
G1 X141.243 Y101.429 E1.08838
G1 X141.217 Y101.315 E1.08970
G1 X141.191 Y101.201 E1.09100
G1 X141.166 Y101.086 E1.09226
G1 X141.140 Y100.972 E1.09351
G1 X141.115 Y100.858 E1.09472
G1 X141.089 Y100.743 E1.09591
G1 X141.071 Y100.629 E1.09713
G1 X141.055 Y100.515 E1.09841
G1 X141.039 Y100.401 E1.09975
G1 X141.023 Y100.286 E1.10115
G1 X141.007 Y100.172 E1.10262
G1 X140.991 Y100.058 E1.10415
G1 X140.991 Y99.943 E1.10567
G1 X141.007 Y99.829 E1.10714
G1 X141.023 Y99.715 E1.10855
G1 X141.039 Y99.601 E1.10989
G1 X141.055 Y99.486 E1.11117
G1 X141.071 Y99.372 E1.11239
G1 X141.089 Y99.258 E1.11356
G1 X141.114 Y99.143 E1.11478
G1 X141.140 Y99.029 E1.11602
G1 X141.165 Y98.915 E1.11728
G1 X141.191 Y98.801 E1.11858
G1 X141.216 Y98.686 E1.11990
G1 X141.242 Y98.572 E1.12125
G1 X141.278 Y98.458 E1.12276
G1 X141.291 Y98.432 E1.12311
G1 X141.348 Y98.328 E1.12448
G1 X141.406 Y98.223 E1.12574
G1 X141.463 Y98.119 E1.12690
G1 X141.520 Y98.014 E1.12795
G1 X141.577 Y97.909 E1.12889
G1 X141.643 Y97.814 E1.12983
G1 X141.708 Y97.718 E1.13078
G1 X141.773 Y97.621 E1.13174
G1 X141.839 Y97.525 E1.13271
G1 X141.904 Y97.429 E1.13368
G1 X141.970 Y97.333 E1.13466
G1 X142.035 Y97.236 E1.13565
G1 X142.100 Y97.140 E1.13665
G1 X142.177 Y97.056 E1.13748
G0 X142.468 Y96.862 F7200
G0 X142.592 Y96.824
G0 X142.716 Y96.786
G0 X142.840 Y96.749
G0 X142.964 Y96.711
G1 X142.886 Y96.735 E1.13894 F1200
G1 X142.772 Y96.769 E1.14072
G1 X142.658 Y96.804 E1.14216
G1 X142.543 Y96.839 E1.14326
G0 X142.177 Y97.056 F7200
G0 X142.100 Y97.140
G0 X141.643 Y97.814
G0 X141.577 Y97.909
G0 X141.291 Y98.432
G0 X141.216 Y98.686
G0 X141.089 Y99.258
G0 X141.071 Y99.372
G0 X140.991 Y99.943
G0 X140.991 Y100.058
G0 X141.071 Y100.629
G0 X141.089 Y100.743
G0 X141.217 Y101.315
G0 X141.306 Y101.594
G0 X141.534 Y102.012
G0 X141.594 Y102.114
G0 X142.117 Y102.884
G0 X142.198 Y102.964
G1 X142.543 Y103.161 E1.14689 F1200
G1 X142.658 Y103.195 E1.14833
G1 X142.772 Y103.230 E1.15011
G1 X142.886 Y103.265 E1.15223
G0 X143.487 Y103.211 F7200
;segType:HShell
G1 X143.175 Y103.523 E1.15957 F1200
G0 X144.053 Y103.211 F7200
G1 X143.535 Y103.729 E1.17175 F1200
G0 X144.006 Y103.823 F7200
G1 X144.618 Y103.211 E1.18615 F1200
G0 X145.184 Y103.211 F7200
G1 X144.478 Y103.917 E1.20275 F1200
G0 X144.950 Y104.011 F7200
G1 X145.750 Y103.211 E1.22156 F1200
G0 X148.068 Y102.451 F7200
;segType:Perimeter
G1 X147.268 Y102.451 E1.23487 F600
G1 X142.672 Y102.451 E1.31130
G1 X142.182 Y101.739 E1.32567
G1 X141.943 Y101.187 E1.33567
G1 X141.798 Y100.603 E1.34568
G1 X141.748 Y100.000 E1.35575
G1 X141.798 Y99.396 E1.36582
G1 X141.943 Y98.812 E1.37582
G1 X142.182 Y98.260 E1.38583
G1 X142.672 Y97.549 E1.40019
G1 X147.328 Y97.549 E1.47761
G1 X147.818 Y98.260 E1.49197
G1 X148.057 Y98.812 E1.50198
G1 X148.202 Y99.396 E1.51198
G1 X148.252 Y100.000 E1.52205
G1 X148.202 Y100.603 E1.53212
G1 X148.057 Y101.187 E1.54212
G1 X147.818 Y101.739 E1.55213
G1 X147.362 Y102.401 E1.56550
G0 X147.268 Y102.451 F7200
G0 X145.668 Y102.451
G0 X146.228 Y102.851
;segType:Loop
G1 X142.462 Y102.851 E1.62813 F1200
G1 X141.831 Y101.934 E1.64665
G1 X141.563 Y101.315 E1.65785
G1 X141.402 Y100.668 E1.66894
G1 X141.347 Y100.000 E1.68010
G1 X141.402 Y99.331 E1.69126
G1 X141.563 Y98.684 E1.70235
G1 X141.831 Y98.065 E1.71356
G1 X142.462 Y97.149 E1.73206
G1 X147.538 Y97.149 E1.81647
G1 X148.169 Y98.065 E1.83497
G1 X148.437 Y98.684 E1.84618
G1 X148.598 Y99.331 E1.85727
G1 X148.653 Y100.000 E1.86843
G1 X148.598 Y100.668 E1.87959
G1 X148.437 Y101.315 E1.89068
G1 X148.169 Y101.934 E1.90188
G1 X147.538 Y102.851 E1.92040
G1 X146.428 Y102.851 E1.93886
G0 F3000 E0.93886
G0 X147.538 Y102.851 F7200
G0 X148.169 Y101.934
G0 X148.437 Y101.315
G0 X148.598 Y100.668
G0 X148.653 Y100.000
G0 X148.598 Y99.331
G0 X148.437 Y98.684
G0 X148.169 Y98.065
G0 X147.538 Y97.149
G0 X146.510 Y97.149
G0 X146.515 Y96.789
G0 F3000 E1.93886
;segType:HShell
G0 X146.903 Y96.684 F7200
G1 X146.209 Y96.530 E1.96645 F1200
G0 X145.384 Y96.789 F7200
G1 X145.996 Y96.176 E1.98086 F1200
G0 X145.524 Y96.083 F7200
G1 X144.818 Y96.789 E1.99748 F1200
G0 X144.252 Y96.789 F7200
G1 X145.052 Y95.989 E2.01629 F1200
G0 X144.372 Y96.104 F7200
G1 X143.686 Y96.789 E2.03241 F1200
G0 X143.121 Y96.789 F7200
G1 X143.666 Y96.244 E2.04523 F1200
G0 F3000 E1.04523
G0 X145.300 Y100.900 F7200
G0 F3000 E2.04523
;segType:Support
G1 X143.500 Y100.900 E2.07067 F1200
G1 X143.500 Y99.100 E2.09612
G1 X147.510 Y99.100 E2.15280
G1 X147.100 Y99.188 E2.15872
G1 X147.100 Y99.100 E2.15996
; ------------------------------------
; Layer #4
; ------------------------------------
G92 E0 ;reset extr
G0 F3000 E-1.00000
G0 F600 Z1.600
G0 X148.057 Y98.812 F7200
G0 X148.202 Y99.396
G0 X148.252 Y100.000
G0 X148.202 Y100.603
G0 X148.057 Y101.187
G0 X147.818 Y101.739
G0 X147.328 Y102.451
G0 X145.828 Y103.211
G0 F3000 E0.00000
;segType:HShell
G1 X146.366 Y103.749 E0.01267 F1200
G0 F3000 E-0.98733
G0 X146.393 Y103.211 F7200
G0 F3000 E0.01267
G1 X146.754 Y103.572 E0.02116 F1200
G0 X147.015 Y103.267 F7200
G1 X146.959 Y103.211 E0.02248 F1200
G0 X147.458 Y103.161 F7200
;segType:InnerHair
G1 X147.343 Y103.196 E0.02393 F1200
G1 X147.229 Y103.231 E0.02571
G1 X147.115 Y103.265 E0.02784
G0 X147.099 Y103.270 F7200
G0 X147.223 Y103.233
G0 X147.347 Y103.195
G0 X147.471 Y103.157
G1 X147.864 Y102.904 E0.03168 F1200
G1 X147.934 Y102.812 E0.03268
G1 X147.999 Y102.716 E0.03367
G1 X148.064 Y102.619 E0.03466
G1 X148.130 Y102.523 E0.03564
G1 X148.195 Y102.427 E0.03661
G1 X148.260 Y102.330 E0.03758
G1 X148.326 Y102.234 E0.03853
G1 X148.391 Y102.138 E0.03948
G1 X148.453 Y102.038 E0.04048
G1 X148.510 Y101.934 E0.04159
G1 X148.567 Y101.829 E0.04281
G1 X148.624 Y101.724 E0.04414
G1 X148.681 Y101.620 E0.04557
G1 X148.738 Y101.515 E0.04711
G1 X148.723 Y101.543 E0.04752
G1 X148.759 Y101.429 E0.04891
G1 X148.785 Y101.315 E0.05025
G1 X148.810 Y101.201 E0.05156
G1 X148.836 Y101.086 E0.05284
G1 X148.861 Y100.972 E0.05409
G1 X148.887 Y100.858 E0.05532
G1 X148.912 Y100.743 E0.05652
G1 X148.930 Y100.629 E0.05775
G1 X148.946 Y100.515 E0.05904
G1 X148.962 Y100.401 E0.06039
G1 X148.978 Y100.286 E0.06181
G1 X148.994 Y100.172 E0.06328
G1 X149.010 Y100.058 E0.06483
G1 X149.010 Y99.943 E0.06635
G1 X148.994 Y99.829 E0.06783
G1 X148.978 Y99.715 E0.06925
G1 X148.962 Y99.601 E0.07060
G1 X148.946 Y99.486 E0.07189
G1 X148.930 Y99.372 E0.07312
G1 X148.913 Y99.258 E0.07431
G1 X148.887 Y99.143 E0.07553
G1 X148.862 Y99.029 E0.07679
G1 X148.836 Y98.915 E0.07807
G1 X148.811 Y98.801 E0.07937
G1 X148.785 Y98.686 E0.08071
G0 X148.759 Y98.572 F7200
G0 X148.724 Y98.458
G1 X148.757 Y98.507 E0.08146 F1200
G1 X148.696 Y98.406 E0.08290
G1 X148.639 Y98.302 E0.08426
G1 X148.582 Y98.197 E0.08551
G1 X148.525 Y98.093 E0.08665
G1 X148.468 Y97.988 E0.08769
G1 X148.408 Y97.886 E0.08865
G1 X148.342 Y97.790 E0.08960
G1 X148.277 Y97.694 E0.09057
G1 X148.212 Y97.597 E0.09154
G1 X148.146 Y97.501 E0.09252
G1 X148.081 Y97.405 E0.09350
G1 X148.016 Y97.309 E0.09450
G1 X147.950 Y97.212 E0.09550
G1 X147.885 Y97.116 E0.09651
G1 X147.804 Y97.036 E0.09730
G0 X147.503 Y96.852 F7200
G0 X147.379 Y96.814
G0 X147.255 Y96.777
G0 X147.131 Y96.739
G1 X147.115 Y96.734 E0.09760 F1200
G1 X147.229 Y96.769 E0.09939
G1 X147.343 Y96.803 E0.10084
G1 X147.458 Y96.838 E0.10194
G0 X148.843 Y97.695 F7200
;segType:Perimeter
G1 X149.444 Y98.223 E0.11525 F600
G1 X149.797 Y100.000 E0.14537
G1 X149.433 Y101.835 E0.17650
G1 X148.393 Y103.391 E0.20762
G1 X146.837 Y104.431 E0.23873
G1 X145.002 Y104.796 E0.26986
G1 X143.166 Y104.431 E0.30099
G1 X141.610 Y103.391 E0.33211
G1 X140.570 Y101.835 E0.36323
G1 X140.205 Y100.000 E0.39435
G1 X140.570 Y98.164 E0.42548
G1 X141.610 Y96.608 E0.45660
G1 X143.166 Y95.568 E0.48772
G1 X145.002 Y95.204 E0.51884
G1 X146.837 Y95.568 E0.54997
G1 X148.393 Y96.608 E0.58108
G1 X149.399 Y98.114 E0.61120
G0 X149.444 Y98.223 F7200
G0 X149.756 Y99.792
G0 X149.255 Y99.321
;segType:Loop
G1 X149.389 Y100.000 E0.62271 F1200
G1 X149.056 Y101.679 E0.65119
G1 X148.105 Y103.103 E0.67966
G1 X146.681 Y104.054 E0.70814
G1 X145.002 Y104.388 E0.73662
G1 X143.322 Y104.054 E0.76510
G1 X141.898 Y103.103 E0.79357
G1 X140.947 Y101.679 E0.82204
G1 X140.613 Y100.000 E0.85052
G1 X140.947 Y98.320 E0.87900
G1 X141.898 Y96.896 E0.90748
G1 X143.322 Y95.945 E0.93595
G1 X145.002 Y95.612 E0.96443
G1 X146.681 Y95.945 E0.99290
G1 X148.105 Y96.896 E1.02137
G1 X149.056 Y98.320 E1.04985
G1 X149.216 Y99.124 E1.06349
G0 F3000 E0.06349
G0 X149.583 Y98.923 F7200
G0 X148.224 Y99.667
G0 X148.252 Y100.000
G0 X148.202 Y100.603
G0 X148.057 Y101.187
G0 X147.818 Y101.739
G0 X147.328 Y102.451
G0 X143.137 Y102.451
G0 X141.559 Y103.314
G0 X141.610 Y103.391
G0 X142.198 Y102.964
G0 F3000 E1.06349
;segType:InnerHair
G1 X142.117 Y102.884 E1.06447 F1200
G1 X142.052 Y102.788 E1.06545
G1 X141.986 Y102.692 E1.06644
G1 X141.921 Y102.595 E1.06741
G1 X141.856 Y102.499 E1.06838
G1 X141.790 Y102.403 E1.06934
G1 X141.725 Y102.306 E1.07029
G1 X141.660 Y102.210 E1.07123
G1 X141.594 Y102.114 E1.07217
G1 X141.534 Y102.012 E1.07318
G1 X141.477 Y101.908 E1.07431
G1 X141.420 Y101.803 E1.07554
G1 X141.363 Y101.698 E1.07688
G1 X141.306 Y101.594 E1.07833
G1 X141.245 Y101.493 E1.07981
G1 X141.278 Y101.543 E1.08057
G1 X141.243 Y101.429 E1.08195
G1 X141.217 Y101.315 E1.08328
G1 X141.191 Y101.201 E1.08457
G1 X141.166 Y101.086 E1.08584
G1 X141.140 Y100.972 E1.08708
G1 X141.115 Y100.858 E1.08829
G1 X141.089 Y100.743 E1.08948
G1 X141.071 Y100.629 E1.09070
G1 X141.055 Y100.515 E1.09198
G1 X141.039 Y100.401 E1.09332
G1 X141.023 Y100.286 E1.09473
G1 X141.007 Y100.172 E1.09620
G1 X140.991 Y100.058 E1.09773
G1 X140.991 Y99.943 E1.09925
G1 X141.007 Y99.829 E1.10072
G1 X141.023 Y99.715 E1.10212
G1 X141.039 Y99.601 E1.10347
G1 X141.055 Y99.486 E1.10475
G1 X141.071 Y99.372 E1.10596
G1 X141.089 Y99.258 E1.10714
G1 X141.114 Y99.143 E1.10835
G1 X141.140 Y99.029 E1.10959
G1 X141.165 Y98.915 E1.11086
G1 X141.191 Y98.801 E1.11215
G1 X141.216 Y98.686 E1.11347
G1 X141.242 Y98.572 E1.11482
G1 X141.278 Y98.458 E1.11633
G1 X141.291 Y98.432 E1.11669
G1 X141.348 Y98.328 E1.11806
G1 X141.406 Y98.223 E1.11932
G1 X141.463 Y98.119 E1.12047
G1 X141.520 Y98.014 E1.12152
G1 X141.577 Y97.909 E1.12247
G1 X141.643 Y97.814 E1.12341
G1 X141.708 Y97.718 E1.12436
G1 X141.773 Y97.621 E1.12531
G1 X141.839 Y97.525 E1.12628
G1 X141.904 Y97.429 E1.12725
G1 X141.970 Y97.333 E1.12824
G1 X142.035 Y97.236 E1.12923
G1 X142.100 Y97.140 E1.13022
G1 X142.177 Y97.056 E1.13105
G0 X142.468 Y96.862 F7200
G0 X142.592 Y96.824
G0 X142.716 Y96.786
G0 X142.840 Y96.749
G0 X142.964 Y96.711
G1 X142.886 Y96.735 E1.13251 F1200
G1 X142.772 Y96.769 E1.13429
G1 X142.658 Y96.804 E1.13573
G1 X142.543 Y96.839 E1.13683
G0 X142.177 Y97.056 F7200
G0 X142.100 Y97.140
G0 X141.643 Y97.814
G0 X141.577 Y97.909
G0 X141.291 Y98.432
G0 X141.216 Y98.686
G0 X141.089 Y99.258
G0 X141.071 Y99.372
G0 X140.991 Y99.943
G0 X140.991 Y100.058
G0 X141.071 Y100.629
G0 X141.089 Y100.743
G0 X141.217 Y101.315
G0 X141.306 Y101.594
G0 X141.534 Y102.012
G0 X141.594 Y102.114
G0 X142.117 Y102.884
G0 X142.198 Y102.964
G1 X142.543 Y103.161 E1.14046 F1200
G1 X142.658 Y103.195 E1.14190
G1 X142.772 Y103.230 E1.14368
G1 X142.886 Y103.265 E1.14581
G0 X143.000 Y103.212 F7200
;segType:HShell
G1 X143.513 Y103.725 E1.15787 F1200
G0 X144.219 Y103.865 F7200
G1 X143.565 Y103.211 E1.17326 F1200
G0 X144.131 Y103.211 F7200
G1 X144.926 Y104.006 E1.19196 F1200
G0 X145.423 Y103.937 F7200
G1 X144.696 Y103.211 E1.20904 F1200
G0 X145.262 Y103.211 F7200
G1 X145.894 Y103.843 E1.22391 F1200
G0 X148.068 Y102.451 F7200
;segType:Perimeter
G1 X147.268 Y102.451 E1.23722 F600
G1 X142.672 Y102.451 E1.31365
G1 X142.182 Y101.739 E1.32802
G1 X141.943 Y101.187 E1.33802
G1 X141.798 Y100.603 E1.34802
G1 X141.748 Y100.000 E1.35810
G1 X141.798 Y99.396 E1.36817
G1 X141.943 Y98.812 E1.37817
G1 X142.182 Y98.260 E1.38818
G1 X142.672 Y97.549 E1.40254
G1 X147.328 Y97.549 E1.47996
G1 X147.818 Y98.260 E1.49432
G1 X148.057 Y98.812 E1.50433
G1 X148.202 Y99.396 E1.51433
G1 X148.252 Y100.000 E1.52440
G1 X148.202 Y100.603 E1.53447
G1 X148.057 Y101.187 E1.54447
G1 X147.818 Y101.739 E1.55448
G1 X147.362 Y102.401 E1.56785
G0 X147.268 Y102.451 F7200
G0 X145.668 Y102.451
G0 X146.228 Y102.851
;segType:Loop
G1 X142.462 Y102.851 E1.63048 F1200
G1 X141.831 Y101.934 E1.64900
G1 X141.563 Y101.315 E1.66020
G1 X141.402 Y100.668 E1.67129
G1 X141.347 Y100.000 E1.68245
G1 X141.402 Y99.331 E1.69361
G1 X141.563 Y98.684 E1.70470
G1 X141.831 Y98.065 E1.71591
G1 X142.462 Y97.149 E1.73441
G1 X147.538 Y97.149 E1.81882
G1 X148.169 Y98.065 E1.83732
G1 X148.437 Y98.684 E1.84853
G1 X148.598 Y99.331 E1.85962
G1 X148.653 Y100.000 E1.87078
G1 X148.598 Y100.668 E1.88194
G1 X148.437 Y101.315 E1.89303
G1 X148.169 Y101.934 E1.90423
G1 X147.538 Y102.851 E1.92275
G1 X146.428 Y102.851 E1.94121
G0 F3000 E0.94121
G0 X146.218 Y102.451 F7200
G0 X147.328 Y102.451
G0 X147.818 Y101.739
G0 X148.057 Y101.187
G0 X148.202 Y100.603
G0 X148.252 Y100.000
G0 X148.202 Y99.396
G0 X148.057 Y98.812
G0 X147.818 Y98.260
G0 X147.328 Y97.549
G0 X143.640 Y97.549
G0 X142.746 Y95.849
G0 X143.102 Y96.525
G0 F3000 E1.94121
;segType:HShell
G0 X143.007 Y96.714 F7200
G1 X143.686 Y96.544 E1.96447 F1200
G0 X143.904 Y96.197 F7200
G1 X144.497 Y96.789 E1.97840 F1200
G0 X145.063 Y96.789 F7200
G1 X144.376 Y96.103 E1.99454 F1200
G0 X144.848 Y96.009 F7200
G1 X145.628 Y96.789 E2.01288 F1200
G0 X146.194 Y96.789 F7200
G1 X145.478 Y96.074 E2.02971 F1200
G0 X146.184 Y96.214 F7200
G1 X146.760 Y96.789 E2.04324 F1200
G0 F3000 E1.04324
G0 X145.300 Y100.900 F7200
G0 F3000 E2.04324
;segType:Support
G1 X143.500 Y100.900 E2.06869 F1200
G1 X143.500 Y99.100 E2.09413
G1 X147.510 Y99.100 E2.15081
G1 X147.100 Y99.207 E2.15680
G1 X147.100 Y99.100 E2.15832
; ------------------------------------
; Layer #5
; ------------------------------------
G92 E0 ;reset extr
G0 F3000 E-1.00000
G0 F600 Z1.700
G0 X148.437 Y98.684 F7200
G0 X148.598 Y99.331
G0 X148.653 Y100.000
G0 X148.598 Y100.668
G0 X148.437 Y101.315
G0 X148.169 Y101.934
G0 X147.538 Y102.851
G0 X145.951 Y102.851
G0 X145.511 Y104.287
G0 X145.631 Y103.896
G0 F3000 E0.00000
;segType:HShell
G1 X146.316 Y103.211 E0.01611 F1200
G0 F3000 E-0.98389
G0 X146.337 Y103.755 F7200
G0 F3000 E0.01611
G1 X146.881 Y103.211 E0.02891 F1200
G0 X147.458 Y103.161 F7200
;segType:InnerHair
G1 X147.343 Y103.196 E0.03035 F1200
G1 X147.229 Y103.231 E0.03214
G1 X147.115 Y103.265 E0.03427
G0 X147.099 Y103.270 F7200
G0 X147.223 Y103.233
G0 X147.347 Y103.195
G0 X147.471 Y103.157
G1 X147.864 Y102.904 E0.03811 F1200
G1 X147.934 Y102.812 E0.03910
G1 X147.999 Y102.716 E0.04010
G1 X148.064 Y102.619 E0.04108
G1 X148.130 Y102.523 E0.04206
G1 X148.195 Y102.427 E0.04304
G1 X148.260 Y102.330 E0.04400
G1 X148.326 Y102.234 E0.04496
G1 X148.391 Y102.138 E0.04591
G1 X148.453 Y102.038 E0.04690
G1 X148.510 Y101.934 E0.04802
G1 X148.567 Y101.829 E0.04924
G1 X148.624 Y101.724 E0.05057
G1 X148.681 Y101.620 E0.05200
G1 X148.738 Y101.515 E0.05354
G1 X148.723 Y101.543 E0.05395
G1 X148.759 Y101.429 E0.05534
G1 X148.785 Y101.315 E0.05668
G1 X148.810 Y101.201 E0.05798
G1 X148.836 Y101.086 E0.05926
G1 X148.861 Y100.972 E0.06052
G1 X148.887 Y100.858 E0.06174
G1 X148.912 Y100.743 E0.06294
G1 X148.930 Y100.629 E0.06417
G1 X148.946 Y100.515 E0.06546
G1 X148.962 Y100.401 E0.06682
G1 X148.978 Y100.286 E0.06823
G1 X148.994 Y100.172 E0.06971
G1 X149.010 Y100.058 E0.07125
G1 X149.010 Y99.943 E0.07278
G1 X148.994 Y99.829 E0.07426
G1 X148.978 Y99.715 E0.07568
G1 X148.962 Y99.601 E0.07703
G1 X148.946 Y99.486 E0.07832
G1 X148.930 Y99.372 E0.07955
G1 X148.913 Y99.258 E0.08073
G1 X148.887 Y99.143 E0.08196
G1 X148.862 Y99.029 E0.08321
G1 X148.836 Y98.915 E0.08449
G1 X148.811 Y98.801 E0.08580
G1 X148.785 Y98.686 E0.08713
G0 X148.759 Y98.572 F7200
G0 X148.724 Y98.458
G1 X148.757 Y98.507 E0.08789 F1200
G1 X148.696 Y98.406 E0.08933
G1 X148.639 Y98.302 E0.09069
G1 X148.582 Y98.197 E0.09193
G1 X148.525 Y98.093 E0.09308
G1 X148.468 Y97.988 E0.09411
G1 X148.408 Y97.886 E0.09507
G1 X148.342 Y97.790 E0.09603
G1 X148.277 Y97.694 E0.09699
G1 X148.212 Y97.597 E0.09796
G1 X148.146 Y97.501 E0.09894
G1 X148.081 Y97.405 E0.09993
G1 X148.016 Y97.309 E0.10093
G1 X147.950 Y97.212 E0.10193
G1 X147.885 Y97.116 E0.10294
G1 X147.804 Y97.036 E0.10373
G0 X147.503 Y96.852 F7200
G0 X147.379 Y96.814
G0 X147.255 Y96.777
G0 X147.131 Y96.739
G1 X147.115 Y96.734 E0.10403 F1200
G1 X147.229 Y96.769 E0.10582
G1 X147.343 Y96.803 E0.10727
G1 X147.458 Y96.838 E0.10837
G0 X148.843 Y97.695 F7200
;segType:Perimeter
G1 X149.444 Y98.223 E0.12167 F600
G1 X149.797 Y100.000 E0.15180
G1 X149.433 Y101.835 E0.18293
G1 X148.393 Y103.391 E0.21404
G1 X146.837 Y104.431 E0.24516
G1 X145.002 Y104.796 E0.27629
G1 X143.166 Y104.431 E0.30742
G1 X141.610 Y103.391 E0.33853
G1 X140.570 Y101.835 E0.36965
G1 X140.205 Y100.000 E0.40078
G1 X140.570 Y98.164 E0.43191
G1 X141.610 Y96.608 E0.46302
G1 X143.166 Y95.568 E0.49414
G1 X145.002 Y95.204 E0.52527
G1 X146.837 Y95.568 E0.55639
G1 X148.393 Y96.608 E0.58751
G1 X149.399 Y98.114 E0.61763
G0 X149.444 Y98.223 F7200
G0 X149.756 Y99.792
G0 X149.389 Y100.000
G0 X149.255 Y99.321
;segType:Loop
G1 X149.389 Y100.000 E0.62914 F1200
G1 X149.056 Y101.679 E0.65762
G1 X148.105 Y103.103 E0.68609
G1 X146.681 Y104.054 E0.71456
G1 X145.002 Y104.388 E0.74304
G1 X143.322 Y104.054 E0.77152
G1 X141.898 Y103.103 E0.80000
G1 X140.947 Y101.679 E0.82847
G1 X140.613 Y100.000 E0.85695
G1 X140.947 Y98.320 E0.88543
G1 X141.898 Y96.896 E0.91390
G1 X143.322 Y95.945 E0.94237
G1 X145.002 Y95.612 E0.97085
G1 X146.681 Y95.945 E0.99933
G1 X148.105 Y96.896 E1.02780
G1 X149.056 Y98.320 E1.05627
G1 X149.216 Y99.124 E1.06991
G0 F3000 E0.06991
G0 X149.216 Y99.124 F7200
G0 X148.608 Y99.457
G0 X148.653 Y100.000
G0 X148.598 Y100.668
G0 X148.437 Y101.315
G0 X148.169 Y101.934
G0 X147.538 Y102.851
G0 X142.462 Y102.851
G0 X142.446 Y102.829
G0 X141.920 Y103.117
G0 X142.198 Y102.964
G0 F3000 E1.06991
;segType:InnerHair
G1 X142.117 Y102.884 E1.07089 F1200
G1 X142.052 Y102.788 E1.07188
G1 X141.986 Y102.692 E1.07286
G1 X141.921 Y102.595 E1.07384
G1 X141.856 Y102.499 E1.07480
G1 X141.790 Y102.403 E1.07576
G1 X141.725 Y102.306 E1.07671
G1 X141.660 Y102.210 E1.07766
G1 X141.594 Y102.114 E1.07859
G1 X141.534 Y102.012 E1.07961
G1 X141.477 Y101.908 E1.08073
G1 X141.420 Y101.803 E1.08197
G1 X141.363 Y101.698 E1.08331
G1 X141.306 Y101.594 E1.08476
G1 X141.245 Y101.493 E1.08624
G1 X141.278 Y101.543 E1.08700
G1 X141.243 Y101.429 E1.08838
G1 X141.217 Y101.315 E1.08970
G1 X141.191 Y101.201 E1.09100
G1 X141.166 Y101.086 E1.09226
G1 X141.140 Y100.972 E1.09351
G1 X141.115 Y100.858 E1.09472
G1 X141.089 Y100.743 E1.09591
G1 X141.071 Y100.629 E1.09713
G1 X141.055 Y100.515 E1.09841
G1 X141.039 Y100.401 E1.09975
G1 X141.023 Y100.286 E1.10115
G1 X141.007 Y100.172 E1.10262
G1 X140.991 Y100.058 E1.10415
G1 X140.991 Y99.943 E1.10567
G1 X141.007 Y99.829 E1.10714
G1 X141.023 Y99.715 E1.10855
G1 X141.039 Y99.601 E1.10989
G1 X141.055 Y99.486 E1.11117
G1 X141.071 Y99.372 E1.11239
G1 X141.089 Y99.258 E1.11356
G1 X141.114 Y99.143 E1.11478
G1 X141.140 Y99.029 E1.11602
G1 X141.165 Y98.915 E1.11728
G1 X141.191 Y98.801 E1.11858
G1 X141.216 Y98.686 E1.11990
G1 X141.242 Y98.572 E1.12125
G1 X141.278 Y98.458 E1.12276
G1 X141.291 Y98.432 E1.12311
G1 X141.348 Y98.328 E1.12448
G1 X141.406 Y98.223 E1.12574
G1 X141.463 Y98.119 E1.12690
G1 X141.520 Y98.014 E1.12795
G1 X141.577 Y97.909 E1.12889
G1 X141.643 Y97.814 E1.12983
G1 X141.708 Y97.718 E1.13078
G1 X141.773 Y97.621 E1.13174
G1 X141.839 Y97.525 E1.13271
G1 X141.904 Y97.429 E1.13368
G1 X141.970 Y97.333 E1.13466
G1 X142.035 Y97.236 E1.13565
G1 X142.100 Y97.140 E1.13665
G1 X142.177 Y97.056 E1.13748
G0 X142.468 Y96.862 F7200
G0 X142.592 Y96.824
G0 X142.716 Y96.786
G0 X142.840 Y96.749
G0 X142.964 Y96.711
G1 X142.886 Y96.735 E1.13893 F1200
G1 X142.772 Y96.769 E1.14072
G1 X142.658 Y96.804 E1.14216
G1 X142.543 Y96.839 E1.14326
G0 X142.177 Y97.056 F7200
G0 X142.100 Y97.140
G0 X141.643 Y97.814
G0 X141.577 Y97.909
G0 X141.291 Y98.432
G0 X141.216 Y98.686
G0 X141.089 Y99.258
G0 X141.071 Y99.372
G0 X140.991 Y99.943
G0 X140.991 Y100.058
G0 X141.071 Y100.629
G0 X141.089 Y100.743
G0 X141.217 Y101.315
G0 X141.306 Y101.594
G0 X141.534 Y102.012
G0 X141.594 Y102.114
G0 X142.117 Y102.884
G0 X142.198 Y102.964
G1 X142.543 Y103.161 E1.14689 F1200
G1 X142.658 Y103.195 E1.14833
G1 X142.772 Y103.230 E1.15011
G1 X142.886 Y103.265 E1.15223
G0 X143.487 Y103.211 F7200
;segType:HShell
G1 X143.175 Y103.523 E1.15957 F1200
G0 X144.053 Y103.211 F7200
G1 X143.535 Y103.729 E1.17175 F1200
G0 X144.006 Y103.823 F7200
G1 X144.618 Y103.211 E1.18615 F1200
G0 X145.184 Y103.211 F7200
G1 X144.478 Y103.917 E1.20275 F1200
G0 X144.950 Y104.011 F7200
G1 X145.750 Y103.211 E1.22156 F1200
G0 X148.068 Y102.451 F7200
;segType:Perimeter
G1 X147.268 Y102.451 E1.23487 F600
G1 X142.672 Y102.451 E1.31130
G1 X142.182 Y101.739 E1.32567
G1 X141.943 Y101.187 E1.33567
G1 X141.798 Y100.603 E1.34567
G1 X141.748 Y100.000 E1.35575
G1 X141.798 Y99.396 E1.36582
G1 X141.943 Y98.812 E1.37582
G1 X142.182 Y98.260 E1.38583
G1 X142.672 Y97.549 E1.40019
G1 X147.328 Y97.549 E1.47761
G1 X147.818 Y98.260 E1.49197
G1 X148.057 Y98.812 E1.50198
G1 X148.202 Y99.396 E1.51198
G1 X148.252 Y100.000 E1.52205
G1 X148.202 Y100.603 E1.53212
G1 X148.057 Y101.187 E1.54212
G1 X147.818 Y101.739 E1.55213
G1 X147.362 Y102.401 E1.56550
G0 X147.268 Y102.451 F7200
G0 X145.668 Y102.451
G0 X146.228 Y102.851
;segType:Loop
G1 X142.462 Y102.851 E1.62813 F1200
G1 X141.831 Y101.934 E1.64665
G1 X141.563 Y101.315 E1.65785
G1 X141.402 Y100.668 E1.66894
G1 X141.347 Y100.000 E1.68010
G1 X141.402 Y99.331 E1.69126
G1 X141.563 Y98.684 E1.70235
G1 X141.831 Y98.065 E1.71356
G1 X142.462 Y97.149 E1.73206
G1 X147.538 Y97.149 E1.81647
G1 X148.169 Y98.065 E1.83497
G1 X148.437 Y98.684 E1.84618
G1 X148.598 Y99.331 E1.85727
G1 X148.653 Y100.000 E1.86843
G1 X148.598 Y100.668 E1.87959
G1 X148.437 Y101.315 E1.89068
G1 X148.169 Y101.934 E1.90188
G1 X147.538 Y102.851 E1.92039
G1 X146.428 Y102.851 E1.93886
G0 F3000 E0.93886
G0 X146.428 Y102.851 F7200
G0 X147.538 Y102.851
G0 X148.169 Y101.934
G0 X148.437 Y101.315
G0 X148.598 Y100.668
G0 X148.653 Y100.000
G0 X148.598 Y99.331
G0 X148.437 Y98.684
G0 X148.169 Y98.065
G0 X147.538 Y97.149
G0 X144.044 Y97.149
G0 X143.524 Y95.905
G0 X143.666 Y96.244
G0 F3000 E1.93886
;segType:HShell
G1 X143.121 Y96.789 E1.95168 F1200
G0 X143.686 Y96.789 F7200
G1 X144.372 Y96.104 E1.96779 F1200
G0 X145.052 Y95.989 F7200
G1 X144.252 Y96.789 E1.98661 F1200
G0 X144.818 Y96.789 F7200
G1 X145.524 Y96.083 E2.00322 F1200
G0 X145.996 Y96.176 F7200
G1 X145.384 Y96.789 E2.01763 F1200
G0 X145.977 Y96.478 F7200
G1 X146.671 Y96.633 E2.04719 F1200
G0 F3000 E1.04719
G0 X145.300 Y100.900 F7200
G0 F3000 E2.04719
;segType:Support
G1 X143.500 Y100.900 E2.07263 F1200
G1 X143.500 Y99.100 E2.09808
G1 X147.510 Y99.100 E2.15476
G1 X147.100 Y99.227 E2.16082
G1 X147.100 Y99.100 E2.16262
; ------------------------------------
; Layer #6
; ------------------------------------
G92 E0 ;reset extr
G0 F3000 E-1.00000
G0 F600 Z1.800
G0 X148.057 Y98.812 F7200
G0 X148.202 Y99.396
G0 X148.252 Y100.000
G0 X148.202 Y100.603
G0 X148.057 Y101.187
G0 X147.818 Y101.739
G0 X147.328 Y102.451
G0 X145.828 Y103.211
G0 F3000 E0.00000
;segType:HShell
G0 X145.858 Y103.525 F7200
G1 X146.574 Y103.391 E0.03025 F1200
G1 X146.987 Y103.239 E0.04857
G0 X147.458 Y103.161 F7200
;segType:InnerHair
G1 X147.343 Y103.196 E0.05001 F1200
G1 X147.229 Y103.231 E0.05180
G1 X147.115 Y103.265 E0.05393
G0 X147.099 Y103.270 F7200
G0 X147.223 Y103.233
G0 X147.347 Y103.195
G0 X147.471 Y103.157
G1 X147.864 Y102.904 E0.05777 F1200
G1 X147.934 Y102.812 E0.05876
G1 X147.999 Y102.716 E0.05976
G1 X148.064 Y102.619 E0.06074
G1 X148.130 Y102.523 E0.06172
G1 X148.195 Y102.427 E0.06270
G1 X148.260 Y102.330 E0.06366
G1 X148.326 Y102.234 E0.06462
G1 X148.391 Y102.138 E0.06557
G1 X148.453 Y102.038 E0.06656
G1 X148.510 Y101.934 E0.06768
G1 X148.567 Y101.829 E0.06890
G1 X148.624 Y101.724 E0.07022
G1 X148.681 Y101.620 E0.07166
G1 X148.738 Y101.515 E0.07320
G1 X148.723 Y101.543 E0.07361
G1 X148.759 Y101.429 E0.07500
G1 X148.785 Y101.315 E0.07634
G1 X148.810 Y101.201 E0.07764
G1 X148.836 Y101.086 E0.07892
G1 X148.861 Y100.972 E0.08018
G1 X148.887 Y100.858 E0.08140
G1 X148.912 Y100.743 E0.08260
G1 X148.930 Y100.629 E0.08383
G1 X148.946 Y100.515 E0.08512
G1 X148.962 Y100.401 E0.08648
G1 X148.978 Y100.286 E0.08789
G1 X148.994 Y100.172 E0.08937
G1 X149.010 Y100.058 E0.09091
G1 X149.010 Y99.943 E0.09244
G1 X148.994 Y99.829 E0.09392
G1 X148.978 Y99.715 E0.09534
G1 X148.962 Y99.601 E0.09669
G1 X148.946 Y99.486 E0.09798
G1 X148.930 Y99.372 E0.09921
G1 X148.913 Y99.258 E0.10039
G1 X148.887 Y99.143 E0.10162
G1 X148.862 Y99.029 E0.10287
G1 X148.836 Y98.915 E0.10415
G1 X148.811 Y98.801 E0.10546
G1 X148.785 Y98.686 E0.10679
G0 X148.759 Y98.572 F7200
G0 X148.724 Y98.458
G1 X148.757 Y98.507 E0.10755 F1200
G1 X148.696 Y98.406 E0.10899
G1 X148.639 Y98.302 E0.11034
G1 X148.582 Y98.197 E0.11159
G1 X148.525 Y98.093 E0.11274
G1 X148.468 Y97.988 E0.11377
G1 X148.408 Y97.886 E0.11473
G1 X148.342 Y97.790 E0.11569
G1 X148.277 Y97.694 E0.11665
G1 X148.212 Y97.597 E0.11762
G1 X148.146 Y97.501 E0.11860
G1 X148.081 Y97.405 E0.11959
G1 X148.016 Y97.309 E0.12059
G1 X147.950 Y97.212 E0.12159
G1 X147.885 Y97.116 E0.12260
G1 X147.804 Y97.036 E0.12339
G0 X147.503 Y96.852 F7200
G0 X147.379 Y96.814
G0 X147.255 Y96.777
G0 X147.131 Y96.739
G1 X147.115 Y96.734 E0.12369 F1200
G1 X147.229 Y96.769 E0.12548
G1 X147.343 Y96.803 E0.12693
G1 X147.458 Y96.838 E0.12803
G0 X148.843 Y97.695 F7200
;segType:Perimeter
G1 X149.444 Y98.223 E0.14133 F600
G1 X149.797 Y100.000 E0.17146
G1 X149.433 Y101.835 E0.20258
G1 X148.393 Y103.391 E0.23370
G1 X146.837 Y104.431 E0.26482
G1 X145.002 Y104.796 E0.29595
G1 X143.166 Y104.431 E0.32708
G1 X141.610 Y103.391 E0.35819
G1 X140.570 Y101.835 E0.38931
G1 X140.205 Y100.000 E0.42044
G1 X140.570 Y98.164 E0.45157
G1 X141.610 Y96.608 E0.48268
G1 X143.166 Y95.568 E0.51380
G1 X145.002 Y95.204 E0.54493
G1 X146.837 Y95.568 E0.57605
G1 X148.393 Y96.608 E0.60717
G1 X149.399 Y98.114 E0.63729
G0 X149.444 Y98.223 F7200
G0 X149.756 Y99.792
G0 X149.255 Y99.321
;segType:Loop
G1 X149.389 Y100.000 E0.64880 F1200
G1 X149.056 Y101.679 E0.67728
G1 X148.105 Y103.103 E0.70575
G1 X146.681 Y104.054 E0.73422
G1 X145.002 Y104.388 E0.76270
G1 X143.322 Y104.054 E0.79118
G1 X141.898 Y103.103 E0.81966
G1 X140.947 Y101.679 E0.84813
G1 X140.613 Y100.000 E0.87661
G1 X140.947 Y98.320 E0.90509
G1 X141.898 Y96.896 E0.93356
G1 X143.322 Y95.945 E0.96203
G1 X145.002 Y95.612 E0.99051
G1 X146.681 Y95.945 E1.01899
G1 X148.105 Y96.896 E1.04746
G1 X149.056 Y98.320 E1.07593
G1 X149.216 Y99.124 E1.08957
G0 F3000 E0.08957
G0 X149.583 Y98.923 F7200
G0 X148.224 Y99.667
G0 X148.252 Y100.000
G0 X148.202 Y100.603
G0 X148.057 Y101.187
G0 X147.818 Y101.739
G0 X147.328 Y102.451
G0 X143.137 Y102.451
G0 X141.559 Y103.314
G0 X141.610 Y103.391
G0 X142.198 Y102.964
G0 F3000 E1.08957
;segType:InnerHair
G1 X142.117 Y102.884 E1.09055 F1200
G1 X142.052 Y102.788 E1.09154
G1 X141.986 Y102.692 E1.09252
G1 X141.921 Y102.595 E1.09350
G1 X141.856 Y102.499 E1.09446
G1 X141.790 Y102.403 E1.09542
G1 X141.725 Y102.306 E1.09637
G1 X141.660 Y102.210 E1.09732
G1 X141.594 Y102.114 E1.09825
G1 X141.534 Y102.012 E1.09927
G1 X141.477 Y101.908 E1.10039
G1 X141.420 Y101.803 E1.10163
G1 X141.363 Y101.698 E1.10297
G1 X141.306 Y101.594 E1.10442
G1 X141.245 Y101.493 E1.10590
G1 X141.278 Y101.543 E1.10666
G1 X141.243 Y101.429 E1.10804
G1 X141.217 Y101.315 E1.10936
G1 X141.191 Y101.201 E1.11066
G1 X141.166 Y101.086 E1.11192
G1 X141.140 Y100.972 E1.11317
G1 X141.115 Y100.858 E1.11438
G1 X141.089 Y100.743 E1.11557
G1 X141.071 Y100.629 E1.11679
G1 X141.055 Y100.515 E1.11807
G1 X141.039 Y100.401 E1.11941
G1 X141.023 Y100.286 E1.12081
G1 X141.007 Y100.172 E1.12228
G1 X140.991 Y100.058 E1.12381
G1 X140.991 Y99.943 E1.12533
G1 X141.007 Y99.829 E1.12680
G1 X141.023 Y99.715 E1.12821
G1 X141.039 Y99.601 E1.12955
G1 X141.055 Y99.486 E1.13083
G1 X141.071 Y99.372 E1.13205
G1 X141.089 Y99.258 E1.13322
G1 X141.114 Y99.143 E1.13444
G1 X141.140 Y99.029 E1.13568
G1 X141.165 Y98.915 E1.13694
G1 X141.191 Y98.801 E1.13824
G1 X141.216 Y98.686 E1.13956
G1 X141.242 Y98.572 E1.14091
G1 X141.278 Y98.458 E1.14242
G1 X141.291 Y98.432 E1.14277
G1 X141.348 Y98.328 E1.14414
G1 X141.406 Y98.223 E1.14540
G1 X141.463 Y98.119 E1.14656
G1 X141.520 Y98.014 E1.14761
G1 X141.577 Y97.909 E1.14855
G1 X141.643 Y97.814 E1.14949
G1 X141.708 Y97.718 E1.15044
G1 X141.773 Y97.621 E1.15140
G1 X141.839 Y97.525 E1.15237
G1 X141.904 Y97.429 E1.15334
G1 X141.970 Y97.333 E1.15432
G1 X142.035 Y97.236 E1.15531
G1 X142.100 Y97.140 E1.15631
G1 X142.177 Y97.056 E1.15714
G0 X142.468 Y96.862 F7200
G0 X142.592 Y96.824
G0 X142.716 Y96.786
G0 X142.840 Y96.749
G0 X142.964 Y96.711
G1 X142.886 Y96.735 E1.15859 F1200
G1 X142.772 Y96.769 E1.16038
G1 X142.658 Y96.804 E1.16182
G1 X142.543 Y96.839 E1.16292
G0 X142.177 Y97.056 F7200
G0 X142.100 Y97.140
G0 X141.643 Y97.814
G0 X141.577 Y97.909
G0 X141.291 Y98.432
G0 X141.216 Y98.686
G0 X141.089 Y99.258
G0 X141.071 Y99.372
G0 X140.991 Y99.943
G0 X140.991 Y100.058
G0 X141.071 Y100.629
G0 X141.089 Y100.743
G0 X141.217 Y101.315
G0 X141.306 Y101.594
G0 X141.534 Y102.012
G0 X141.594 Y102.114
G0 X142.117 Y102.884
G0 X142.198 Y102.964
G1 X142.543 Y103.161 E1.16655 F1200
G1 X142.658 Y103.195 E1.16799
G1 X142.772 Y103.230 E1.16977
G1 X142.886 Y103.265 E1.17189
G0 X143.000 Y103.212 F7200
;segType:HShell
G1 X143.513 Y103.725 E1.18396 F1200
G0 X144.219 Y103.865 F7200
G1 X143.565 Y103.211 E1.19935 F1200
G0 X144.131 Y103.211 F7200
G1 X144.926 Y104.006 E1.21804 F1200
G0 X145.423 Y103.937 F7200
G1 X144.696 Y103.211 E1.23513 F1200
G0 X145.262 Y103.211 F7200
G1 X145.894 Y103.843 E1.25000 F1200
G0 X148.068 Y102.451 F7200
;segType:Perimeter
G1 X147.268 Y102.451 E1.26330 F600
G1 X142.672 Y102.451 E1.33973
G1 X142.182 Y101.739 E1.35410
G1 X141.943 Y101.187 E1.36411
G1 X141.798 Y100.603 E1.37411
G1 X141.748 Y100.000 E1.38418
G1 X141.798 Y99.396 E1.39426
G1 X141.943 Y98.812 E1.40426
G1 X142.182 Y98.260 E1.41427
G1 X142.672 Y97.549 E1.42862
G1 X147.328 Y97.549 E1.50605
G1 X147.818 Y98.260 E1.52040
G1 X148.057 Y98.812 E1.53041
G1 X148.202 Y99.396 E1.54041
G1 X148.252 Y100.000 E1.55048
G1 X148.202 Y100.603 E1.56056
G1 X148.057 Y101.187 E1.57056
G1 X147.818 Y101.739 E1.58057
G1 X147.362 Y102.401 E1.59394
G0 X147.268 Y102.451 F7200
G0 X145.668 Y102.451
G0 X146.228 Y102.851
;segType:Loop
G1 X142.462 Y102.851 E1.65657 F1200
G1 X141.831 Y101.934 E1.67508
G1 X141.563 Y101.315 E1.68629
G1 X141.402 Y100.668 E1.69738
G1 X141.347 Y100.000 E1.70854
G1 X141.402 Y99.331 E1.71970
G1 X141.563 Y98.684 E1.73078
G1 X141.831 Y98.065 E1.74200
G1 X142.462 Y97.149 E1.76049
G1 X147.538 Y97.149 E1.84491
G1 X148.169 Y98.065 E1.86341
G1 X148.437 Y98.684 E1.87462
G1 X148.598 Y99.331 E1.88571
G1 X148.653 Y100.000 E1.89686
G1 X148.598 Y100.668 E1.90802
G1 X148.437 Y101.315 E1.91911
G1 X148.169 Y101.934 E1.93032
G1 X147.538 Y102.851 E1.94883
G1 X146.428 Y102.851 E1.96730
G0 F3000 E0.96730
G0 X146.450 Y102.451 F7200
G0 X147.328 Y102.451
G0 X147.818 Y101.739
G0 X148.057 Y101.187
G0 X148.202 Y100.603
G0 X148.252 Y100.000
G0 X148.202 Y99.396
G0 X148.057 Y98.812
G0 X147.818 Y98.260
G0 X147.328 Y97.549
G0 X146.718 Y97.549
G0 X146.760 Y96.789
G0 F3000 E1.96730
;segType:HShell
G1 X146.184 Y96.214 E1.98083 F1200
G0 X145.478 Y96.074 F7200
G1 X146.194 Y96.789 E1.99766 F1200
G0 X145.628 Y96.789 F7200
G1 X144.848 Y96.009 E2.01600 F1200
G0 X144.376 Y96.103 F7200
G1 X145.063 Y96.789 E2.03213 F1200
G0 X144.497 Y96.789 F7200
G1 X143.904 Y96.197 E2.04607 F1200
G0 X143.912 Y96.487 F7200
G1 X143.234 Y96.657 E2.07515 F1200
G0 F3000 E1.07515
G0 X145.300 Y100.900 F7200
G0 F3000 E2.07515
;segType:Support
G1 X143.500 Y100.900 E2.10059 F1200
G1 X143.500 Y99.100 E2.12604
G1 X147.510 Y99.100 E2.18272
G1 X147.100 Y99.246 E2.18887
G1 X147.100 Y99.100 E2.19094
; ------------------------------------
; Layer #7
; ------------------------------------
G92 E0 ;reset extr
G0 F3000 E-1.00000
G0 F600 Z1.900
G0 X148.437 Y98.684 F7200
G0 X148.598 Y99.331
G0 X148.653 Y100.000
G0 X148.598 Y100.668
G0 X148.437 Y101.315
G0 X148.169 Y101.934
G0 X147.538 Y102.851
G0 X145.951 Y102.851
G0 X145.511 Y104.287
G0 X145.631 Y103.896
G0 F3000 E0.00000
;segType:HShell
G1 X146.316 Y103.211 E0.01611 F1200
G0 F3000 E-0.98389
G0 X146.337 Y103.755 F7200
G0 F3000 E0.01611
G1 X146.881 Y103.211 E0.02891 F1200
G0 X147.458 Y103.161 F7200
;segType:InnerHair
G1 X147.343 Y103.196 E0.03035 F1200
G1 X147.229 Y103.231 E0.03214
G1 X147.115 Y103.265 E0.03427
G0 X147.099 Y103.270 F7200
G0 X147.223 Y103.233
G0 X147.347 Y103.195
G0 X147.471 Y103.157
G1 X147.864 Y102.904 E0.03811 F1200
G1 X147.934 Y102.812 E0.03910
G1 X147.999 Y102.716 E0.04010
G1 X148.064 Y102.619 E0.04108
G1 X148.130 Y102.523 E0.04206
G1 X148.195 Y102.427 E0.04304
G1 X148.260 Y102.330 E0.04400
G1 X148.326 Y102.234 E0.04496
G1 X148.391 Y102.138 E0.04591
G1 X148.453 Y102.038 E0.04690
G1 X148.510 Y101.934 E0.04802
G1 X148.567 Y101.829 E0.04924
G1 X148.624 Y101.724 E0.05057
G1 X148.681 Y101.620 E0.05200
G1 X148.738 Y101.515 E0.05354
G1 X148.723 Y101.543 E0.05395
G1 X148.759 Y101.429 E0.05534
G1 X148.785 Y101.315 E0.05668
G1 X148.810 Y101.201 E0.05798
G1 X148.836 Y101.086 E0.05926
G1 X148.861 Y100.972 E0.06052
G1 X148.887 Y100.858 E0.06174
G1 X148.912 Y100.743 E0.06294
G1 X148.930 Y100.629 E0.06417
G1 X148.946 Y100.515 E0.06546
G1 X148.962 Y100.401 E0.06682
G1 X148.978 Y100.286 E0.06823
G1 X148.994 Y100.172 E0.06971
G1 X149.010 Y100.058 E0.07125
G1 X149.010 Y99.943 E0.07278
G1 X148.994 Y99.829 E0.07426
G1 X148.978 Y99.715 E0.07568
G1 X148.962 Y99.601 E0.07703
G1 X148.946 Y99.486 E0.07832
G1 X148.930 Y99.372 E0.07955
G1 X148.913 Y99.258 E0.08073
G1 X148.887 Y99.143 E0.08196
G1 X148.862 Y99.029 E0.08321
G1 X148.836 Y98.915 E0.08449
G1 X148.811 Y98.801 E0.08580
G1 X148.785 Y98.686 E0.08713
G0 X148.759 Y98.572 F7200
G0 X148.724 Y98.458
G1 X148.757 Y98.507 E0.08789 F1200
G1 X148.696 Y98.406 E0.08933
G1 X148.639 Y98.302 E0.09069
G1 X148.582 Y98.197 E0.09193
G1 X148.525 Y98.093 E0.09308
G1 X148.468 Y97.988 E0.09411
G1 X148.408 Y97.886 E0.09507
G1 X148.342 Y97.790 E0.09603
G1 X148.277 Y97.694 E0.09699
G1 X148.212 Y97.597 E0.09796
G1 X148.146 Y97.501 E0.09894
G1 X148.081 Y97.405 E0.09993
G1 X148.016 Y97.309 E0.10093
G1 X147.950 Y97.212 E0.10193
G1 X147.885 Y97.116 E0.10294
G1 X147.804 Y97.036 E0.10373
G0 X147.503 Y96.852 F7200
G0 X147.379 Y96.814
G0 X147.255 Y96.777
G0 X147.131 Y96.739
G1 X147.115 Y96.734 E0.10403 F1200
G1 X147.229 Y96.769 E0.10582
G1 X147.343 Y96.803 E0.10727
G1 X147.458 Y96.838 E0.10837
G0 X148.843 Y97.695 F7200
;segType:Perimeter
G1 X149.444 Y98.223 E0.12167 F600
G1 X149.797 Y100.000 E0.15180
G1 X149.433 Y101.835 E0.18293
G1 X148.393 Y103.391 E0.21404
G1 X146.837 Y104.431 E0.24516
G1 X145.002 Y104.796 E0.27629
G1 X143.166 Y104.431 E0.30742
G1 X141.610 Y103.391 E0.33853
G1 X140.570 Y101.835 E0.36965
G1 X140.205 Y100.000 E0.40078
G1 X140.570 Y98.164 E0.43191
G1 X141.610 Y96.608 E0.46302
G1 X143.166 Y95.568 E0.49414
G1 X145.002 Y95.204 E0.52527
G1 X146.837 Y95.568 E0.55639
G1 X148.393 Y96.608 E0.58751
G1 X149.399 Y98.114 E0.61763
G0 X149.444 Y98.223 F7200
G0 X149.756 Y99.792
G0 X149.389 Y100.000
G0 X149.255 Y99.321
;segType:Loop
G1 X149.389 Y100.000 E0.62914 F1200
G1 X149.056 Y101.679 E0.65762
G1 X148.105 Y103.103 E0.68609
G1 X146.681 Y104.054 E0.71456
G1 X145.002 Y104.388 E0.74304
G1 X143.322 Y104.054 E0.77152
G1 X141.898 Y103.103 E0.80000
G1 X140.947 Y101.679 E0.82847
G1 X140.613 Y100.000 E0.85695
G1 X140.947 Y98.320 E0.88543
G1 X141.898 Y96.896 E0.91390
G1 X143.322 Y95.945 E0.94237
G1 X145.002 Y95.612 E0.97085
G1 X146.681 Y95.945 E0.99933
G1 X148.105 Y96.896 E1.02780
G1 X149.056 Y98.320 E1.05627
G1 X149.216 Y99.124 E1.06991
G0 F3000 E0.06991
G0 X149.216 Y99.124 F7200
G0 X148.608 Y99.457
G0 X148.653 Y100.000
G0 X148.598 Y100.668
G0 X148.437 Y101.315
G0 X148.169 Y101.934
G0 X147.538 Y102.851
G0 X142.462 Y102.851
G0 X142.446 Y102.829
G0 X141.920 Y103.117
G0 X142.198 Y102.964
G0 F3000 E1.06991
;segType:InnerHair
G1 X142.117 Y102.884 E1.07089 F1200
G1 X142.052 Y102.788 E1.07188
G1 X141.986 Y102.692 E1.07286
G1 X141.921 Y102.595 E1.07384
G1 X141.856 Y102.499 E1.07480
G1 X141.790 Y102.403 E1.07576
G1 X141.725 Y102.306 E1.07671
G1 X141.660 Y102.210 E1.07766
G1 X141.594 Y102.114 E1.07859
G1 X141.534 Y102.012 E1.07961
G1 X141.477 Y101.908 E1.08073
G1 X141.420 Y101.803 E1.08197
G1 X141.363 Y101.698 E1.08331
G1 X141.306 Y101.594 E1.08476
G1 X141.245 Y101.493 E1.08624
G1 X141.278 Y101.543 E1.08700
G1 X141.243 Y101.429 E1.08838
G1 X141.217 Y101.315 E1.08970
G1 X141.191 Y101.201 E1.09100
G1 X141.166 Y101.086 E1.09226
G1 X141.140 Y100.972 E1.09351
G1 X141.115 Y100.858 E1.09472
G1 X141.089 Y100.743 E1.09591
G1 X141.071 Y100.629 E1.09713
G1 X141.055 Y100.515 E1.09841
G1 X141.039 Y100.401 E1.09975
G1 X141.023 Y100.286 E1.10115
G1 X141.007 Y100.172 E1.10262
G1 X140.991 Y100.058 E1.10415
G1 X140.991 Y99.943 E1.10567
G1 X141.007 Y99.829 E1.10714
G1 X141.023 Y99.715 E1.10855
G1 X141.039 Y99.601 E1.10989
G1 X141.055 Y99.486 E1.11117
G1 X141.071 Y99.372 E1.11239
G1 X141.089 Y99.258 E1.11356
G1 X141.114 Y99.143 E1.11478
G1 X141.140 Y99.029 E1.11602
G1 X141.165 Y98.915 E1.11728
G1 X141.191 Y98.801 E1.11858
G1 X141.216 Y98.686 E1.11990
G1 X141.242 Y98.572 E1.12125
G1 X141.278 Y98.458 E1.12276
G1 X141.291 Y98.432 E1.12311
G1 X141.348 Y98.328 E1.12448
G1 X141.406 Y98.223 E1.12574
G1 X141.463 Y98.119 E1.12690
G1 X141.520 Y98.014 E1.12795
G1 X141.577 Y97.909 E1.12889
G1 X141.643 Y97.814 E1.12983
G1 X141.708 Y97.718 E1.13078
G1 X141.773 Y97.621 E1.13174
G1 X141.839 Y97.525 E1.13271
G1 X141.904 Y97.429 E1.13368
G1 X141.970 Y97.333 E1.13466
G1 X142.035 Y97.236 E1.13565
G1 X142.100 Y97.140 E1.13665
G1 X142.177 Y97.056 E1.13748
G0 X142.468 Y96.862 F7200
G0 X142.592 Y96.824
G0 X142.716 Y96.786
G0 X142.840 Y96.749
G0 X142.964 Y96.711
G1 X142.886 Y96.735 E1.13893 F1200
G1 X142.772 Y96.769 E1.14072
G1 X142.658 Y96.804 E1.14216
G1 X142.543 Y96.839 E1.14326
G0 X142.177 Y97.056 F7200
G0 X142.100 Y97.140
G0 X141.643 Y97.814
G0 X141.577 Y97.909
G0 X141.291 Y98.432
G0 X141.216 Y98.686
G0 X141.089 Y99.258
G0 X141.071 Y99.372
G0 X140.991 Y99.943
G0 X140.991 Y100.058
G0 X141.071 Y100.629
G0 X141.089 Y100.743
G0 X141.217 Y101.315
G0 X141.306 Y101.594
G0 X141.534 Y102.012
G0 X141.594 Y102.114
G0 X142.117 Y102.884
G0 X142.198 Y102.964
G1 X142.543 Y103.161 E1.14689 F1200
G1 X142.658 Y103.195 E1.14833
G1 X142.772 Y103.230 E1.15011
G1 X142.886 Y103.265 E1.15223
G0 X143.487 Y103.211 F7200
;segType:HShell
G1 X143.175 Y103.523 E1.15957 F1200
G0 X144.053 Y103.211 F7200
G1 X143.535 Y103.729 E1.17175 F1200
G0 X144.006 Y103.823 F7200
G1 X144.618 Y103.211 E1.18615 F1200
G0 X145.184 Y103.211 F7200
G1 X144.478 Y103.917 E1.20275 F1200
G0 X144.950 Y104.011 F7200
G1 X145.750 Y103.211 E1.22156 F1200
G0 X148.068 Y102.451 F7200
;segType:Perimeter
G1 X147.268 Y102.451 E1.23487 F600
G1 X142.672 Y102.451 E1.31130
G1 X142.182 Y101.739 E1.32567
G1 X141.943 Y101.187 E1.33567
G1 X141.798 Y100.603 E1.34567
G1 X141.748 Y100.000 E1.35575
G1 X141.798 Y99.396 E1.36582
G1 X141.943 Y98.812 E1.37582
G1 X142.182 Y98.260 E1.38583
G1 X142.672 Y97.549 E1.40019
G1 X147.328 Y97.549 E1.47761
G1 X147.818 Y98.260 E1.49197
G1 X148.057 Y98.812 E1.50198
G1 X148.202 Y99.396 E1.51198
G1 X148.252 Y100.000 E1.52205
G1 X148.202 Y100.603 E1.53212
G1 X148.057 Y101.187 E1.54212
G1 X147.818 Y101.739 E1.55213
G1 X147.362 Y102.401 E1.56550
G0 X147.268 Y102.451 F7200
G0 X145.668 Y102.451
G0 X146.228 Y102.851
;segType:Loop
G1 X142.462 Y102.851 E1.62813 F1200
G1 X141.831 Y101.934 E1.64665
G1 X141.563 Y101.315 E1.65785
G1 X141.402 Y100.668 E1.66894
G1 X141.347 Y100.000 E1.68010
G1 X141.402 Y99.331 E1.69126
G1 X141.563 Y98.684 E1.70235
G1 X141.831 Y98.065 E1.71356
G1 X142.462 Y97.149 E1.73206
G1 X147.538 Y97.149 E1.81647
G1 X148.169 Y98.065 E1.83497
G1 X148.437 Y98.684 E1.84618
G1 X148.598 Y99.331 E1.85727
G1 X148.653 Y100.000 E1.86843
G1 X148.598 Y100.668 E1.87959
G1 X148.437 Y101.315 E1.89068
G1 X148.169 Y101.934 E1.90188
G1 X147.538 Y102.851 E1.92039
G1 X146.428 Y102.851 E1.93886
G0 F3000 E0.93886
G0 X147.538 Y102.851 F7200
G0 X148.169 Y101.934
G0 X148.437 Y101.315
G0 X148.598 Y100.668
G0 X148.653 Y100.000
G0 X148.598 Y99.331
G0 X148.437 Y98.684
G0 X148.169 Y98.065
G0 X147.538 Y97.149
G0 X146.510 Y97.149
G0 X146.515 Y96.789
G0 F3000 E1.93886
;segType:HShell
G0 X146.903 Y96.684 F7200
G1 X146.209 Y96.530 E1.96645 F1200
G0 X145.384 Y96.789 F7200
G1 X145.996 Y96.176 E1.98086 F1200
G0 X145.524 Y96.083 F7200
G1 X144.818 Y96.789 E1.99748 F1200
G0 X144.252 Y96.789 F7200
G1 X145.052 Y95.989 E2.01629 F1200
G0 X144.372 Y96.104 F7200
G1 X143.686 Y96.789 E2.03241 F1200
G0 X143.121 Y96.789 F7200
G1 X143.666 Y96.244 E2.04523 F1200
G0 F3000 E1.04523
G0 X145.300 Y100.900 F7200
G0 F3000 E2.04523
;segType:Support
G1 X143.500 Y100.900 E2.07067 F1200
G1 X143.500 Y99.100 E2.09612
G1 X147.510 Y99.100 E2.15280
G1 X147.100 Y99.266 E2.15905
G1 X147.100 Y99.100 E2.16139
; ------------------------------------
; Layer #8
; ------------------------------------
G92 E0 ;reset extr
G0 F3000 E-1.00000
G0 F600 Z2.000
G0 X148.057 Y98.812 F7200
G0 X148.202 Y99.396
G0 X148.252 Y100.000
G0 X148.202 Y100.603
G0 X148.057 Y101.187
G0 X147.818 Y101.739
G0 X147.458 Y103.161
G0 F3000 E0.00000
;segType:InnerHair
G1 X147.343 Y103.196 E0.00144 F1200
G1 X147.229 Y103.231 E0.00323
G1 X147.115 Y103.265 E0.00536
G0 X147.099 Y103.270 F7200
G0 X147.223 Y103.233
G0 X147.347 Y103.195
G0 X147.471 Y103.157
G1 X147.864 Y102.904 E0.00920 F1200
G1 X147.934 Y102.812 E0.01019
G1 X147.999 Y102.716 E0.01119
G1 X148.064 Y102.619 E0.01217
G1 X148.130 Y102.523 E0.01315
G1 X148.195 Y102.427 E0.01413
G1 X148.260 Y102.330 E0.01509
G1 X148.326 Y102.234 E0.01605
G1 X148.391 Y102.138 E0.01700
G1 X148.453 Y102.038 E0.01799
G1 X148.510 Y101.934 E0.01911
G1 X148.567 Y101.829 E0.02033
G1 X148.624 Y101.724 E0.02166
G1 X148.681 Y101.620 E0.02309
G1 X148.738 Y101.515 E0.02463
G1 X148.723 Y101.543 E0.02504
G1 X148.759 Y101.429 E0.02643
G1 X148.785 Y101.315 E0.02777
G1 X148.810 Y101.201 E0.02907
G1 X148.836 Y101.086 E0.03035
G1 X148.861 Y100.972 E0.03161
G1 X148.887 Y100.858 E0.03283
G1 X148.912 Y100.743 E0.03403
G1 X148.930 Y100.629 E0.03526
G1 X148.946 Y100.515 E0.03655
G1 X148.962 Y100.401 E0.03791
G1 X148.978 Y100.286 E0.03932
G1 X148.994 Y100.172 E0.04080
G1 X149.010 Y100.058 E0.04234
G1 X149.010 Y99.943 E0.04387
G1 X148.994 Y99.829 E0.04535
G1 X148.978 Y99.715 E0.04677
G1 X148.962 Y99.601 E0.04812
G1 X148.946 Y99.486 E0.04941
G1 X148.930 Y99.372 E0.05064
G1 X148.913 Y99.258 E0.05182
G1 X148.887 Y99.143 E0.05305
G1 X148.862 Y99.029 E0.05430
G1 X148.836 Y98.915 E0.05558
G1 X148.811 Y98.801 E0.05689
G1 X148.785 Y98.686 E0.05822
G0 X148.759 Y98.572 F7200
G0 X148.724 Y98.458
G1 X148.757 Y98.507 E0.05898 F1200
G1 X148.696 Y98.406 E0.06042
G1 X148.639 Y98.302 E0.06178
G1 X148.582 Y98.197 E0.06302
G1 X148.525 Y98.093 E0.06417
G1 X148.468 Y97.988 E0.06520
G1 X148.408 Y97.886 E0.06616
G1 X148.342 Y97.790 E0.06712
G1 X148.277 Y97.694 E0.06808
G1 X148.212 Y97.597 E0.06905
G1 X148.146 Y97.501 E0.07003
G1 X148.081 Y97.405 E0.07102
G1 X148.016 Y97.309 E0.07202
G1 X147.950 Y97.212 E0.07302
G1 X147.885 Y97.116 E0.07403
G1 X147.804 Y97.036 E0.07482
G0 X147.503 Y96.852 F7200
G0 X147.379 Y96.814
G0 X147.255 Y96.777
G0 X147.131 Y96.739
G1 X147.115 Y96.734 E0.07512 F1200
G1 X147.229 Y96.769 E0.07691
G1 X147.343 Y96.803 E0.07836
G1 X147.458 Y96.838 E0.07946
G0 F3000 E-0.92054
G0 X147.612 Y96.086 F7200
G0 X147.312 Y97.549
G0 X147.328 Y97.549
G0 X147.818 Y98.260
G0 X148.057 Y98.812
G0 X148.202 Y99.396
G0 X148.252 Y100.000
G0 X148.202 Y100.603
G0 X148.057 Y101.187
G0 X147.818 Y101.739
G0 X147.328 Y102.451
G0 X146.310 Y102.451
G0 X146.228 Y102.851
G0 F3000 E0.07946
;segType:Loop
G1 X142.462 Y102.851 E0.14209 F1200
G1 X141.831 Y101.934 E0.16060
G1 X141.563 Y101.315 E0.17181
G1 X141.402 Y100.668 E0.18290
G1 X141.347 Y100.000 E0.19406
G1 X141.402 Y99.331 E0.20522
G1 X141.563 Y98.684 E0.21631
G1 X141.831 Y98.065 E0.22752
G1 X142.462 Y97.149 E0.24602
G1 X147.538 Y97.149 E0.33043
G1 X148.169 Y98.065 E0.34893
G1 X148.437 Y98.684 E0.36014
G1 X148.598 Y99.331 E0.37123
G1 X148.653 Y100.000 E0.38239
G1 X148.598 Y100.668 E0.39354
G1 X148.437 Y101.315 E0.40463
G1 X148.169 Y101.934 E0.41584
G1 X147.538 Y102.851 E0.43435
G1 X146.428 Y102.851 E0.45282
G0 F3000 E-0.54718
G0 X146.615 Y102.451 F7200
G0 X147.328 Y102.451
G0 X147.818 Y101.739
G0 X148.057 Y101.187
G0 X148.202 Y100.603
G0 X148.252 Y100.000
G0 X148.202 Y99.396
G0 X148.148 Y99.179
G0 X148.957 Y97.452
G0 X148.843 Y97.695
G0 F3000 E0.45282
;segType:Perimeter
G1 X149.444 Y98.223 E0.46612 F600
G1 X149.797 Y100.000 E0.49625
G1 X149.433 Y101.835 E0.52737
G1 X148.393 Y103.391 E0.55849
G1 X146.837 Y104.431 E0.58961
G1 X145.002 Y104.796 E0.62074
G1 X143.166 Y104.431 E0.65186
G1 X141.610 Y103.391 E0.68298
G1 X140.570 Y101.835 E0.71410
G1 X140.205 Y100.000 E0.74523
G1 X140.570 Y98.164 E0.77636
G1 X141.610 Y96.608 E0.80747
G1 X143.166 Y95.568 E0.83859
G1 X145.002 Y95.204 E0.86972
G1 X146.837 Y95.568 E0.90084
G1 X148.393 Y96.608 E0.93196
G1 X149.399 Y98.114 E0.96208
G0 X149.444 Y98.223 F7200
G0 X149.756 Y99.792
G0 F3000 E-0.03792
G0 X148.215 Y100.439 F7200
G0 X148.202 Y100.603
G0 X148.057 Y101.187
G0 X147.818 Y101.739
G0 X147.328 Y102.451
G0 X143.422 Y102.451
G0 X141.516 Y103.251
G0 X141.610 Y103.391
G0 X142.198 Y102.964
G0 F3000 E0.96208
;segType:InnerHair
G1 X142.117 Y102.884 E0.96306 F1200
G1 X142.052 Y102.788 E0.96405
G1 X141.986 Y102.692 E0.96503
G1 X141.921 Y102.595 E0.96600
G1 X141.856 Y102.499 E0.96697
G1 X141.790 Y102.403 E0.96793
G1 X141.725 Y102.306 E0.96888
G1 X141.660 Y102.210 E0.96982
G1 X141.594 Y102.114 E0.97076
G1 X141.534 Y102.012 E0.97177
G1 X141.477 Y101.908 E0.97290
G1 X141.420 Y101.803 E0.97413
G1 X141.363 Y101.698 E0.97547
G1 X141.306 Y101.594 E0.97692
G1 X141.245 Y101.493 E0.97840
G1 X141.278 Y101.543 E0.97916
G1 X141.243 Y101.429 E0.98054
G1 X141.217 Y101.315 E0.98187
G1 X141.191 Y101.201 E0.98316
G1 X141.166 Y101.086 E0.98443
G1 X141.140 Y100.972 E0.98567
G1 X141.115 Y100.858 E0.98689
G1 X141.089 Y100.743 E0.98807
G1 X141.071 Y100.629 E0.98929
G1 X141.055 Y100.515 E0.99057
G1 X141.039 Y100.401 E0.99191
G1 X141.023 Y100.286 E0.99332
G1 X141.007 Y100.172 E0.99479
G1 X140.991 Y100.058 E0.99632
G1 X140.991 Y99.943 E0.99784
G1 X141.007 Y99.829 E0.99931
G1 X141.023 Y99.715 E1.00071
G1 X141.039 Y99.601 E1.00206
G1 X141.055 Y99.486 E1.00334
G1 X141.071 Y99.372 E1.00455
G1 X141.089 Y99.258 E1.00573
G1 X141.114 Y99.143 E1.00694
G1 X141.140 Y99.029 E1.00818
G1 X141.165 Y98.915 E1.00945
G1 X141.191 Y98.801 E1.01074
G1 X141.216 Y98.686 E1.01206
G1 X141.242 Y98.572 E1.01342
G1 X141.278 Y98.458 E1.01492
G1 X141.291 Y98.432 E1.01528
G1 X141.348 Y98.328 E1.01665
G1 X141.406 Y98.223 E1.01791
G1 X141.463 Y98.119 E1.01906
G1 X141.520 Y98.014 E1.02011
G1 X141.577 Y97.909 E1.02106
G1 X141.643 Y97.814 E1.02200
G1 X141.708 Y97.718 E1.02295
G1 X141.773 Y97.621 E1.02391
G1 X141.839 Y97.525 E1.02487
G1 X141.904 Y97.429 E1.02584
G1 X141.970 Y97.333 E1.02683
G1 X142.035 Y97.236 E1.02782
G1 X142.100 Y97.140 E1.02881
G1 X142.177 Y97.056 E1.02965
G0 X142.468 Y96.862 F7200
G0 X142.592 Y96.824
G0 X142.716 Y96.786
G0 X142.840 Y96.749
G0 X142.964 Y96.711
G1 X142.886 Y96.735 E1.03110 F1200
G1 X142.772 Y96.769 E1.03289
G1 X142.658 Y96.804 E1.03433
G1 X142.543 Y96.839 E1.03542
G0 X142.177 Y97.056 F7200
G0 X142.100 Y97.140
G0 X141.643 Y97.814
G0 X141.577 Y97.909
G0 X141.291 Y98.432
G0 X141.216 Y98.686
G0 X141.089 Y99.258
G0 X141.071 Y99.372
G0 X140.991 Y99.943
G0 X140.991 Y100.058
G0 X141.071 Y100.629
G0 X141.089 Y100.743
G0 X141.217 Y101.315
G0 X141.306 Y101.594
G0 X141.534 Y102.012
G0 X141.594 Y102.114
G0 X142.117 Y102.884
G0 X142.198 Y102.964
G1 X142.543 Y103.161 E1.03905 F1200
G1 X142.658 Y103.195 E1.04049
G1 X142.772 Y103.230 E1.04227
G1 X142.886 Y103.265 E1.04440
G0 X145.262 Y103.211 F7200
;segType:Infill
G1 X145.894 Y103.843 E1.06225 F1800
G0 X148.068 Y102.451 F7200
;segType:Perimeter
G1 X147.268 Y102.451 E1.07555 F600
G1 X142.672 Y102.451 E1.15198
G1 X142.182 Y101.739 E1.16635
G1 X141.943 Y101.187 E1.17636
G1 X141.798 Y100.603 E1.18636
G1 X141.748 Y100.000 E1.19643
G1 X141.798 Y99.396 E1.20650
G1 X141.943 Y98.812 E1.21650
G1 X142.182 Y98.260 E1.22651
G1 X142.672 Y97.549 E1.24087
G1 X147.328 Y97.549 E1.31829
G1 X147.818 Y98.260 E1.33265
G1 X148.057 Y98.812 E1.34266
G1 X148.202 Y99.396 E1.35266
G1 X148.252 Y100.000 E1.36273
G1 X148.202 Y100.603 E1.37280
G1 X148.057 Y101.187 E1.38280
G1 X147.818 Y101.739 E1.39281
G1 X147.362 Y102.401 E1.40618
G0 X147.268 Y102.451 F7200
G0 X145.668 Y102.451
G0 F3000 E0.40618
G0 X147.328 Y102.451 F7200
G0 X147.818 Y101.739
G0 X148.057 Y101.187
G0 X148.202 Y100.603
G0 X148.234 Y100.211
G0 X149.602 Y99.017
G0 X149.255 Y99.321
G0 F3000 E1.40618
;segType:Loop
G1 X149.389 Y100.000 E1.41770 F1200
G1 X149.056 Y101.679 E1.44617
G1 X148.105 Y103.103 E1.47464
G1 X146.681 Y104.054 E1.50312
G1 X145.002 Y104.388 E1.53160
G1 X143.322 Y104.054 E1.56008
G1 X141.898 Y103.103 E1.58855
G1 X140.947 Y101.679 E1.61702
G1 X140.613 Y100.000 E1.64550
G1 X140.947 Y98.320 E1.67398
G1 X141.898 Y96.896 E1.70246
G1 X143.322 Y95.945 E1.73093
G1 X145.002 Y95.612 E1.75941
G1 X146.681 Y95.945 E1.78789
G1 X148.105 Y96.896 E1.81636
G1 X149.056 Y98.320 E1.84483
G1 X149.216 Y99.124 E1.85847
G0 F3000 E0.85847
G0 X149.661 Y99.314 F7200
G0 X147.961 Y98.591
G0 X147.818 Y98.260
G0 X147.328 Y97.549
G0 X145.510 Y97.549
G0 X143.102 Y96.525
G0 F3000 E1.85847
;segType:Infill
G1 X143.366 Y96.789 E1.86591 F1800
G0 F3000 E0.86591
G0 X145.300 Y100.900 F7200
G0 F3000 E1.86591
;segType:Support
G1 X143.500 Y100.900 E1.89135 F1200
G1 X143.500 Y99.100 E1.91680
G1 X147.510 Y99.100 E1.97348
G1 X147.100 Y99.285 E1.97984
G1 X147.100 Y99.100 E1.98246
; ------------------------------------
; Layer #9
; ------------------------------------
G92 E0 ;reset extr
G0 F3000 E-1.00000
G0 F600 Z2.100
G0 X148.057 Y98.812 F7200
G0 X148.202 Y99.396
G0 X148.252 Y100.000
G0 X148.202 Y100.603
G0 X148.057 Y101.187
G0 X147.818 Y101.739
G0 X147.458 Y103.161
G0 F3000 E0.00000
;segType:InnerHair
G1 X147.343 Y103.196 E0.00144 F1200
G1 X147.229 Y103.231 E0.00323
G1 X147.115 Y103.265 E0.00536
G0 X147.099 Y103.270 F7200
G0 X147.223 Y103.233
G0 X147.347 Y103.195
G0 X147.471 Y103.157
G1 X147.864 Y102.904 E0.00920 F1200
G1 X147.934 Y102.812 E0.01019
G1 X147.999 Y102.716 E0.01119
G1 X148.064 Y102.619 E0.01217
G1 X148.130 Y102.523 E0.01315
G1 X148.195 Y102.427 E0.01413
G1 X148.260 Y102.330 E0.01509
G1 X148.326 Y102.234 E0.01605
G1 X148.391 Y102.138 E0.01700
G1 X148.453 Y102.038 E0.01799
G1 X148.510 Y101.934 E0.01911
G1 X148.567 Y101.829 E0.02033
G1 X148.624 Y101.724 E0.02166
G1 X148.681 Y101.620 E0.02309
G1 X148.738 Y101.515 E0.02463
G1 X148.723 Y101.543 E0.02504
G1 X148.759 Y101.429 E0.02643
G1 X148.785 Y101.315 E0.02777
G1 X148.810 Y101.201 E0.02907
G1 X148.836 Y101.086 E0.03035
G1 X148.861 Y100.972 E0.03161
G1 X148.887 Y100.858 E0.03283
G1 X148.912 Y100.743 E0.03403
G1 X148.930 Y100.629 E0.03526
G1 X148.946 Y100.515 E0.03655
G1 X148.962 Y100.401 E0.03791
G1 X148.978 Y100.286 E0.03932
G1 X148.994 Y100.172 E0.04080
G1 X149.010 Y100.058 E0.04234
G1 X149.010 Y99.943 E0.04387
G1 X148.994 Y99.829 E0.04535
G1 X148.978 Y99.715 E0.04677
G1 X148.962 Y99.601 E0.04812
G1 X148.946 Y99.486 E0.04941
G1 X148.930 Y99.372 E0.05064
G1 X148.913 Y99.258 E0.05182
G1 X148.887 Y99.143 E0.05305
G1 X148.862 Y99.029 E0.05430
G1 X148.836 Y98.915 E0.05558
G1 X148.811 Y98.801 E0.05689
G1 X148.785 Y98.686 E0.05822
G0 X148.759 Y98.572 F7200
G0 X148.724 Y98.458
G1 X148.757 Y98.507 E0.05898 F1200
G1 X148.696 Y98.406 E0.06042
G1 X148.639 Y98.302 E0.06178
G1 X148.582 Y98.197 E0.06302
G1 X148.525 Y98.093 E0.06417
G1 X148.468 Y97.988 E0.06520
G1 X148.408 Y97.886 E0.06616
G1 X148.342 Y97.790 E0.06712
G1 X148.277 Y97.694 E0.06808
G1 X148.212 Y97.597 E0.06905
G1 X148.146 Y97.501 E0.07003
G1 X148.081 Y97.405 E0.07102
G1 X148.016 Y97.309 E0.07202
G1 X147.950 Y97.212 E0.07302
G1 X147.885 Y97.116 E0.07403
G1 X147.804 Y97.036 E0.07482
G0 X147.503 Y96.852 F7200
G0 X147.379 Y96.814
G0 X147.255 Y96.777
G0 X147.131 Y96.739
G1 X147.115 Y96.734 E0.07512 F1200
G1 X147.229 Y96.769 E0.07691
G1 X147.343 Y96.803 E0.07836
G1 X147.458 Y96.838 E0.07946
G0 F3000 E-0.92054
G0 X147.612 Y96.086 F7200
G0 X147.312 Y97.549
G0 X147.328 Y97.549
G0 X147.818 Y98.260
G0 X148.057 Y98.812
G0 X148.202 Y99.396
G0 X148.252 Y100.000
G0 X148.202 Y100.603
G0 X148.057 Y101.187
G0 X147.818 Y101.739
G0 X147.328 Y102.451
G0 X146.310 Y102.451
G0 X146.228 Y102.851
G0 F3000 E0.07946
;segType:Loop
G1 X142.462 Y102.851 E0.14209 F1200
G1 X141.831 Y101.934 E0.16060
G1 X141.563 Y101.315 E0.17181
G1 X141.402 Y100.668 E0.18290
G1 X141.347 Y100.000 E0.19406
G1 X141.402 Y99.331 E0.20522
G1 X141.563 Y98.684 E0.21631
G1 X141.831 Y98.065 E0.22752
G1 X142.462 Y97.149 E0.24602
G1 X147.538 Y97.149 E0.33043
G1 X148.169 Y98.065 E0.34893
G1 X148.437 Y98.684 E0.36014
G1 X148.598 Y99.331 E0.37123
G1 X148.653 Y100.000 E0.38239
G1 X148.598 Y100.668 E0.39354
G1 X148.437 Y101.315 E0.40463
G1 X148.169 Y101.934 E0.41584
G1 X147.538 Y102.851 E0.43435
G1 X146.428 Y102.851 E0.45282
G0 F3000 E-0.54718
G0 X146.615 Y102.451 F7200
G0 X147.328 Y102.451
G0 X147.818 Y101.739
G0 X148.057 Y101.187
G0 X148.202 Y100.603
G0 X148.252 Y100.000
G0 X148.202 Y99.396
G0 X148.148 Y99.179
G0 X148.957 Y97.452
G0 X148.843 Y97.695
G0 F3000 E0.45282
;segType:Perimeter
G1 X149.444 Y98.223 E0.46612 F600
G1 X149.797 Y100.000 E0.49625
G1 X149.433 Y101.835 E0.52737
G1 X148.393 Y103.391 E0.55849
G1 X146.837 Y104.431 E0.58961
G1 X145.002 Y104.796 E0.62074
G1 X143.166 Y104.431 E0.65186
G1 X141.610 Y103.391 E0.68298
G1 X140.570 Y101.835 E0.71410
G1 X140.205 Y100.000 E0.74523
G1 X140.570 Y98.164 E0.77636
G1 X141.610 Y96.608 E0.80747
G1 X143.166 Y95.568 E0.83859
G1 X145.002 Y95.204 E0.86972
G1 X146.837 Y95.568 E0.90084
G1 X148.393 Y96.608 E0.93196
G1 X149.399 Y98.114 E0.96208
G0 X149.444 Y98.223 F7200
G0 X149.756 Y99.792
G0 F3000 E-0.03792
G0 X148.215 Y100.439 F7200
G0 X148.202 Y100.603
G0 X148.057 Y101.187
G0 X147.818 Y101.739
G0 X147.328 Y102.451
G0 X143.422 Y102.451
G0 X141.516 Y103.251
G0 X141.610 Y103.391
G0 X142.198 Y102.964
G0 F3000 E0.96208
;segType:InnerHair
G1 X142.117 Y102.884 E0.96306 F1200
G1 X142.052 Y102.788 E0.96405
G1 X141.986 Y102.692 E0.96503
G1 X141.921 Y102.595 E0.96600
G1 X141.856 Y102.499 E0.96697
G1 X141.790 Y102.403 E0.96793
G1 X141.725 Y102.306 E0.96888
G1 X141.660 Y102.210 E0.96982
G1 X141.594 Y102.114 E0.97076
G1 X141.534 Y102.012 E0.97177
G1 X141.477 Y101.908 E0.97290
G1 X141.420 Y101.803 E0.97413
G1 X141.363 Y101.698 E0.97547
G1 X141.306 Y101.594 E0.97692
G1 X141.245 Y101.493 E0.97840
G1 X141.278 Y101.543 E0.97916
G1 X141.243 Y101.429 E0.98054
G1 X141.217 Y101.315 E0.98187
G1 X141.191 Y101.201 E0.98316
G1 X141.166 Y101.086 E0.98443
G1 X141.140 Y100.972 E0.98567
G1 X141.115 Y100.858 E0.98689
G1 X141.089 Y100.743 E0.98807
G1 X141.071 Y100.629 E0.98929
G1 X141.055 Y100.515 E0.99057
G1 X141.039 Y100.401 E0.99191
G1 X141.023 Y100.286 E0.99332
G1 X141.007 Y100.172 E0.99479
G1 X140.991 Y100.058 E0.99632
G1 X140.991 Y99.943 E0.99784
G1 X141.007 Y99.829 E0.99931
G1 X141.023 Y99.715 E1.00071
G1 X141.039 Y99.601 E1.00206
G1 X141.055 Y99.486 E1.00334
G1 X141.071 Y99.372 E1.00455
G1 X141.089 Y99.258 E1.00573
G1 X141.114 Y99.143 E1.00694
G1 X141.140 Y99.029 E1.00818
G1 X141.165 Y98.915 E1.00945
G1 X141.191 Y98.801 E1.01074
G1 X141.216 Y98.686 E1.01206
G1 X141.242 Y98.572 E1.01342
G1 X141.278 Y98.458 E1.01492
G1 X141.291 Y98.432 E1.01528
G1 X141.348 Y98.328 E1.01665
G1 X141.406 Y98.223 E1.01791
G1 X141.463 Y98.119 E1.01906
G1 X141.520 Y98.014 E1.02011
G1 X141.577 Y97.909 E1.02106
G1 X141.643 Y97.814 E1.02200
G1 X141.708 Y97.718 E1.02295
G1 X141.773 Y97.621 E1.02391
G1 X141.839 Y97.525 E1.02487
G1 X141.904 Y97.429 E1.02584
G1 X141.970 Y97.333 E1.02683
G1 X142.035 Y97.236 E1.02782
G1 X142.100 Y97.140 E1.02881
G1 X142.177 Y97.056 E1.02965
G0 X142.468 Y96.862 F7200
G0 X142.592 Y96.824
G0 X142.716 Y96.786
G0 X142.840 Y96.749
G0 X142.964 Y96.711
G1 X142.886 Y96.735 E1.03110 F1200
G1 X142.772 Y96.769 E1.03289
G1 X142.658 Y96.804 E1.03433
G1 X142.543 Y96.839 E1.03542
G0 X142.177 Y97.056 F7200
G0 X142.100 Y97.140
G0 X141.643 Y97.814
G0 X141.577 Y97.909
G0 X141.291 Y98.432
G0 X141.216 Y98.686
G0 X141.089 Y99.258
G0 X141.071 Y99.372
G0 X140.991 Y99.943
G0 X140.991 Y100.058
G0 X141.071 Y100.629
G0 X141.089 Y100.743
G0 X141.217 Y101.315
G0 X141.306 Y101.594
G0 X141.534 Y102.012
G0 X141.594 Y102.114
G0 X142.117 Y102.884
G0 X142.198 Y102.964
G1 X142.543 Y103.161 E1.03905 F1200
G1 X142.658 Y103.195 E1.04049
G1 X142.772 Y103.230 E1.04227
G1 X142.886 Y103.265 E1.04440
G0 X145.631 Y103.896 F7200
;segType:Infill
G1 X146.316 Y103.211 E1.06373 F1800
G0 X148.068 Y102.451 F7200
;segType:Perimeter
G1 X147.268 Y102.451 E1.07703 F600
G1 X142.672 Y102.451 E1.15346
G1 X142.182 Y101.739 E1.16783
G1 X141.943 Y101.187 E1.17784
G1 X141.798 Y100.603 E1.18784
G1 X141.748 Y100.000 E1.19791
G1 X141.798 Y99.396 E1.20798
G1 X141.943 Y98.812 E1.21799
G1 X142.182 Y98.260 E1.22799
G1 X142.672 Y97.549 E1.24235
G1 X147.328 Y97.549 E1.31977
G1 X147.818 Y98.260 E1.33413
G1 X148.057 Y98.812 E1.34414
G1 X148.202 Y99.396 E1.35414
G1 X148.252 Y100.000 E1.36421
G1 X148.202 Y100.603 E1.37429
G1 X148.057 Y101.187 E1.38429
G1 X147.818 Y101.739 E1.39429
G1 X147.362 Y102.401 E1.40766
G0 X147.268 Y102.451 F7200
G0 X145.668 Y102.451
G0 F3000 E0.40766
G0 X147.328 Y102.451 F7200
G0 X147.818 Y101.739
G0 X148.057 Y101.187
G0 X148.202 Y100.603
G0 X148.234 Y100.211
G0 X149.602 Y99.017
G0 X149.255 Y99.321
G0 F3000 E1.40766
;segType:Loop
G1 X149.389 Y100.000 E1.41918 F1200
G1 X149.056 Y101.679 E1.44766
G1 X148.105 Y103.103 E1.47613
G1 X146.681 Y104.054 E1.50460
G1 X145.002 Y104.388 E1.53308
G1 X143.322 Y104.054 E1.56156
G1 X141.898 Y103.103 E1.59003
G1 X140.947 Y101.679 E1.61850
G1 X140.613 Y100.000 E1.64698
G1 X140.947 Y98.320 E1.67547
G1 X141.898 Y96.896 E1.70394
G1 X143.322 Y95.945 E1.73241
G1 X145.002 Y95.612 E1.76089
G1 X146.681 Y95.945 E1.78937
G1 X148.105 Y96.896 E1.81784
G1 X149.056 Y98.320 E1.84631
G1 X149.216 Y99.124 E1.85995
G0 F3000 E0.85995
G0 X149.681 Y99.415 F7200
G0 X147.809 Y98.247
G0 X147.328 Y97.549
G0 X146.689 Y97.549
G0 X144.372 Y96.104
G0 F3000 E1.85995
;segType:Infill
G1 X143.686 Y96.789 E1.87929 F1800
G0 F3000 E0.87929
G0 X145.300 Y100.900 F7200
G0 F3000 E1.87929
;segType:Support
G1 X143.500 Y100.900 E1.90473 F1200
