;FLAVOR:RepRap
;TIME:1591
;Filament used: 0.637976m
;Layer height: 0.1
;MINX:105.202
;MINY:80.203
;MINZ:0.36
;MAXX:144.796
;MAXY:119.796
;MAXZ:36.36
;Generated with Cura_SteamEngine 4.8.0
T0
M190 S60
M104 S215
M109 S215
M82 ;absolute extrusion mode
;Craftbot Start Script
G28 X0Y0 ;home xy
G28 Z0 ;home z
G91 ;relative movements
G0 F100 ;speed 100mm/sec
G0 X15 Y15 Z0.4 E12 ;purge nozzle - move to xy15
G90 ;Absolute movements
M83 ;relative extrusion mode
G1 F1500 E-6.5
;LAYER_COUNT:353
;LAYER:-9
M107
G0 F7200 X110.012 Y87.42 Z0.36
;TYPE:SUPPORT-INTERFACE
G1 F1500 E6.5
G1 F1350 X110.945 Y86.346 E0.17034
G1 X111.032 Y86.259 E0.01473
G1 X111.684 Y85.631 E0.10839
G1 X111.795 Y85.532 E0.01781
G1 X112.501 Y84.944 E0.11001
G1 X112.62 Y84.853 E0.01794
G1 X113.34 Y84.335 E0.1062
G1 X114.909 Y83.283 E0.22619
G1 X115.805 Y82.728 E0.1262
G1 X115.913 Y82.667 E0.01485
G1 X116.739 Y82.237 E0.1115
G1 X116.872 Y82.172 E0.01773
G1 X117.596 Y81.854 E0.09468
G1 X118.564 Y81.502 E0.12333
G1 X118.694 Y81.461 E0.01632
G1 X119.568 Y81.214 E0.10875
G1 X119.72 Y81.175 E0.01879
G1 X120.316 Y81.044 E0.07307
G1 X122.11 Y80.689 E0.21897
G1 X123.103 Y80.529 E0.12043
G1 X123.275 Y80.507 E0.02076
G1 X124.224 Y80.424 E0.11406
G1 X125.002 Y80.404 E0.09319
G1 X126.024 Y80.441 E0.12245
G1 X126.147 Y80.45 E0.01477
G1 X127.086 Y80.554 E0.11312
G1 X127.219 Y80.572 E0.01607
G1 X127.865 Y80.684 E0.0785
G1 X129.745 Y81.057 E0.22949
G1 X130.671 Y81.275 E0.11391
G1 X130.854 Y81.325 E0.02271
G1 X131.742 Y81.605 E0.11149
G1 X131.828 Y81.635 E0.01091
G1 X132.398 Y81.852 E0.07303
G1 X133.33 Y82.27 E0.1223
G1 X133.439 Y82.323 E0.01451
G1 X134.281 Y82.777 E0.11454
G1 X134.374 Y82.832 E0.01294
G1 X135.058 Y83.261 E0.09668
G1 X136.561 Y84.267 E0.21656
G1 X136.693 Y84.359 E0.01927
G1 X137.417 Y84.881 E0.10687
G1 X137.567 Y84.997 E0.0227
G1 X138.27 Y85.589 E0.11005
G1 X138.357 Y85.667 E0.01399
G1 X139.037 Y86.327 E0.11347
G1 X139.102 Y86.397 E0.01144
G1 X139.695 Y87.059 E0.10642
G1 X139.836 Y87.232 E0.02672
G1 X140.654 Y88.326 E0.16356
G1 X140.715 Y88.413 E0.01272
G1 X141.716 Y89.909 E0.21553
G1 X141.783 Y90.013 E0.01481
G1 X142.246 Y90.763 E0.10554
G1 X142.346 Y90.94 E0.02434
G1 X142.766 Y91.746 E0.10882
G1 X142.825 Y91.867 E0.01612
G1 X143.149 Y92.607 E0.09673
G1 X143.497 Y93.564 E0.12193
G1 X143.538 Y93.694 E0.01632
G1 X143.782 Y94.556 E0.10727
G1 X143.827 Y94.735 E0.0221
G1 X143.947 Y95.272 E0.06588
G1 X144.32 Y97.158 E0.2302
G1 X144.475 Y98.122 E0.11691
G1 X144.49 Y98.244 E0.01472
G1 X144.573 Y99.196 E0.11442
G1 X144.579 Y99.326 E0.01558
G1 X144.596 Y100.006 E0.08145
G1 X144.56 Y101.012 E0.12053
G1 X144.55 Y101.147 E0.01621
G1 X144.447 Y102.086 E0.11311
G1 X144.43 Y102.202 E0.01404
G1 X144.315 Y102.876 E0.08187
G1 X143.962 Y104.652 E0.21681
G1 X143.937 Y104.77 E0.01444
G1 X143.72 Y105.683 E0.11236
G1 X143.673 Y105.858 E0.0217
G1 X143.393 Y106.741 E0.11092
G1 X143.357 Y106.844 E0.01306
G1 X143.156 Y107.374 E0.06787
G1 X143.134 Y107.427 E0.00687
G1 X142.729 Y108.329 E0.11839
G1 X142.676 Y108.438 E0.01451
G1 X142.227 Y109.27 E0.1132
G1 X142.17 Y109.368 E0.01357
G1 X141.727 Y110.073 E0.0997
G1 X140.654 Y111.676 E0.23097
G1 X140.136 Y112.394 E0.10601
G1 X139.987 Y112.581 E0.02863
G1 X139.106 Y113.597 E0.16102
G1 X139.04 Y113.669 E0.0117
G1 X138.308 Y114.376 E0.12185
G1 X138.204 Y114.469 E0.01671
G1 X137.502 Y115.054 E0.10942
G1 X137.386 Y115.143 E0.01751
G1 X136.697 Y115.639 E0.10165
G1 X136.572 Y115.726 E0.01824
G1 X135.009 Y116.769 E0.22499
G1 X134.22 Y117.256 E0.11102
G1 X134.068 Y117.342 E0.02091
G1 X133.263 Y117.761 E0.10866
G1 X133.113 Y117.833 E0.01992
G1 X132.404 Y118.145 E0.09275
G1 X131.439 Y118.496 E0.12295
G1 X131.306 Y118.538 E0.0167
G1 X130.442 Y118.782 E0.1075
G1 X130.265 Y118.827 E0.02187
G1 X129.699 Y118.952 E0.0694
G1 X127.86 Y119.317 E0.22449
G1 X126.881 Y119.476 E0.11876
G1 X126.738 Y119.493 E0.01724
G1 X125.821 Y119.573 E0.11022
G1 X125.69 Y119.58 E0.01571
G1 X125.004 Y119.597 E0.08216
G1 X123.976 Y119.56 E0.12317
G1 X123.853 Y119.551 E0.01477
G1 X122.911 Y119.447 E0.11348
G1 X122.788 Y119.429 E0.01488
G1 X122.098 Y119.309 E0.08386
G1 X120.217 Y118.934 E0.22966
G1 X119.302 Y118.718 E0.11257
G1 X119.128 Y118.669 E0.02164
G1 X118.279 Y118.4 E0.10664
G1 X118.13 Y118.348 E0.0189
G1 X117.566 Y118.132 E0.07231
G1 X116.67 Y117.729 E0.11764
G1 X116.558 Y117.674 E0.01494
G1 X115.738 Y117.232 E0.11154
G1 X115.611 Y117.158 E0.0176
G1 X114.926 Y116.727 E0.0969
G1 X113.322 Y115.653 E0.23113
G1 X112.587 Y115.122 E0.10857
G1 X112.438 Y115.007 E0.02254
G1 X111.733 Y114.413 E0.11038
G1 X111.646 Y114.334 E0.01407
G1 X110.963 Y113.673 E0.11381
G1 X110.898 Y113.603 E0.01144
G1 X110.309 Y112.946 E0.10565
G1 X110.169 Y112.775 E0.02646
G1 X109.34 Y111.664 E0.16598
G1 X109.278 Y111.576 E0.01289
G1 X108.227 Y110.002 E0.22662
G1 X107.744 Y109.219 E0.11016
G1 X107.651 Y109.055 E0.02257
G1 X107.23 Y108.244 E0.10941
G1 X107.166 Y108.111 E0.01767
G1 X106.846 Y107.379 E0.09566
G1 X106.503 Y106.435 E0.12026
G1 X106.462 Y106.305 E0.01632
G1 X106.215 Y105.432 E0.10863
G1 X106.173 Y105.264 E0.02073
G1 X106.051 Y104.718 E0.06699
G1 X105.69 Y102.904 E0.22146
G1 X105.525 Y101.886 E0.12348
G1 X105.507 Y101.735 E0.01821
G1 X105.426 Y100.812 E0.11094
G1 X105.42 Y100.692 E0.01439
G1 X105.403 Y99.994 E0.0836
G1 X105.439 Y98.99 E0.12029
G1 X105.45 Y98.847 E0.01717
G1 X105.551 Y97.925 E0.11106
G1 X105.571 Y97.788 E0.01658
G1 X105.684 Y97.13 E0.07994
G1 X106.065 Y95.221 E0.23308
G1 X106.281 Y94.307 E0.11245
G1 X106.327 Y94.141 E0.02063
G1 X106.6 Y93.279 E0.10827
G1 X106.652 Y93.13 E0.0189
G1 X106.857 Y92.592 E0.06894
G1 X107.271 Y91.67 E0.12102
G1 X107.324 Y91.561 E0.01451
G1 X107.763 Y90.746 E0.11084
G1 X107.849 Y90.6 E0.02029
G1 X108.26 Y89.943 E0.09279
G1 X109.295 Y88.397 E0.22277
G1 X109.882 Y87.584 E0.12007
G1 X110.012 Y87.42 E0.02506
G0 F7200 X110.4 Y86.973
G1 F1350 X110.4 Y113.047 E3.12201
G0 F7200 X112 Y114.637
G1 F1350 X112 Y85.361 E3.50541
G0 F7200 X113.6 Y84.16
G1 F1350 X113.6 Y115.839 E3.79313
G0 F7200 X115.2 Y116.899
G1 F1350 X115.2 Y83.102 E4.04673
G0 F7200 X116.8 Y82.207
G1 F1350 X116.8 Y117.787 E4.26022
G0 F7200 X118.4 Y118.438
G1 F1350 X118.4 Y81.561 E4.41552
G0 F7200 X120 Y81.113
G1 F1350 X120 Y118.882 E4.52233
G0 F7200 X121.6 Y119.209
G1 F1350 X121.6 Y80.789 E4.60028
G0 F7200 X123.2 Y80.516
G1 F1350 X123.2 Y119.478 E4.66517
G0 F7200 X124.8 Y119.589
G1 F1350 X124.8 Y80.409 E4.69128
G0 F7200 X126.4 Y80.479
G1 F1350 X126.4 Y119.523 E4.67499
G0 F7200 X128 Y119.29
G1 F1350 X128 Y80.711 E4.61931
G0 F7200 X129.6 Y81.029
G1 F1350 X129.6 Y118.972 E4.54316
G0 F7200 X131.2 Y118.568
G1 F1350 X131.2 Y81.435 E4.44617
G0 F7200 X132.8 Y82.033
G1 F1350 X132.8 Y117.971 E4.30309
G0 F7200 X134.4 Y117.145
G1 F1350 X134.4 Y82.849 E4.10648
G0 F7200 X136 Y83.892
G1 F1350 X136 Y116.108 E3.85743
G0 F7200 X137.6 Y114.973
G1 F1350 X137.6 Y85.025 E3.58587
G0 F7200 X139.2 Y86.507
G1 F1350 X139.2 Y113.489 E3.23073
G0 F7200 X140.8 Y111.458
G1 F1350 X140.8 Y88.541 E2.744
G0 F7200 X142.4 Y91.044
G1 F1350 X142.4 Y108.95 E2.144
G0 F7200 X144 Y104.461
G1 F1350 X144 Y95.54 E1.06817
G0 F7200 X108.8 Y89.136
G1 F1350 X108.8 Y110.86 E2.60116
G0 F7200 X107.2 Y108.181
G1 F1350 X107.2 Y91.828 E1.95805
G0 F7200 X105.6 Y97.619
G1 F1350 X105.6 Y102.348 E0.56623
G0 F600 X105.6 Y102.348 Z0.51
G0 F7200 X107.666 Y109.08
;TIME_ELAPSED:44.049593
;LAYER:-8
;TYPE:SUPPORT
G1 F1350 X115.909 Y117.323 E0.58159
G1 X115.737 Y117.231 E0.00973
G1 X115.611 Y117.156 E0.00732
G1 X114.926 Y116.726 E0.04035
G1 X113.321 Y115.652 E0.09635
G1 X112.586 Y115.121 E0.04524
G1 X112.437 Y115.005 E0.00942
G1 X111.732 Y114.412 E0.04596
G1 X111.645 Y114.332 E0.0059
G1 X110.962 Y113.672 E0.04738
G1 X110.898 Y113.602 E0.00473
G1 X110.309 Y112.945 E0.04402
G1 X110.169 Y112.774 E0.01103
G1 X109.339 Y111.663 E0.06919
G1 X109.278 Y111.575 E0.00534
G1 X108.226 Y110.001 E0.09445
G1 X107.744 Y109.218 E0.04587
G0 F7200 X115.909 Y117.323
G1 F1350 X116.558 Y117.673 E0.03679
G1 X116.67 Y117.728 E0.00623
G1 X117.565 Y118.131 E0.04897
G1 X118.129 Y118.347 E0.03013
G1 X118.279 Y118.399 E0.00792
G1 X118.455 Y118.455 E0.00921
G1 X106.541 Y106.541 E0.8406
G1 X106.502 Y106.434 E0.00568
G1 X106.461 Y106.304 E0.0068
G1 X106.214 Y105.432 E0.04522
G1 X106.172 Y105.264 E0.00864
G1 X106.05 Y104.718 E0.02791
G1 X106.029 Y104.615 E0.00524
G1 X120.38 Y118.966 E1.01254
G1 X122.097 Y119.308 E0.08734
G1 X122.144 Y119.316 E0.00238
G1 X105.68 Y102.852 E1.16162
G1 X105.524 Y101.885 E0.04887
G1 X105.506 Y101.734 E0.00759
G1 X105.46 Y101.218 E0.02585
G1 X123.786 Y119.543 E1.29296
G1 X123.851 Y119.551 E0.00327
G1 X123.974 Y119.559 E0.00615
G1 X125.003 Y119.597 E0.05137
G1 X125.247 Y119.59 E0.01218
G1 X105.41 Y99.753 E1.39961
G1 X105.438 Y98.989 E0.03814
G1 X105.449 Y98.846 E0.00716
G1 X105.495 Y98.424 E0.02118
G1 X126.577 Y119.506 E1.48745
G1 X126.736 Y119.493 E0.00796
G1 X126.88 Y119.475 E0.00724
G1 X127.81 Y119.324 E0.04701
G1 X105.672 Y97.187 E1.56192
G1 X105.683 Y97.13 E0.0029
G1 X105.906 Y96.007 E0.05712
G1 X128.991 Y119.091 E1.62874
G1 X129.698 Y118.951 E0.03596
G1 X130.162 Y118.849 E0.0237
G1 X106.153 Y94.839 E1.694
G1 X106.28 Y94.307 E0.02729
G1 X106.326 Y94.141 E0.00859
G1 X106.456 Y93.728 E0.0216
G1 X131.274 Y118.546 E1.75104
G1 X131.305 Y118.537 E0.00161
G1 X131.438 Y118.495 E0.00696
G1 X132.317 Y118.175 E0.04667
G1 X106.821 Y92.679 E1.79888
G1 X106.855 Y92.592 E0.00466
G1 X107.256 Y91.699 E0.04884
G1 X133.298 Y117.741 E1.8374
G1 X134.067 Y117.341 E0.04325
G1 X134.219 Y117.255 E0.00871
G0 F7200 X134.223 Y117.253
G1 F1350 X107.746 Y90.775 E1.86813
G1 X107.762 Y90.746 E0.00165
G1 X107.847 Y90.6 E0.00843
G1 X108.259 Y89.942 E0.03873
G1 X108.286 Y89.901 E0.00245
G1 X135.094 Y116.71 E1.89148
G1 X135.943 Y116.144 E0.05091
G1 X108.853 Y89.054 E1.91135
G1 X109.294 Y88.396 E0.03952
G1 X109.426 Y88.212 E0.0113
G1 X136.786 Y115.573 E1.93043
G1 X137.385 Y115.142 E0.03682
G1 X137.501 Y115.054 E0.00726
G1 X137.599 Y114.972 E0.00638
G1 X110.027 Y87.4 E1.94535
G1 X110.684 Y86.643 E0.05001
G1 X138.363 Y114.321 E1.95287
G1 X139.039 Y113.668 E0.04689
G1 X139.08 Y113.624 E0.003
G1 X111.379 Y85.924 E1.95442
G1 X111.683 Y85.63 E0.0211
G1 X111.794 Y85.532 E0.00739
G1 X112.126 Y85.256 E0.02154
G1 X139.738 Y112.868 E1.94818
G1 X139.985 Y112.581 E0.01889
G1 X140.135 Y112.393 E0.012
G1 X140.363 Y112.079 E0.01936
G1 X112.92 Y84.636 E1.93625
G1 X113.339 Y84.335 E0.02574
G1 X113.755 Y84.056 E0.02499
G1 X140.942 Y111.244 E1.91822
G1 X141.509 Y110.397 E0.05085
G1 X114.601 Y83.488 E1.89854
G1 X114.907 Y83.283 E0.01838
G1 X115.465 Y82.938 E0.03273
G1 X142.064 Y109.537 E1.8767
G1 X142.169 Y109.368 E0.00993
G1 X142.226 Y109.269 E0.0057
G1 X142.571 Y108.63 E0.03623
G1 X116.37 Y82.429 E1.84862
G1 X116.738 Y82.237 E0.02071
G1 X116.871 Y82.172 E0.00739
G1 X117.327 Y81.972 E0.02484
G1 X143.025 Y107.669 E1.8131
G1 X143.133 Y107.427 E0.01322
G1 X143.155 Y107.374 E0.00286
G1 X143.356 Y106.843 E0.02833
G1 X143.392 Y106.741 E0.0054
G1 X143.421 Y106.651 E0.00472
G1 X118.349 Y81.58 E1.76893
G1 X118.563 Y81.502 E0.01136
G1 X118.692 Y81.46 E0.00677
G1 X119.435 Y81.251 E0.03851
G1 X143.747 Y105.563 E1.71534
G1 X143.936 Y104.769 E0.04072
G1 X143.961 Y104.651 E0.00602
G1 X144.009 Y104.411 E0.01221
G1 X120.588 Y80.99 E1.65248
G1 X121.768 Y80.756 E0.06002
G1 X144.244 Y103.231 E1.58577
G1 X144.314 Y102.876 E0.01805
G1 X144.429 Y102.202 E0.03411
G1 X144.446 Y102.086 E0.00585
G1 X144.453 Y102.027 E0.00296
G1 X122.975 Y80.549 E1.51539
G1 X123.102 Y80.528 E0.00642
G1 X123.274 Y80.506 E0.00865
G1 X124.223 Y80.423 E0.04753
G1 X124.263 Y80.422 E0.002
G1 X144.57 Y100.729 E1.43277
G1 X144.594 Y100.006 E0.03609
G1 X144.577 Y99.325 E0.03399
G0 F7200 X144.577 Y99.323
G1 F1350 X125.683 Y80.428 E1.33311
G1 X126.023 Y80.44 E0.01697
G1 X126.146 Y80.45 E0.00616
G1 X127.085 Y80.553 E0.04713
G1 X127.218 Y80.571 E0.0067
G1 X127.245 Y80.576 E0.00137
G1 X144.413 Y97.744 E1.2113
G1 X144.319 Y97.157 E0.02966
G1 X144.092 Y96.008 E0.05843
G1 X128.991 Y80.907 E1.06546
G1 X129.744 Y81.057 E0.03831
G1 X130.67 Y81.274 E0.04745
G1 X130.811 Y81.313 E0.0073
G1 X143.674 Y94.177 E0.90759
G1 X143.537 Y93.693 E0.0251
G1 X143.496 Y93.564 E0.00675
G1 X143.148 Y92.606 E0.05085
G1 X142.859 Y91.947 E0.0359
G1 X133.062 Y82.15 E0.69123
G1 X133.329 Y82.27 E0.0146
G1 X133.438 Y82.322 E0.00603
G1 X134.28 Y82.777 E0.04775
G1 X134.372 Y82.831 E0.00532
G1 X135.057 Y83.26 E0.04032
G1 X136.559 Y84.266 E0.09019
G1 X136.668 Y84.342 E0.00663
G1 X140.656 Y88.331 E0.28141
G0 F7200 X140.653 Y88.326
G1 F1350 X139.835 Y87.232 E0.06815
G1 X139.694 Y87.058 E0.01117
G1 X139.101 Y86.396 E0.04434
G1 X139.036 Y86.327 E0.00473
G1 X138.356 Y85.666 E0.04731
G1 X138.269 Y85.588 E0.00583
G1 X137.566 Y84.997 E0.04582
G1 X137.416 Y84.881 E0.00946
G1 X136.692 Y84.359 E0.04453
G1 X136.668 Y84.342 E0.00147
G0 F600 X136.668 Y84.342 Z0.61
G0 F7200 X127.403 Y80.4
;TIME_ELAPSED:100.872171
;LAYER:-7
;TYPE:SUPPORT-INTERFACE
G1 F1800 X122.639 Y80.4 E0.07923
G1 X123.078 Y80.329 E0.0074
G1 X123.254 Y80.306 E0.00295
G1 X124.2 Y80.225 E0.01579
G1 X124.299 Y80.22 E0.00165
G1 X125.004 Y80.203 E0.01173
G1 X126.035 Y80.24 E0.01716
G1 X126.169 Y80.25 E0.00223
G1 X127.108 Y80.354 E0.01571
G1 X127.253 Y80.374 E0.00243
G0 F7200 X122.639 Y80.4
G1 F1800 X122.07 Y80.492 E0.00959
G1 X120.517 Y80.8 E0.02633
G1 X129.488 Y80.8 E0.14919
G1 X129.735 Y80.849 E0.00419
G1 X130.731 Y81.083 E0.01701
G1 X130.91 Y81.132 E0.00309
G1 X131.126 Y81.2 E0.00377
G1 X118.879 Y81.2 E0.20367
G1 X118.645 Y81.266 E0.00404
G1 X118.487 Y81.317 E0.00276
G1 X117.709 Y81.6 E0.01377
G1 X132.299 Y81.6 E0.24263
G1 X132.505 Y81.679 E0.00367
G1 X133.22 Y82 E0.01303
G1 X116.77 Y82 E0.27356
G1 X116.641 Y82.062 E0.00238
G1 X115.993 Y82.4 E0.01215
G1 X134.005 Y82.4 E0.29954
G1 X134.37 Y82.597 E0.0069
G1 X134.486 Y82.664 E0.00223
G1 X134.703 Y82.8 E0.00426
G1 X115.31 Y82.8 E0.32251
G1 X114.802 Y83.114 E0.00993
G1 X114.674 Y83.2 E0.00256
G1 X135.328 Y83.2 E0.34348
G1 X135.926 Y83.6 E0.01196
G1 X114.077 Y83.6 E0.36335
G1 X113.481 Y84 E0.01194
G1 X136.524 Y84 E0.38321
G1 X136.676 Y84.102 E0.00304
G1 X136.805 Y84.192 E0.00262
G1 X137.094 Y84.4 E0.00592
G1 X112.907 Y84.4 E0.40223
G1 X112.508 Y84.687 E0.00817
G1 X112.379 Y84.786 E0.0027
G1 X112.363 Y84.8 E0.00035
G1 X137.641 Y84.8 E0.42037
G1 X137.696 Y84.843 E0.00116
G1 X138.12 Y85.2 E0.00922
G1 X111.882 Y85.2 E0.43634
G1 X111.657 Y85.387 E0.00487
G1 X111.557 Y85.476 E0.00223
G1 X111.429 Y85.6 E0.00296
G1 X138.577 Y85.6 E0.45147
G1 X138.99 Y86 E0.00956
G1 X111.015 Y86 E0.46523
G1 X110.808 Y86.199 E0.00478
G1 X110.634 Y86.4 E0.00442
G1 X139.375 Y86.4 E0.47796
G1 X139.733 Y86.8 E0.00893
G1 X110.286 Y86.8 E0.48971
G1 X109.939 Y87.2 E0.00881
G1 X140.063 Y87.2 E0.50096
G1 X140.362 Y87.6 E0.00831
G1 X109.624 Y87.6 E0.51118
G1 X109.334 Y88 E0.00822
G1 X140.661 Y88 E0.52097
G1 X140.818 Y88.21 E0.00436
G1 X140.879 Y88.297 E0.00177
G1 X140.948 Y88.4 E0.00206
G1 X109.054 Y88.4 E0.5304
G1 X108.786 Y88.8 E0.00801
G1 X141.216 Y88.8 E0.53931
G1 X141.484 Y89.2 E0.00801
G1 X108.518 Y89.2 E0.54823
G1 X108.25 Y89.6 E0.00801
G1 X141.751 Y89.6 E0.55712
G1 X141.884 Y89.799 E0.00398
G1 X141.949 Y89.9 E0.002
G1 X142.011 Y90 E0.00196
G1 X107.989 Y90 E0.56579
G1 X107.738 Y90.4 E0.00785
G1 X142.258 Y90.4 E0.57407
G1 X142.42 Y90.664 E0.00515
G1 X142.497 Y90.8 E0.0026
G1 X107.507 Y90.8 E0.58189
G1 X107.292 Y91.2 E0.00755
G1 X142.708 Y91.2 E0.58897
G1 X142.917 Y91.6 E0.00751
G1 X107.084 Y91.6 E0.59591
G1 X106.905 Y92 E0.00729
G1 X143.103 Y92 E0.60198
G1 X143.278 Y92.4 E0.00726
G1 X106.725 Y92.4 E0.60788
G1 X106.666 Y92.531 E0.00239
G1 X106.564 Y92.8 E0.00478
G1 X143.433 Y92.8 E0.61313
G1 X143.579 Y93.2 E0.00708
G1 X106.416 Y93.2 E0.61802
G1 X106.411 Y93.213 E0.00023
G1 X106.289 Y93.6 E0.00675
G1 X143.719 Y93.6 E0.62246
G1 X143.733 Y93.644 E0.00077
G1 X143.834 Y94 E0.00615
G1 X106.163 Y94 E0.62647
G1 X106.137 Y94.08 E0.0014
G1 X106.089 Y94.253 E0.00299
G1 X106.055 Y94.4 E0.00251
G1 X143.947 Y94.4 E0.63015
G1 X143.976 Y94.506 E0.00183
G1 X144.024 Y94.696 E0.00326
G1 X144.048 Y94.8 E0.00177
G1 X105.961 Y94.8 E0.63339
G1 X105.867 Y95.2 E0.00683
G1 X144.136 Y95.2 E0.63642
G1 X144.141 Y95.223 E0.00039
G1 X144.216 Y95.6 E0.00639
