;FLAVOR:RepRap
;TIME:887
;Filament used: 0.906482m
;Layer height: 0.2
;MINX:105.203
;MINY:80.203
;MINZ:0.36
;MAXX:144.796
;MAXY:119.795
;MAXZ:36.31
;Generated with Cura_SteamEngine 4.8.0
T0
M190 S60
M104 S215
M109 S215
M82 ;absolute extrusion mode
; Craftbot+ Custom Start G-code

G28 X0Y0 ;home xy

G28 Z0 ;home z

G92 E0 ; Reset Extruder

G1 Z5.0 F3000 ; Move Z Axis up little to prevent scratching of Heat Bed

G1 X0.5 Y20 Z0.3 F5000.0 ; Move to start position

G1 X0.5 Y150.0 Z0.3 F1500.0 E15 ; Draw the first line

G1 X1.0 Y150.0 Z0.3 F5000.0 ; Move to side a little

G1 X1.0 Y20 Z0.3 F1500.0 E30 ; Draw the second line

G92 E0 ; Reset Extruder

G1 Z2.0 F3000 ; Move Z Axis up little to prevent scratching of Heat Bed

; End of custom start GCode
M83 ;relative extrusion mode
G1 F4800 E-1.2
;LAYER_COUNT:174
;LAYER:-7
M107
G0 F9000 X109.988 Y87.441 Z0.36
;TYPE:SUPPORT-INTERFACE
G1 F4800 E1.2
G1 F2250 X110.585 Y86.732 E0.11098
G1 X110.697 Y86.608 E0.02001
G1 X111.311 Y85.976 E0.10551
G1 X111.452 Y85.842 E0.02329
G1 X112.099 Y85.267 E0.10364
G1 X112.248 Y85.146 E0.02298
G1 X113.333 Y84.339 E0.16191
G1 X113.409 Y84.286 E0.01109
G1 X114.988 Y83.232 E0.22732
G1 X115.823 Y82.718 E0.1174
G1 X115.945 Y82.649 E0.01678
G1 X116.742 Y82.233 E0.10765
G1 X116.898 Y82.158 E0.02073
G1 X117.746 Y81.794 E0.1105
G1 X117.892 Y81.737 E0.01877
G1 X118.71 Y81.455 E0.1036
G1 X118.901 Y81.397 E0.0239
G1 X120.223 Y81.064 E0.16324
G1 X120.302 Y81.046 E0.0097
G1 X122.09 Y80.692 E0.21824
G1 X122.217 Y80.669 E0.01545
G1 X123.112 Y80.525 E0.10854
G1 X123.287 Y80.503 E0.02112
G1 X124.195 Y80.425 E0.10912
G1 X124.354 Y80.417 E0.01906
G1 X125.271 Y80.404 E0.10981
G1 X125.414 Y80.408 E0.01713
G1 X126.294 Y80.46 E0.10555
G1 X126.487 Y80.48 E0.02323
G1 X127.818 Y80.675 E0.16107
G1 X127.906 Y80.69 E0.01069
G1 X129.691 Y81.045 E0.21792
G1 X129.798 Y81.068 E0.0131
G1 X130.71 Y81.285 E0.11225
G1 X130.868 Y81.328 E0.01961
G1 X131.726 Y81.598 E0.1077
G1 X131.901 Y81.661 E0.02227
G1 X132.735 Y81.993 E0.10748
G1 X132.881 Y82.058 E0.01914
G1 X133.663 Y82.436 E0.104
G1 X133.853 Y82.539 E0.02588
G1 X134.981 Y83.214 E0.1574
G1 X135.094 Y83.285 E0.01598
G1 X136.673 Y84.342 E0.22751
G1 X137.455 Y84.907 E0.11552
G1 X137.558 Y84.987 E0.01562
G1 X138.267 Y85.584 E0.11098
G1 X138.391 Y85.696 E0.02001
G1 X139.023 Y86.31 E0.10551
G1 X139.157 Y86.451 E0.02329
G1 X139.732 Y87.098 E0.10364
G1 X139.853 Y87.247 E0.02298
G1 X140.66 Y88.332 E0.16191
G1 X140.702 Y88.392 E0.00877
G1 X141.767 Y89.987 E0.22964
G1 X142.281 Y90.822 E0.1174
G1 X142.35 Y90.944 E0.01678
G1 X142.766 Y91.741 E0.10765
G1 X142.841 Y91.897 E0.02073
G1 X143.204 Y92.742 E0.11012
G1 X143.257 Y92.877 E0.01737
G1 X143.545 Y93.71 E0.10553
G1 X143.603 Y93.906 E0.02447
G1 X143.924 Y95.18 E0.15731
G1 X143.954 Y95.311 E0.01609
G1 X144.317 Y97.135 E0.22268
G1 X144.48 Y98.14 E0.12191
G1 X144.497 Y98.281 E0.01701
G1 X144.576 Y99.18 E0.10806
G1 X144.583 Y99.324 E0.01726
G1 X144.596 Y100.256 E0.11161
G1 X144.592 Y100.405 E0.01785
G1 X144.541 Y101.28 E0.10495
G1 X144.521 Y101.478 E0.02383
G1 X144.326 Y102.803 E0.16036
G1 X144.309 Y102.903 E0.01215
G1 X143.942 Y104.749 E0.22536
G1 X143.715 Y105.707 E0.11788
G1 X143.661 Y105.899 E0.02388
G1 X143.4 Y106.725 E0.10372
G1 X143.343 Y106.886 E0.02045
G1 X143.011 Y107.72 E0.10748
G1 X142.934 Y107.896 E0.023
G1 X142.555 Y108.676 E0.10384
G1 X142.459 Y108.853 E0.02411
G1 X141.773 Y110.001 E0.16013
G1 X140.697 Y111.615 E0.23226
G1 X140.12 Y112.417 E0.1183
G1 X139.99 Y112.584 E0.02534
G1 X139.427 Y113.254 E0.10479
G1 X139.31 Y113.384 E0.02094
G1 X138.684 Y114.028 E0.10754
G1 X138.565 Y114.142 E0.01973
G1 X137.912 Y114.723 E0.10466
G1 X137.738 Y114.864 E0.02682
G1 X136.683 Y115.648 E0.15738
G1 X136.59 Y115.713 E0.01359
G1 X135.099 Y116.709 E0.2147
G1 X134.969 Y116.792 E0.01847
G1 X134.187 Y117.274 E0.10999
G1 X134.041 Y117.357 E0.02011
G1 X133.238 Y117.775 E0.1084
G1 X133.107 Y117.837 E0.01735
G1 X132.248 Y118.206 E0.11194
G1 X132.106 Y118.262 E0.01828
G1 X131.274 Y118.549 E0.10538
G1 X131.09 Y118.604 E0.02299
G1 X129.841 Y118.919 E0.15423
G1 X129.686 Y118.954 E0.01903
G1 X127.831 Y119.323 E0.22646
G1 X126.887 Y119.475 E0.11449
G1 X126.712 Y119.497 E0.02112
G1 X125.816 Y119.576 E0.1077
G1 X125.674 Y119.583 E0.01702
G1 X124.746 Y119.596 E0.11113
G1 X124.594 Y119.592 E0.01821
G1 X123.738 Y119.542 E0.10267
G1 X123.514 Y119.52 E0.02695
G1 X122.166 Y119.321 E0.16315
G1 X122.083 Y119.307 E0.01008
G1 X120.295 Y118.95 E0.21831
G1 X120.195 Y118.928 E0.01226
G1 X119.263 Y118.706 E0.11472
G1 X119.124 Y118.667 E0.01729
G1 X118.241 Y118.389 E0.11084
G1 X118.111 Y118.342 E0.01655
G1 X117.238 Y117.994 E0.11253
G1 X117.135 Y117.948 E0.01351
G1 X116.31 Y117.547 E0.10983
G1 X116.134 Y117.451 E0.024
G1 X115.028 Y116.791 E0.15422
G1 X114.92 Y116.721 E0.01541
G1 X113.42 Y115.72 E0.21592
G1 X113.311 Y115.644 E0.01591
G1 X112.57 Y115.11 E0.10936
G1 X112.411 Y114.986 E0.02414
G1 X111.748 Y114.429 E0.10368
G1 X111.617 Y114.311 E0.02111
G1 X110.977 Y113.689 E0.10686
G1 X110.847 Y113.552 E0.02261
G1 X110.275 Y112.908 E0.10313
G1 X110.142 Y112.744 E0.02528
G1 X109.351 Y111.682 E0.15856
G1 X109.282 Y111.584 E0.01435
G1 X108.217 Y109.988 E0.22974
G1 X107.726 Y109.188 E0.11239
G1 X107.643 Y109.042 E0.02011
G1 X107.221 Y108.231 E0.10947
G1 X107.157 Y108.095 E0.018
G1 X106.796 Y107.258 E0.10914
G1 X106.74 Y107.113 E0.01861
G1 X106.446 Y106.263 E0.10769
G1 X106.399 Y106.104 E0.01985
G1 X106.068 Y104.788 E0.16248
G1 X106.049 Y104.705 E0.0102
G1 X105.683 Y102.861 E0.2251
G1 X105.52 Y101.858 E0.12167
G1 X105.503 Y101.717 E0.01701
G1 X105.424 Y100.804 E0.10973
G1 X105.417 Y100.66 E0.01726
G1 X105.404 Y99.739 E0.11029
G1 X105.408 Y99.593 E0.01749
G1 X105.459 Y98.718 E0.10495
G1 X105.479 Y98.52 E0.02383
G1 X105.674 Y97.195 E0.16036
G1 X105.691 Y97.095 E0.01215
G1 X106.058 Y95.25 E0.22524
G1 X106.29 Y94.274 E0.12012
G1 X106.335 Y94.111 E0.02025
G1 X106.6 Y93.273 E0.10524
G1 X106.657 Y93.112 E0.02045
G1 X106.989 Y92.278 E0.10748
G1 X107.066 Y92.102 E0.023
G1 X107.446 Y91.32 E0.1041
G1 X107.542 Y91.142 E0.02422
G1 X108.218 Y90.012 E0.15767
G1 X108.277 Y89.919 E0.01319
G1 X109.343 Y88.326 E0.22951
G1 X109.908 Y87.544 E0.11552
G1 X109.988 Y87.441 E0.01562
G0 F9000 X110.4 Y86.951
G1 F2250 X110.4 Y113.048 E3.12476
G0 F9000 X112 Y114.64
G1 F2250 X112 Y85.354 E3.5066
G0 F9000 X113.6 Y84.158
G1 F2250 X113.6 Y115.84 E3.79349
G0 F9000 X115.2 Y116.893
G1 F2250 X115.2 Y83.101 E4.04614
G0 F9000 X116.8 Y82.205
G1 F2250 X116.8 Y117.785 E4.26022
G0 F9000 X118.4 Y118.439
G1 F2250 X118.4 Y81.561 E4.41564
G0 F9000 X120 Y81.12
G1 F2250 X120 Y118.881 E4.52137
G0 F9000 X121.6 Y119.21
G1 F2250 X121.6 Y80.789 E4.6004
G0 F9000 X123.2 Y80.513
G1 F2250 X123.2 Y119.473 E4.66493
G0 F9000 X124.8 Y119.596
G1 F2250 X124.8 Y80.41 E4.69199
G0 F9000 X126.4 Y80.471
G1 F2250 X126.4 Y119.525 E4.67619
G0 F9000 X128 Y119.29
G1 F2250 X128 Y80.709 E4.61955
G0 F9000 X129.6 Y81.027
G1 F2250 X129.6 Y118.972 E4.5434
G0 F9000 X131.2 Y118.572
G1 F2250 X131.2 Y81.433 E4.44689
G0 F9000 X132.8 Y82.022
G1 F2250 X132.8 Y117.969 E4.30417
G0 F9000 X134.4 Y117.143
G1 F2250 X134.4 Y82.867 E4.10409
G0 F9000 X136 Y83.892
G1 F2250 X136 Y116.108 E3.85743
G0 F9000 X137.6 Y114.967
G1 F2250 X137.6 Y85.023 E3.58539
G0 F9000 X139.2 Y86.5
G1 F2250 X139.2 Y113.498 E3.23265
G0 F9000 X140.8 Y111.461
G1 F2250 X140.8 Y88.539 E2.7446
G0 F9000 X142.4 Y91.04
G1 F2250 X142.4 Y108.952 E2.14472
G0 F9000 X144 Y104.458
G1 F2250 X144 Y95.543 E1.06745
G0 F9000 X108.8 Y89.137
G1 F2250 X108.8 Y110.861 E2.60116
G0 F9000 X107.2 Y108.186
G1 F2250 X107.2 Y91.826 E1.95889
G0 F9000 X105.6 Y97.697
G1 F2250 X105.6 Y102.35 E0.55713
G0 F600 X105.6 Y102.35 Z0.66
G0 F9000 X107.663 Y109.077
;TIME_ELAPSED:28.132449
;LAYER:-6
;TYPE:SUPPORT
G1 F2250 X115.891 Y117.305 E1.16106
G1 X115.027 Y116.789 E0.10041
G1 X114.919 Y116.719 E0.01284
G1 X113.419 Y115.719 E0.17988
G1 X113.311 Y115.643 E0.01318
G1 X112.569 Y115.109 E0.09122
G1 X112.41 Y114.984 E0.02018
G1 X111.748 Y114.428 E0.08626
G1 X111.617 Y114.31 E0.01759
G1 X110.976 Y113.687 E0.08919
G1 X110.847 Y113.551 E0.0187
G1 X110.275 Y112.907 E0.08595
G1 X110.142 Y112.743 E0.02107
G1 X109.35 Y111.681 E0.13219
G1 X109.281 Y111.582 E0.01204
G1 X108.217 Y109.987 E0.19131
G1 X107.726 Y109.187 E0.09366
G0 F9000 X115.891 Y117.305
G1 F2250 X116.133 Y117.45 E0.02815
G1 X116.309 Y117.545 E0.01996
G1 X117.135 Y117.946 E0.09162
G1 X117.238 Y117.993 E0.0113
G1 X118.11 Y118.341 E0.09368
G1 X118.24 Y118.388 E0.01379
G1 X118.455 Y118.455 E0.02247
G1 X106.541 Y106.541 E1.68119
G1 X106.445 Y106.262 E0.02944
G1 X106.398 Y106.104 E0.01645
G1 X106.067 Y104.787 E0.1355
G1 X106.048 Y104.704 E0.0085
G1 X106.03 Y104.616 E0.00896
G1 X120.38 Y118.966 E2.02494
G1 X122.081 Y119.307 E0.1731
G1 X122.146 Y119.317 E0.00656
G1 X105.68 Y102.852 E2.32346
G1 X105.519 Y101.858 E0.10047
G1 X105.502 Y101.716 E0.01427
G1 X105.458 Y101.215 E0.05018
G1 X123.786 Y119.544 E2.58635
G1 X124.592 Y119.592 E0.08057
G1 X124.744 Y119.595 E0.01517
G1 X125.245 Y119.588 E0.04999
G1 X105.403 Y99.746 E2.79992
G1 X105.403 Y99.739 E0.0007
G1 X105.406 Y99.593 E0.01457
G1 X105.457 Y98.717 E0.08756
G1 X105.478 Y98.52 E0.01977
G1 X105.492 Y98.421 E0.00998
G1 X126.579 Y119.508 E2.9756
G1 X126.711 Y119.497 E0.01322
G1 X126.886 Y119.474 E0.01761
G1 X127.81 Y119.325 E0.09339
G1 X105.674 Y97.188 E3.1237
G1 X105.69 Y97.094 E0.00951
G1 X105.906 Y96.006 E0.11068
G1 X128.991 Y119.091 E3.25754
G1 X129.685 Y118.954 E0.07058
G1 X129.84 Y118.918 E0.01588
G1 X130.152 Y118.839 E0.03211
G1 X106.154 Y94.84 E3.38645
G1 X106.289 Y94.274 E0.05806
G1 X106.334 Y94.11 E0.01697
G1 X106.454 Y93.727 E0.04005
G1 X131.275 Y118.547 E3.50244
G1 X132.105 Y118.261 E0.0876
G1 X132.247 Y118.205 E0.01523
G1 X132.317 Y118.175 E0.0076
G1 X106.826 Y92.684 E3.59706
G1 X106.988 Y92.278 E0.04362
G1 X107.065 Y92.102 E0.01917
G1 X107.258 Y91.702 E0.04432
G1 X133.298 Y117.742 E3.67453
G1 X134.04 Y117.357 E0.08341
G1 X134.186 Y117.273 E0.01681
G1 X134.221 Y117.251 E0.00412
G1 X107.754 Y90.784 E3.73478
G1 X108.217 Y90.011 E0.08991
G1 X108.276 Y89.918 E0.01099
G1 X108.287 Y89.902 E0.00194
G1 X135.095 Y116.71 E3.7829
G0 F9000 X135.098 Y116.709
G1 F2250 X135.943 Y116.144 E0.10143
G1 X108.854 Y89.055 E3.82255
G1 X109.342 Y88.326 E0.08753
G1 X109.424 Y88.211 E0.01409
G1 X136.784 Y115.57 E3.86072
G1 X137.595 Y114.968 E0.10078
G1 X110.024 Y87.396 E3.89064
G1 X110.584 Y86.732 E0.08667
G1 X110.673 Y86.631 E0.01343
G1 X138.362 Y114.32 E3.90722
G1 X138.563 Y114.141 E0.02686
G1 X138.683 Y114.028 E0.01645
G1 X139.078 Y113.622 E0.05652
G1 X111.372 Y85.917 E3.90955
G1 X111.451 Y85.841 E0.01094
G1 X112.098 Y85.266 E0.08637
G1 X112.119 Y85.249 E0.0027
G1 X139.744 Y112.874 E3.89819
G1 X139.988 Y112.584 E0.03782
G1 X140.118 Y112.417 E0.02112
G1 X140.362 Y112.078 E0.04168
G1 X112.926 Y84.642 E3.87152
G1 X113.332 Y84.339 E0.05055
G1 X113.408 Y84.285 E0.0093
G1 X113.754 Y84.055 E0.04146
G1 X140.943 Y111.244 E3.83666
G1 X141.509 Y110.397 E0.10165
G1 X114.602 Y83.489 E3.79694
G1 X114.986 Y83.232 E0.04611
G1 X115.464 Y82.937 E0.05605
G1 X142.055 Y109.528 E3.75228
G1 X142.458 Y108.852 E0.07853
G1 X142.554 Y108.675 E0.02009
G1 X142.575 Y108.634 E0.0046
G1 X116.369 Y82.428 E3.69795
G1 X116.741 Y82.232 E0.04196
G1 X116.896 Y82.158 E0.01714
G1 X117.328 Y81.973 E0.04689
G1 X143.029 Y107.673 E3.62662
G1 X143.341 Y106.886 E0.08447
G1 X143.399 Y106.725 E0.01708
G1 X143.423 Y106.653 E0.00757
G1 X118.349 Y81.579 E3.53821
G1 X118.709 Y81.455 E0.03799
G1 X118.9 Y81.397 E0.01992
G1 X119.444 Y81.26 E0.05598
G1 X143.748 Y105.564 E3.42956
G1 X143.941 Y104.749 E0.08357
G1 X144.009 Y104.411 E0.0344
G1 X120.587 Y80.989 E3.3051
G1 X121.768 Y80.755 E0.12013
G1 X144.243 Y103.231 E3.17154
G1 X144.308 Y102.903 E0.03336
G1 X144.325 Y102.802 E0.01022
G1 X144.441 Y102.015 E0.07938
G1 X122.974 Y80.547 E3.0293
G1 X123.111 Y80.525 E0.01385
G1 X123.286 Y80.503 E0.0176
G1 X124.194 Y80.424 E0.09094
G1 X124.261 Y80.421 E0.00669
G1 X144.572 Y100.732 E2.8661
G1 X144.591 Y100.405 E0.03268
G1 X144.595 Y100.255 E0.01497
G1 X144.582 Y99.327 E0.09261
G1 X125.679 Y80.424 E2.66742
G1 X126.293 Y80.46 E0.06137
G1 X126.485 Y80.48 E0.01926
G1 X127.262 Y80.593 E0.07834
G1 X144.415 Y97.746 E2.42047
G1 X144.316 Y97.135 E0.06176
G1 X144.092 Y96.008 E0.11465
G1 X128.989 Y80.905 E2.1312
G1 X129.689 Y81.045 E0.07123
G1 X129.797 Y81.067 E0.011
G1 X130.709 Y81.285 E0.09356
G1 X130.81 Y81.313 E0.01046
G1 X143.669 Y94.172 E1.81454
G1 X143.602 Y93.905 E0.02747
G1 X143.544 Y93.71 E0.0203
G1 X143.256 Y92.876 E0.08804
G1 X143.203 Y92.742 E0.01438
G1 X142.863 Y91.952 E0.08582
G1 X133.053 Y82.141 E1.38437
G1 X133.662 Y82.436 E0.06752
G1 X133.852 Y82.539 E0.02156
G1 X134.98 Y83.214 E0.13117
G1 X135.093 Y83.285 E0.01332
G1 X136.659 Y84.333 E0.18802
G1 X140.662 Y88.336 E0.56487
G0 F9000 X140.659 Y88.331
G1 F2250 X139.852 Y87.246 E0.13492
G1 X139.731 Y87.098 E0.01907
G1 X139.155 Y86.45 E0.08651
G1 X139.022 Y86.31 E0.01927
G1 X138.389 Y85.696 E0.08799
G1 X138.266 Y85.583 E0.01667
G1 X137.557 Y84.987 E0.09242
G1 X137.454 Y84.906 E0.01307
G1 X136.672 Y84.342 E0.09621
G1 X136.659 Y84.333 E0.00158
G0 F600 X136.659 Y84.333 Z0.86
G0 F9000 X127.331 Y80.4
;TIME_ELAPSED:62.554038
;LAYER:-5
;TYPE:SUPPORT-INTERFACE
G1 F3000 X122.621 Y80.4 E0.15666
G1 X123.09 Y80.325 E0.0158
G1 X123.266 Y80.302 E0.0059
G1 X124.178 Y80.224 E0.03044
G1 X124.345 Y80.216 E0.00556
G1 X125.274 Y80.203 E0.0309
G1 X125.413 Y80.207 E0.00463
G1 X126.321 Y80.261 E0.03025
G1 X126.514 Y80.28 E0.00645
G0 F9000 X122.621 Y80.4
G1 F3000 X122.182 Y80.47 E0.01479
G1 X122.055 Y80.494 E0.0043
G1 X120.51 Y80.8 E0.05239
G1 X129.487 Y80.8 E0.29858
G1 X129.733 Y80.849 E0.00834
G1 X129.84 Y80.872 E0.00364
G1 X130.77 Y81.093 E0.03179
G1 X130.924 Y81.135 E0.00531
G1 X131.131 Y81.2 E0.00722
G1 X118.86 Y81.2 E0.40814
G1 X118.64 Y81.267 E0.00765
G1 X117.812 Y81.553 E0.02914
G1 X117.693 Y81.6 E0.00426
G1 X132.292 Y81.6 E0.48556
G1 X132.809 Y81.806 E0.01851
G1 X132.962 Y81.874 E0.00557
G1 X133.223 Y82 E0.00964
G1 X116.765 Y82 E0.5474
G1 X116.655 Y82.052 E0.00405
G1 X115.989 Y82.4 E0.02499
G1 X134.011 Y82.4 E0.59941
G1 X134.681 Y82.8 E0.02595
G1 X115.308 Y82.8 E0.64435
G1 X114.887 Y83.059 E0.01644
G1 X114.676 Y83.2 E0.00844
G1 X135.329 Y83.2 E0.68692
G1 X135.927 Y83.6 E0.02393
G1 X114.077 Y83.6 E0.72673
G1 X113.478 Y84 E0.02396
G1 X136.524 Y84 E0.76651
G1 X136.782 Y84.173 E0.01033
G1 X137.096 Y84.4 E0.01289
G1 X112.916 Y84.4 E0.80423
G1 X112.378 Y84.8 E0.0223
G1 X137.645 Y84.8 E0.84038
G1 X137.687 Y84.833 E0.00178
G1 X138.123 Y85.2 E0.01895
G1 X111.873 Y85.2 E0.87308
G1 X111.423 Y85.6 E0.02003
G1 X138.582 Y85.6 E0.90331
G1 X138.993 Y86 E0.01908
G1 X111.009 Y86 E0.93075
G1 X110.62 Y86.4 E0.01856
G1 X139.381 Y86.4 E0.95659
G1 X139.737 Y86.8 E0.01781
G1 X110.267 Y86.8 E0.98018
G1 X109.93 Y87.2 E0.0174
G1 X140.069 Y87.2 E1.00243
G1 X140.366 Y87.6 E0.01657
G1 X109.622 Y87.6 E1.02255
G1 X109.332 Y88 E0.01643
G1 X140.664 Y88 E1.04211
G1 X140.817 Y88.207 E0.00856
G1 X140.871 Y88.284 E0.00313
G1 X140.949 Y88.4 E0.00465
G1 X109.053 Y88.4 E1.06087
G1 X108.785 Y88.8 E0.01601
G1 X141.216 Y88.8 E1.07866
G1 X141.483 Y89.2 E0.016
G1 X108.517 Y89.2 E1.09645
G1 X108.25 Y89.6 E0.016
G1 X141.75 Y89.6 E1.11421
G1 X141.94 Y89.885 E0.01139
G1 X142.011 Y90 E0.0045
G1 X107.993 Y90 E1.13144
G1 X107.754 Y90.4 E0.0155
G1 X142.258 Y90.4 E1.14761
G1 X142.448 Y90.709 E0.01206
G1 X142.5 Y90.8 E0.00349
G1 X107.515 Y90.8 E1.16361
G1 X107.362 Y91.055 E0.00989
G1 X107.284 Y91.2 E0.00548
G1 X142.711 Y91.2 E1.17831
G1 X142.92 Y91.6 E0.01501
G1 X107.088 Y91.6 E1.19178
G1 X106.893 Y92 E0.0148
G1 X143.104 Y92 E1.20438
G1 X143.277 Y92.4 E0.0145
G1 X106.726 Y92.4 E1.21569
G1 X106.566 Y92.8 E0.01433
G1 X143.443 Y92.8 E1.22653
G1 X143.446 Y92.81 E0.00035
G1 X143.581 Y93.2 E0.01373
G1 X106.415 Y93.2 E1.23615
G1 X106.412 Y93.206 E0.00022
G1 X106.288 Y93.6 E0.01374
G1 X143.719 Y93.6 E1.24496
G1 X143.731 Y93.635 E0.00123
G1 X143.797 Y93.856 E0.00767
G1 X143.834 Y94 E0.00495
G1 X106.162 Y94 E1.25298
G1 X106.145 Y94.051 E0.00179
G1 X106.094 Y94.235 E0.00635
G1 X106.055 Y94.4 E0.00564
G1 X143.934 Y94.4 E1.25986
G1 X144.035 Y94.8 E0.01372
G1 X105.96 Y94.8 E1.26638
