; generated by Slic3r 1.3.0 on 2021-01-27 at 23:44:12

; external perimeters extrusion width = 0.44mm (0.84mm^3/s)
; perimeters extrusion width = 0.56mm (2.15mm^3/s)
; infill extrusion width = 0.50mm (2.87mm^3/s)
; solid infill extrusion width = 0.56mm (1.08mm^3/s)
; top infill extrusion width = 0.56mm (0.81mm^3/s)
; support material extrusion width = 0.44mm (2.51mm^3/s)

M107
M190 S60 ; set bed temperature and wait for it to be reached
M104 S215 ; set temperature
;Craftbot Start Script
G28 X0Y0 ;home xy
G28 Z0 ;home z
G91 ;relative movements
G0 F100 ;speed 100mm/sec
G0 X15 Y15 Z0.4 E12 ;purge nozzle - move to xy15
G90 ;Absolute movements
; Filament gcode

M109 S215 ; set temperature and wait for it to be reached
G21 ; set units to millimeters
G90 ; use absolute coordinates
M82 ; use absolute distances for extrusion
G92 E0
G1 Z0.200 F7800.000
G1 E-2.00000 F2400.00000
G92 E0
G1 X100.001 Y93.897 F7800.000
G1 E2.00000 F2400.00000
G1 F1800
G1 X97.950 Y94.304 E2.02349
G1 X102.051 Y94.304 E2.06955
G1 X102.336 Y94.361 E2.07283
G1 X102.860 Y94.711 E2.07991
G1 X97.141 Y94.711 E2.14417
G1 X96.532 Y95.118 E2.15239
G1 X103.469 Y95.118 E2.23033
G1 X104.078 Y95.524 E2.23856
G1 X95.923 Y95.524 E2.33018
G1 X95.685 Y95.684 E2.33340
G1 X95.519 Y95.931 E2.33674
G1 X104.482 Y95.931 E2.43744
G1 X104.754 Y96.338 E2.44294
G1 X95.247 Y96.338 E2.54974
G1 X94.975 Y96.745 E2.55524
G1 X105.026 Y96.745 E2.66815
G1 X105.297 Y97.152 E2.67365
G1 X94.704 Y97.152 E2.79267
G1 X94.432 Y97.559 E2.79817
G1 X105.569 Y97.559 E2.92330
G1 X105.639 Y97.664 E2.92472
G1 X105.699 Y97.966 E2.92818
G1 X94.302 Y97.966 E3.05623
G1 X94.221 Y98.373 E3.06090
G1 X105.780 Y98.373 E3.19077
G1 X105.861 Y98.779 E3.19543
G1 X94.140 Y98.779 E3.32712
G1 X94.059 Y99.186 E3.33178
G1 X105.942 Y99.186 E3.46529
G1 X106.023 Y99.593 E3.46995
G1 X93.978 Y99.593 E3.60527
G1 X93.897 Y100.000 E3.60993
G1 X106.103 Y100.000 E3.74707
G1 X106.022 Y100.407 E3.75173
G1 X93.978 Y100.407 E3.88705
G1 X94.059 Y100.814 E3.89171
G1 X105.941 Y100.814 E4.02521
G1 X105.861 Y101.221 E4.02987
G1 X94.140 Y101.221 E4.16156
G1 X94.221 Y101.628 E4.16622
G1 X105.780 Y101.628 E4.29608
G1 X105.699 Y102.034 E4.30075
G1 X94.302 Y102.034 E4.42880
G1 X94.362 Y102.336 E4.43225
G1 X94.432 Y102.441 E4.43367
G1 X105.569 Y102.441 E4.55879
G1 X105.297 Y102.848 E4.56429
G1 X94.704 Y102.848 E4.68329
G1 X94.976 Y103.255 E4.68879
G1 X105.025 Y103.255 E4.80169
G1 X104.753 Y103.662 E4.80719
G1 X95.248 Y103.662 E4.91397
G1 X95.520 Y104.069 E4.91947
G1 X104.481 Y104.069 E5.02015
G1 X104.316 Y104.315 E5.02348
G1 X104.076 Y104.476 E5.02672
G1 X95.925 Y104.476 E5.11830
G1 X96.534 Y104.883 E5.12653
G1 X103.467 Y104.883 E5.20443
G1 X102.859 Y105.289 E5.21266
G1 X97.142 Y105.289 E5.27688
G1 X97.664 Y105.638 E5.28393
G1 X97.956 Y105.696 E5.28727
G1 X102.045 Y105.696 E5.33321
G1 X100.000 Y106.103 E5.35664
G1 Z0.500 F7800.000
G1 E3.35664 F2400.00000
G92 E0
G1 X106.114 Y100.000 F7800.000
G1 E2.00000 F2400.00000
G1 F3600
G1 X105.732 Y98.074 E2.03130
G1 X105.732 Y101.925 E2.09268
G1 X105.650 Y102.340 E2.09942
G1 X105.350 Y102.788 E2.10802
G1 X105.350 Y97.211 E2.19693
G1 X104.968 Y96.639 E2.20790
G1 X104.968 Y103.360 E2.31504
G1 X104.585 Y103.932 E2.32600
G1 X104.585 Y96.067 E2.45138
G1 X104.324 Y95.676 E2.45888
G1 X104.203 Y95.595 E2.46119
G1 X104.203 Y104.404 E2.60161
G1 X103.821 Y104.659 E2.60894
G1 X103.821 Y95.340 E2.75750
G1 X103.439 Y95.085 E2.76482
G1 X103.439 Y104.914 E2.92153
G1 X103.057 Y105.170 E2.92885
G1 X103.057 Y94.829 E3.09370
G1 X102.675 Y94.574 E3.10103
G1 X102.675 Y105.425 E3.27401
G1 X102.341 Y105.648 E3.28042
G1 X102.293 Y105.658 E3.28120
G1 X102.293 Y94.341 E3.46161
G1 X101.911 Y94.265 E3.46782
G1 X101.911 Y105.734 E3.65066
G1 X101.528 Y105.810 E3.65687
G1 X101.528 Y94.189 E3.84213
G1 X101.146 Y94.113 E3.84834
G1 X101.146 Y105.886 E4.03602
G1 X100.764 Y105.962 E4.04223
G1 X100.764 Y94.038 E4.23233
G1 X100.382 Y93.962 E4.23854
G1 X100.382 Y106.038 E4.43106
G1 X100.001 Y106.114 E4.43726
G1 X100.000 Y93.886 E4.63220
G1 X99.618 Y93.962 E4.63841
G1 X99.618 Y106.038 E4.83093
G1 X99.236 Y105.962 E4.83714
G1 X99.236 Y94.038 E5.02723
G1 X98.854 Y94.114 E5.03344
G1 X98.854 Y105.886 E5.22112
G1 X98.471 Y105.810 E5.22733
G1 X98.471 Y94.189 E5.41258
G1 X98.089 Y94.265 E5.41879
G1 X98.089 Y105.734 E5.60162
G1 X97.707 Y105.658 E5.60783
G1 X97.707 Y94.341 E5.78823
G1 X97.660 Y94.350 E5.78899
G1 X97.325 Y94.575 E5.79542
G1 X97.325 Y105.424 E5.96839
G1 X96.943 Y105.169 E5.97571
G1 X96.943 Y94.830 E6.14054
G1 X96.561 Y95.085 E6.14786
G1 X96.561 Y104.914 E6.30454
G1 X96.179 Y104.658 E6.31187
G1 X96.179 Y95.341 E6.46041
G1 X95.797 Y95.596 E6.46774
G1 X95.797 Y104.403 E6.60813
G1 X95.677 Y104.323 E6.61042
G1 X95.414 Y103.930 E6.61796
G1 X95.414 Y96.069 E6.74328
G1 X95.032 Y96.641 E6.75424
G1 X95.032 Y103.358 E6.86133
G1 X94.650 Y102.786 E6.87229
G1 X94.650 Y97.212 E6.96115
G1 X94.352 Y97.659 E6.96972
G1 X94.268 Y98.079 E6.97655
G1 X94.268 Y101.920 E7.03777
G1 X93.886 Y99.999 E7.06900
M106 S247.35
G1 Z0.800 F7800.000
G1 E5.06900 F2400.00000
G92 E0
G1 X100.001 Y93.886 F7800.000
G1 E2.00000 F2400.00000
G1 F3600
G1 X98.075 Y94.268 E2.03130
G1 X101.926 Y94.268 E2.09269
G1 X102.341 Y94.350 E2.09943
G1 X102.789 Y94.650 E2.10803
G1 X97.212 Y94.650 E2.19694
G1 X96.640 Y95.032 E2.20791
G1 X103.361 Y95.032 E2.31505
G1 X103.933 Y95.415 E2.32602
G1 X96.068 Y95.415 E2.45139
G1 X95.677 Y95.676 E2.45889
G1 X95.596 Y95.797 E2.46120
G1 X104.405 Y95.797 E2.60162
G1 X104.660 Y96.179 E2.60895
G1 X95.341 Y96.179 E2.75751
G1 X95.086 Y96.561 E2.76484
G1 X104.915 Y96.561 E2.92154
G1 X105.171 Y96.943 E2.92887
G1 X94.830 Y96.943 E3.09372
G1 X94.575 Y97.325 E3.10104
G1 X105.426 Y97.325 E3.27403
G1 X105.650 Y97.659 E3.28044
G1 X105.659 Y97.707 E3.28122
G1 X94.342 Y97.707 E3.46163
G1 X94.266 Y98.089 E3.46784
G1 X105.735 Y98.089 E3.65068
G1 X105.811 Y98.472 E3.65689
G1 X94.190 Y98.472 E3.84214
G1 X94.114 Y98.854 E3.84836
G1 X105.887 Y98.854 E4.03603
G1 X105.962 Y99.236 E4.04224
G1 X94.038 Y99.236 E4.23235
G1 X93.962 Y99.618 E4.23856
G1 X106.038 Y99.618 E4.43108
G1 X106.114 Y100.000 E4.43729
G1 X93.886 Y100.000 E4.63223
G1 X93.962 Y100.382 E4.63844
G1 X106.038 Y100.382 E4.83095
G1 X105.962 Y100.764 E4.83717
G1 X94.038 Y100.764 E5.02726
G1 X94.114 Y101.146 E5.03347
G1 X105.886 Y101.146 E5.22114
G1 X105.811 Y101.529 E5.22735
G1 X94.190 Y101.529 E5.41260
G1 X94.266 Y101.911 E5.41881
G1 X105.735 Y101.911 E5.60164
G1 X105.659 Y102.293 E5.60785
G1 X94.342 Y102.293 E5.78826
G1 X94.352 Y102.340 E5.78902
G1 X94.576 Y102.675 E5.79545
G1 X105.425 Y102.675 E5.96841
G1 X105.170 Y103.057 E5.97574
G1 X94.831 Y103.057 E6.14056
G1 X95.086 Y103.439 E6.14789
G1 X104.915 Y103.439 E6.30457
G1 X104.659 Y103.821 E6.31189
G1 X95.342 Y103.821 E6.46043
G1 X95.597 Y104.203 E6.46776
G1 X104.404 Y104.203 E6.60815
G1 X104.324 Y104.323 E6.61044
G1 X103.931 Y104.586 E6.61798
G1 X96.070 Y104.586 E6.74330
G1 X96.642 Y104.968 E6.75426
G1 X103.359 Y104.968 E6.86135
G1 X102.787 Y105.350 E6.87231
G1 X97.214 Y105.350 E6.96117
G1 X97.660 Y105.648 E6.96973
G1 X98.080 Y105.732 E6.97656
G1 X101.921 Y105.732 E7.03778
G1 X100.000 Y106.114 E7.06900
G1 Z1.400 F7800.000
G1 E5.06900 F2400.00000
G92 E0
G1 X100.000 Y102.815 F7800.000
G1 E2.00000 F2400.00000
M106 S255

G1 F3600
G1 X97.480 Y102.815 E2.04480
G1 X96.862 Y101.916 E2.06419
G1 X96.596 Y101.304 E2.07605
G1 X96.437 Y100.662 E2.08781
G1 X96.382 Y99.999 E2.09963
G1 X96.437 Y99.337 E2.11145
G1 X96.596 Y98.695 E2.12321
G1 X96.862 Y98.083 E2.13507
G1 X97.480 Y97.185 E2.15445
G1 X102.518 Y97.185 E2.24401
G1 X103.136 Y98.083 E2.26338
G1 X103.402 Y98.695 E2.27525
G1 X103.561 Y99.337 E2.28700
G1 X103.616 Y99.999 E2.29882
G1 X103.561 Y100.662 E2.31064
G1 X103.402 Y101.304 E2.32240
G1 X103.136 Y101.916 E2.33426
G1 X102.518 Y102.815 E2.35365
G1 X100.060 Y102.815 E2.39735
M106 S247.35

G1 E0.39735 F2400.00000
G92 E0
G1 X102.337 Y102.470 F7800.000
G1 E2.00000 F2400.00000
M106 S255

G1 F3600
G1 X97.661 Y102.470 E2.08314
G1 X97.164 Y101.749 E2.09871
G1 X96.923 Y101.193 E2.10947
G1 X96.778 Y100.606 E2.12023
G1 X96.728 Y99.999 E2.13105
G1 X96.778 Y99.393 E2.14187
G1 X96.923 Y98.806 E2.15262
G1 X97.164 Y98.250 E2.16339
G1 X97.661 Y97.529 E2.17895
G1 X102.337 Y97.529 E2.26208
G1 X102.834 Y98.250 E2.27764
G1 X103.075 Y98.806 E2.28841
G1 X103.220 Y99.393 E2.29916
G1 X103.270 Y99.999 E2.30998
G1 X103.220 Y100.606 E2.32080
G1 X103.075 Y101.193 E2.33156
G1 X102.834 Y101.749 E2.34232
G1 X102.371 Y102.421 E2.35683
M106 S247.35

G1 E0.35683 F2400.00000
G92 E0
G1 X102.244 Y96.851 F7800.000
G1 E2.00000 F2400.00000
M106 S255

G1 F3600
G1 X97.757 Y96.851 E2.07976
G1 X97.714 Y96.709 E2.08241
G1 X98.437 Y96.226 E2.09786
G1 X100.000 Y95.915 E2.12620
G1 X101.564 Y96.226 E2.15454
G1 X102.287 Y96.709 E2.17000
G1 X102.261 Y96.794 E2.17158
M106 S247.35

G1 E0.17158 F2400.00000
G92 E0
G1 X102.285 Y103.291 F7800.000
G1 E2.00000 F2400.00000
M106 S255

G1 F3600
G1 X101.564 Y103.773 E2.01543
G1 X100.000 Y104.085 E2.04377
G1 X98.437 Y103.773 E2.07211
G1 X97.716 Y103.291 E2.08754
G1 X97.759 Y103.149 E2.09018
G1 X102.242 Y103.149 E2.16989
G1 X102.268 Y103.234 E2.17147
M106 S247.35

G1 X102.471 Y103.569 F7800.000
M106 S255

G1 F3600
G1 X101.694 Y104.088 E2.18808
G1 X100.000 Y104.425 E2.21878
G1 X98.307 Y104.088 E2.24948
G1 X96.871 Y103.129 E2.28018
G1 X95.912 Y101.693 E2.31087
G1 X95.575 Y99.999 E2.34157
G1 X95.912 Y98.306 E2.37228
G1 X96.871 Y96.870 E2.40297
G1 X98.307 Y95.911 E2.43366
G1 X100.000 Y95.575 E2.46436
G1 X101.694 Y95.911 E2.49507
G1 X103.130 Y96.870 E2.52576
G1 X104.089 Y98.306 E2.55645
G1 X104.425 Y99.999 E2.58715
G1 X104.089 Y101.693 E2.61785
G1 X103.130 Y103.129 E2.64854
G1 X102.521 Y103.536 E2.66156
M106 S247.35

G1 X102.662 Y103.855 F7800.000
M106 S255

G1 F3600
G1 X101.829 Y104.412 E2.67939
G1 X100.000 Y104.776 E2.71252
G1 X98.172 Y104.412 E2.74566
G1 X96.623 Y103.377 E2.77879
G1 X95.588 Y101.828 E2.81192
G1 X95.224 Y99.999 E2.84505
G1 X95.588 Y98.171 E2.87819
G1 X96.623 Y96.622 E2.91132
G1 X98.172 Y95.587 E2.94444
G1 X100.000 Y95.224 E2.97758
G1 X101.829 Y95.587 E3.01072
G1 X103.378 Y96.622 E3.04384
G1 X104.413 Y98.171 E3.07697
G1 X104.776 Y99.999 E3.11010
G1 X104.413 Y101.828 E3.14324
G1 X103.378 Y103.377 E3.17636
G1 X102.712 Y103.822 E3.19060
M106 S247.35

G1 X100.876 Y103.693 F7800.000
M106 S255

G1 F3600
G1 X100.571 Y103.388 E3.20079
G1 X99.848 Y103.388 E3.21787
G1 X100.273 Y103.813 E3.23207
G1 X100.153 Y103.837 E3.23497
G1 X99.430 Y103.693 E3.25238
G1 X99.125 Y103.388 E3.26257
M106 S247.35

G1 E1.26257 F2400.00000
G92 E0
G1 X100.878 Y96.612 F7800.000
G1 E2.00000 F2400.00000
M106 S255

G1 F3600
G1 X100.573 Y96.307 E2.01027
G1 X99.848 Y96.163 E2.02789
G1 X99.728 Y96.186 E2.03081
G1 X100.153 Y96.612 E2.04513
G1 X99.427 Y96.612 E2.06241
G1 X99.122 Y96.307 E2.07269
M106 S247.35

G1 Z1.500 F7800.000
G1 E0.07269 F2400.00000
G92 E0
G1 X102.589 Y102.949 F7800.000
G1 E2.00000 F2400.00000
G1 F900
G1 X97.409 Y102.949 E2.03946
G1 X96.744 Y101.982 E2.04841
G1 X96.469 Y101.347 E2.05368
G1 X96.304 Y100.684 E2.05888
G1 X96.248 Y99.999 E2.06412
G1 X96.304 Y99.315 E2.06935
G1 X96.469 Y98.652 E2.07455
G1 X96.744 Y98.017 E2.07982
G1 X97.410 Y97.051 E2.08876
G1 X102.588 Y97.051 E2.12822
G1 X103.254 Y98.017 E2.13716
G1 X103.529 Y98.652 E2.14243
G1 X103.694 Y99.315 E2.14764
G1 X103.750 Y99.999 E2.15287
G1 X103.694 Y100.684 E2.15810
G1 X103.529 Y101.347 E2.16331
G1 X103.254 Y101.982 E2.16858
G1 X102.623 Y102.900 E2.17707
G1 X102.337 Y102.470 F7800.000
G1 F900
G1 X97.661 Y102.470 E2.20476
G1 X97.164 Y101.749 E2.20994
G1 X96.923 Y101.193 E2.21353
G1 X96.778 Y100.606 E2.21711
G1 X96.728 Y99.999 E2.22071
G1 X96.778 Y99.393 E2.22432
G1 X96.923 Y98.806 E2.22790
G1 X97.164 Y98.250 E2.23148
G1 X97.661 Y97.529 E2.23667
G1 X102.337 Y97.529 E2.26436
G1 X102.834 Y98.250 E2.26954
G1 X103.075 Y98.806 E2.27312
G1 X103.220 Y99.393 E2.27671
G1 X103.270 Y99.999 E2.28031
G1 X103.220 Y100.606 E2.28391
G1 X103.075 Y101.193 E2.28750
G1 X102.834 Y101.749 E2.29108
G1 X102.371 Y102.421 E2.29591
G1 X102.268 Y102.864 F7800.000
G1 X102.811 Y103.180 F7800.000
G1 F900
G1 X101.642 Y103.962 E2.30663
G1 X100.000 Y104.288 E2.31938
G1 X98.359 Y103.962 E2.33213
G1 X96.968 Y103.032 E2.34488
G1 X96.038 Y101.641 E2.35762
G1 X95.712 Y99.999 E2.37037
G1 X96.038 Y98.358 E2.38313
G1 X96.968 Y96.967 E2.39587
G1 X98.359 Y96.038 E2.40862
G1 X100.000 Y95.712 E2.42137
G1 X101.642 Y96.038 E2.43412
G1 X103.033 Y96.967 E2.44686
G1 X103.962 Y98.358 E2.45961
G1 X104.288 Y99.999 E2.47236
G1 X103.962 Y101.641 E2.48511
G1 X103.033 Y103.032 E2.49786
G1 X102.861 Y103.147 E2.49943
G1 X103.077 Y103.578 F7800.000
G1 F900
G1 X101.829 Y104.412 E2.50832
G1 X100.001 Y104.776 E2.51936
G1 X98.172 Y104.412 E2.53040
G1 X96.623 Y103.377 E2.54143
G1 X95.588 Y101.828 E2.55246
G1 X95.224 Y99.999 E2.56350
G1 X95.588 Y98.171 E2.57454
G1 X96.623 Y96.622 E2.58557
G1 X98.172 Y95.587 E2.59660
G1 X100.000 Y95.224 E2.60764
G1 X101.829 Y95.587 E2.61867
G1 X103.378 Y96.622 E2.62971
G1 X104.413 Y98.171 E2.64074
G1 X104.776 Y99.999 E2.65178
G1 X104.413 Y101.828 E2.66281
G1 X103.378 Y103.377 E2.67385
G1 X103.127 Y103.544 E2.67563
G1 X102.701 Y103.441 F7800.000
G1 X101.055 Y103.697 F7800.000
G1 F1200
G1 X101.474 Y103.278 E2.68063
G1 X100.631 Y103.278 E2.68773
G1 X100.003 Y103.906 E2.69522
G1 X99.791 Y103.949 E2.69704
G1 X99.230 Y103.837 E2.70186
G1 X99.789 Y103.278 E2.70852
G1 X98.946 Y103.278 E2.71562
G1 X98.527 Y103.697 E2.72062
G1 E0.72062 F2400.00000
G92 E0
G1 X98.523 Y96.722 F7800.000
G1 E2.00000 F2400.00000
G1 F1200
G1 X98.942 Y96.303 E2.00501
G1 X99.997 Y96.094 E2.01410
G1 X99.368 Y96.722 E2.02161
G1 X100.214 Y96.722 E2.02876
G1 X100.773 Y96.163 E2.03544
G1 X101.478 Y96.303 E2.04152
G1 X101.059 Y96.722 E2.04653
G1 Z1.600 F7800.000
G1 E0.04653 F2400.00000
G92 E0
G1 X102.589 Y102.949 F7800.000
G1 E2.00000 F2400.00000
G1 F900
G1 X97.409 Y102.949 E2.03946
G1 X96.744 Y101.982 E2.04841
G1 X96.469 Y101.347 E2.05368
G1 X96.304 Y100.684 E2.05888
G1 X96.248 Y99.999 E2.06412
G1 X96.304 Y99.315 E2.06935
G1 X96.469 Y98.652 E2.07455
G1 X96.744 Y98.017 E2.07982
G1 X97.410 Y97.051 E2.08876
G1 X102.588 Y97.051 E2.12822
G1 X103.254 Y98.017 E2.13716
G1 X103.529 Y98.652 E2.14243
G1 X103.694 Y99.315 E2.14764
G1 X103.750 Y99.999 E2.15287
G1 X103.694 Y100.684 E2.15810
G1 X103.529 Y101.347 E2.16331
G1 X103.254 Y101.982 E2.16858
G1 X102.623 Y102.900 E2.17707
G1 X102.337 Y102.470 F7800.000
G1 F900
G1 X97.661 Y102.470 E2.20476
G1 X97.164 Y101.749 E2.20994
G1 X96.923 Y101.193 E2.21353
G1 X96.778 Y100.606 E2.21711
G1 X96.728 Y99.999 E2.22071
G1 X96.778 Y99.393 E2.22432
G1 X96.923 Y98.806 E2.22790
G1 X97.164 Y98.250 E2.23148
G1 X97.661 Y97.529 E2.23667
G1 X102.337 Y97.529 E2.26436
G1 X102.834 Y98.250 E2.26954
G1 X103.075 Y98.806 E2.27312
G1 X103.220 Y99.393 E2.27671
G1 X103.270 Y99.999 E2.28031
G1 X103.220 Y100.606 E2.28391
G1 X103.075 Y101.193 E2.28750
G1 X102.834 Y101.749 E2.29108
G1 X102.371 Y102.421 E2.29591
G1 X102.268 Y102.864 F7800.000
G1 X102.811 Y103.180 F7800.000
G1 F900
G1 X101.642 Y103.962 E2.30663
G1 X100.000 Y104.288 E2.31938
G1 X98.359 Y103.962 E2.33213
G1 X96.968 Y103.032 E2.34488
G1 X96.038 Y101.641 E2.35762
G1 X95.712 Y99.999 E2.37037
G1 X96.038 Y98.358 E2.38313
G1 X96.968 Y96.967 E2.39587
G1 X98.359 Y96.038 E2.40862
G1 X100.000 Y95.712 E2.42137
G1 X101.642 Y96.038 E2.43412
G1 X103.033 Y96.967 E2.44686
G1 X103.962 Y98.358 E2.45961
G1 X104.288 Y99.999 E2.47236
G1 X103.962 Y101.641 E2.48511
G1 X103.033 Y103.032 E2.49786
G1 X102.861 Y103.147 E2.49943
G1 X103.077 Y103.578 F7800.000
G1 F900
G1 X101.829 Y104.412 E2.50832
G1 X100.000 Y104.776 E2.51936
G1 X98.172 Y104.412 E2.53040
G1 X96.623 Y103.377 E2.54143
G1 X95.588 Y101.828 E2.55246
G1 X95.224 Y99.999 E2.56350
G1 X95.588 Y98.171 E2.57454
G1 X96.623 Y96.622 E2.58557
G1 X98.172 Y95.587 E2.59660
G1 X100.001 Y95.224 E2.60764
G1 X101.829 Y95.587 E2.61867
G1 X103.378 Y96.622 E2.62971
G1 X104.413 Y98.171 E2.64074
G1 X104.776 Y99.999 E2.65178
G1 X104.413 Y101.828 E2.66281
G1 X103.378 Y103.377 E2.67385
G1 X103.127 Y103.544 E2.67563
G1 X102.701 Y103.441 F7800.000
G1 X101.474 Y103.697 F7800.000
G1 F1200
G1 X101.055 Y103.278 E2.68063
