; #disp params :
; Printmode:0
; Layer:414
; Zmax:125.069 mm
; Xmax:151.59 mm
; Ymax:42.5 mm
; Xmin:108.344 mm
; Ymin:0.3 mm
; E0diam:0.4 mm
; E0len:3.34841 m
; E0temp:215 C
; Bedtemp:215 C
; Time:101.707 min
; #params end
; GCode generated by CraftWare

G28 X Y ; home horizontally
G28 Z ; home vertically


M104 S215 ;set head temp (no wait)
M190 S60 ;set bed temp (wait)
M109 S215 ;set head temp (wait)

; ------------------------------------
; Raft Layer #0
; ------------------------------------
M106 S0 ;turn off fan
G21 ; mm
G90 ; abs
G92 E0 ;reset extr
G0 F600 Z0.300
;segType:Raft
G0 F3000 E-1.00000
G0 F600 Z2.300
G0 X108.409 Y122.313 F5400
G0 F600 Z0.300
G0 F3000 E0.00000
G1 X108.409 Y77.688 E2.22635 F600
G1 X111.034 Y75.063 E2.41156
G1 X111.494 Y74.997 E2.43472
G1 X148.769 Y74.997 E4.29438
G1 X151.394 Y77.622 E4.47959
G1 X151.460 Y78.081 E4.50275
G1 X151.460 Y122.181 E6.70291
G1 X151.263 Y122.510 E6.72202
G1 X148.769 Y125.003 E6.89797
G1 X111.100 Y125.003 E8.77727
G1 X110.903 Y124.806 E8.79118
G1 X108.409 Y122.313 E8.96713
G0 X111.137 Y124.413 F5400
G1 X111.137 Y75.719 E11.39647 F600
G0 X113.803 Y75.456 F5400
G1 X113.803 Y124.675 E13.85200 F600
G0 X116.470 Y124.675 F5400
G1 X116.470 Y75.456 E16.30754 F600
G0 X119.136 Y75.456 F5400
G1 X119.136 Y124.675 E18.76307 F600
G0 X121.803 Y124.675 F5400
G1 X121.803 Y75.456 E21.21860 F600
G0 X124.470 Y75.456 F5400
G1 X124.470 Y124.675 E23.67414 F600
G0 X127.136 Y124.675 F5400
G1 X127.136 Y75.456 E26.12967 F600
G0 X129.803 Y75.456 F5400
G1 X129.803 Y124.675 E28.58521 F600
G0 X132.470 Y124.675 F5400
G1 X132.470 Y75.456 E31.04074 F600
G0 X135.136 Y75.456 F5400
G1 X135.136 Y124.675 E33.49627 F600
G0 X137.803 Y124.675 F5400
G1 X137.803 Y75.456 E35.95181 F600
G0 X140.470 Y75.456 F5400
G1 X140.470 Y124.675 E38.40734 F600
G0 X143.136 Y124.675 F5400
G1 X143.136 Y75.456 E40.86288 F600
G0 X145.803 Y75.456 F5400
G1 X145.803 Y124.675 E43.31842 F600
G0 X148.470 Y124.675 F5400
G1 X148.470 Y75.456 E45.77395 F600



; ------------------------------------
; Raft Layer #1
; ------------------------------------
G92 E0 ;reset extr
G0 F600 Z0.600
;segType:Raft
G0 X149.096 Y75.312 F7200
G1 X108.540 Y115.868 E2.86144 F1800
G0 X108.540 Y113.983 F7200
G1 X147.521 Y75.001 E5.61176 F1800
G0 X145.552 Y75.084 F7200
G1 X108.540 Y112.097 E8.22317 F1800
G0 X108.540 Y110.211 F7200
G1 X143.715 Y75.036 E10.70494 F1800
G0 X141.746 Y75.119 F7200
G1 X108.540 Y108.326 E13.04780 F1800
G0 X108.540 Y106.440 F7200
G1 X139.909 Y75.071 E15.26102 F1800
G0 X138.071 Y75.023 F7200
G1 X108.540 Y104.554 E17.34459 F1800
G0 X108.540 Y102.669 F7200
G1 X136.103 Y75.106 E19.28926 F1800
G0 X134.265 Y75.058 F7200
G1 X108.540 Y100.783 E21.10429 F1800
G0 X108.540 Y98.898 F7200
G1 X132.428 Y75.010 E22.78966 F1800
G0 X130.459 Y75.093 F7200
G1 X108.540 Y97.012 E24.33614 F1800
G0 X108.540 Y95.126 F7200
G1 X128.621 Y75.045 E25.75297 F1800
G0 X126.784 Y74.997 F7200
G1 X108.540 Y93.241 E27.04015 F1800
G0 X108.540 Y91.355 F7200
G1 X124.815 Y75.080 E28.18844 F1800
G0 X122.978 Y75.032 F7200
G1 X108.540 Y89.470 E29.20707 F1800
G0 X108.540 Y87.584 F7200
G1 X121.009 Y75.115 E30.08680 F1800
G0 X119.172 Y75.067 F7200
G1 X108.540 Y85.698 E30.83689 F1800
G0 X108.540 Y83.813 F7200
G1 X117.334 Y75.019 E31.45733 F1800
G0 X115.365 Y75.102 F7200
G1 X108.540 Y81.927 E31.93887 F1800
G0 X108.540 Y80.041 F7200
G1 X113.528 Y75.054 E32.29076 F1800
G0 X111.690 Y75.006 F7200
G1 X108.540 Y78.156 E32.51301 F1800
G0 X108.540 Y117.754 F7200
G1 X150.015 Y76.279 E35.43927 F1800
G0 X151.065 Y77.114 F7200
G1 X108.540 Y119.639 E38.43962 F1800
G0 X108.540 Y121.525 F7200
G1 X151.590 Y78.475 E41.47701 F1800
G0 X151.590 Y80.361 F7200
G1 X109.065 Y122.886 E44.47735 F1800
G0 X109.949 Y123.888 F7200
G1 X151.555 Y82.281 E47.41288 F1800
G0 X151.472 Y84.250 F7200
G1 X110.916 Y124.806 E50.27432 F1800
G0 X112.474 Y125.003 F7200
G1 X151.455 Y86.022 E53.02466 F1800
G0 X151.372 Y87.991 F7200
G1 X114.491 Y124.872 E55.62681 F1800
G0 X116.376 Y124.872 F7200
G1 X151.420 Y89.829 E58.09932 F1800
G0 X151.337 Y91.797 F7200
G1 X118.131 Y125.003 E60.44220 F1800
G0 X120.082 Y125.069 F7200
G1 X151.581 Y93.569 E62.66468 F1800
G0 X151.498 Y95.538 F7200
G1 X121.967 Y125.069 E64.74826 F1800
G0 X123.853 Y125.069 F7200
G1 X151.546 Y97.375 E66.70218 F1800
G0 X151.463 Y99.344 F7200
G1 X125.739 Y125.069 E68.51721 F1800
G0 X127.624 Y125.069 F7200
G1 X151.511 Y101.181 E70.20259 F1800
G0 X151.559 Y103.019 F7200
G1 X129.510 Y125.069 E71.75832 F1800
G0 X131.395 Y125.069 F7200
G1 X151.476 Y104.988 E73.17515 F1800
G0 X151.459 Y106.759 F7200
G1 X133.216 Y125.003 E74.46234 F1800
G0 X135.232 Y124.872 F7200
G1 X151.376 Y108.729 E75.60137 F1800
G0 X151.490 Y110.631 F7200
G1 X137.052 Y125.069 E76.62001 F1800
G0 X138.938 Y125.069 F7200
G1 X151.538 Y112.469 E77.50900 F1800
G0 X151.586 Y114.306 F7200
G1 X140.824 Y125.069 E78.26834 F1800
G0 X142.644 Y125.003 F7200
G1 X151.437 Y116.209 E78.88879 F1800
G0 X151.551 Y118.113 F7200
G1 X144.595 Y125.069 E79.37959 F1800
G0 X146.480 Y125.069 F7200
G1 X151.468 Y120.081 E79.73148 F1800
G0 X151.516 Y121.919 F7200
G1 X148.366 Y125.069 E79.95372 F1800



; ------------------------------------
; Raft Layer #2
; ------------------------------------
G92 E0 ;reset extr
G0 F600 Z0.800
;segType:Raft
G0 X148.769 Y124.997 F7200
G1 X110.969 Y124.997 E1.25723 F2400
G1 X110.575 Y124.597 E1.27590
G1 X149.163 Y124.597 E2.55933
G1 X149.556 Y124.197 E2.57800
G1 X110.181 Y124.197 E3.88761
G1 X109.788 Y123.797 E3.90628
G1 X149.950 Y123.797 E5.24209
G1 X150.344 Y123.397 E5.26076
G1 X109.394 Y123.397 E6.62276
G1 X109.000 Y122.997 E6.64143
G1 X150.738 Y122.997 E8.02963
G1 X151.131 Y122.597 E8.04830
G1 X108.606 Y122.597 E9.46268
G1 X108.344 Y122.197 E9.47860
G1 X151.394 Y122.197 E10.91044
G1 X151.394 Y121.797 E10.92375
G1 X108.344 Y121.797 E12.35560
G1 X108.344 Y121.397 E12.36890
G1 X151.394 Y121.397 E13.80075
G1 X151.394 Y120.997 E13.81405
G1 X108.344 Y120.997 E15.24590
G1 X108.344 Y120.597 E15.25921
G1 X151.394 Y120.597 E16.69105
G1 X151.394 Y120.197 E16.70436
G1 X108.344 Y120.197 E18.13621
G1 X108.344 Y119.797 E18.14951
G1 X151.394 Y119.797 E19.58136
G1 X151.394 Y119.397 E19.59466
G1 X108.344 Y119.397 E21.02651
G1 X108.344 Y118.997 E21.03982
G1 X151.394 Y118.997 E22.47166
G1 X151.394 Y118.597 E22.48497
G1 X108.344 Y118.597 E23.91682
G1 X108.344 Y118.197 E23.93012
G1 X151.394 Y118.197 E25.36197
G1 X151.394 Y117.797 E25.37527
G1 X108.344 Y117.797 E26.80712
G1 X108.344 Y117.397 E26.82042
G1 X151.394 Y117.397 E28.25227
G1 X151.394 Y116.997 E28.26558
G1 X108.344 Y116.997 E29.69743
G1 X108.344 Y116.597 E29.71073
G1 X151.394 Y116.597 E31.14258
G1 X151.394 Y116.197 E31.15588
G1 X108.344 Y116.197 E32.58773
G1 X108.344 Y115.797 E32.60104
G1 X151.394 Y115.797 E34.03289
G1 X151.394 Y115.397 E34.04619
G1 X108.344 Y115.397 E35.47804
G1 X108.344 Y114.997 E35.49135
G1 X151.394 Y114.997 E36.92320
G1 X151.394 Y114.597 E36.93651
G1 X108.344 Y114.597 E38.36836
G1 X108.344 Y114.197 E38.38166
G1 X151.394 Y114.197 E39.81351
G1 X151.394 Y113.797 E39.82682
G1 X108.344 Y113.797 E41.25867
G1 X108.344 Y113.397 E41.27197
G1 X151.394 Y113.397 E42.70383
G1 X151.394 Y112.997 E42.71713
G1 X108.344 Y112.997 E44.14898
G1 X108.344 Y112.597 E44.16229
G1 X151.394 Y112.597 E45.59414
G1 X151.394 Y112.197 E45.60744
G1 X108.344 Y112.197 E47.03929
G1 X108.344 Y111.797 E47.05260
G1 X151.394 Y111.797 E48.48445
G1 X151.394 Y111.397 E48.49776
G1 X108.344 Y111.397 E49.92961
G1 X108.344 Y110.997 E49.94291
G1 X151.394 Y110.997 E51.37476
G1 X151.394 Y110.597 E51.38807
G1 X108.344 Y110.597 E52.81992
G1 X108.344 Y110.197 E52.83322
G1 X151.394 Y110.197 E54.26507
G1 X151.394 Y109.797 E54.27838
G1 X108.344 Y109.797 E55.71023
G1 X108.344 Y109.397 E55.72354
G1 X151.394 Y109.397 E57.15539
G1 X151.394 Y108.997 E57.16869
G1 X108.344 Y108.997 E58.60054
G1 X108.344 Y108.597 E58.61385
G1 X151.394 Y108.597 E60.04570
G1 X151.394 Y108.197 E60.05900
G1 X108.344 Y108.197 E61.49085
G1 X108.344 Y107.797 E61.50416
G1 X151.394 Y107.797 E62.93601
G1 X151.394 Y107.397 E62.94932
G1 X108.344 Y107.397 E64.38117
G1 X108.344 Y106.997 E64.39447
G1 X151.394 Y106.997 E65.82632
G1 X151.394 Y106.597 E65.83962
G1 X108.344 Y106.597 E67.27147
G1 X108.344 Y106.197 E67.28478
G1 X151.394 Y106.197 E68.71662
G1 X151.394 Y105.797 E68.72993
G1 X108.344 Y105.797 E70.16178
G1 X108.344 Y105.397 E70.17508
G1 X151.394 Y105.397 E71.60693
G1 X151.394 Y104.997 E71.62023
G1 X108.344 Y104.997 E73.05208
G1 X108.344 Y104.597 E73.06539
G1 X151.394 Y104.597 E74.49723
G1 X151.394 Y104.197 E74.51054
G1 X108.344 Y104.197 E75.94239
G1 X108.344 Y103.797 E75.95569
G1 X151.394 Y103.797 E77.38754
G1 X151.394 Y103.397 E77.40084
G1 X108.344 Y103.397 E78.83269
G1 X108.344 Y102.997 E78.84600
G1 X151.394 Y102.997 E80.27784
G1 X151.394 Y102.597 E80.29115
G1 X108.344 Y102.597 E81.72299
G1 X108.344 Y102.197 E81.73630
G1 X151.394 Y102.197 E83.16815
G1 X151.394 Y101.797 E83.18145
G1 X108.344 Y101.797 E84.61330
G1 X108.344 Y101.397 E84.62660
G1 X151.394 Y101.397 E86.05845
G1 X151.394 Y100.997 E86.07175
G1 X108.344 Y100.997 E87.50360
G1 X108.344 Y100.597 E87.51691
G1 X151.394 Y100.597 E88.94875
G1 X151.394 Y100.197 E88.96206
G1 X108.344 Y100.197 E90.39391
G1 X108.344 Y99.797 E90.40721
G1 X151.394 Y99.797 E91.83906
G1 X151.394 Y99.397 E91.85236
G1 X108.344 Y99.397 E93.28421
G1 X108.344 Y98.997 E93.29752
G1 X151.394 Y98.997 E94.72936
G1 X151.394 Y98.597 E94.74267
G1 X108.344 Y98.597 E96.17451
G1 X108.344 Y98.197 E96.18782
G1 X151.394 Y98.197 E97.61967
G1 X151.394 Y97.797 E97.63297
G1 X108.344 Y97.797 E99.06482
G1 X108.344 Y97.397 E99.07812
G1 X151.394 Y97.397 E100.50997
G1 X151.394 Y96.997 E100.52328
G1 X108.344 Y96.997 E101.95512
G1 X108.344 Y96.597 E101.96843
G1 X151.394 Y96.597 E103.40028
G1 X151.394 Y96.197 E103.41358
G1 X108.344 Y96.197 E104.84543
G1 X108.344 Y95.797 E104.85873
G1 X151.394 Y95.797 E106.29058
G1 X151.394 Y95.397 E106.30389
G1 X108.344 Y95.397 E107.73573
G1 X108.344 Y94.997 E107.74904
G1 X151.394 Y94.997 E109.18089
G1 X151.394 Y94.597 E109.19419
G1 X108.344 Y94.597 E110.62604
G1 X108.344 Y94.197 E110.63934
G1 X151.394 Y94.197 E112.07119
G1 X151.394 Y93.797 E112.08450
G1 X108.344 Y93.797 E113.51634
G1 X108.344 Y93.397 E113.52965
G1 X151.394 Y93.397 E114.96149
G1 X151.394 Y92.997 E114.97480
G1 X108.344 Y92.997 E116.40665
G1 X108.344 Y92.597 E116.41995
G1 X151.394 Y92.597 E117.85180
G1 X151.394 Y92.197 E117.86510
G1 X108.344 Y92.197 E119.29695
G1 X108.344 Y91.797 E119.31026
G1 X151.394 Y91.797 E120.74210
G1 X151.394 Y91.397 E120.75541
G1 X108.344 Y91.397 E122.18726
G1 X108.344 Y90.997 E122.20056
G1 X151.394 Y90.997 E123.63241
G1 X151.394 Y90.597 E123.64571
G1 X108.344 Y90.597 E125.07756
G1 X108.344 Y90.197 E125.09087
G1 X151.394 Y90.197 E126.52271
G1 X151.394 Y89.797 E126.53602
G1 X108.344 Y89.797 E127.96786
G1 X108.344 Y89.397 E127.98117
G1 X151.394 Y89.397 E129.41302
G1 X151.394 Y88.997 E129.42633
G1 X108.344 Y88.997 E130.85818
G1 X108.344 Y88.597 E130.87149
G1 X151.394 Y88.597 E132.30334
G1 X151.394 Y88.197 E132.31665
G1 X108.344 Y88.197 E133.74850
G1 X108.344 Y87.797 E133.76181
G1 X151.394 Y87.797 E135.19366
G1 X151.394 Y87.397 E135.20697
G1 X108.344 Y87.397 E136.63882
G1 X108.344 Y86.997 E136.65213
G1 X151.394 Y86.997 E138.08398
G1 X151.394 Y86.597 E138.09729
G1 X108.344 Y86.597 E139.52914
G1 X108.344 Y86.197 E139.54245
G1 X151.394 Y86.197 E140.97430
G1 X151.394 Y85.797 E140.98761
G1 X108.344 Y85.797 E142.41946
G1 X108.344 Y85.397 E142.43277
G1 X151.394 Y85.397 E143.86462
G1 X151.394 Y84.997 E143.87793
G1 X108.344 Y84.997 E145.30978
G1 X108.344 Y84.597 E145.32309
G1 X151.394 Y84.597 E146.75494
G1 X151.394 Y84.197 E146.76825
G1 X108.344 Y84.197 E148.20010
G1 X108.344 Y83.797 E148.21341
G1 X151.394 Y83.797 E149.64526
G1 X151.394 Y83.397 E149.65857
G1 X108.344 Y83.397 E151.09042
G1 X108.344 Y82.997 E151.10373
G1 X151.394 Y82.997 E152.53558
G1 X151.394 Y82.597 E152.54889
G1 X108.344 Y82.597 E153.98074
G1 X108.344 Y82.197 E153.99405
G1 X151.394 Y82.197 E155.42590
G1 X151.394 Y81.797 E155.43921
G1 X108.344 Y81.797 E156.87106
G1 X108.344 Y81.397 E156.88437
G1 X151.394 Y81.397 E158.31622
G1 X151.394 Y80.997 E158.32953
G1 X108.344 Y80.997 E159.76138
G1 X108.344 Y80.597 E159.77469
G1 X151.394 Y80.597 E161.20654
G1 X151.394 Y80.197 E161.21985
G1 X108.344 Y80.197 E162.65170
G1 X108.344 Y79.797 E162.66501
G1 X151.394 Y79.797 E164.09686
G1 X151.394 Y79.397 E164.11017
G1 X108.344 Y79.397 E165.54202
G1 X108.344 Y78.997 E165.55533
G1 X151.394 Y78.997 E166.98718
G1 X151.394 Y78.597 E167.00049
G1 X108.344 Y78.597 E168.43234
G1 X108.344 Y78.197 E168.44564
G1 X151.394 Y78.197 E169.87750
G1 X151.394 Y77.797 E169.89080
G1 X108.344 Y77.797 E171.32266
G1 X108.606 Y77.397 E171.33858
G1 X151.131 Y77.397 E172.75296
G1 X150.738 Y76.997 E172.77162
G1 X109.000 Y76.997 E174.15982
G1 X109.394 Y76.597 E174.17848
G1 X150.344 Y76.597 E175.54048
G1 X149.950 Y76.197 E175.55914
G1 X109.788 Y76.197 E176.89496
G1 X110.181 Y75.797 E176.91362
G1 X149.556 Y75.797 E178.22324
G1 X149.163 Y75.397 E178.24190
G1 X110.575 Y75.397 E179.52532
G1 X110.969 Y74.997 E179.54400
G1 X148.769 Y74.997 E180.80122



; ------------------------------------
; Raft Layer #3
; ------------------------------------
M106 S255 ;set fan speed
G92 E0 ;reset extr
G0 F600 Z1.000
;segType:Raft
G0 F3000 E-1.00000
G0 F600 Z3.000
G0 X151.403 Y122.444 F7200
G0 F600 Z1.000
G0 F3000 E0.00000
G1 X151.403 Y77.688 E1.48860 F2400
G1 X151.003 Y77.294 E1.50727
G1 X151.003 Y122.838 E3.02206
G1 X150.603 Y123.231 E3.04073
G1 X150.603 Y76.900 E4.58171
G1 X150.203 Y76.506 E4.60038
G1 X150.203 Y123.625 E6.16756
G1 X149.803 Y124.019 E6.18622
G1 X149.803 Y76.112 E7.77959
G1 X149.403 Y75.719 E7.79826
G1 X149.403 Y124.413 E9.41782
G1 X149.003 Y124.806 E9.43649
G1 X149.003 Y75.325 E11.08224
G1 X148.603 Y75.063 E11.09816
G1 X148.603 Y125.069 E12.76137
G1 X148.203 Y125.069 E12.77468
G1 X148.203 Y75.063 E14.43789
G1 X147.803 Y75.063 E14.45119
G1 X147.803 Y125.069 E16.11441
G1 X147.403 Y125.069 E16.12771
G1 X147.403 Y75.063 E17.79092
G1 X147.003 Y75.063 E17.80423
G1 X147.003 Y125.069 E19.46744
G1 X146.603 Y125.069 E19.48075
G1 X146.603 Y75.063 E21.14396
G1 X146.203 Y75.063 E21.15726
G1 X146.203 Y125.069 E22.82048
G1 X145.803 Y125.069 E22.83378
G1 X145.803 Y75.063 E24.49700
G1 X145.403 Y75.063 E24.51030
G1 X145.403 Y125.069 E26.17351
G1 X145.003 Y125.069 E26.18682
G1 X145.003 Y75.063 E27.85003
G1 X144.603 Y75.063 E27.86333
G1 X144.603 Y125.069 E29.52655
G1 X144.203 Y125.069 E29.53985
G1 X144.203 Y75.063 E31.20307
G1 X143.803 Y75.063 E31.21637
G1 X143.803 Y125.069 E32.87958
G1 X143.403 Y125.069 E32.89289
G1 X143.403 Y75.063 E34.55610
G1 X143.003 Y75.063 E34.56941
G1 X143.003 Y125.069 E36.23263
G1 X142.603 Y125.069 E36.24593
G1 X142.603 Y75.063 E37.90915
G1 X142.203 Y75.063 E37.92245
G1 X142.203 Y125.069 E39.58567
G1 X141.803 Y125.069 E39.59897
G1 X141.803 Y75.063 E41.26219
G1 X141.403 Y75.063 E41.27549
G1 X141.403 Y125.069 E42.93871
G1 X141.003 Y125.069 E42.95202
G1 X141.003 Y75.063 E44.61523
G1 X140.603 Y75.063 E44.62854
G1 X140.603 Y125.069 E46.29175
G1 X140.203 Y125.069 E46.30506
G1 X140.203 Y75.063 E47.96828
G1 X139.803 Y75.063 E47.98158
G1 X139.803 Y125.069 E49.64480
G1 X139.403 Y125.069 E49.65810
G1 X139.403 Y75.063 E51.32132
G1 X139.003 Y75.063 E51.33462
G1 X139.003 Y125.069 E52.99784
G1 X138.603 Y125.069 E53.01115
G1 X138.603 Y75.063 E54.67436
G1 X138.203 Y75.063 E54.68767
G1 X138.203 Y125.069 E56.35088
G1 X137.803 Y125.069 E56.36419
G1 X137.803 Y75.063 E58.02740
G1 X137.403 Y75.063 E58.04071
G1 X137.403 Y125.069 E59.70392
G1 X137.003 Y125.069 E59.71723
G1 X137.003 Y75.063 E61.38045
G1 X136.603 Y75.063 E61.39375
G1 X136.603 Y125.069 E63.05697
G1 X136.203 Y125.069 E63.07027
G1 X136.203 Y75.063 E64.73348
G1 X135.803 Y75.063 E64.74679
G1 X135.803 Y125.069 E66.41001
G1 X135.403 Y125.069 E66.42331
G1 X135.403 Y75.063 E68.08653
G1 X135.003 Y75.063 E68.09983
G1 X135.003 Y125.069 E69.76305
G1 X134.603 Y125.069 E69.77635
G1 X134.603 Y75.063 E71.43957
G1 X134.203 Y75.063 E71.45288
G1 X134.203 Y125.069 E73.11609
G1 X133.803 Y125.069 E73.12940
G1 X133.803 Y75.063 E74.79261
G1 X133.403 Y75.063 E74.80592
G1 X133.403 Y125.069 E76.46913
G1 X133.003 Y125.069 E76.48244
G1 X133.003 Y75.063 E78.14566
G1 X132.603 Y75.063 E78.15896
G1 X132.603 Y125.069 E79.82218
G1 X132.203 Y125.069 E79.83548
G1 X132.203 Y75.063 E81.49870
G1 X131.803 Y75.063 E81.51200
G1 X131.803 Y125.069 E83.17522
G1 X131.403 Y125.069 E83.18852
G1 X131.403 Y75.063 E84.85174
G1 X131.003 Y75.063 E84.86504
G1 X131.003 Y125.069 E86.52826
G1 X130.603 Y125.069 E86.54156
G1 X130.603 Y75.063 E88.20478
G1 X130.203 Y75.063 E88.21809
G1 X130.203 Y125.069 E89.88130
G1 X129.803 Y125.069 E89.89461
G1 X129.803 Y75.063 E91.55782
G1 X129.403 Y75.063 E91.57113
G1 X129.403 Y125.069 E93.23434
G1 X129.003 Y125.069 E93.24765
G1 X129.003 Y75.063 E94.91087
G1 X128.603 Y75.063 E94.92417
G1 X128.603 Y125.069 E96.58739
G1 X128.203 Y125.069 E96.60069
G1 X128.203 Y75.063 E98.26391
G1 X127.803 Y75.063 E98.27721
G1 X127.803 Y125.069 E99.94043
G1 X127.403 Y125.069 E99.95374
G1 X127.403 Y75.063 E101.61695
G1 X127.003 Y75.063 E101.63026
G1 X127.003 Y125.069 E103.29347
G1 X126.603 Y125.069 E103.30678
G1 X126.603 Y75.063 E104.96999
G1 X126.203 Y75.063 E104.98330
G1 X126.203 Y125.069 E106.64651
G1 X125.803 Y125.069 E106.65982
G1 X125.803 Y75.063 E108.32304
G1 X125.403 Y75.063 E108.33634
G1 X125.403 Y125.069 E109.99956
G1 X125.003 Y125.069 E110.01286
G1 X125.003 Y75.063 E111.67608
G1 X124.603 Y75.063 E111.68938
G1 X124.603 Y125.069 E113.35260
G1 X124.203 Y125.069 E113.36591
G1 X124.203 Y75.063 E115.02912
G1 X123.803 Y75.063 E115.04243
G1 X123.803 Y125.069 E116.70564
G1 X123.403 Y125.069 E116.71895
G1 X123.403 Y75.063 E118.38216
G1 X123.003 Y75.063 E118.39547
G1 X123.003 Y125.069 E120.05869
G1 X122.603 Y125.069 E120.07199
G1 X122.603 Y75.063 E121.73521
G1 X122.203 Y75.063 E121.74851
G1 X122.203 Y125.069 E123.41173
G1 X121.803 Y125.069 E123.42503
G1 X121.803 Y75.063 E125.08825
G1 X121.403 Y75.063 E125.10155
G1 X121.403 Y125.069 E126.76477
G1 X121.003 Y125.069 E126.77808
G1 X121.003 Y75.063 E128.44128
G1 X120.603 Y75.063 E128.45459
G1 X120.603 Y125.069 E130.11780
G1 X120.203 Y125.069 E130.13110
G1 X120.203 Y75.063 E131.79431
G1 X119.803 Y75.063 E131.80762
G1 X119.803 Y125.069 E133.47083
G1 X119.403 Y125.069 E133.48413
G1 X119.403 Y75.063 E135.14734
G1 X119.003 Y75.063 E135.16064
G1 X119.003 Y125.069 E136.82385
G1 X118.603 Y125.069 E136.83716
G1 X118.603 Y75.063 E138.50037
G1 X118.203 Y75.063 E138.51367
G1 X118.203 Y125.069 E140.17688
G1 X117.803 Y125.069 E140.19019
G1 X117.803 Y75.063 E141.85339
G1 X117.403 Y75.063 E141.86670
G1 X117.403 Y125.069 E143.52991
G1 X117.003 Y125.069 E143.54321
G1 X117.003 Y75.063 E145.20642
G1 X116.603 Y75.063 E145.21973
G1 X116.603 Y125.069 E146.88293
G1 X116.203 Y125.069 E146.89624
G1 X116.203 Y75.063 E148.55945
G1 X115.803 Y75.063 E148.57275
G1 X115.803 Y125.069 E150.23596
G1 X115.403 Y125.069 E150.24927
G1 X115.403 Y75.063 E151.91248
G1 X115.003 Y75.063 E151.92578
G1 X115.003 Y125.069 E153.58899
G1 X114.603 Y125.069 E153.60229
G1 X114.603 Y75.063 E155.26550
G1 X114.203 Y75.063 E155.27881
G1 X114.203 Y125.069 E156.94202
G1 X113.803 Y125.069 E156.95532
G1 X113.803 Y75.063 E158.61853
G1 X113.403 Y75.063 E158.63184
G1 X113.403 Y125.069 E160.29504
G1 X113.003 Y125.069 E160.30835
G1 X113.003 Y75.063 E161.97156
G1 X112.603 Y75.063 E161.98486
G1 X112.603 Y125.069 E163.64807
G1 X112.203 Y125.069 E163.66138
G1 X112.203 Y75.063 E165.32458
G1 X111.803 Y75.063 E165.33789
G1 X111.803 Y125.069 E167.00110
G1 X111.403 Y125.069 E167.01440
G1 X111.403 Y75.063 E168.67762
G1 X111.003 Y75.194 E168.69162
G1 X111.003 Y124.938 E170.34610
G1 X110.603 Y124.544 E170.36476
G1 X110.603 Y75.587 E171.99306
G1 X110.203 Y75.981 E172.01172
G1 X110.203 Y124.150 E173.61382
G1 X109.803 Y123.756 E173.63248
G1 X109.803 Y76.375 E175.20838
G1 X109.403 Y76.769 E175.22706
G1 X109.403 Y123.363 E176.77676
G1 X109.003 Y122.969 E176.79542
G1 X109.003 Y77.163 E178.31896
G1 X108.603 Y77.556 E178.33762
G1 X108.603 Y122.575 E179.83494


; ------------------------------------
; Layer #0
; ------------------------------------
G21 ; mm
G90 ; abs
G92 E0 ;reset extr
G0 F600 Z1.450
;segType:Support
G0 F3000 E-1.00000
G0 X125.500 Y99.100 F5400
G0 F3000 E0.00000
G1 X130.600 Y99.100 E0.14419 F2400
G1 X130.600 Y100.900 E0.19507
G1 X125.500 Y100.900 E0.33926
G0 F3000 E-0.66074
G0 X123.789 Y90.132 F5400
G0 F3000 E0.33926
;segType:HShell
G1 X114.618 Y80.961 E0.77064 F2400
G0 X113.916 Y80.780 F5400
;segType:Perimeter
G1 X113.760 Y80.200 E0.79060 F1200
G1 X146.300 Y80.200 E1.87286
G1 X146.300 Y119.800 E3.18994
G1 X113.700 Y119.800 E4.27420
G1 X113.700 Y80.260 E5.58927
G0 X113.760 Y80.200 F5400
G0 X115.360 Y80.200
G0 X114.800 Y80.600
;segType:Loop
G1 X145.900 Y80.600 E6.62364 F2400
G1 X145.900 Y119.400 E7.91411
G1 X114.100 Y119.400 E8.97176
G1 X114.100 Y80.600 E10.26223
G1 X114.600 Y80.600 E10.27886
G0 F3000 E9.27886
G0 X114.106 Y80.200 F5400
G0 X124.550 Y88.659
G0 X124.550 Y91.200
G0 X127.688 Y91.200
G0 X145.540 Y105.659
G0 F3000 E10.27886
;segType:HShell
G1 X131.210 Y91.330 E10.95285 F2400
G0 X131.190 Y91.200 F5400
;segType:Perimeter
G1 X130.390 Y91.200 E10.97946 F1200
G1 X124.550 Y91.200 E11.17372
G1 X124.550 Y87.300 E11.30346
G1 X130.450 Y87.300 E11.49972
G1 X130.450 Y91.140 E11.62746
G0 X130.390 Y91.200 F5400
G0 X128.790 Y91.200
G0 X129.350 Y91.600
;segType:Loop
G1 X124.150 Y91.600 E11.80044 F2400
G1 X124.150 Y86.900 E11.95679
G1 X130.850 Y86.900 E12.17966
G1 X130.850 Y91.600 E12.33600
G1 X129.550 Y91.600 E12.37924
G0 F3000 E11.37924
G0 X128.376 Y91.200 F5400
G0 X124.550 Y91.200
G0 X124.550 Y89.897
G0 X114.460 Y86.460
G0 F3000 E12.37924
;segType:HShell
G1 X125.296 Y97.295 E12.88892 F2400
G0 X125.861 Y97.087 F5400
;segType:Perimeter
G1 X125.670 Y96.310 E12.91553 F1200
G1 X125.563 Y95.894 E12.92981
G1 X125.563 Y95.405 E12.94608
G1 X125.685 Y94.931 E12.96235
G1 X125.921 Y94.503 E12.97864
G1 X126.256 Y94.146 E12.99490
G1 X126.669 Y93.884 E13.01118
G1 X127.134 Y93.733 E13.02745
G1 X127.622 Y93.702 E13.04373
G1 X128.103 Y93.793 E13.06000
G1 X128.546 Y94.002 E13.07628
G1 X128.923 Y94.314 E13.09255
G1 X129.211 Y94.710 E13.10883
G1 X129.391 Y95.165 E13.12510
G1 X129.452 Y95.650 E13.14138
G1 X129.391 Y96.136 E13.15765
G1 X129.211 Y96.590 E13.17393
G1 X128.923 Y96.986 E13.19020
G1 X128.546 Y97.298 E13.20647
G1 X128.103 Y97.506 E13.22275
G1 X127.623 Y97.598 E13.23902
G1 X127.134 Y97.568 E13.25530
G1 X126.669 Y97.416 E13.27157
G1 X126.256 Y97.154 E13.28785
G1 X125.921 Y96.797 E13.30412
G1 X125.714 Y96.421 E13.31840
G0 X125.670 Y96.310 F5400
G0 X125.563 Y95.894
G0 X125.563 Y95.405
G0 X125.685 Y94.931
G0 X125.778 Y94.763
G0 X125.188 Y95.258
;segType:Loop
G1 X125.310 Y94.783 E13.33470 F2400
G1 X125.595 Y94.266 E13.35434
G1 X125.999 Y93.835 E13.37397
G1 X126.497 Y93.519 E13.39361
G1 X127.059 Y93.336 E13.41324
G1 X127.648 Y93.300 E13.43288
G1 X128.228 Y93.410 E13.45251
G1 X128.762 Y93.662 E13.47216
G1 X129.217 Y94.038 E13.49179
G1 X129.564 Y94.515 E13.51142
G1 X129.781 Y95.064 E13.53106
G1 X129.855 Y95.650 E13.55070
G1 X129.781 Y96.236 E13.57033
G1 X129.564 Y96.785 E13.58997
G1 X129.217 Y97.262 E13.60960
G1 X128.762 Y97.639 E13.62924
G1 X128.672 Y97.681 E13.63255
G0 X128.634 Y97.804 F5400
G0 X128.502 Y97.834
G0 X128.369 Y97.863
G1 X128.129 Y97.904 E13.64049 F2400
G1 X128.014 Y97.915 E13.64402
G1 X127.900 Y97.926 E13.64734
G1 X127.786 Y97.937 E13.65046
G1 X127.671 Y97.947 E13.65336
G1 X127.557 Y97.947 E13.65626
G1 X127.443 Y97.944 E13.65923
G1 X127.329 Y97.940 E13.66226
G1 X127.214 Y97.936 E13.66537
G1 X127.100 Y97.933 E13.66854
G1 X126.986 Y97.919 E13.67199
G1 X126.871 Y97.901 E13.67581
G1 X126.757 Y97.883 E13.67998
G1 X126.643 Y97.865 E13.68450
G0 X126.372 Y97.809 F5400
G1 X126.338 Y97.680 E13.68891 F2400
G1 X125.999 Y97.465 E13.70230
G1 X125.595 Y97.034 E13.72193
G1 X125.310 Y96.517 E13.74157
G1 X125.163 Y95.945 E13.76121
G1 X125.163 Y95.455 E13.77751
G0 F3000 E12.77751
G0 X126.059 Y98.300 F5400
G0 X123.800 Y98.300
G0 X123.800 Y113.700
G0 X130.908 Y113.700
G0 X131.148 Y114.461
G0 F3000 E13.77751
;segType:HShell
G1 X135.727 Y119.039 E13.99289 F2400
G0 X136.292 Y119.039 F5400
G1 X131.713 Y114.461 E14.20827 F2400
G0 X131.140 Y113.700 F5400
;segType:Perimeter
G1 X123.800 Y113.700 E14.45242 F1200
G1 X123.800 Y98.300 E14.96465
G1 X131.200 Y98.300 E15.21081
G1 X131.200 Y113.640 E15.72104
G0 X131.140 Y113.700 F5400
G0 X129.540 Y113.700
G0 X130.100 Y114.100
;segType:Loop
G1 X128.814 Y114.100 E15.76382 F2400
G0 X128.700 Y114.192 F5400
G0 X128.586 Y114.185
G0 X128.471 Y114.160
G0 X128.357 Y114.134
G0 X128.243 Y114.108
G1 X128.129 Y114.096 E15.76756 F2400
G1 X128.014 Y114.085 E15.77108
G1 X127.900 Y114.074 E15.77440
G1 X127.786 Y114.063 E15.77751
G1 X127.671 Y114.053 E15.78041
G1 X127.557 Y114.053 E15.78331
G1 X127.443 Y114.056 E15.78628
G1 X127.329 Y114.060 E15.78931
G1 X127.214 Y114.064 E15.79241
G1 X127.100 Y114.067 E15.79559
G1 X126.986 Y114.081 E15.79904
G1 X126.871 Y114.099 E15.80286
G1 X126.757 Y114.117 E15.80703
G1 X126.643 Y114.135 E15.81155
G1 X126.529 Y114.146 E15.81623
G1 X126.414 Y114.179 E15.82174
G1 X126.300 Y114.100 E15.82635
G1 X123.400 Y114.100 E15.92282
G1 X123.400 Y97.900 E16.46165
G1 X126.300 Y97.900 E16.55812
G1 X126.414 Y97.821 E16.56454
G1 X126.529 Y97.855 E16.56939
G0 X126.643 Y97.865 F5400
G0 X126.986 Y97.919
G0 X127.100 Y97.933
G0 X127.557 Y97.947
G0 X127.671 Y97.947
G0 X128.129 Y97.904
G1 X128.243 Y97.892 E16.57337 F2400
G1 X128.357 Y97.866 E16.57792
G1 X128.471 Y97.841 E16.58297
G1 X128.586 Y97.815 E16.58851
G1 X128.700 Y97.808 E16.59405
G1 X128.814 Y97.900 E16.59892
G1 X131.600 Y97.900 E16.69158
G1 X131.600 Y114.100 E17.23042
G1 X130.300 Y114.100 E17.27366
G0 F3000 E16.27366
G0 X129.430 Y113.700 F5400
G0 X123.800 Y113.700
G0 X123.800 Y111.114
G0 X114.460 Y106.824
G0 F3000 E17.27366
;segType:HShell
G1 X124.968 Y117.331 E17.76788 F2400
G0 X125.861 Y117.787 F5400
;segType:Perimeter
G1 X125.670 Y117.011 E17.79449 F1200
G1 X125.563 Y116.595 E17.80878
G1 X125.563 Y116.105 E17.82505
G1 X125.685 Y115.632 E17.84131
G1 X125.921 Y115.203 E17.85760
G1 X126.256 Y114.846 E17.87386
G1 X126.669 Y114.584 E17.89014
G1 X127.134 Y114.433 E17.90641
G1 X127.622 Y114.402 E17.92269
G1 X128.103 Y114.494 E17.93896
G1 X128.546 Y114.702 E17.95524
G1 X128.923 Y115.014 E17.97151
G1 X129.211 Y115.410 E17.98779
G1 X129.391 Y115.865 E18.00406
G1 X129.452 Y116.350 E18.02034
G1 X129.391 Y116.835 E18.03660
G1 X129.211 Y117.290 E18.05288
G1 X128.923 Y117.686 E18.06916
G1 X128.546 Y117.998 E18.08543
G1 X128.103 Y118.206 E18.10171
G1 X127.622 Y118.298 E18.11798
G1 X127.134 Y118.267 E18.13426
G1 X126.669 Y118.116 E18.15053
G1 X126.256 Y117.854 E18.16680
G1 X125.921 Y117.497 E18.18308
G1 X125.714 Y117.121 E18.19735
G0 X125.670 Y117.011 F5400
G0 X125.563 Y116.595
G0 X125.563 Y116.105
G0 X125.685 Y115.632
G0 X125.778 Y115.463
G0 X125.188 Y115.958
;segType:Loop
G1 X125.310 Y115.483 E18.21366 F2400
G1 X125.595 Y114.966 E18.23330
G1 X125.999 Y114.535 E18.25293
G1 X126.377 Y114.296 E18.26782
G0 X126.643 Y114.135 F5400
G0 X126.986 Y114.081
G0 X127.100 Y114.067
G0 X127.557 Y114.053
G0 X127.671 Y114.053
G0 X128.129 Y114.096
G1 X128.451 Y114.155 E18.28167 F2400
G1 X128.583 Y114.184 E18.28807
G1 X128.630 Y114.299 E18.29219
G1 X128.762 Y114.362 E18.29706
G1 X129.217 Y114.738 E18.31669
G1 X129.564 Y115.215 E18.33633
G1 X129.781 Y115.764 E18.35596
G1 X129.855 Y116.350 E18.37560
G1 X129.781 Y116.936 E18.39523
G1 X129.564 Y117.485 E18.41486
G1 X129.217 Y117.962 E18.43450
G1 X128.762 Y118.339 E18.45414
G1 X128.228 Y118.590 E18.47378
G1 X127.648 Y118.701 E18.49341
G1 X127.059 Y118.663 E18.51305
G1 X126.497 Y118.481 E18.53268
G1 X125.999 Y118.165 E18.55232
G1 X125.595 Y117.734 E18.57195
G1 X125.310 Y117.217 E18.59159
G1 X125.163 Y116.645 E18.61123
G1 X125.163 Y116.155 E18.62753
G0 X124.803 Y116.601 F5400
;segType:HShell
G1 X114.460 Y106.259 E19.11403 F2400
G0 X114.460 Y105.693 F5400
G1 X123.039 Y114.272 E19.51755 F2400
G0 X123.039 Y113.706 F5400
G1 X114.460 Y105.127 E19.92108 F2400
G0 X114.460 Y104.561 F5400
G1 X123.039 Y113.140 E20.32461 F2400
G0 X123.039 Y112.575 F5400
G1 X114.460 Y103.996 E20.72813 F2400
G0 X114.460 Y103.430 F5400
G1 X123.039 Y112.009 E21.13166 F2400
G0 X123.039 Y111.443 F5400
G1 X114.460 Y102.864 E21.53519 F2400
G0 X114.460 Y102.299 F5400
G1 X123.039 Y110.878 E21.93871 F2400
G0 X123.039 Y110.312 F5400
G1 X114.460 Y101.733 E22.34224 F2400
G0 X114.460 Y101.167 F5400
G1 X123.039 Y109.746 E22.74577 F2400
G0 X123.039 Y109.181 F5400
G1 X114.460 Y100.602 E23.14929 F2400
G0 X114.460 Y100.036 F5400
G1 X123.039 Y108.615 E23.55282 F2400
G0 X123.039 Y108.049 F5400
G1 X114.460 Y99.470 E23.95634 F2400
G0 X114.460 Y98.905 F5400
G1 X123.039 Y107.484 E24.35987 F2400
G0 X123.039 Y106.918 F5400
G1 X114.460 Y98.339 E24.76340 F2400
G0 X114.460 Y97.773 F5400
G1 X123.039 Y106.352 E25.16692 F2400
G0 X123.039 Y105.787 F5400
G1 X114.460 Y97.208 E25.57045 F2400
G0 X114.460 Y96.642 F5400
G1 X123.039 Y105.221 E25.97398 F2400
G0 X123.039 Y104.655 F5400
G1 X114.460 Y96.076 E26.37750 F2400
G0 X114.460 Y95.511 F5400
G1 X123.039 Y104.089 E26.78103 F2400
G0 X123.039 Y103.524 F5400
G1 X114.460 Y94.945 E27.18455 F2400
G0 X114.460 Y94.379 F5400
G1 X123.039 Y102.958 E27.58808 F2400
G0 X123.039 Y102.392 F5400
G1 X114.460 Y93.813 E27.99161 F2400
G0 X114.460 Y93.248 F5400
G1 X123.039 Y101.827 E28.39513 F2400
G0 X123.039 Y101.261 F5400
G1 X114.460 Y92.682 E28.79866 F2400
G0 X114.460 Y92.116 F5400
G1 X123.039 Y100.695 E29.20219 F2400
G0 X123.039 Y100.130 F5400
G1 X114.460 Y91.551 E29.60571 F2400
G0 X114.460 Y90.985 F5400
G1 X123.039 Y99.564 E30.00924 F2400
G0 X123.039 Y98.998 F5400
G1 X114.460 Y90.419 E30.41276 F2400
G0 X114.460 Y89.854 F5400
G1 X123.039 Y98.433 E30.81629 F2400
G0 X123.039 Y97.867 F5400
G1 X114.460 Y89.288 E31.21982 F2400
G0 X114.460 Y88.722 F5400
G1 X123.278 Y97.540 E31.63456 F2400
G0 X123.843 Y97.540 F5400
G1 X114.460 Y88.157 E32.07590 F2400
G0 X114.460 Y87.591 F5400
G1 X124.409 Y97.540 E32.54386 F2400
G0 X124.975 Y97.540 F5400
G1 X114.460 Y87.025 E33.03842 F2400
G0 X123.789 Y90.697 F5400
G1 X114.460 Y81.368 E33.47723 F2400
G0 X114.460 Y81.934 F5400
G1 X123.789 Y91.263 E33.91604 F2400
G0 X123.789 Y91.829 F5400
G1 X114.460 Y82.500 E34.35485 F2400
G0 X115.184 Y80.961 F5400
G1 X123.789 Y89.566 E34.75962 F2400
G0 X123.789 Y89.000 F5400
G1 X115.750 Y80.961 E35.13779 F2400
G0 X116.315 Y80.961 F5400
G1 X123.789 Y88.435 E35.48935 F2400
G0 X123.789 Y87.869 F5400
G1 X116.881 Y80.961 E35.81430 F2400
G0 X117.447 Y80.961 F5400
G1 X123.789 Y87.303 E36.11264 F2400
G0 X123.789 Y86.738 F5400
G1 X118.012 Y80.961 E36.38437 F2400
G0 X118.578 Y80.961 F5400
G1 X124.157 Y86.539 E36.64679 F2400
G0 X124.723 Y86.539 F5400
G1 X119.144 Y80.961 E36.90920 F2400
G0 X119.709 Y80.961 F5400
G1 X125.288 Y86.539 E37.17161 F2400
G0 X125.854 Y86.539 F5400
G1 X120.275 Y80.961 E37.43403 F2400
G0 X120.841 Y80.961 F5400
G1 X126.420 Y86.539 E37.69644 F2400
G0 X126.985 Y86.539 F5400
G1 X121.407 Y80.961 E37.95885 F2400
G0 X121.972 Y80.961 F5400
G1 X127.551 Y86.539 E38.22127 F2400
G0 X128.117 Y86.539 F5400
G1 X122.538 Y80.961 E38.48368 F2400
G0 X123.104 Y80.961 F5400
G1 X128.682 Y86.539 E38.74609 F2400
G0 X129.248 Y86.539 F5400
G1 X123.669 Y80.961 E39.00850 F2400
G0 X124.235 Y80.961 F5400
G1 X129.814 Y86.539 E39.27092 F2400
G0 X130.380 Y86.539 F5400
G1 X124.801 Y80.961 E39.53333 F2400
G0 X125.366 Y80.961 F5400
G1 X130.945 Y86.539 E39.79574 F2400
G0 X131.210 Y86.805 F5400
G1 X145.540 Y101.134 E40.46974 F2400
G0 X145.540 Y101.699 F5400
G1 X131.210 Y87.370 E41.14374 F2400
G0 X131.210 Y87.936 F5400
G1 X145.540 Y102.265 E41.81773 F2400
G0 X145.540 Y102.831 F5400
G1 X131.210 Y88.502 E42.49173 F2400
G0 X131.210 Y89.067 F5400
G1 X145.540 Y103.396 E43.16572 F2400
G0 X145.540 Y103.962 F5400
G1 X131.210 Y89.633 E43.83972 F2400
G0 X131.210 Y90.199 F5400
G1 X145.540 Y104.528 E44.51372 F2400
G0 X145.540 Y105.094 F5400
G1 X131.210 Y90.764 E45.18771 F2400
G0 F3000 E44.18771
G0 X130.450 Y89.353 F5400
G0 X130.450 Y87.300
G0 X129.345 Y87.300
G0 X125.932 Y80.961
G0 F3000 E45.18771
G1 X145.540 Y100.568 E46.10999 F2400
G0 X145.540 Y100.002 F5400
G1 X126.498 Y80.961 E47.00566 F2400
G0 X127.063 Y80.961 F5400
G1 X145.540 Y99.437 E47.87472 F2400
G0 X145.540 Y98.871 F5400
G1 X127.629 Y80.961 E48.71717 F2400
G0 X128.195 Y80.961 F5400
G1 X145.540 Y98.305 E49.53302 F2400
G0 X145.540 Y97.740 F5400
G1 X128.760 Y80.961 E50.32226 F2400
G0 X129.326 Y80.961 F5400
G1 X145.540 Y97.174 E51.08489 F2400
G0 X145.540 Y96.608 F5400
G1 X129.892 Y80.961 E51.82091 F2400
G0 X130.458 Y80.961 F5400
G1 X145.540 Y96.043 E52.53032 F2400
G0 X145.540 Y95.477 F5400
G1 X131.023 Y80.961 E53.21312 F2400
G0 X131.589 Y80.961 F5400
G1 X145.540 Y94.911 E53.86932 F2400
G0 X145.540 Y94.346 F5400
G1 X132.155 Y80.961 E54.49891 F2400
G0 X132.720 Y80.961 F5400
G1 X145.540 Y93.780 E55.10189 F2400
G0 X145.540 Y93.214 F5400
G1 X133.286 Y80.961 E55.67826 F2400
G0 X133.852 Y80.961 F5400
G1 X145.540 Y92.648 E56.22803 F2400
G0 X145.540 Y92.083 F5400
G1 X134.417 Y80.961 E56.75118 F2400
G0 X134.983 Y80.961 F5400
G1 X145.540 Y91.517 E57.24773 F2400
G0 X145.540 Y90.951 F5400
G1 X135.549 Y80.961 E57.71767 F2400
G0 X136.114 Y80.961 F5400
G1 X145.540 Y90.386 E58.16100 F2400
G0 X145.540 Y89.820 F5400
G1 X136.680 Y80.961 E58.57773 F2400
G0 X137.246 Y80.961 F5400
G1 X145.540 Y89.254 E58.96784 F2400
G0 X145.540 Y88.689 F5400
G1 X137.811 Y80.961 E59.33135 F2400
G0 X138.377 Y80.961 F5400
G1 X145.540 Y88.123 E59.66825 F2400
G0 X145.540 Y87.557 F5400
G1 X138.943 Y80.961 E59.97854 F2400
G0 X139.508 Y80.961 F5400
G1 X145.540 Y86.992 E60.26222 F2400
G0 X145.540 Y86.426 F5400
G1 X140.074 Y80.961 E60.51930 F2400
G0 X140.640 Y80.961 F5400
G1 X145.540 Y85.860 E60.74977 F2400
G0 X145.540 Y85.295 F5400
G1 X141.206 Y80.961 E60.95362 F2400
G0 X141.771 Y80.961 F5400
G1 X145.540 Y84.729 E61.13087 F2400
G0 X145.540 Y84.163 F5400
G1 X142.337 Y80.961 E61.28152 F2400
G0 X142.903 Y80.961 F5400
G1 X145.540 Y83.597 E61.40555 F2400
G0 X145.540 Y83.032 F5400
G1 X143.468 Y80.961 E61.50298 F2400
G0 X144.034 Y80.961 F5400
G1 X145.540 Y82.466 E61.57380 F2400
G0 X145.540 Y81.900 F5400
G1 X144.600 Y80.961 E61.61801 F2400
G0 X145.165 Y80.961 F5400
G1 X145.540 Y81.335 E61.63561 F2400
G0 X145.540 Y106.225 F5400
G1 X131.210 Y91.896 E62.30960 F2400
G0 X130.709 Y91.960 F5400
G1 X145.540 Y106.791 E63.00717 F2400
G0 X145.540 Y107.356 F5400
G1 X130.144 Y91.960 E63.73134 F2400
G0 X129.578 Y91.960 F5400
G1 X145.540 Y107.922 E64.48213 F2400
G0 X145.540 Y108.488 F5400
G1 X129.012 Y91.960 E65.25952 F2400
G0 X128.447 Y91.960 F5400
G1 X145.540 Y109.053 E66.06352 F2400
G0 X145.540 Y109.619 F5400
G1 X127.881 Y91.960 E66.89412 F2400
G0 X127.315 Y91.960 F5400
G1 X128.490 Y93.136 E66.94940 F2400
G0 X127.740 Y92.950 F5400
G1 X126.750 Y91.960 E66.99597 F2400
G0 X126.184 Y91.960 F5400
G1 X127.191 Y92.967 E67.04334 F2400
G0 X126.724 Y93.067 F5400
G1 X125.618 Y91.960 E67.09536 F2400
G0 X125.053 Y91.960 F5400
G1 X126.306 Y93.214 E67.15432 F2400
G0 X125.960 Y93.433 F5400
G1 X124.487 Y91.960 E67.22361 F2400
G0 X123.921 Y91.960 F5400
G1 X125.646 Y93.685 E67.30474 F2400
G0 X125.372 Y93.977 F5400
G1 X114.460 Y83.065 E67.81797 F2400
G0 X114.460 Y83.631 F5400
G1 X125.152 Y94.323 E68.32088 F2400
G0 X124.960 Y94.697 F5400
G1 X114.460 Y84.197 E68.81477 F2400
G0 X114.460 Y84.762 F5400
G1 X124.845 Y95.147 E69.30323 F2400
G0 X124.803 Y95.671 F5400
G1 X114.460 Y85.328 E69.78972 F2400
G0 X114.460 Y85.894 F5400
G1 X124.888 Y96.322 E70.28021 F2400
G0 X125.386 Y97.495 F5400
;segType:InnerHair
G1 X125.500 Y97.507 E70.28390 F2400
G1 X125.614 Y97.557 E70.28687
G1 X125.729 Y97.606 E70.28881
G1 X125.755 Y97.617 E70.28919
G1 X125.642 Y97.569 E70.29187
G1 X125.529 Y97.520 E70.29555
G1 X125.416 Y97.471 E70.30023
G1 X125.386 Y97.495 E70.30155
G0 F3000 E69.30155
G0 X126.939 Y97.504 F5400
G0 X127.134 Y97.568
G0 X127.623 Y97.598
G0 X128.080 Y97.511
G0 X129.500 Y97.519
G0 F3000 E70.30155
G1 X129.386 Y97.578 E70.30416 F2400
G1 X129.271 Y97.603 E70.30605
G1 X129.248 Y97.611 E70.30641
G1 X129.367 Y97.568 E70.30917
G1 X129.486 Y97.525 E70.31283
G1 X129.594 Y97.472 E70.31740
G1 X129.500 Y97.519 E70.32056
G0 X129.715 Y97.189 F5400
;segType:HShell
G1 X130.066 Y97.540 E70.33705 F2400
G0 X130.632 Y97.540 F5400
G1 X129.930 Y96.838 E70.37005 F2400
G0 X130.091 Y96.433 F5400
G1 X131.197 Y97.540 E70.42211 F2400
G0 X131.763 Y97.540 F5400
G1 X130.179 Y95.956 E70.49660 F2400
G0 X130.186 Y95.397 F5400
G1 X145.540 Y110.750 E71.21878 F2400
G0 X145.540 Y110.185 F5400
G1 X130.004 Y94.650 E71.94950 F2400
G0 X131.961 Y97.737 F5400
G1 X145.540 Y111.316 E72.58822 F2400
G0 X145.540 Y111.882 F5400
G1 X131.961 Y98.303 E73.22694 F2400
G0 X131.961 Y98.868 F5400
G1 X145.540 Y112.447 E73.86566 F2400
G0 X145.540 Y113.013 F5400
G1 X131.961 Y99.434 E74.50437 F2400
G0 X131.961 Y100.000 F5400
G1 X145.540 Y113.579 E75.14309 F2400
G0 X145.540 Y114.145 F5400
G1 X131.961 Y100.566 E75.78181 F2400
G0 X131.961 Y101.131 F5400
G1 X145.540 Y114.710 E76.42053 F2400
G0 X145.540 Y115.276 F5400
G1 X131.961 Y101.697 E77.05924 F2400
G0 X131.961 Y102.263 F5400
G1 X145.540 Y115.842 E77.69796 F2400
G0 X145.540 Y116.407 F5400
G1 X131.961 Y102.828 E78.33668 F2400
G0 X131.961 Y103.394 F5400
G1 X145.540 Y116.973 E78.97540 F2400
G0 X145.540 Y117.539 F5400
G1 X131.961 Y103.960 E79.61412 F2400
G0 X131.961 Y104.525 F5400
G1 X145.540 Y118.104 E80.25283 F2400
G0 X145.540 Y118.670 F5400
G1 X131.961 Y105.091 E80.89155 F2400
G0 X131.961 Y105.657 F5400
G1 X145.343 Y119.039 E81.52104 F2400
G0 X144.778 Y119.039 F5400
G1 X131.961 Y106.222 E82.12391 F2400
G0 X131.961 Y106.788 F5400
G1 X144.212 Y119.039 E82.70018 F2400
G0 X143.646 Y119.039 F5400
G1 X131.961 Y107.354 E83.24984 F2400
G0 X131.961 Y107.919 F5400
G1 X143.081 Y119.039 E83.77290 F2400
G0 X142.515 Y119.039 F5400
G1 X131.961 Y108.485 E84.26934 F2400
G0 X131.961 Y109.051 F5400
G1 X141.949 Y119.039 E84.73917 F2400
G0 X141.384 Y119.039 F5400
G1 X131.961 Y109.616 E85.18240 F2400
G0 X131.961 Y110.182 F5400
G1 X140.818 Y119.039 E85.59902 F2400
G0 X140.252 Y119.039 F5400
G1 X131.961 Y110.748 E85.98904 F2400
G0 X131.961 Y111.314 F5400
G1 X139.686 Y119.039 E86.35244 F2400
G0 X139.121 Y119.039 F5400
G1 X131.961 Y111.879 E86.68924 F2400
G0 X131.961 Y112.445 F5400
G1 X138.555 Y119.039 E86.99943 F2400
G0 X137.989 Y119.039 F5400
G1 X131.961 Y113.011 E87.28300 F2400
G0 X131.961 Y113.576 F5400
G1 X137.424 Y119.039 E87.53998 F2400
G0 X136.858 Y119.039 F5400
G1 X131.961 Y114.142 E87.77034 F2400
G0 X130.582 Y114.461 F5400
G1 X135.161 Y119.039 E87.98572 F2400
G0 X134.595 Y119.039 F5400
G1 X130.016 Y114.461 E88.20110 F2400
G0 X129.592 Y114.602 F5400
G1 X134.030 Y119.039 E88.40981 F2400
G0 X133.464 Y119.039 F5400
G1 X130.138 Y115.713 E88.56626 F2400
G0 X130.217 Y116.358 F5400
G1 X132.898 Y119.039 E88.69238 F2400
G0 X132.333 Y119.039 F5400
G1 X130.154 Y116.861 E88.79486 F2400
G0 X130.025 Y117.298 F5400
G1 X131.767 Y119.039 E88.87679 F2400
G0 X131.201 Y119.039 F5400
G1 X129.856 Y117.695 E88.94004 F2400
G0 X129.618 Y118.022 F5400
G1 X130.636 Y119.039 E88.98788 F2400
G0 X130.070 Y119.039 F5400
G1 X129.350 Y118.320 E89.02174 F2400
G0 X129.505 Y118.757 F5400
G1 X128.807 Y118.908 E89.08109 F2400
G0 X128.471 Y118.960 F5400
;segType:InnerHair
G1 X128.357 Y118.986 E89.08524 F2400
G1 X128.243 Y118.997 E89.08911
G1 X128.129 Y119.008 E89.09277
G1 X128.014 Y119.019 E89.09623
G1 X127.900 Y119.029 E89.09948
G1 X127.786 Y119.040 E89.10252
G1 X127.671 Y119.051 E89.10536
G1 X127.557 Y119.048 E89.10825
G1 X127.443 Y119.044 E89.11121
G1 X127.329 Y119.040 E89.11424
G1 X127.214 Y119.037 E89.11734
G1 X127.100 Y119.033 E89.12051
G1 X126.986 Y119.029 E89.12375
G1 X126.871 Y119.011 E89.12737
G1 X126.757 Y118.993 E89.13135
G1 X126.643 Y118.975 E89.13567
G0 X126.495 Y118.859 F5400
;segType:HShell
G1 X126.528 Y118.892 E89.13722 F2400
G0 X126.110 Y119.039 F5400
G1 X114.460 Y107.390 E89.68518 F2400
G0 X114.460 Y107.956 F5400
G1 X125.544 Y119.039 E90.20654 F2400
G0 X124.979 Y119.039 F5400
G1 X114.460 Y108.521 E90.70128 F2400
G0 X114.460 Y109.087 F5400
G1 X124.413 Y119.039 E91.16941 F2400
G0 X123.847 Y119.039 F5400
G1 X114.460 Y109.653 E91.61094 F2400
G0 X114.460 Y110.218 F5400
G1 X123.282 Y119.039 E92.02586 F2400
G0 X122.716 Y119.039 F5400
G1 X114.460 Y110.784 E92.41417 F2400
G0 X114.460 Y111.350 F5400
G1 X122.150 Y119.039 E92.77587 F2400
G0 X121.585 Y119.039 F5400
G1 X114.460 Y111.915 E93.11097 F2400
G0 X114.460 Y112.481 F5400
G1 X121.019 Y119.039 E93.41946 F2400
G0 X120.453 Y119.039 F5400
G1 X114.460 Y113.047 E93.70133 F2400
G0 X114.460 Y113.612 F5400
G1 X119.887 Y119.039 E93.95660 F2400
G0 X119.322 Y119.039 F5400
G1 X114.460 Y114.178 E94.18526 F2400
G0 X114.460 Y114.744 F5400
G1 X118.756 Y119.039 E94.38732 F2400
G0 X118.190 Y119.039 F5400
G1 X114.460 Y115.309 E94.56277 F2400
G0 X114.460 Y115.875 F5400
G1 X117.625 Y119.039 E94.71160 F2400
G0 X117.059 Y119.039 F5400
G1 X114.460 Y116.441 E94.83383 F2400
G0 X114.460 Y117.007 F5400
G1 X116.493 Y119.039 E94.92945 F2400
G0 X115.928 Y119.039 F5400
G1 X114.460 Y117.572 E94.99847 F2400
G0 X114.460 Y118.138 F5400
G1 X115.362 Y119.039 E95.04087 F2400
G0 X114.796 Y119.039 F5400
G1 X114.460 Y118.704 E95.05667 F2400
G0 X123.228 Y114.461 F5400
G1 X124.803 Y116.036 E95.13076 F2400
G0 X124.913 Y115.580 F5400
G1 X123.794 Y114.461 E95.18342 F2400
G0 X124.360 Y114.461 F5400
G1 X125.070 Y115.172 E95.21686 F2400
G0 X125.271 Y114.807 F5400
G1 X124.925 Y114.461 E95.23313 F2400
G0 X125.386 Y114.505 F5400
;segType:InnerHair
G1 X125.500 Y114.493 E95.23682 F2400
G1 X125.614 Y114.444 E95.23978
G1 X125.729 Y114.394 E95.24172
G1 X125.686 Y114.413 E95.24260
G1 X125.573 Y114.462 E95.24590
G1 X125.460 Y114.510 E95.25018
G1 X125.386 Y114.505 E95.25272
G0 F3000 E94.25272
G0 X126.939 Y114.496 F5400
G0 X127.134 Y114.433
G0 X127.622 Y114.402
G0 X128.080 Y114.489
G0 X129.500 Y114.481
G0 F3000 E95.25272
G1 X129.386 Y114.422 E95.25532 F2400
G1 X129.271 Y114.397 E95.25720
G1 X129.322 Y114.415 E95.25822
G1 X129.440 Y114.458 E95.26153
G1 X129.553 Y114.507 E95.26575
G1 X129.500 Y114.481 E95.26752
; ------------------------------------
; Layer #1
; ------------------------------------
G92 E0 ;reset extr
G0 F3000 E-1.00000
G0 F600 Z1.300
G0 X131.200 Y113.700 F7200
G0 X131.200 Y98.300
G0 X130.600 Y100.900
G0 F3000 E0.00000
;segType:Support
G1 X125.500 Y100.900 E0.07209 F1691
G1 X125.500 Y99.100 E0.09754
G1 X130.600 Y99.100 E0.16963
G0 F3000 E-0.83037
G0 X130.009 Y98.300 F7200
G0 X128.980 Y96.907
G0 X129.211 Y96.590
G0 X129.391 Y96.136
G0 X129.452 Y95.650
G0 X129.391 Y95.165
G0 X129.211 Y94.710
G0 X128.923 Y94.314
G0 X128.546 Y94.002
G0 X128.103 Y93.793
G0 X127.622 Y93.702
G0 X127.134 Y93.733
G0 X126.731 Y93.864
G0 X124.764 Y91.200
G0 X124.550 Y91.200
G0 X124.550 Y90.911
G0 X117.198 Y80.961
G0 F3000 E0.16963
;segType:HShell
G1 X114.460 Y83.698 E0.23402 F2880
G0 X114.460 Y83.133 F7200
G1 X116.633 Y80.961 E0.28511 F2880
G0 X116.067 Y80.961 F7200
G1 X114.460 Y82.567 E0.32289 F2880
G0 X114.460 Y82.001 F7200
G1 X115.501 Y80.961 E0.34737 F2880
G0 X114.936 Y80.961 F7200
G1 X114.460 Y81.436 E0.35854 F2880
G0 X113.916 Y80.780 F7200
;segType:Perimeter
G1 X113.760 Y80.200 E0.36852 F1440
G1 X146.300 Y80.200 E0.90965
G1 X146.300 Y119.800 E1.56819
G1 X113.700 Y119.800 E2.11032
G1 X113.700 Y80.260 E2.76786
G0 X113.760 Y80.200 F7200
G0 X115.360 Y80.200
G0 X114.800 Y80.600
;segType:Loop
G1 X145.900 Y80.600 E3.28504 F2880
G1 X145.900 Y119.400 E3.93028
G1 X114.100 Y119.400 E4.45910
G1 X114.100 Y80.600 E5.10433
G1 X114.600 Y80.600 E5.11265
G0 F3000 E4.11265
G0 X140.957 Y80.961 F7200
G0 F3000 E5.11265
;segType:HShell
G1 X131.210 Y90.707 E5.34187 F2880
G0 X131.190 Y91.200 F7200
;segType:Perimeter
G1 X130.390 Y91.200 E5.35518 F1440
G1 X124.550 Y91.200 E5.45231
G1 X124.550 Y87.300 E5.51718
G1 X130.450 Y87.300 E5.61531
G1 X130.450 Y91.140 E5.67918
G0 X130.390 Y91.200 F7200
G0 X128.790 Y91.200
G0 X129.350 Y91.600
;segType:Loop
G1 X124.150 Y91.600 E5.76567 F2880
G1 X124.150 Y86.900 E5.84384
G1 X130.850 Y86.900 E5.95528
G1 X130.850 Y91.600 E6.03345
G1 X129.550 Y91.600 E6.05507
G0 F3000 E5.05507
G0 X129.977 Y91.200 F7200
G0 X127.288 Y93.723
G0 X127.134 Y93.733
G0 X126.669 Y93.884
G0 X126.256 Y94.146
G0 X125.921 Y94.503
G0 X125.685 Y94.931
G0 X125.585 Y95.321
G0 X114.460 Y105.760
G0 F3000 E6.05507
;segType:HShell
G1 X124.803 Y95.417 E6.29832 F2880
G0 X124.803 Y95.983 F7200
G1 X123.247 Y97.540 E6.33493 F2880
G0 X123.812 Y97.540 F7200
G1 X124.917 Y96.435 E6.36091 F2880
G0 X125.077 Y96.841 F7200
G1 X124.378 Y97.540 E6.37735 F2880
G0 X124.944 Y97.540 F7200
G1 X125.278 Y97.205 E6.38521 F2880
G0 X125.861 Y97.087 F7200
;segType:Perimeter
G1 X125.670 Y96.310 E6.39851 F1440
G1 X125.563 Y95.894 E6.40566
G1 X125.563 Y95.405 E6.41379
G1 X125.685 Y94.931 E6.42192
G1 X125.921 Y94.503 E6.43007
G1 X126.256 Y94.146 E6.43820
G1 X126.669 Y93.884 E6.44634
G1 X127.134 Y93.733 E6.45447
G1 X127.622 Y93.702 E6.46261
G1 X128.103 Y93.793 E6.47075
G1 X128.546 Y94.002 E6.47889
G1 X128.923 Y94.314 E6.48702
G1 X129.211 Y94.710 E6.49516
G1 X129.391 Y95.165 E6.50330
G1 X129.452 Y95.650 E6.51144
G1 X129.391 Y96.136 E6.51957
G1 X129.211 Y96.590 E6.52771
G1 X128.923 Y96.986 E6.53585
G1 X128.546 Y97.298 E6.54398
G1 X128.103 Y97.506 E6.55212
G1 X127.623 Y97.598 E6.56026
G1 X127.134 Y97.568 E6.56840
G1 X126.669 Y97.416 E6.57653
G1 X126.256 Y97.154 E6.58467
G1 X125.921 Y96.797 E6.59281
G1 X125.714 Y96.421 E6.59995
G0 X125.670 Y96.310 F7200
G0 X125.563 Y95.894
G0 X125.563 Y95.405
G0 X125.685 Y94.931
G0 X125.778 Y94.763
G0 X125.188 Y95.258
;segType:Loop
G1 X125.310 Y94.783 E6.60810 F2880
G1 X125.595 Y94.266 E6.61792
G1 X125.999 Y93.835 E6.62773
G1 X126.497 Y93.519 E6.63755
G1 X127.059 Y93.336 E6.64737
G1 X127.648 Y93.300 E6.65719
G1 X128.228 Y93.410 E6.66700
G1 X128.762 Y93.662 E6.67683
G1 X129.217 Y94.038 E6.68664
G1 X129.564 Y94.515 E6.69646
G1 X129.781 Y95.064 E6.70628
G1 X129.855 Y95.650 E6.71610
G1 X129.781 Y96.236 E6.72591
G1 X129.564 Y96.785 E6.73573
G1 X129.217 Y97.262 E6.74555
G1 X128.762 Y97.639 E6.75537
G1 X128.672 Y97.681 E6.75702
G0 X128.634 Y97.804 F7200
G0 X128.502 Y97.834
G0 X128.369 Y97.863
G1 X128.129 Y97.904 E6.76100 F2880
G1 X128.014 Y97.915 E6.76276
G1 X127.900 Y97.926 E6.76442
G1 X127.786 Y97.937 E6.76598
G1 X127.671 Y97.947 E6.76743
G1 X127.557 Y97.947 E6.76888
G1 X127.443 Y97.944 E6.77036
G1 X127.329 Y97.940 E6.77188
G1 X127.214 Y97.936 E6.77343
G1 X127.100 Y97.933 E6.77502
G1 X126.986 Y97.919 E6.77674
G1 X126.871 Y97.901 E6.77865
G1 X126.757 Y97.883 E6.78074
G1 X126.643 Y97.865 E6.78300
G0 X126.372 Y97.809 F7200
G1 X126.338 Y97.680 E6.78520 F2880
G1 X125.999 Y97.465 E6.79190
G1 X125.595 Y97.034 E6.80171
G1 X125.310 Y96.517 E6.81153
G1 X125.163 Y95.945 E6.82135
G1 X125.163 Y95.455 E6.82950
G0 F3000 E5.82950
G0 X125.563 Y95.558 F7200
G0 X125.563 Y95.894
G0 X125.685 Y96.369
G0 X125.921 Y96.797
G0 X126.256 Y97.154
G0 X126.669 Y97.416
G0 X127.134 Y97.568
G0 X127.623 Y97.598
G0 X128.103 Y97.506
G0 X128.546 Y97.298
G0 X128.923 Y96.986
G0 X129.211 Y96.590
G0 X129.244 Y96.506
G0 X146.300 Y100.898
G0 X145.540 Y100.703
G0 F3000 E6.82950
;segType:HShell
G1 X131.961 Y114.282 E7.14886 F2880
G0 X131.216 Y114.461 F7200
G1 X130.096 Y115.581 E7.17520 F2880
G0 X130.182 Y116.061 F7200
G1 X131.782 Y114.461 E7.21283 F2880
G0 X131.140 Y113.700 F7200
;segType:Perimeter
G1 X123.800 Y113.700 E7.33491 F1440
G1 X123.800 Y98.300 E7.59103
G1 X131.200 Y98.300 E7.71410
G1 X131.200 Y113.640 E7.96922
G0 X131.140 Y113.700 F7200
G0 X129.540 Y113.700
G0 X130.100 Y114.100
;segType:Loop
G1 X128.814 Y114.100 E7.99061 F2880
G0 X128.700 Y114.192 F7200
G0 X128.586 Y114.185
G0 X128.471 Y114.160
G0 X128.357 Y114.134
G0 X128.243 Y114.108
G1 X128.129 Y114.096 E7.99248 F2880
G1 X128.014 Y114.085 E7.99424
G1 X127.900 Y114.074 E7.99590
G1 X127.786 Y114.063 E7.99746
G1 X127.671 Y114.053 E7.99891
G1 X127.557 Y114.053 E8.00036
G1 X127.443 Y114.056 E8.00184
G1 X127.329 Y114.060 E8.00336
G1 X127.214 Y114.064 E8.00491
G1 X127.100 Y114.067 E8.00649
G1 X126.986 Y114.081 E8.00822
G1 X126.871 Y114.099 E8.01013
G1 X126.757 Y114.117 E8.01221
G1 X126.643 Y114.135 E8.01447
G1 X126.529 Y114.146 E8.01681
G1 X126.414 Y114.179 E8.01957
G1 X126.300 Y114.100 E8.02187
G1 X123.400 Y114.100 E8.07011
G1 X123.400 Y97.900 E8.33953
G1 X126.300 Y97.900 E8.38776
G1 X126.414 Y97.821 E8.39097
G1 X126.529 Y97.855 E8.39340
G0 X126.643 Y97.865 F7200
G0 X126.986 Y97.919
G0 X127.100 Y97.933
G0 X127.557 Y97.947
G0 X127.671 Y97.947
G0 X128.129 Y97.904
G1 X128.243 Y97.892 E8.39539 F2880
G1 X128.357 Y97.866 E8.39766
G1 X128.471 Y97.841 E8.40018
G1 X128.586 Y97.815 E8.40295
G1 X128.700 Y97.808 E8.40573
G1 X128.814 Y97.900 E8.40816
G1 X131.600 Y97.900 E8.45449
G1 X131.600 Y114.100 E8.72391
G1 X130.300 Y114.100 E8.74553
G0 F3000 E7.74553
G0 X130.821 Y113.700 F7200
G0 X131.200 Y113.700
G0 X131.200 Y113.409
G0 X145.540 Y102.400
G0 F3000 E8.74553
;segType:HShell
G1 X128.900 Y119.039 E9.13687 F2880
G0 X128.526 Y118.848 F7200
G1 X128.513 Y118.860 E9.13717 F2880
G0 X128.471 Y118.960 F7200
;segType:InnerHair
G1 X128.357 Y118.986 E9.13925 F2880
G1 X128.243 Y118.997 E9.14118
G1 X128.129 Y119.008 E9.14301
G1 X128.014 Y119.019 E9.14474
G1 X127.900 Y119.029 E9.14637
G1 X127.786 Y119.040 E9.14789
G1 X127.671 Y119.051 E9.14931
G1 X127.557 Y119.048 E9.15075
G1 X127.443 Y119.044 E9.15223
G1 X127.329 Y119.040 E9.15374
G1 X127.214 Y119.037 E9.15529
G1 X127.100 Y119.033 E9.15687
G1 X126.986 Y119.029 E9.15849
G1 X126.871 Y119.011 E9.16031
G1 X126.757 Y118.993 E9.16229
G1 X126.643 Y118.975 E9.16446
G0 X126.317 Y118.793 F7200
;segType:HShell
G0 X126.422 Y118.971
G1 X125.738 Y118.807 E9.18615 F2880
G0 X125.655 Y118.325 F7200
G1 X124.940 Y119.039 E9.20296 F2880
G0 X124.374 Y119.039 F7200
G1 X125.381 Y118.033 E9.22664 F2880
G0 X125.861 Y117.787 F7200
;segType:Perimeter
G1 X125.670 Y117.011 E9.23994 F1440
G1 X125.563 Y116.595 E9.24708
G1 X125.563 Y116.105 E9.25522
G1 X125.685 Y115.632 E9.26335
G1 X125.921 Y115.203 E9.27150
G1 X126.256 Y114.846 E9.27963
G1 X126.669 Y114.584 E9.28777
G1 X127.134 Y114.433 E9.29590
G1 X127.622 Y114.402 E9.30404
G1 X128.103 Y114.494 E9.31218
G1 X128.546 Y114.702 E9.32032
G1 X128.923 Y115.014 E9.32845
G1 X129.211 Y115.410 E9.33659
G1 X129.391 Y115.865 E9.34473
G1 X129.452 Y116.350 E9.35287
G1 X129.391 Y116.835 E9.36100
G1 X129.211 Y117.290 E9.36914
G1 X128.923 Y117.686 E9.37728
G1 X128.546 Y117.998 E9.38541
G1 X128.103 Y118.206 E9.39355
G1 X127.622 Y118.298 E9.40169
G1 X127.134 Y118.267 E9.40983
G1 X126.669 Y118.116 E9.41796
G1 X126.256 Y117.854 E9.42610
G1 X125.921 Y117.497 E9.43424
G1 X125.714 Y117.121 E9.44137
G0 X125.670 Y117.011 F7200
G0 X125.563 Y116.595
G0 X125.563 Y116.105
G0 X125.685 Y115.632
G0 X125.778 Y115.463
G0 X125.188 Y115.958
;segType:Loop
G1 X125.310 Y115.483 E9.44953 F2880
G1 X125.595 Y114.966 E9.45935
G1 X125.999 Y114.535 E9.46916
G1 X126.377 Y114.296 E9.47661
G0 X126.643 Y114.135 F7200
G0 X126.986 Y114.081
G0 X127.100 Y114.067
G0 X127.557 Y114.053
G0 X127.671 Y114.053
G0 X128.129 Y114.096
G1 X128.451 Y114.155 E9.48353 F2880
G1 X128.583 Y114.184 E9.48673
G1 X128.630 Y114.299 E9.48879
G1 X128.762 Y114.362 E9.49123
G1 X129.217 Y114.738 E9.50104
G1 X129.564 Y115.215 E9.51086
G1 X129.781 Y115.764 E9.52068
G1 X129.855 Y116.350 E9.53050
G1 X129.781 Y116.936 E9.54031
G1 X129.564 Y117.485 E9.55013
G1 X129.217 Y117.962 E9.55995
G1 X128.762 Y118.339 E9.56977
G1 X128.228 Y118.590 E9.57959
G1 X127.648 Y118.701 E9.58940
G1 X127.059 Y118.663 E9.59922
G1 X126.497 Y118.481 E9.60904
G1 X125.999 Y118.165 E9.61886
G1 X125.595 Y117.734 E9.62867
G1 X125.310 Y117.217 E9.63849
G1 X125.163 Y116.645 E9.64831
G1 X125.163 Y116.155 E9.65646
G0 X125.159 Y117.689 F7200
;segType:HShell
G1 X123.809 Y119.039 E9.68822 F2880
G0 X123.243 Y119.039 F7200
G1 X124.964 Y117.318 E9.72870 F2880
G0 X124.849 Y116.868 F7200
G1 X122.677 Y119.039 E9.77978 F2880
G0 X122.112 Y119.039 F7200
G1 X124.803 Y116.348 E9.84308 F2880
G0 X124.882 Y115.703 F7200
G1 X121.546 Y119.039 E9.92154 F2880
G0 X120.980 Y119.039 F7200
G1 X125.405 Y114.615 E10.02560 F2880
G0 X124.993 Y114.461 F7200
G1 X120.414 Y119.039 E10.13329 F2880
G0 X119.849 Y119.039 F7200
G1 X124.428 Y114.461 E10.24097 F2880
G0 X123.862 Y114.461 F7200
G1 X119.283 Y119.039 E10.34866 F2880
G0 X118.717 Y119.039 F7200
G1 X123.296 Y114.461 E10.45635 F2880
G0 X123.039 Y114.152 F7200
G1 X118.152 Y119.039 E10.57130 F2880
G0 X117.586 Y119.039 F7200
G1 X123.039 Y113.586 E10.69956 F2880
G0 X123.039 Y113.020 F7200
G1 X117.020 Y119.039 E10.84112 F2880
G0 X116.455 Y119.039 F7200
G1 X123.039 Y112.455 E10.99598 F2880
G0 X123.039 Y111.889 F7200
G1 X115.889 Y119.039 E11.16415 F2880
G0 X115.323 Y119.039 F7200
G1 X123.039 Y111.323 E11.34562 F2880
G0 X123.039 Y110.758 F7200
G1 X114.758 Y119.039 E11.54039 F2880
G0 X114.460 Y118.771 F7200
G1 X123.039 Y110.192 E11.74216 F2880
G0 X123.039 Y109.626 F7200
G1 X114.460 Y118.205 E11.94392 F2880
G0 X114.460 Y117.640 F7200
G1 X123.039 Y109.061 E12.14568 F2880
G0 X123.039 Y108.495 F7200
G1 X114.460 Y117.074 E12.34745 F2880
G0 X114.460 Y116.508 F7200
G1 X123.039 Y107.929 E12.54921 F2880
G0 X123.039 Y107.364 F7200
G1 X114.460 Y115.942 E12.75097 F2880
G0 X114.460 Y115.377 F7200
G1 X123.039 Y106.798 E12.95274 F2880
G0 X123.039 Y106.232 F7200
G1 X114.460 Y114.811 E13.15450 F2880
G0 X114.460 Y114.245 F7200
G1 X123.039 Y105.667 E13.35626 F2880
G0 X123.039 Y105.101 F7200
G1 X114.460 Y113.680 E13.55803 F2880
G0 X114.460 Y113.114 F7200
G1 X123.039 Y104.535 E13.75979 F2880
G0 X123.039 Y103.969 F7200
G1 X114.460 Y112.548 E13.96155 F2880
G0 X114.460 Y111.983 F7200
G1 X123.039 Y103.404 E14.16331 F2880
G0 X123.039 Y102.838 F7200
G1 X114.460 Y111.417 E14.36508 F2880
G0 X114.460 Y110.851 F7200
G1 X123.039 Y102.272 E14.56684 F2880
G0 X123.039 Y101.707 F7200
G1 X114.460 Y110.286 E14.76860 F2880
G0 X114.460 Y109.720 F7200
G1 X123.039 Y101.141 E14.97037 F2880
G0 X123.039 Y100.575 F7200
G1 X114.460 Y109.154 E15.17213 F2880
G0 X114.460 Y108.589 F7200
G1 X123.039 Y100.010 E15.37389 F2880
G0 X123.039 Y99.444 F7200
G1 X114.460 Y108.023 E15.57566 F2880
G0 X114.460 Y107.457 F7200
G1 X123.039 Y98.878 E15.77742 F2880
G0 X123.039 Y98.313 F7200
G1 X114.460 Y106.892 E15.97919 F2880
G0 X114.460 Y106.326 F7200
G1 X123.039 Y97.747 E16.18095 F2880
G0 X125.386 Y97.495 F7200
;segType:InnerHair
G1 X125.500 Y97.507 E16.18279 F2880
G1 X125.614 Y97.557 E16.18427
G1 X125.729 Y97.606 E16.18524
G1 X125.755 Y97.617 E16.18544
G1 X125.642 Y97.569 E16.18678
G1 X125.529 Y97.520 E16.18862
G1 X125.416 Y97.471 E16.19096
G1 X125.386 Y97.495 E16.19162
G0 F3000 E15.19162
G0 X126.939 Y97.504 F7200
G0 X127.134 Y97.568
G0 X127.623 Y97.598
G0 X128.080 Y97.511
G0 X129.500 Y97.519
G0 F3000 E16.19162
G1 X129.386 Y97.578 E16.19292 F2880
G1 X129.271 Y97.603 E16.19387
G1 X129.248 Y97.611 E16.19405
G1 X129.367 Y97.568 E16.19543
G1 X129.486 Y97.525 E16.19726
G1 X129.594 Y97.472 E16.19955
G1 X129.500 Y97.519 E16.20113
G0 F3000 E15.20113
G0 X131.210 Y91.839 F7200
G0 F3000 E16.20113
;segType:HShell
G1 X142.088 Y80.961 E16.45696 F2880
G0 X141.523 Y80.961 F7200
G1 X131.210 Y91.273 E16.69949 F2880
G0 X124.961 Y94.694 F7200
G1 X114.460 Y105.194 E16.94645 F2880
G0 F3000 E15.94645
G0 X123.800 Y113.154 F7200
G0 X123.800 Y113.700
G0 X124.441 Y113.700
G0 X125.386 Y114.505
G0 F3000 E16.94645
;segType:InnerHair
G1 X125.500 Y114.493 E16.94829 F2880
G1 X125.614 Y114.444 E16.94977
G1 X125.729 Y114.394 E16.95075
G1 X125.686 Y114.413 E16.95118
G1 X125.573 Y114.462 E16.95283
G1 X125.460 Y114.510 E16.95498
G1 X125.386 Y114.505 E16.95624
G0 F3000 E15.95624
G0 X126.939 Y114.496 F7200
G0 X127.134 Y114.433
G0 X127.622 Y114.402
G0 X128.080 Y114.489
G0 X129.500 Y114.481
G0 F3000 E16.95624
G1 X129.386 Y114.422 E16.95754 F2880
G1 X129.271 Y114.397 E16.95849
G1 X129.322 Y114.415 E16.95900
G1 X129.440 Y114.458 E16.96065
G1 X129.553 Y114.507 E16.96277
G1 X129.500 Y114.481 E16.96365
G0 X130.650 Y114.461 F7200
;segType:HShell
G1 X129.935 Y115.175 E16.98046 F2880
G0 X129.723 Y114.822 F7200
G1 X130.085 Y114.461 E16.98896 F2880
G0 X131.961 Y113.716 F7200
G1 X145.540 Y100.137 E17.30832 F2880
G0 X145.540 Y99.571 F7200
G1 X131.961 Y113.150 E17.62768 F2880
G0 X131.961 Y112.585 F7200
G1 X145.540 Y99.006 E17.94704 F2880
G0 X145.540 Y98.440 F7200
G1 X131.961 Y112.019 E18.26640 F2880
G0 X131.961 Y111.453 F7200
G1 X145.540 Y97.874 E18.58576 F2880
G0 X145.540 Y97.308 F7200
G1 X131.961 Y110.887 E18.90512 F2880
G0 X131.961 Y110.322 F7200
G1 X145.540 Y96.743 E19.22447 F2880
G0 X145.540 Y96.177 F7200
G1 X131.961 Y109.756 E19.54383 F2880
G0 X131.961 Y109.190 F7200
G1 X145.540 Y95.611 E19.86319 F2880
G0 X145.540 Y95.046 F7200
G1 X131.961 Y108.625 E20.18255 F2880
G0 X131.961 Y108.059 F7200
G1 X145.540 Y94.480 E20.50191 F2880
G0 X145.540 Y93.914 F7200
G1 X131.961 Y107.493 E20.82127 F2880
G0 X131.961 Y106.928 F7200
G1 X145.540 Y93.349 E21.14063 F2880
G0 X145.540 Y92.783 F7200
G1 X131.961 Y106.362 E21.45999 F2880
G0 X131.961 Y105.796 F7200
G1 X145.540 Y92.217 E21.77934 F2880
G0 X145.540 Y91.652 F7200
G1 X131.961 Y105.231 E22.09870 F2880
G0 X131.961 Y104.665 F7200
G1 X145.540 Y91.086 E22.41806 F2880
G0 X145.540 Y90.520 F7200
G1 X131.961 Y104.099 E22.73742 F2880
G0 X131.961 Y103.534 F7200
G1 X145.540 Y89.955 E23.05678 F2880
G0 X145.540 Y89.389 F7200
G1 X131.961 Y102.968 E23.37614 F2880
G0 X131.961 Y102.402 F7200
G1 X145.540 Y88.823 E23.69549 F2880
G0 X145.540 Y88.257 F7200
G1 X131.961 Y101.837 E24.01485 F2880
G0 X131.961 Y101.271 F7200
G1 X145.540 Y87.692 E24.33421 F2880
G0 X145.540 Y87.126 F7200
G1 X131.961 Y100.705 E24.65356 F2880
G0 X131.961 Y100.139 F7200
G1 X145.540 Y86.560 E24.97292 F2880
G0 X145.540 Y85.995 F7200
G1 X131.961 Y99.574 E25.29228 F2880
G0 X131.961 Y99.008 F7200
G1 X145.540 Y85.429 E25.61163 F2880
G0 X145.540 Y84.863 F7200
G1 X131.961 Y98.442 E25.93099 F2880
G0 X131.961 Y97.877 F7200
G1 X145.540 Y84.298 E26.25035 F2880
G0 X145.540 Y83.732 F7200
G1 X131.732 Y97.540 E26.57508 F2880
G0 X131.166 Y97.540 F7200
G1 X145.540 Y83.166 E26.91312 F2880
G0 X145.540 Y82.601 F7200
G1 X130.601 Y97.540 E27.26446 F2880
G0 X130.035 Y97.540 F7200
G1 X145.540 Y82.035 E27.62910 F2880
G0 X145.540 Y81.469 F7200
G1 X129.614 Y97.395 E28.00366 F2880
G0 X130.135 Y96.308 F7200
G1 X145.483 Y80.961 E28.36460 F2880
G0 X144.917 Y80.961 F7200
G1 X130.217 Y95.661 E28.71033 F2880
G0 X130.156 Y95.156 F7200
G1 X144.351 Y80.961 E29.04418 F2880
G0 X143.786 Y80.961 F7200
G1 X130.031 Y94.716 E29.36768 F2880
G0 X129.864 Y94.316 F7200
G1 X143.220 Y80.961 E29.68178 F2880
G0 X142.654 Y80.961 F7200
G1 X129.626 Y93.989 E29.98818 F2880
G0 X129.360 Y93.689 F7200
G1 X131.089 Y91.960 E30.02883 F2880
G0 X130.523 Y91.960 F7200
G1 X129.051 Y93.433 E30.06346 F2880
G0 X128.689 Y93.229 F7200
G1 X129.957 Y91.960 E30.09330 F2880
G0 X129.392 Y91.960 F7200
G1 X128.296 Y93.056 E30.11907 F2880
G0 X127.820 Y92.966 F7200
G1 X128.826 Y91.960 E30.14271 F2880
G0 X128.260 Y91.960 F7200
G1 X127.257 Y92.963 E30.16630 F2880
G0 X126.523 Y93.132 F7200
G1 X127.695 Y91.960 E30.19385 F2880
G0 X127.129 Y91.960 F7200
G1 X114.460 Y104.629 E30.49179 F2880
G0 X114.460 Y104.063 F7200
G1 X126.563 Y91.960 E30.77643 F2880
G0 X125.997 Y91.960 F7200
G1 X114.460 Y103.497 E31.04776 F2880
G0 X114.460 Y102.932 F7200
G1 X125.432 Y91.960 E31.30579 F2880
G0 X124.866 Y91.960 F7200
G1 X114.460 Y102.366 E31.55051 F2880
G0 X114.460 Y101.800 F7200
G1 X124.300 Y91.960 E31.78193 F2880
G0 X123.789 Y91.906 F7200
G1 X114.460 Y101.235 E32.00134 F2880
G0 X114.460 Y100.669 F7200
G1 X123.789 Y91.340 E32.22075 F2880
G0 X123.789 Y90.774 F7200
G1 X114.460 Y100.103 E32.44015 F2880
G0 X114.460 Y99.538 F7200
G1 X123.789 Y90.209 E32.65956 F2880
G0 X123.789 Y89.643 F7200
G1 X114.460 Y98.972 E32.87896 F2880
G0 X114.460 Y98.406 F7200
G1 X123.789 Y89.077 E33.09837 F2880
G0 X123.789 Y88.512 F7200
G1 X114.460 Y97.841 E33.31778 F2880
G0 X114.460 Y97.275 F7200
G1 X123.789 Y87.946 E33.53718 F2880
G0 X123.789 Y87.380 F7200
G1 X114.460 Y96.709 E33.75659 F2880
G0 X114.460 Y96.144 F7200
G1 X123.789 Y86.814 E33.97600 F2880
G0 F3000 E32.97600
G0 X114.460 Y84.264 F7200
G0 F3000 E33.97600
G1 X117.764 Y80.961 E34.05369 F2880
G0 X118.330 Y80.961 F7200
G1 X114.460 Y84.830 E34.14469 F2880
G0 X114.460 Y85.395 F7200
G1 X118.895 Y80.961 E34.24899 F2880
G0 X119.461 Y80.961 F7200
G1 X114.460 Y85.961 E34.36660 F2880
G0 X114.460 Y86.527 F7200
G1 X120.027 Y80.961 E34.49751 F2880
G0 X120.592 Y80.961 F7200
G1 X114.460 Y87.093 E34.64172 F2880
G0 X114.460 Y87.658 F7200
G1 X121.158 Y80.961 E34.79925 F2880
G0 X121.724 Y80.961 F7200
G1 X114.460 Y88.224 E34.97007 F2880
G0 X114.460 Y88.790 F7200
G1 X122.290 Y80.961 E35.15420 F2880
G0 X122.855 Y80.961 F7200
G1 X114.460 Y89.355 E35.35162 F2880
G0 X114.460 Y89.921 F7200
G1 X123.421 Y80.961 E35.56236 F2880
G0 X123.987 Y80.961 F7200
G1 X114.460 Y90.487 E35.78640 F2880
G0 X114.460 Y91.052 F7200
G1 X124.552 Y80.961 E36.02374 F2880
G0 X125.118 Y80.961 F7200
G1 X114.460 Y91.618 E36.27439 F2880
G0 X114.460 Y92.184 F7200
G1 X125.684 Y80.961 E36.53834 F2880
G0 X126.249 Y80.961 F7200
G1 X114.460 Y92.749 E36.81560 F2880
G0 X114.460 Y93.315 F7200
G1 X126.815 Y80.961 E37.10616 F2880
G0 X127.381 Y80.961 F7200
G1 X114.460 Y93.881 E37.41002 F2880
G0 X114.460 Y94.446 F7200
G1 X127.946 Y80.961 E37.72719 F2880
G0 X128.512 Y80.961 F7200
G1 X114.460 Y95.012 E38.05766 F2880
G0 X114.460 Y95.578 F7200
G1 X129.078 Y80.961 E38.40144 F2880
G0 X129.643 Y80.961 F7200
G1 X124.065 Y86.539 E38.53264 F2880
G0 X124.630 Y86.539 F7200
G1 X130.209 Y80.961 E38.66385 F2880
G0 X130.775 Y80.961 F7200
G1 X125.196 Y86.539 E38.79506 F2880
G0 X125.762 Y86.539 F7200
G1 X131.340 Y80.961 E38.92626 F2880
G0 X131.906 Y80.961 F7200
G1 X126.327 Y86.539 E39.05747 F2880
G0 X126.893 Y86.539 F7200
G1 X132.472 Y80.961 E39.18868 F2880
G0 X133.038 Y80.961 F7200
G1 X127.459 Y86.539 E39.31988 F2880
G0 X128.024 Y86.539 F7200
G1 X133.603 Y80.961 E39.45109 F2880
G0 X134.169 Y80.961 F7200
G1 X128.590 Y86.539 E39.58230 F2880
G0 X129.156 Y86.539 F7200
G1 X134.735 Y80.961 E39.71350 F2880
G0 X135.300 Y80.961 F7200
G1 X129.721 Y86.539 E39.84471 F2880
G0 X130.287 Y86.539 F7200
G1 X135.866 Y80.961 E39.97592 F2880
G0 X136.432 Y80.961 F7200
G1 X130.853 Y86.539 E40.10712 F2880
G0 X131.210 Y86.747 F7200
G1 X136.997 Y80.961 E40.24322 F2880
G0 X137.563 Y80.961 F7200
G1 X131.210 Y87.313 E40.39262 F2880
G0 X131.210 Y87.879 F7200
G1 X138.129 Y80.961 E40.55533 F2880
G0 X138.694 Y80.961 F7200
G1 X131.210 Y88.444 E40.73134 F2880
G0 X131.210 Y89.010 F7200
G1 X139.260 Y80.961 E40.92065 F2880
G0 X139.826 Y80.961 F7200
G1 X131.210 Y89.576 E41.12327 F2880
G0 X131.210 Y90.142 F7200
G1 X140.391 Y80.961 E41.33919 F2880
G0 F3000 E40.33919
G0 X145.540 Y101.268 F7200
G0 F3000 E41.33919
G1 X130.183 Y116.624 E41.70034 F2880
G0 X129.992 Y117.381 F7200
G1 X145.540 Y101.834 E42.06599 F2880
G0 X145.540 Y118.804 F7200
G1 X145.305 Y119.039 E42.07152 F2880
G0 X144.739 Y119.039 F7200
G1 X145.540 Y118.239 E42.09035 F2880
G0 X145.540 Y117.673 F7200
G1 X144.173 Y119.039 E42.12248 F2880
G0 X143.608 Y119.039 F7200
G1 X145.540 Y117.107 E42.16792 F2880
G0 X145.540 Y116.542 F7200
G1 X143.042 Y119.039 E42.22666 F2880
G0 X142.476 Y119.039 F7200
G1 X145.540 Y115.976 E42.29871 F2880
G0 X145.540 Y115.410 F7200
G1 X141.911 Y119.039 E42.38406 F2880
G0 X141.345 Y119.039 F7200
G1 X145.540 Y114.845 E42.48272 F2880
G0 X145.540 Y114.279 F7200
G1 X140.779 Y119.039 E42.59468 F2880
G0 X140.213 Y119.039 F7200
G1 X145.540 Y113.713 E42.71994 F2880
G0 X145.540 Y113.148 F7200
G1 X139.648 Y119.039 E42.85851 F2880
G0 X139.082 Y119.039 F7200
G1 X145.540 Y112.582 E43.01038 F2880
G0 X145.540 Y112.016 F7200
G1 X138.516 Y119.039 E43.17555 F2880
G0 X137.951 Y119.039 F7200
G1 X145.540 Y111.451 E43.35403 F2880
G0 X145.540 Y110.885 F7200
G1 X137.385 Y119.039 E43.54582 F2880
G0 X136.819 Y119.039 F7200
G1 X145.540 Y110.319 E43.75090 F2880
G0 X145.540 Y109.754 F7200
G1 X136.254 Y119.039 E43.96929 F2880
G0 X135.688 Y119.039 F7200
G1 X145.540 Y109.188 E44.20099 F2880
G0 X145.540 Y108.622 F7200
G1 X135.122 Y119.039 E44.44599 F2880
G0 X134.557 Y119.039 F7200
G1 X145.540 Y108.056 E44.70429 F2880
G0 X145.540 Y107.491 F7200
G1 X133.991 Y119.039 E44.97590 F2880
G0 X133.425 Y119.039 F7200
G1 X145.540 Y106.925 E45.26081 F2880
G0 X145.540 Y106.359 F7200
G1 X132.860 Y119.039 E45.55903 F2880
G0 X132.294 Y119.039 F7200
G1 X145.540 Y105.794 E45.87055 F2880
G0 X145.540 Y105.228 F7200
G1 X131.728 Y119.039 E46.19537 F2880
G0 X131.162 Y119.039 F7200
G1 X145.540 Y104.662 E46.53350 F2880
G0 X145.540 Y104.097 F7200
G1 X130.597 Y119.039 E46.88493 F2880
G0 X130.031 Y119.039 F7200
G1 X145.540 Y103.531 E47.24967 F2880
G0 X145.540 Y102.965 F7200
G1 X129.465 Y119.039 E47.62771 F2880
; ------------------------------------
; Layer #2
; ------------------------------------
G92 E0 ;reset extr
G0 F3000 E-1.00000
G0 F600 Z1.400
G0 X129.617 Y119.800 F7200
G0 X129.138 Y117.391
G0 X129.211 Y117.290
G0 X129.391 Y116.835
G0 X129.452 Y116.350
G0 X129.391 Y115.865
G0 X129.211 Y115.410
G0 X128.923 Y115.014
G0 X128.614 Y114.758
G0 X128.404 Y113.700
G0 X123.800 Y113.700
G0 X123.800 Y98.300
G0 X125.500 Y99.100
G0 F3000 E0.00000
;segType:Support
G1 X130.600 Y99.100 E0.07209 F1343
G1 X130.600 Y100.900 E0.09754
G1 X125.500 Y100.900 E0.16963
G0 F3000 E-0.83037
G0 X123.789 Y90.132 F7200
G0 F3000 E0.16963
;segType:HShell
G1 X114.618 Y80.961 E0.38532 F2880
G0 X113.916 Y80.780 F7200
;segType:Perimeter
G1 X113.760 Y80.200 E0.39530 F1440
G1 X146.300 Y80.200 E0.93643
G1 X146.300 Y119.800 E1.59497
G1 X113.700 Y119.800 E2.13710
G1 X113.700 Y80.260 E2.79464
G0 X113.760 Y80.200 F7200
G0 X115.360 Y80.200
G0 X114.800 Y80.600
;segType:Loop
G1 X145.900 Y80.600 E3.31182 F2880
G1 X145.900 Y119.400 E3.95705
G1 X114.100 Y119.400 E4.48588
G1 X114.100 Y80.600 E5.13111
G1 X114.600 Y80.600 E5.13943
G0 F3000 E4.13943
G0 X114.095 Y80.200 F7200
G0 X124.550 Y88.477
G0 X124.550 Y91.200
G0 X127.990 Y91.200
G0 X145.540 Y105.094
G0 F3000 E5.13943
;segType:HShell
G1 X131.210 Y90.764 E5.47643 F2880
G0 X131.190 Y91.200 F7200
;segType:Perimeter
G1 X130.390 Y91.200 E5.48973 F1440
G1 X124.550 Y91.200 E5.58686
G1 X124.550 Y87.300 E5.65173
G1 X130.450 Y87.300 E5.74986
G1 X130.450 Y91.140 E5.81373
G0 X130.390 Y91.200 F7200
G0 X128.790 Y91.200
G0 X129.350 Y91.600
;segType:Loop
G1 X124.150 Y91.600 E5.90022 F2880
G1 X124.150 Y86.900 E5.97839
G1 X130.850 Y86.900 E6.08983
G1 X130.850 Y91.600 E6.16800
G1 X129.550 Y91.600 E6.18962
G0 F3000 E5.18962
G0 X128.376 Y91.200 F7200
G0 X124.550 Y91.200
G0 X124.550 Y89.897
G0 X114.460 Y86.460
G0 F3000 E6.18962
;segType:HShell
G1 X125.296 Y97.295 E6.44446 F2880
G0 X125.861 Y97.087 F7200
;segType:Perimeter
G1 X125.670 Y96.310 E6.45776 F1440
G1 X125.563 Y95.894 E6.46491
G1 X125.563 Y95.405 E6.47304
G1 X125.685 Y94.931 E6.48118
G1 X125.921 Y94.503 E6.48932
G1 X126.256 Y94.146 E6.49745
G1 X126.669 Y93.884 E6.50559
G1 X127.134 Y93.733 E6.51373
G1 X127.622 Y93.702 E6.52186
G1 X128.103 Y93.793 E6.53000
G1 X128.546 Y94.002 E6.53814
G1 X128.923 Y94.314 E6.54628
G1 X129.211 Y94.710 E6.55441
G1 X129.391 Y95.165 E6.56255
G1 X129.452 Y95.650 E6.57069
G1 X129.391 Y96.136 E6.57882
G1 X129.211 Y96.590 E6.58696
G1 X128.923 Y96.986 E6.59510
G1 X128.546 Y97.298 E6.60323
G1 X128.103 Y97.506 E6.61137
G1 X127.623 Y97.598 E6.61951
G1 X127.134 Y97.568 E6.62765
G1 X126.669 Y97.416 E6.63578
G1 X126.256 Y97.154 E6.64392
G1 X125.921 Y96.797 E6.65206
G1 X125.714 Y96.421 E6.65920
G0 X125.670 Y96.310 F7200
G0 X125.563 Y95.894
G0 X125.563 Y95.405
G0 X125.685 Y94.931
G0 X125.778 Y94.763
G0 X125.188 Y95.258
;segType:Loop
G1 X125.310 Y94.783 E6.66735 F2880
G1 X125.595 Y94.266 E6.67717
G1 X125.999 Y93.835 E6.68699
G1 X126.497 Y93.519 E6.69680
G1 X127.059 Y93.336 E6.70662
G1 X127.648 Y93.300 E6.71644
G1 X128.228 Y93.410 E6.72626
G1 X128.762 Y93.662 E6.73608
G1 X129.217 Y94.038 E6.74590
G1 X129.564 Y94.515 E6.75571
G1 X129.781 Y95.064 E6.76553
G1 X129.855 Y95.650 E6.77535
G1 X129.781 Y96.236 E6.78517
G1 X129.564 Y96.785 E6.79499
G1 X129.217 Y97.262 E6.80480
G1 X128.762 Y97.639 E6.81462
G1 X128.672 Y97.681 E6.81627
G0 X128.634 Y97.804 F7200
G0 X128.502 Y97.834
G0 X128.369 Y97.863
G1 X128.129 Y97.904 E6.82025 F2880
G1 X128.014 Y97.915 E6.82201
G1 X127.900 Y97.926 E6.82367
G1 X127.786 Y97.937 E6.82523
G1 X127.671 Y97.947 E6.82668
G1 X127.557 Y97.947 E6.82813
G1 X127.443 Y97.944 E6.82961
G1 X127.329 Y97.940 E6.83113
G1 X127.214 Y97.936 E6.83268
G1 X127.100 Y97.933 E6.83427
G1 X126.986 Y97.919 E6.83600
G1 X126.871 Y97.901 E6.83791
G1 X126.757 Y97.883 E6.83999
G1 X126.643 Y97.865 E6.84225
G0 X126.372 Y97.809 F7200
G1 X126.338 Y97.680 E6.84446 F2880
G1 X125.999 Y97.465 E6.85115
G1 X125.595 Y97.034 E6.86097
G1 X125.310 Y96.517 E6.87078
G1 X125.163 Y95.945 E6.88061
G1 X125.163 Y95.455 E6.88876
G0 F3000 E5.88876
G0 X126.059 Y98.300 F7200
G0 X123.800 Y98.300
G0 X123.800 Y113.700
G0 X130.908 Y113.700
G0 X131.148 Y114.461
G0 F3000 E6.88876
;segType:HShell
G1 X135.727 Y119.039 E6.99644 F2880
G0 X135.161 Y119.039 F7200
G1 X130.582 Y114.461 E7.10413 F2880
G0 X131.140 Y113.700 F7200
;segType:Perimeter
G1 X123.800 Y113.700 E7.22621 F1440
G1 X123.800 Y98.300 E7.48233
G1 X131.200 Y98.300 E7.60540
G1 X131.200 Y113.640 E7.86052
G0 X131.140 Y113.700 F7200
G0 X129.540 Y113.700
G0 X130.100 Y114.100
;segType:Loop
G1 X128.814 Y114.100 E7.88191 F2880
G0 X128.700 Y114.192 F7200
G0 X128.586 Y114.185
G0 X128.471 Y114.160
G0 X128.357 Y114.134
G0 X128.243 Y114.108
G1 X128.129 Y114.096 E7.88378 F2880
G1 X128.014 Y114.085 E7.88554
G1 X127.900 Y114.074 E7.88720
G1 X127.786 Y114.063 E7.88875
G1 X127.671 Y114.053 E7.89021
G1 X127.557 Y114.053 E7.89165
G1 X127.443 Y114.056 E7.89314
G1 X127.329 Y114.060 E7.89466
G1 X127.214 Y114.064 E7.89621
G1 X127.100 Y114.067 E7.89779
G1 X126.986 Y114.081 E7.89952
G1 X126.871 Y114.099 E7.90143
G1 X126.757 Y114.117 E7.90351
G1 X126.643 Y114.135 E7.90577
G1 X126.529 Y114.146 E7.90811
G1 X126.414 Y114.179 E7.91087
G1 X126.300 Y114.100 E7.91317
G1 X123.400 Y114.100 E7.96141
G1 X123.400 Y97.900 E8.23083
G1 X126.300 Y97.900 E8.27906
G1 X126.414 Y97.821 E8.28227
G1 X126.529 Y97.855 E8.28470
G0 X126.643 Y97.865 F7200
G0 X126.986 Y97.919
G0 X127.100 Y97.933
G0 X127.557 Y97.947
G0 X127.671 Y97.947
G0 X128.129 Y97.904
G1 X128.243 Y97.892 E8.28669 F2880
G1 X128.357 Y97.866 E8.28896
G1 X128.471 Y97.841 E8.29148
G1 X128.586 Y97.815 E8.29425
G1 X128.700 Y97.808 E8.29703
G1 X128.814 Y97.900 E8.29946
G1 X131.600 Y97.900 E8.34579
G1 X131.600 Y114.100 E8.61521
G1 X130.300 Y114.100 E8.63683
G0 F3000 E7.63683
G0 X129.430 Y113.700 F7200
G0 X123.800 Y113.700
G0 X123.800 Y111.114
G0 X114.460 Y106.824
G0 F3000 E8.63683
;segType:HShell
G1 X124.968 Y117.331 E8.88394 F2880
G0 X125.861 Y117.787 F7200
;segType:Perimeter
G1 X125.670 Y117.011 E8.89725 F1440
G1 X125.563 Y116.595 E8.90439
G1 X125.563 Y116.105 E8.91252
G1 X125.685 Y115.632 E8.92066
G1 X125.921 Y115.203 E8.92880
G1 X126.256 Y114.846 E8.93693
G1 X126.669 Y114.584 E8.94507
G1 X127.134 Y114.433 E8.95320
G1 X127.622 Y114.402 E8.96134
G1 X128.103 Y114.494 E8.96948
G1 X128.546 Y114.702 E8.97762
G1 X128.923 Y115.014 E8.98576
G1 X129.211 Y115.410 E8.99389
G1 X129.391 Y115.865 E9.00203
G1 X129.452 Y116.350 E9.01017
G1 X129.391 Y116.835 E9.01830
G1 X129.211 Y117.290 E9.02644
G1 X128.923 Y117.686 E9.03458
G1 X128.546 Y117.998 E9.04272
G1 X128.103 Y118.206 E9.05085
G1 X127.622 Y118.298 E9.05899
G1 X127.134 Y118.267 E9.06713
G1 X126.669 Y118.116 E9.07526
G1 X126.256 Y117.854 E9.08340
G1 X125.921 Y117.497 E9.09154
G1 X125.714 Y117.121 E9.09868
G0 X125.670 Y117.011 F7200
G0 X125.563 Y116.595
G0 X125.563 Y116.105
G0 X125.685 Y115.632
G0 X125.778 Y115.463
G0 X125.188 Y115.958
;segType:Loop
G1 X125.310 Y115.483 E9.10683 F2880
G1 X125.595 Y114.966 E9.11665
G1 X125.999 Y114.535 E9.12647
G1 X126.377 Y114.296 E9.13391
G0 X126.643 Y114.135 F7200
G0 X126.986 Y114.081
G0 X127.100 Y114.067
G0 X127.557 Y114.053
G0 X127.671 Y114.053
G0 X128.129 Y114.096
G1 X128.451 Y114.155 E9.14084 F2880
G1 X128.583 Y114.184 E9.14403
G1 X128.630 Y114.299 E9.14609
G1 X128.762 Y114.362 E9.14853
G1 X129.217 Y114.738 E9.15834
G1 X129.564 Y115.215 E9.16816
G1 X129.781 Y115.764 E9.17798
G1 X129.855 Y116.350 E9.18780
G1 X129.781 Y116.936 E9.19761
G1 X129.564 Y117.485 E9.20743
G1 X129.217 Y117.962 E9.21725
G1 X128.762 Y118.339 E9.22707
G1 X128.228 Y118.590 E9.23689
G1 X127.648 Y118.701 E9.24671
G1 X127.059 Y118.663 E9.25653
G1 X126.497 Y118.481 E9.26634
G1 X125.999 Y118.165 E9.27616
G1 X125.595 Y117.734 E9.28598
G1 X125.310 Y117.217 E9.29579
G1 X125.163 Y116.645 E9.30562
G1 X125.163 Y116.155 E9.31377
G0 X125.386 Y114.505 F7200
;segType:InnerHair
G1 X125.500 Y114.493 E9.31561 F2880
G1 X125.614 Y114.444 E9.31709
G1 X125.729 Y114.394 E9.31806
G1 X125.686 Y114.413 E9.31850
G1 X125.573 Y114.462 E9.32014
G1 X125.460 Y114.510 E9.32229
G1 X125.386 Y114.505 E9.32356
G0 X125.271 Y114.807 F7200
;segType:HShell
G1 X124.925 Y114.461 E9.33169 F2880
G0 X124.360 Y114.461 F7200
G1 X125.070 Y115.172 E9.34841 F2880
G0 X124.913 Y115.580 F7200
G1 X123.794 Y114.461 E9.37474 F2880
G0 X123.228 Y114.461 F7200
G1 X124.803 Y116.036 E9.41179 F2880
G0 X114.460 Y107.390 F7200
G1 X126.110 Y119.039 E9.68577 F2880
G0 X125.544 Y119.039 F7200
G1 X114.460 Y107.956 E9.94644 F2880
G0 X114.460 Y108.521 F7200
G1 X124.979 Y119.039 E10.19382 F2880
G0 X124.413 Y119.039 F7200
G1 X114.460 Y109.087 E10.42788 F2880
G0 X114.460 Y109.653 F7200
G1 X123.847 Y119.039 E10.64865 F2880
G0 X123.282 Y119.039 F7200
G1 X114.460 Y110.218 E10.85611 F2880
G0 X114.460 Y110.784 F7200
G1 X122.716 Y119.039 E11.05026 F2880
G0 X122.150 Y119.039 F7200
G1 X114.460 Y111.350 E11.23111 F2880
G0 X114.460 Y111.915 F7200
G1 X121.585 Y119.039 E11.39866 F2880
G0 X121.019 Y119.039 F7200
G1 X114.460 Y112.481 E11.55290 F2880
G0 X114.460 Y113.047 F7200
G1 X120.453 Y119.039 E11.69384 F2880
G0 X119.887 Y119.039 F7200
G1 X114.460 Y113.612 E11.82148 F2880
G0 X114.460 Y114.178 F7200
G1 X119.322 Y119.039 E11.93581 F2880
G0 X118.756 Y119.039 F7200
G1 X114.460 Y114.744 E12.03684 F2880
G0 X114.460 Y115.309 F7200
G1 X118.190 Y119.039 E12.12456 F2880
G0 X117.625 Y119.039 F7200
G1 X114.460 Y115.875 E12.19898 F2880
G0 X114.460 Y116.441 F7200
G1 X117.059 Y119.039 E12.26009 F2880
G0 X116.493 Y119.039 F7200
G1 X114.460 Y117.007 E12.30790 F2880
G0 X114.460 Y117.572 F7200
G1 X115.928 Y119.039 E12.34241 F2880
G0 X115.362 Y119.039 F7200
G1 X114.460 Y118.138 E12.36361 F2880
G0 X114.460 Y118.704 F7200
G1 X114.796 Y119.039 E12.37151 F2880
G0 F3000 E11.37151
G0 X125.563 Y116.595 F7200
G0 X124.803 Y116.601
G0 F3000 E12.37151
G1 X114.460 Y106.259 E12.61476 F2880
G0 X114.460 Y105.693 F7200
G1 X123.039 Y114.272 E12.81652 F2880
G0 X123.039 Y113.706 F7200
G1 X114.460 Y105.127 E13.01829 F2880
G0 X114.460 Y104.561 F7200
G1 X123.039 Y113.140 E13.22005 F2880
G0 X123.039 Y112.575 F7200
G1 X114.460 Y103.996 E13.42181 F2880
G0 X114.460 Y103.430 F7200
G1 X123.039 Y112.009 E13.62358 F2880
G0 X123.039 Y111.443 F7200
G1 X114.460 Y102.864 E13.82534 F2880
G0 X114.460 Y102.299 F7200
G1 X123.039 Y110.878 E14.02710 F2880
G0 X123.039 Y110.312 F7200
G1 X114.460 Y101.733 E14.22887 F2880
G0 X114.460 Y101.167 F7200
G1 X123.039 Y109.746 E14.43063 F2880
G0 X123.039 Y109.181 F7200
G1 X114.460 Y100.602 E14.63239 F2880
G0 X114.460 Y100.036 F7200
G1 X123.039 Y108.615 E14.83416 F2880
G0 X123.039 Y108.049 F7200
G1 X114.460 Y99.470 E15.03592 F2880
G0 X114.460 Y98.905 F7200
G1 X123.039 Y107.484 E15.23768 F2880
G0 X123.039 Y106.918 F7200
G1 X114.460 Y98.339 E15.43945 F2880
G0 X114.460 Y97.773 F7200
G1 X123.039 Y106.352 E15.64121 F2880
G0 X123.039 Y105.787 F7200
G1 X114.460 Y97.208 E15.84297 F2880
G0 X114.460 Y96.642 F7200
G1 X123.039 Y105.221 E16.04474 F2880
G0 X123.039 Y104.655 F7200
G1 X114.460 Y96.076 E16.24650 F2880
G0 X114.460 Y95.511 F7200
G1 X123.039 Y104.089 E16.44826 F2880
G0 X123.039 Y103.524 F7200
G1 X114.460 Y94.945 E16.65003 F2880
G0 X114.460 Y94.379 F7200
G1 X123.039 Y102.958 E16.85179 F2880
G0 X123.039 Y102.392 F7200
G1 X114.460 Y93.813 E17.05355 F2880
G0 X114.460 Y93.248 F7200
G1 X123.039 Y101.827 E17.25531 F2880
G0 X123.039 Y101.261 F7200
G1 X114.460 Y92.682 E17.45708 F2880
G0 X114.460 Y92.116 F7200
G1 X123.039 Y100.695 E17.65884 F2880
G0 X123.039 Y100.130 F7200
G1 X114.460 Y91.551 E17.86060 F2880
G0 X114.460 Y90.985 F7200
G1 X123.039 Y99.564 E18.06237 F2880
G0 X123.039 Y98.998 F7200
G1 X114.460 Y90.419 E18.26413 F2880
G0 X114.460 Y89.854 F7200
G1 X123.039 Y98.433 E18.46589 F2880
G0 X123.039 Y97.867 F7200
G1 X114.460 Y89.288 E18.66766 F2880
G0 X114.460 Y88.722 F7200
G1 X123.278 Y97.540 E18.87503 F2880
G0 X123.843 Y97.540 F7200
G1 X114.460 Y88.157 E19.09570 F2880
G0 X114.460 Y87.591 F7200
G1 X124.409 Y97.540 E19.32968 F2880
G0 X124.975 Y97.540 F7200
G1 X114.460 Y87.025 E19.57696 F2880
G0 X114.460 Y81.368 F7200
G1 X123.789 Y90.697 E19.79636 F2880
G0 X123.789 Y91.263 F7200
G1 X114.460 Y81.934 E20.01577 F2880
G0 X114.460 Y82.500 F7200
G1 X123.789 Y91.829 E20.23517 F2880
G0 X123.921 Y91.960 F7200
G1 X125.646 Y93.685 E20.27573 F2880
G0 X125.960 Y93.433 F7200
G1 X124.487 Y91.960 E20.31038 F2880
G0 X125.053 Y91.960 F7200
G1 X126.306 Y93.214 E20.33985 F2880
G0 X126.724 Y93.067 F7200
G1 X125.618 Y91.960 E20.36587 F2880
G0 X126.184 Y91.960 F7200
G1 X127.191 Y92.967 E20.38955 F2880
G0 X127.740 Y92.950 F7200
G1 X126.750 Y91.960 E20.41283 F2880
G0 X127.315 Y91.960 F7200
G1 X128.490 Y93.136 E20.44047 F2880
G0 F3000 E19.44047
G0 X128.033 Y93.780 F7200
G0 X127.622 Y93.702
G0 X127.134 Y93.733
G0 X126.669 Y93.884
G0 X126.256 Y94.146
G0 X125.921 Y94.503
G0 X125.685 Y94.931
G0 X125.563 Y95.405
G0 X125.563 Y95.894
G0 X125.685 Y96.369
G0 X125.909 Y96.776
G0 X125.416 Y97.471
G0 F3000 E20.44047
;segType:InnerHair
G1 X125.529 Y97.520 E20.44231 F2880
G1 X125.642 Y97.569 E20.44365
G1 X125.755 Y97.617 E20.44449
G1 X125.729 Y97.606 E20.44472
G1 X125.614 Y97.557 E20.44620
G1 X125.500 Y97.507 E20.44820
G1 X125.386 Y97.495 E20.45016
G1 X125.416 Y97.471 E20.45089
G0 X124.888 Y96.322 F7200
;segType:HShell
G1 X114.460 Y85.894 E20.69614 F2880
G0 X114.460 Y85.328 F7200
G1 X124.803 Y95.671 E20.93939 F2880
G0 X124.845 Y95.147 F7200
G1 X114.460 Y84.762 E21.18362 F2880
G0 X114.460 Y84.197 F7200
G1 X124.960 Y94.697 E21.43056 F2880
G0 X125.152 Y94.323 F7200
G1 X114.460 Y83.631 E21.68201 F2880
G0 X114.460 Y83.065 F7200
G1 X125.372 Y93.977 E21.93863 F2880
G0 X123.789 Y89.566 F7200
G1 X115.184 Y80.961 E22.14102 F2880
G0 X115.750 Y80.961 F7200
G1 X123.789 Y89.000 E22.33010 F2880
G0 X123.789 Y88.435 F7200
G1 X116.315 Y80.961 E22.50588 F2880
G0 X116.881 Y80.961 F7200
G1 X123.789 Y87.869 E22.66836 F2880
G0 X123.789 Y87.303 F7200
G1 X117.447 Y80.961 E22.81753 F2880
G0 X118.012 Y80.961 F7200
G1 X123.789 Y86.738 E22.95340 F2880
G0 X124.157 Y86.539 F7200
G1 X118.578 Y80.961 E23.08461 F2880
G0 X119.144 Y80.961 F7200
G1 X124.723 Y86.539 E23.21581 F2880
G0 X125.288 Y86.539 F7200
G1 X119.709 Y80.961 E23.34702 F2880
G0 X120.275 Y80.961 F7200
G1 X125.854 Y86.539 E23.47823 F2880
G0 X126.420 Y86.539 F7200
G1 X120.841 Y80.961 E23.60944 F2880
G0 X121.407 Y80.961 F7200
G1 X126.985 Y86.539 E23.74065 F2880
G0 X127.551 Y86.539 F7200
G1 X121.972 Y80.961 E23.87186 F2880
G0 X122.538 Y80.961 F7200
G1 X128.117 Y86.539 E24.00306 F2880
G0 X128.682 Y86.539 F7200
G1 X123.104 Y80.961 E24.13427 F2880
G0 X123.669 Y80.961 F7200
G1 X129.248 Y86.539 E24.26548 F2880
G0 X129.814 Y86.539 F7200
G1 X124.235 Y80.961 E24.39669 F2880
G0 X124.801 Y80.961 F7200
G1 X130.380 Y86.539 E24.52789 F2880
G0 X130.945 Y86.539 F7200
G1 X125.366 Y80.961 E24.65910 F2880
G0 X125.932 Y80.961 F7200
G1 X145.540 Y100.568 E25.12024 F2880
G0 X145.540 Y100.002 F7200
G1 X126.498 Y80.961 E25.56807 F2880
G0 X127.063 Y80.961 F7200
G1 X145.540 Y99.437 E26.00260 F2880
G0 X145.540 Y98.871 F7200
G1 X127.629 Y80.961 E26.42383 F2880
G0 X128.195 Y80.961 F7200
G1 X145.540 Y98.305 E26.83175 F2880
G0 X145.540 Y97.740 F7200
G1 X128.760 Y80.961 E27.22637 F2880
G0 X129.326 Y80.961 F7200
G1 X145.540 Y97.174 E27.60769 F2880
G0 X145.540 Y96.608 F7200
G1 X129.892 Y80.961 E27.97570 F2880
G0 X130.458 Y80.961 F7200
G1 X145.540 Y96.043 E28.33040 F2880
G0 X145.540 Y95.477 F7200
G1 X131.023 Y80.961 E28.67181 F2880
G0 X131.589 Y80.961 F7200
G1 X145.540 Y94.911 E28.99990 F2880
G0 X145.540 Y94.346 F7200
G1 X132.155 Y80.961 E29.31470 F2880
G0 X132.720 Y80.961 F7200
G1 X145.540 Y93.780 E29.61619 F2880
G0 X145.540 Y93.214 F7200
G1 X133.286 Y80.961 E29.90438 F2880
G0 X133.852 Y80.961 F7200
G1 X145.540 Y92.648 E30.17926 F2880
G0 X145.540 Y92.083 F7200
G1 X134.417 Y80.961 E30.44084 F2880
G0 X134.983 Y80.961 F7200
G1 X145.540 Y91.517 E30.68911 F2880
G0 X145.540 Y90.951 F7200
G1 X135.549 Y80.961 E30.92408 F2880
G0 X136.114 Y80.961 F7200
G1 X145.540 Y90.386 E31.14575 F2880
G0 X145.540 Y89.820 F7200
G1 X136.680 Y80.961 E31.35411 F2880
G0 X137.246 Y80.961 F7200
G1 X145.540 Y89.254 E31.54917 F2880
G0 X145.540 Y88.689 F7200
G1 X137.811 Y80.961 E31.73092 F2880
G0 X138.377 Y80.961 F7200
G1 X145.540 Y88.123 E31.89937 F2880
G0 X145.540 Y87.557 F7200
G1 X138.943 Y80.961 E32.05451 F2880
G0 X139.508 Y80.961 F7200
G1 X145.540 Y86.992 E32.19636 F2880
G0 X145.540 Y86.426 F7200
G1 X140.074 Y80.961 E32.32489 F2880
G0 X140.640 Y80.961 F7200
G1 X145.540 Y85.860 E32.44013 F2880
G0 X145.540 Y85.295 F7200
G1 X141.206 Y80.961 E32.54205 F2880
G0 X141.771 Y80.961 F7200
G1 X145.540 Y84.729 E32.63068 F2880
G0 X145.540 Y84.163 F7200
G1 X142.337 Y80.961 E32.70600 F2880
G0 X142.903 Y80.961 F7200
G1 X145.540 Y83.597 E32.76802 F2880
G0 X145.540 Y83.032 F7200
G1 X143.468 Y80.961 E32.81673 F2880
G0 X144.034 Y80.961 F7200
G1 X145.540 Y82.466 E32.85214 F2880
G0 X145.540 Y81.900 F7200
G1 X144.600 Y80.961 E32.87425 F2880
G0 X145.165 Y80.961 F7200
G1 X145.540 Y81.335 E32.88305 F2880
G0 X131.763 Y97.540 F7200
G1 X130.179 Y95.956 E32.92029 F2880
G0 X130.091 Y96.433 F7200
G1 X131.197 Y97.540 E32.94632 F2880
G0 X130.632 Y97.540 F7200
G1 X129.930 Y96.838 E32.96282 F2880
G0 X129.715 Y97.189 F7200
G1 X130.066 Y97.540 E32.97107 F2880
G0 X129.594 Y97.472 F7200
;segType:InnerHair
G1 X129.486 Y97.525 E32.97281 F2880
G1 X129.367 Y97.568 E32.97419
G1 X129.248 Y97.611 E32.97513
G1 X129.271 Y97.603 E32.97532
G1 X129.386 Y97.578 E32.97651
G1 X129.500 Y97.519 E32.97843
G1 X129.594 Y97.472 E32.98043
G0 F3000 E31.98043
G0 X131.210 Y90.199 F7200
G0 F3000 E32.98043
;segType:HShell
G1 X145.540 Y104.528 E33.31743 F2880
G0 X145.540 Y103.962 F7200
G1 X131.210 Y89.633 E33.65443 F2880
G0 X131.210 Y89.067 F7200
G1 X145.540 Y103.396 E33.99143 F2880
G0 X145.540 Y102.831 F7200
G1 X131.210 Y88.502 E34.32842 F2880
G0 X131.210 Y87.936 F7200
G1 X145.540 Y102.265 E34.66542 F2880
G0 X145.540 Y101.699 F7200
G1 X131.210 Y87.370 E35.00242 F2880
G0 X131.210 Y86.805 F7200
G1 X145.540 Y101.134 E35.33942 F2880
G0 X145.540 Y105.659 F7200
G1 X131.210 Y91.330 E35.67642 F2880
G0 X131.210 Y91.896 F7200
G1 X145.540 Y106.225 E36.01341 F2880
G0 X145.540 Y106.791 F7200
G1 X130.709 Y91.960 E36.36220 F2880
G0 X130.144 Y91.960 F7200
G1 X145.540 Y107.356 E36.72428 F2880
G0 X145.540 Y107.922 F7200
G1 X129.578 Y91.960 E37.09968 F2880
G0 X129.012 Y91.960 F7200
G1 X145.540 Y108.488 E37.48837 F2880
G0 X145.540 Y109.053 F7200
G1 X128.447 Y91.960 E37.89037 F2880
G0 X127.881 Y91.960 F7200
G1 X145.540 Y109.619 E38.30567 F2880
G0 X145.540 Y110.185 F7200
G1 X130.004 Y94.650 E38.67104 F2880
G0 X130.186 Y95.397 F7200
G1 X145.540 Y110.750 E39.03212 F2880
G0 X145.540 Y111.316 F7200
G1 X131.961 Y97.737 E39.35148 F2880
G0 X131.961 Y98.303 F7200
G1 X145.540 Y111.882 E39.67084 F2880
G0 X145.540 Y112.447 F7200
G1 X131.961 Y98.868 E39.99020 F2880
G0 X131.961 Y99.434 F7200
G1 X145.540 Y113.013 E40.30956 F2880
G0 X145.540 Y113.579 F7200
G1 X131.961 Y100.000 E40.62892 F2880
G0 X131.961 Y100.566 F7200
G1 X145.540 Y114.145 E40.94828 F2880
G0 X145.540 Y114.710 F7200
G1 X131.961 Y101.131 E41.26764 F2880
G0 X131.961 Y101.697 F7200
G1 X145.540 Y115.276 E41.58700 F2880
G0 X145.540 Y115.842 F7200
G1 X131.961 Y102.263 E41.90635 F2880
G0 X131.961 Y102.828 F7200
G1 X145.540 Y116.407 E42.22571 F2880
G0 X145.540 Y116.973 F7200
G1 X131.961 Y103.394 E42.54507 F2880
G0 X131.961 Y103.960 F7200
G1 X145.540 Y117.539 E42.86443 F2880
G0 X145.540 Y118.104 F7200
G1 X131.961 Y104.525 E43.18379 F2880
G0 X131.961 Y105.091 F7200
G1 X145.540 Y118.670 E43.50315 F2880
G0 X145.343 Y119.039 F7200
G1 X131.961 Y105.657 E43.81789 F2880
G0 X131.961 Y106.222 F7200
G1 X144.778 Y119.039 E44.11933 F2880
G0 X144.212 Y119.039 F7200
G1 X131.961 Y106.788 E44.40747 F2880
G0 X131.961 Y107.354 F7200
G1 X143.646 Y119.039 E44.68230 F2880
G0 X143.081 Y119.039 F7200
G1 X131.961 Y107.919 E44.94382 F2880
G0 X131.961 Y108.485 F7200
G1 X142.515 Y119.039 E45.19205 F2880
G0 X141.949 Y119.039 F7200
G1 X131.961 Y109.051 E45.42696 F2880
G0 X131.961 Y109.616 F7200
G1 X141.384 Y119.039 E45.64858 F2880
G0 X140.818 Y119.039 F7200
G1 X131.961 Y110.182 E45.85689 F2880
G0 X131.961 Y110.748 F7200
G1 X140.252 Y119.039 E46.05189 F2880
G0 X139.686 Y119.039 F7200
G1 X131.961 Y111.314 E46.23360 F2880
G0 X131.961 Y111.879 F7200
G1 X139.121 Y119.039 E46.40199 F2880
G0 X138.555 Y119.039 F7200
G1 X131.961 Y112.445 E46.55709 F2880
G0 X131.961 Y113.011 F7200
G1 X137.989 Y119.039 E46.69887 F2880
G0 X137.424 Y119.039 F7200
G1 X131.961 Y113.576 E46.82736 F2880
G0 X131.961 Y114.142 F7200
G1 X136.858 Y119.039 E46.94254 F2880
G0 X136.292 Y119.039 F7200
G1 X131.713 Y114.461 E47.05023 F2880
G0 X129.553 Y114.507 F7200
;segType:InnerHair
G1 X129.440 Y114.458 E47.05184 F2880
G1 X129.322 Y114.415 E47.05305
G1 X129.271 Y114.397 E47.05348
G1 X129.386 Y114.422 E47.05467
G1 X129.500 Y114.481 E47.05659
G1 X129.553 Y114.507 E47.05761
G0 X130.016 Y114.461 F7200
;segType:HShell
G1 X134.595 Y119.039 E47.16530 F2880
G0 X134.030 Y119.039 F7200
G1 X129.592 Y114.602 E47.26966 F2880
G0 X130.138 Y115.713 F7200
G1 X133.464 Y119.039 E47.34788 F2880
G0 X132.898 Y119.039 F7200
G1 X130.217 Y116.358 E47.41094 F2880
G0 X130.154 Y116.861 F7200
G1 X132.333 Y119.039 E47.46218 F2880
G0 X131.767 Y119.039 F7200
G1 X130.025 Y117.298 E47.50314 F2880
G0 X129.856 Y117.695 F7200
G1 X131.201 Y119.039 E47.53477 F2880
G0 X130.636 Y119.039 F7200
G1 X129.618 Y118.022 E47.55869 F2880
G0 X129.350 Y118.320 F7200
G1 X130.070 Y119.039 E47.57562 F2880
G0 X129.505 Y118.757 F7200
G1 X128.807 Y118.908 E47.60530 F2880
G0 X126.495 Y118.859 F7200
G1 X126.528 Y118.892 E47.60607 F2880
G0 X126.643 Y118.975 F7200
;segType:InnerHair
G1 X126.757 Y118.993 E47.60806 F2880
G1 X126.871 Y119.011 E47.60987
G1 X126.986 Y119.029 E47.61151
G1 X127.100 Y119.033 E47.61309
G1 X127.214 Y119.037 E47.61464
G1 X127.329 Y119.040 E47.61616
G1 X127.443 Y119.044 E47.61764
G1 X127.557 Y119.048 E47.61908
G1 X127.671 Y119.051 E47.62049
G1 X127.786 Y119.040 E47.62202
G1 X127.900 Y119.029 E47.62364
G1 X128.014 Y119.019 E47.62537
G1 X128.129 Y119.008 E47.62720
G1 X128.243 Y118.997 E47.62913
G1 X128.357 Y118.986 E47.63117
G1 X128.471 Y118.960 E47.63350
; ------------------------------------
; Layer #3
; ------------------------------------
G92 E0 ;reset extr
G0 F3000 E-1.00000
G0 F600 Z1.500
G0 X128.342 Y118.094 F7200
G0 X128.546 Y117.998
G0 X128.923 Y117.686
G0 X129.211 Y117.290
G0 X129.391 Y116.835
G0 X129.452 Y116.350
G0 X129.391 Y115.865
G0 X129.211 Y115.410
G0 X128.923 Y115.014
G0 X128.546 Y114.702
G0 X128.103 Y114.494
G0 X127.794 Y114.435
G0 X127.684 Y113.700
G0 X123.800 Y113.700
G0 X123.800 Y98.300
G0 X125.500 Y99.100
G0 F3000 E0.00000
;segType:Support
G1 X130.600 Y99.100 E0.07209 F1611
G1 X130.600 Y100.900 E0.09754
G1 X125.500 Y100.900 E0.16963
G0 F3000 E-0.83037
G0 X117.198 Y80.960 F7200
G0 F3000 E0.16963
;segType:HShell
G1 X114.460 Y83.698 E0.23402 F2880
G0 X114.460 Y83.133 F7200
G1 X116.633 Y80.960 E0.28511 F2880
G0 X116.067 Y80.960 F7200
G1 X114.460 Y82.567 E0.32289 F2880
G0 X114.460 Y82.001 F7200
G1 X115.501 Y80.960 E0.34737 F2880
G0 X114.936 Y80.960 F7200
G1 X114.460 Y81.436 E0.35855 F2880
G0 X113.916 Y80.780 F7200
;segType:Perimeter
G1 X113.760 Y80.200 E0.36852 F1440
G1 X146.300 Y80.200 E0.90966
G1 X146.300 Y119.800 E1.56819
G1 X113.700 Y119.800 E2.11032
G1 X113.700 Y80.260 E2.76786
G0 X113.760 Y80.200 F7200
G0 X115.360 Y80.200
G0 X114.800 Y80.600
;segType:Loop
G1 X145.900 Y80.600 E3.28505 F2880
G1 X145.900 Y119.400 E3.93028
G1 X114.100 Y119.400 E4.45910
G1 X114.100 Y80.600 E5.10434
G1 X114.600 Y80.600 E5.11265
G0 F3000 E4.11265
G0 X141.523 Y80.961 F7200
G0 F3000 E5.11265
;segType:HShell
G1 X131.210 Y91.273 E5.35518 F2880
G0 X131.190 Y91.200 F7200
;segType:Perimeter
G1 X130.390 Y91.200 E5.36849 F1440
G1 X124.550 Y91.200 E5.46562
G1 X124.550 Y87.300 E5.53049
G1 X130.450 Y87.300 E5.62862
G1 X130.450 Y91.140 E5.69249
G0 X130.390 Y91.200 F7200
G0 X128.790 Y91.200
G0 X129.350 Y91.600
;segType:Loop
G1 X124.150 Y91.600 E5.77898 F2880
G1 X124.150 Y86.900 E5.85715
G1 X130.850 Y86.900 E5.96858
G1 X130.850 Y91.600 E6.04676
G1 X129.550 Y91.600 E6.06838
G0 F3000 E5.06838
G0 X129.977 Y91.200 F7200
G0 X127.288 Y93.723
G0 X127.134 Y93.733
G0 X126.669 Y93.884
G0 X126.256 Y94.146
G0 X125.921 Y94.503
G0 X125.685 Y94.931
G0 X125.585 Y95.321
G0 X114.460 Y105.760
G0 F3000 E6.06838
;segType:HShell
G1 X124.803 Y95.417 E6.31163 F2880
G0 X124.803 Y95.983 F7200
G1 X123.247 Y97.540 E6.34823 F2880
G0 X123.812 Y97.540 F7200
G1 X124.917 Y96.435 E6.37422 F2880
G0 X125.077 Y96.841 F7200
G1 X124.378 Y97.540 E6.39066 F2880
G0 X125.278 Y97.205 F7200
G1 X124.944 Y97.540 E6.39852 F2880
G0 X125.861 Y97.087 F7200
;segType:Perimeter
G1 X125.670 Y96.310 E6.41182 F1440
G1 X125.563 Y95.894 E6.41896
G1 X125.563 Y95.405 E6.42710
G1 X125.685 Y94.931 E6.43523
G1 X125.921 Y94.503 E6.44337
G1 X126.256 Y94.146 E6.45151
G1 X126.669 Y93.884 E6.45965
G1 X127.134 Y93.733 E6.46778
G1 X127.622 Y93.702 E6.47592
G1 X128.103 Y93.793 E6.48406
G1 X128.546 Y94.002 E6.49220
G1 X128.923 Y94.314 E6.50033
G1 X129.211 Y94.710 E6.50847
G1 X129.391 Y95.165 E6.51661
G1 X129.452 Y95.650 E6.52474
G1 X129.391 Y96.136 E6.53288
G1 X129.211 Y96.590 E6.54102
G1 X128.923 Y96.986 E6.54915
G1 X128.546 Y97.298 E6.55729
G1 X128.103 Y97.506 E6.56543
G1 X127.623 Y97.598 E6.57357
G1 X127.134 Y97.568 E6.58170
G1 X126.669 Y97.416 E6.58984
G1 X126.256 Y97.154 E6.59798
G1 X125.921 Y96.797 E6.60612
G1 X125.714 Y96.421 E6.61325
G0 X125.670 Y96.310 F7200
G0 X125.563 Y95.894
G0 X125.563 Y95.405
G0 X125.685 Y94.931
G0 X125.778 Y94.763
G0 X125.188 Y95.258
;segType:Loop
G1 X125.310 Y94.783 E6.62141 F2880
G1 X125.595 Y94.266 E6.63123
G1 X125.999 Y93.835 E6.64104
G1 X126.497 Y93.519 E6.65086
G1 X127.059 Y93.336 E6.66068
G1 X127.648 Y93.300 E6.67050
G1 X128.228 Y93.410 E6.68031
G1 X128.762 Y93.662 E6.69014
G1 X129.217 Y94.038 E6.69995
G1 X129.564 Y94.515 E6.70977
G1 X129.781 Y95.064 E6.71959
G1 X129.855 Y95.650 E6.72940
G1 X129.781 Y96.236 E6.73922
G1 X129.564 Y96.785 E6.74904
G1 X129.217 Y97.262 E6.75886
G1 X128.762 Y97.639 E6.76868
G1 X128.672 Y97.681 E6.77033
G0 X128.634 Y97.804 F7200
G0 X128.502 Y97.834
G0 X128.369 Y97.863
G1 X128.129 Y97.904 E6.77430 F2880
G1 X128.014 Y97.915 E6.77607
G1 X127.900 Y97.926 E6.77773
G1 X127.786 Y97.937 E6.77928
G1 X127.671 Y97.947 E6.78074
G1 X127.557 Y97.947 E6.78219
G1 X127.443 Y97.944 E6.78367
G1 X127.329 Y97.940 E6.78519
G1 X127.214 Y97.936 E6.78674
G1 X127.100 Y97.933 E6.78833
G1 X126.986 Y97.919 E6.79005
G1 X126.871 Y97.901 E6.79196
G1 X126.757 Y97.883 E6.79405
G1 X126.643 Y97.865 E6.79631
G0 X126.372 Y97.809 F7200
G1 X126.338 Y97.680 E6.79851 F2880
G1 X125.999 Y97.465 E6.80521
G1 X125.595 Y97.034 E6.81502
G1 X125.310 Y96.517 E6.82484
G1 X125.163 Y95.945 E6.83466
G1 X125.163 Y95.455 E6.84281
G0 F3000 E5.84281
G0 X125.563 Y95.558 F7200
G0 X125.563 Y95.894
G0 X125.685 Y96.369
G0 X125.921 Y96.797
G0 X126.256 Y97.154
G0 X126.669 Y97.416
G0 X127.134 Y97.568
G0 X127.623 Y97.598
G0 X128.103 Y97.506
G0 X128.546 Y97.298
G0 X128.923 Y96.986
G0 X129.211 Y96.590
G0 X129.244 Y96.506
G0 X146.300 Y100.898
G0 X145.540 Y100.703
G0 F3000 E6.84281
;segType:HShell
G1 X131.961 Y114.282 E7.16217 F2880
G0 X131.782 Y114.461 F7200
G1 X130.182 Y116.061 E7.19980 F2880
G0 X129.723 Y114.822 F7200
G1 X130.085 Y114.461 E7.20830 F2880
G0 X130.650 Y114.461 F7200
G1 X129.935 Y115.175 E7.22511 F2880
G0 X130.096 Y115.581 F7200
G1 X131.216 Y114.461 E7.25145 F2880
G0 X131.140 Y113.700 F7200
;segType:Perimeter
G1 X123.800 Y113.700 E7.37353 F1440
G1 X123.800 Y98.300 E7.62964
G1 X131.200 Y98.300 E7.75272
G1 X131.200 Y113.640 E8.00784
G0 X131.140 Y113.700 F7200
G0 X129.540 Y113.700
G0 X130.100 Y114.100
;segType:Loop
G1 X128.814 Y114.100 E8.02923 F2880
G0 X128.700 Y114.192 F7200
G0 X128.586 Y114.185
G0 X128.471 Y114.160
G0 X128.357 Y114.134
G0 X128.243 Y114.108
G1 X128.129 Y114.096 E8.03109 F2880
G1 X128.014 Y114.085 E8.03286
G1 X127.900 Y114.074 E8.03452
G1 X127.786 Y114.063 E8.03607
G1 X127.671 Y114.053 E8.03752
G1 X127.557 Y114.053 E8.03897
G1 X127.443 Y114.056 E8.04045
G1 X127.329 Y114.060 E8.04197
G1 X127.214 Y114.064 E8.04352
G1 X127.100 Y114.067 E8.04511
G1 X126.986 Y114.081 E8.04684
G1 X126.871 Y114.099 E8.04875
G1 X126.757 Y114.117 E8.05083
G1 X126.643 Y114.135 E8.05309
G1 X126.529 Y114.146 E8.05543
G1 X126.414 Y114.179 E8.05818
G1 X126.300 Y114.100 E8.06049
G1 X123.400 Y114.100 E8.10872
G1 X123.400 Y97.900 E8.37814
G1 X126.300 Y97.900 E8.42638
G1 X126.414 Y97.821 E8.42958
G1 X126.529 Y97.855 E8.43201
G0 X126.643 Y97.865 F7200
G0 X126.986 Y97.919
G0 X127.100 Y97.933
G0 X127.557 Y97.947
G0 X127.671 Y97.947
G0 X128.129 Y97.904
G1 X128.243 Y97.892 E8.43400 F2880
G1 X128.357 Y97.866 E8.43627
G1 X128.471 Y97.841 E8.43880
G1 X128.586 Y97.815 E8.44157
G1 X128.700 Y97.808 E8.44434
G1 X128.814 Y97.900 E8.44677
G1 X131.600 Y97.900 E8.49311
G1 X131.600 Y114.100 E8.76253
G1 X130.300 Y114.100 E8.78414
G0 F3000 E7.78414
G0 X130.821 Y113.700 F7200
G0 X131.200 Y113.700
G0 X131.200 Y113.409
G0 X145.540 Y102.400
G0 F3000 E8.78414
;segType:HShell
G1 X128.900 Y119.039 E9.17549 F2880
G0 X128.471 Y118.960 F7200
;segType:InnerHair
G1 X128.357 Y118.986 E9.17757 F2880
G1 X128.243 Y118.997 E9.17950
G1 X128.129 Y119.008 E9.18133
G1 X128.014 Y119.019 E9.18306
G1 X127.900 Y119.029 E9.18469
G1 X127.786 Y119.040 E9.18621
G1 X127.671 Y119.051 E9.18763
G1 X127.557 Y119.048 E9.18907
G1 X127.443 Y119.044 E9.19055
G1 X127.329 Y119.040 E9.19206
G1 X127.214 Y119.037 E9.19361
G1 X127.100 Y119.033 E9.19519
G1 X126.986 Y119.029 E9.19681
G1 X126.871 Y119.011 E9.19863
G1 X126.757 Y118.993 E9.20062
G1 X126.643 Y118.975 E9.20278
G0 X126.071 Y119.039 F7200
;segType:HShell
G0 X126.422 Y118.971
G1 X125.738 Y118.807 E9.22447 F2880
G0 X124.940 Y119.039 F7200
G1 X125.655 Y118.325 E9.24128 F2880
G0 X125.861 Y117.787 F7200
;segType:Perimeter
G1 X125.670 Y117.011 E9.25459 F1440
G1 X125.563 Y116.595 E9.26173
G1 X125.563 Y116.105 E9.26986
G1 X125.685 Y115.632 E9.27800
G1 X125.921 Y115.203 E9.28614
G1 X126.256 Y114.846 E9.29427
G1 X126.669 Y114.584 E9.30241
G1 X127.134 Y114.433 E9.31055
G1 X127.622 Y114.402 E9.31868
G1 X128.103 Y114.494 E9.32682
G1 X128.546 Y114.702 E9.33496
G1 X128.923 Y115.014 E9.34310
G1 X129.211 Y115.410 E9.35124
G1 X129.391 Y115.865 E9.35937
G1 X129.452 Y116.350 E9.36751
G1 X129.391 Y116.835 E9.37564
G1 X129.211 Y117.290 E9.38378
G1 X128.923 Y117.686 E9.39192
G1 X128.546 Y117.998 E9.40006
G1 X128.103 Y118.206 E9.40820
G1 X127.622 Y118.298 E9.41633
G1 X127.134 Y118.267 E9.42447
G1 X126.669 Y118.116 E9.43261
G1 X126.256 Y117.854 E9.44074
G1 X125.921 Y117.497 E9.44888
G1 X125.714 Y117.121 E9.45602
G0 X125.670 Y117.011 F7200
G0 X125.563 Y116.595
G0 X125.563 Y116.105
G0 X125.685 Y115.632
G0 X125.778 Y115.463
G0 X125.188 Y115.958
;segType:Loop
G1 X125.310 Y115.483 E9.46417 F2880
G1 X125.595 Y114.966 E9.47399
G1 X125.999 Y114.535 E9.48381
G1 X126.377 Y114.296 E9.49125
G0 X126.643 Y114.135 F7200
G0 X126.986 Y114.081
G0 X127.100 Y114.067
G0 X127.557 Y114.053
G0 X127.671 Y114.053
G0 X128.129 Y114.096
G1 X128.451 Y114.155 E9.49818 F2880
G1 X128.583 Y114.184 E9.50137
G1 X128.630 Y114.299 E9.50344
G1 X128.762 Y114.362 E9.50587
G1 X129.217 Y114.738 E9.51569
G1 X129.564 Y115.215 E9.52551
G1 X129.781 Y115.764 E9.53532
G1 X129.855 Y116.350 E9.54514
G1 X129.781 Y116.936 E9.55495
G1 X129.564 Y117.485 E9.56477
G1 X129.217 Y117.962 E9.57459
G1 X128.762 Y118.339 E9.58441
G1 X128.228 Y118.590 E9.59423
G1 X127.648 Y118.701 E9.60405
G1 X127.059 Y118.663 E9.61387
G1 X126.497 Y118.481 E9.62368
G1 X125.999 Y118.165 E9.63350
G1 X125.595 Y117.734 E9.64332
G1 X125.310 Y117.217 E9.65314
G1 X125.163 Y116.645 E9.66296
G1 X125.163 Y116.155 E9.67111
G0 X125.386 Y114.505 F7200
;segType:InnerHair
G1 X125.500 Y114.493 E9.67295 F2880
G1 X125.614 Y114.444 E9.67443
G1 X125.729 Y114.394 E9.67540
G1 X125.686 Y114.413 E9.67584
G1 X125.573 Y114.462 E9.67748
G1 X125.460 Y114.510 E9.67963
G1 X125.386 Y114.505 E9.68090
G0 F3000 E8.68090
G0 X125.585 Y113.700 F7200
G0 X123.800 Y113.700
G0 X123.800 Y98.300
G0 X129.389 Y98.300
G0 X129.594 Y97.472
G0 F3000 E9.68090
G1 X129.486 Y97.525 E9.68265 F2880
G1 X129.367 Y97.568 E9.68403
G1 X129.248 Y97.611 E9.68496
G1 X129.271 Y97.603 E9.68516
G1 X129.386 Y97.578 E9.68634
G1 X129.500 Y97.519 E9.68827
G1 X129.594 Y97.472 E9.69027
G0 F3000 E8.69027
G0 X128.178 Y97.471 F7200
G0 X128.103 Y97.506
G0 X127.623 Y97.598
G0 X127.134 Y97.568
G0 X126.838 Y97.471
G0 X125.416 Y97.471
G0 F3000 E9.69027
G1 X125.529 Y97.520 E9.69211 F2880
G1 X125.642 Y97.569 E9.69345
G1 X125.755 Y97.617 E9.69429
G1 X125.729 Y97.606 E9.69451
G1 X125.614 Y97.557 E9.69599
G1 X125.500 Y97.507 E9.69799
G1 X125.386 Y97.495 E9.69995
G1 X125.416 Y97.471 E9.70069
G0 X124.961 Y94.694 F7200
;segType:HShell
G1 X114.460 Y105.194 E9.94765 F2880
G0 X114.460 Y104.629 F7200
G1 X127.129 Y91.960 E10.24559 F2880
G0 X126.563 Y91.960 F7200
G1 X114.460 Y104.063 E10.53023 F2880
G0 X114.460 Y103.497 F7200
G1 X125.997 Y91.960 E10.80156 F2880
G0 X125.432 Y91.960 F7200
G1 X114.460 Y102.932 E11.05959 F2880
G0 X114.460 Y102.366 F7200
G1 X124.866 Y91.960 E11.30431 F2880
G0 X124.300 Y91.960 F7200
G1 X114.460 Y101.800 E11.53573 F2880
G0 X114.460 Y101.235 F7200
G1 X123.789 Y91.906 E11.75513 F2880
G0 X123.789 Y91.340 F7200
G1 X114.460 Y100.669 E11.97454 F2880
G0 X114.460 Y100.103 F7200
G1 X123.789 Y90.774 E12.19394 F2880
G0 X123.789 Y90.209 F7200
G1 X114.460 Y99.538 E12.41335 F2880
G0 X114.460 Y98.972 F7200
G1 X123.789 Y89.643 E12.63275 F2880
G0 X123.789 Y89.077 F7200
G1 X114.460 Y98.406 E12.85216 F2880
G0 X114.460 Y97.841 F7200
G1 X123.789 Y88.512 E13.07156 F2880
G0 X123.789 Y87.946 F7200
G1 X114.460 Y97.275 E13.29096 F2880
G0 X114.460 Y96.709 F7200
G1 X123.789 Y87.380 E13.51037 F2880
G0 X123.789 Y86.814 F7200
G1 X114.460 Y96.143 E13.72977 F2880
G0 X114.460 Y95.578 F7200
G1 X129.078 Y80.961 E14.07355 F2880
G0 X128.512 Y80.961 F7200
G1 X114.460 Y95.012 E14.40402 F2880
G0 X114.460 Y94.446 F7200
G1 X127.946 Y80.961 E14.72119 F2880
G0 X127.381 Y80.961 F7200
G1 X114.460 Y93.881 E15.02505 F2880
G0 X114.460 Y93.315 F7200
G1 X126.815 Y80.961 E15.31561 F2880
G0 X126.249 Y80.961 F7200
G1 X114.460 Y92.749 E15.59287 F2880
G0 X114.460 Y92.184 F7200
G1 X125.684 Y80.961 E15.85682 F2880
G0 X125.118 Y80.961 F7200
G1 X114.460 Y91.618 E16.10747 F2880
G0 X114.460 Y91.052 F7200
G1 X124.552 Y80.961 E16.34481 F2880
G0 X123.987 Y80.961 F7200
G1 X114.460 Y90.487 E16.56885 F2880
G0 X114.460 Y89.921 F7200
G1 X123.421 Y80.961 E16.77959 F2880
G0 X122.855 Y80.960 F7200
G1 X114.460 Y89.355 E16.97702 F2880
G0 X114.460 Y88.790 F7200
G1 X122.290 Y80.960 E17.16115 F2880
G0 X121.724 Y80.960 F7200
G1 X114.460 Y88.224 E17.33197 F2880
G0 X114.460 Y87.658 F7200
G1 X121.158 Y80.960 E17.48949 F2880
G0 X120.592 Y80.960 F7200
G1 X114.460 Y87.093 E17.63371 F2880
G0 X114.460 Y86.527 F7200
G1 X120.027 Y80.960 E17.76462 F2880
G0 X119.461 Y80.960 F7200
G1 X114.460 Y85.961 E17.88222 F2880
G0 X114.460 Y85.395 F7200
G1 X118.895 Y80.960 E17.98653 F2880
G0 X118.330 Y80.960 F7200
G1 X114.460 Y84.830 E18.07753 F2880
G0 X114.460 Y84.264 F7200
G1 X117.764 Y80.960 E18.15522 F2880
G0 X124.065 Y86.539 F7200
G1 X129.643 Y80.961 E18.28643 F2880
G0 X130.209 Y80.961 F7200
G1 X124.630 Y86.539 E18.41764 F2880
G0 X125.196 Y86.539 F7200
G1 X130.775 Y80.961 E18.54885 F2880
G0 X131.340 Y80.961 F7200
G1 X125.762 Y86.539 E18.68006 F2880
G0 X126.327 Y86.539 F7200
G1 X131.906 Y80.961 E18.81126 F2880
G0 X132.472 Y80.961 F7200
G1 X126.893 Y86.539 E18.94247 F2880
G0 X127.459 Y86.539 F7200
G1 X133.038 Y80.961 E19.07368 F2880
G0 X133.603 Y80.961 F7200
G1 X128.024 Y86.539 E19.20489 F2880
G0 X128.590 Y86.539 F7200
G1 X134.169 Y80.961 E19.33610 F2880
G0 X134.735 Y80.961 F7200
G1 X129.156 Y86.539 E19.46730 F2880
G0 X129.721 Y86.539 F7200
G1 X135.300 Y80.961 E19.59851 F2880
G0 X135.866 Y80.961 F7200
G1 X130.287 Y86.539 E19.72972 F2880
G0 X130.853 Y86.539 F7200
G1 X136.432 Y80.961 E19.86093 F2880
G0 X136.997 Y80.961 F7200
G1 X131.210 Y86.747 E19.99703 F2880
G0 X131.210 Y87.313 F7200
G1 X137.563 Y80.961 E20.14643 F2880
G0 X138.129 Y80.961 F7200
G1 X131.210 Y87.879 E20.30914 F2880
G0 X131.210 Y88.444 F7200
G1 X138.694 Y80.961 E20.48515 F2880
G0 X139.260 Y80.961 F7200
G1 X131.210 Y89.010 E20.67446 F2880
