; generated by Slic3r 1.3.0 on 2021-01-26 at 23:20:43

; external perimeters extrusion width = 0.55mm (1.06mm^3/s)
; perimeters extrusion width = 0.70mm (2.71mm^3/s)
; infill extrusion width = 0.62mm (3.62mm^3/s)
; solid infill extrusion width = 0.70mm (1.36mm^3/s)
; top infill extrusion width = 0.70mm (1.02mm^3/s)
; support material extrusion width = 0.55mm (3.17mm^3/s)

M107
M190 S60 ; set bed temperature and wait for it to be reached
M104 S215 ; set temperature
G28 ; home all axes
G1 Z5 F5000 ; lift nozzle

; Filament gcode

M109 S215 ; set temperature and wait for it to be reached
G21 ; set units to millimeters
G90 ; use absolute coordinates
M82 ; use absolute distances for extrusion
G92 E0
G1 Z0.200 F7800.000
G1 E-2.00000 F2400.00000
G92 E0
G1 X117.472 Y79.029 F7800.000
G1 E2.00000 F2400.00000
G1 F1800
G1 X82.528 Y79.029 E2.50134
G1 X82.528 Y79.540 E2.50868
G1 X117.472 Y79.540 E3.01003
G1 X117.472 Y80.052 E3.01736
G1 X82.528 Y80.052 E3.51871
G1 X82.528 Y80.563 E3.52605
G1 X117.472 Y80.563 E4.02739
G1 X117.472 Y81.075 E4.03473
G1 X82.528 Y81.075 E4.53607
G1 X82.528 Y81.586 E4.54341
G1 X117.472 Y81.586 E5.04476
G1 X117.472 Y82.098 E5.05209
G1 X82.528 Y82.098 E5.55344
G1 X82.528 Y82.609 E5.56078
G1 X117.472 Y82.609 E6.06212
G1 X117.472 Y83.121 E6.06946
G1 X82.528 Y83.121 E6.57080
G1 X82.528 Y83.632 E6.57814
G1 X117.472 Y83.632 E7.07948
G1 X117.472 Y84.144 E7.08682
G1 X82.528 Y84.144 E7.58817
G1 X82.528 Y84.655 E7.59551
G1 X117.472 Y84.655 E8.09685
G1 X117.472 Y85.167 E8.10419
G1 X82.528 Y85.167 E8.60553
G1 X82.528 Y85.678 E8.61287
G1 X117.472 Y85.678 E9.11421
G1 X117.472 Y86.190 E9.12155
G1 X82.528 Y86.190 E9.62290
G1 X82.528 Y86.701 E9.63023
G1 X117.472 Y86.701 E10.13158
G1 X117.472 Y87.213 E10.13892
G1 X82.528 Y87.213 E10.64026
G1 X82.528 Y87.724 E10.64760
G1 X117.472 Y87.724 E11.14894
G1 X117.472 Y88.236 E11.15628
G1 X82.528 Y88.236 E11.65763
G1 X82.528 Y88.747 E11.66496
G1 X117.472 Y88.747 E12.16631
G1 X117.472 Y89.259 E12.17365
G1 X82.528 Y89.259 E12.67499
G1 X82.528 Y89.770 E12.68233
G1 X117.472 Y89.770 E13.18367
G1 X117.472 Y90.282 E13.19101
G1 X82.528 Y90.282 E13.69235
G1 X82.528 Y90.793 E13.69969
G1 X117.472 Y90.793 E14.20104
G1 X117.472 Y91.305 E14.20838
G1 X82.528 Y91.305 E14.70972
G1 X82.528 Y91.816 E14.71706
G1 X117.472 Y91.816 E15.21840
G1 X117.472 Y92.328 E15.22574
G1 X82.528 Y92.328 E15.72708
G1 X82.528 Y92.839 E15.73442
G1 X117.472 Y92.839 E16.23577
G1 X117.472 Y93.351 E16.24310
G1 X82.528 Y93.351 E16.74445
G1 X82.528 Y93.862 E16.75179
G1 X117.472 Y93.862 E17.25313
G1 X117.472 Y94.374 E17.26047
G1 X82.528 Y94.374 E17.76181
G1 X82.528 Y94.885 E17.76915
G1 X117.472 Y94.885 E18.27050
G1 X117.472 Y95.397 E18.27783
G1 X82.528 Y95.397 E18.77918
G1 X82.528 Y95.908 E18.78652
G1 X117.472 Y95.908 E19.28786
G1 X117.472 Y96.420 E19.29520
G1 X82.528 Y96.420 E19.79654
G1 X82.528 Y96.931 E19.80388
G1 X117.472 Y96.931 E20.30522
G1 X117.472 Y97.443 E20.31256
G1 X82.528 Y97.443 E20.81391
G1 X82.528 Y97.954 E20.82125
G1 X117.472 Y97.954 E21.32259
G1 X117.472 Y98.466 E21.32993
G1 X82.528 Y98.466 E21.83127
G1 X82.528 Y98.977 E21.83861
G1 X117.472 Y98.977 E22.33995
G1 X117.472 Y99.489 E22.34729
G1 X82.528 Y99.489 E22.84864
G1 X82.528 Y100.000 E22.85597
G1 X117.472 Y100.000 E23.35732
G1 X117.472 Y100.512 E23.36466
G1 X82.528 Y100.512 E23.86600
G1 X82.528 Y101.023 E23.87334
G1 X117.472 Y101.023 E24.37468
G1 X117.472 Y101.534 E24.38202
G1 X82.528 Y101.534 E24.88337
G1 X82.528 Y102.046 E24.89070
G1 X117.472 Y102.046 E25.39205
G1 X117.472 Y102.557 E25.39939
G1 X82.528 Y102.557 E25.90073
G1 X82.528 Y103.069 E25.90807
G1 X117.472 Y103.069 E26.40941
G1 X117.472 Y103.580 E26.41675
G1 X82.528 Y103.580 E26.91809
G1 X82.528 Y104.092 E26.92543
G1 X117.472 Y104.092 E27.42678
G1 X117.472 Y104.603 E27.43412
G1 X82.528 Y104.603 E27.93546
G1 X82.528 Y105.115 E27.94280
G1 X117.472 Y105.115 E28.44414
G1 X117.472 Y105.626 E28.45148
G1 X82.528 Y105.626 E28.95282
G1 X82.528 Y106.138 E28.96016
G1 X117.472 Y106.138 E29.46151
G1 X117.472 Y106.649 E29.46884
G1 X82.528 Y106.649 E29.97019
G1 X82.528 Y107.161 E29.97753
G1 X117.472 Y107.161 E30.47887
G1 X117.472 Y107.672 E30.48621
G1 X82.528 Y107.672 E30.98755
G1 X82.528 Y108.184 E30.99489
G1 X117.472 Y108.184 E31.49624
G1 X117.472 Y108.695 E31.50357
G1 X82.528 Y108.695 E32.00492
G1 X82.528 Y109.207 E32.01226
G1 X117.472 Y109.207 E32.51360
G1 X117.472 Y109.718 E32.52094
G1 X82.528 Y109.718 E33.02228
G1 X82.528 Y110.230 E33.02962
G1 X117.472 Y110.230 E33.53096
G1 X117.472 Y110.741 E33.53830
G1 X82.528 Y110.741 E34.03965
G1 X82.528 Y111.253 E34.04699
G1 X117.472 Y111.253 E34.54833
G1 X117.472 Y111.764 E34.55567
G1 X82.528 Y111.764 E35.05701
G1 X82.528 Y112.276 E35.06435
G1 X117.472 Y112.276 E35.56569
G1 X117.472 Y112.787 E35.57303
G1 X82.528 Y112.787 E36.07438
G1 X82.528 Y113.299 E36.08171
G1 X117.472 Y113.299 E36.58306
G1 X117.472 Y113.810 E36.59040
G1 X82.528 Y113.810 E37.09174
G1 X82.528 Y114.322 E37.09908
G1 X117.472 Y114.322 E37.60042
G1 X117.472 Y114.833 E37.60776
G1 X82.528 Y114.833 E38.10911
G1 X82.528 Y115.345 E38.11644
G1 X117.472 Y115.345 E38.61779
G1 X117.472 Y115.856 E38.62513
G1 X82.528 Y115.856 E39.12647
G1 X82.528 Y116.368 E39.13381
G1 X117.472 Y116.368 E39.63515
G1 X117.472 Y116.879 E39.64249
G1 X82.528 Y116.879 E40.14383
G1 X82.528 Y117.391 E40.15117
G1 X117.472 Y117.391 E40.65252
G1 X117.472 Y117.902 E40.65986
G1 X82.528 Y117.902 E41.16120
G1 X82.528 Y118.414 E41.16854
G1 X117.472 Y118.414 E41.66988
G1 X117.472 Y118.925 E41.67722
G1 X82.528 Y118.925 E42.17856
G1 X82.528 Y119.437 E42.18590
G1 X117.472 Y119.437 E42.68725
G1 X117.472 Y119.948 E42.69458
G1 X82.528 Y119.948 E43.19593
G1 X82.528 Y120.460 E43.20327
G1 X117.472 Y120.460 E43.70461
G1 X117.472 Y120.971 E43.71195
G1 X82.528 Y120.971 E44.21329
G1 Z0.570 F7800.000
G1 E42.21329 F2400.00000
G92 E0
G1 X117.490 Y120.990 F7800.000
G1 E2.00000 F2400.00000
G1 F3600
G1 X117.490 Y79.010 E3.03409
G1 X117.017 Y79.010 E3.04573
G1 X117.017 Y120.990 E4.07982
G1 X116.544 Y120.990 E4.09146
G1 X116.544 Y79.010 E5.12555
G1 X116.072 Y79.010 E5.13719
G1 X116.072 Y120.990 E6.17128
G1 X115.599 Y120.990 E6.18292
G1 X115.599 Y79.010 E7.21701
G1 X115.126 Y79.010 E7.22866
G1 X115.126 Y120.990 E8.26274
G1 X114.654 Y120.990 E8.27439
G1 X114.654 Y79.010 E9.30847
G1 X114.181 Y79.010 E9.32012
G1 X114.181 Y120.990 E10.35420
G1 X113.708 Y120.990 E10.36585
G1 X113.708 Y79.010 E11.39994
G1 X113.235 Y79.010 E11.41158
G1 X113.235 Y120.990 E12.44567
G1 X112.763 Y120.990 E12.45731
G1 X112.763 Y79.010 E13.49140
G1 X112.290 Y79.010 E13.50304
G1 X112.290 Y120.990 E14.53713
G1 X111.817 Y120.990 E14.54877
G1 X111.817 Y79.010 E15.58286
G1 X111.345 Y79.010 E15.59450
G1 X111.345 Y120.990 E16.62859
G1 X110.872 Y120.990 E16.64023
G1 X110.872 Y79.010 E17.67432
G1 X110.399 Y79.010 E17.68597
G1 X110.399 Y120.990 E18.72005
G1 X109.927 Y120.990 E18.73170
G1 X109.927 Y79.010 E19.76578
G1 X109.454 Y79.010 E19.77743
G1 X109.454 Y120.990 E20.81151
G1 X108.981 Y120.990 E20.82316
G1 X108.981 Y79.010 E21.85725
G1 X108.509 Y79.010 E21.86889
G1 X108.509 Y120.990 E22.90298
G1 X108.036 Y120.990 E22.91462
G1 X108.036 Y79.010 E23.94871
G1 X107.563 Y79.010 E23.96035
G1 X107.563 Y120.990 E24.99444
G1 X107.090 Y120.990 E25.00608
G1 X107.090 Y79.010 E26.04017
G1 X106.618 Y79.010 E26.05181
G1 X106.618 Y120.990 E27.08590
G1 X106.145 Y120.990 E27.09754
G1 X106.145 Y79.010 E28.13163
G1 X105.672 Y79.010 E28.14328
G1 X105.672 Y120.990 E29.17736
G1 X105.200 Y120.990 E29.18901
G1 X105.200 Y79.010 E30.22309
G1 X104.727 Y79.010 E30.23474
G1 X104.727 Y120.990 E31.26882
G1 X104.254 Y120.990 E31.28047
G1 X104.254 Y79.010 E32.31456
G1 X103.782 Y79.010 E32.32620
G1 X103.782 Y120.990 E33.36029
G1 X103.309 Y120.990 E33.37193
G1 X103.309 Y79.010 E34.40602
G1 X102.836 Y79.010 E34.41766
G1 X102.836 Y120.990 E35.45175
G1 X102.363 Y120.990 E35.46339
G1 X102.363 Y79.010 E36.49748
G1 X101.891 Y79.010 E36.50912
G1 X101.891 Y120.990 E37.54321
G1 X101.418 Y120.990 E37.55485
G1 X101.418 Y79.010 E38.58894
G1 X100.945 Y79.010 E38.60059
G1 X100.945 Y120.990 E39.63467
G1 X100.473 Y120.990 E39.64632
G1 X100.473 Y79.010 E40.68040
G1 X100.000 Y79.010 E40.69205
G1 X100.000 Y120.990 E41.72613
G1 X99.527 Y120.990 E41.73778
G1 X99.527 Y79.010 E42.77187
G1 X99.055 Y79.010 E42.78351
G1 X99.055 Y120.990 E43.81760
G1 X98.582 Y120.990 E43.82924
G1 X98.582 Y79.010 E44.86333
G1 X98.109 Y79.010 E44.87497
G1 X98.109 Y120.990 E45.90906
G1 X97.637 Y120.990 E45.92070
G1 X97.637 Y79.010 E46.95479
G1 X97.164 Y79.010 E46.96643
G1 X97.164 Y120.990 E48.00052
G1 X96.691 Y120.990 E48.01216
G1 X96.691 Y79.010 E49.04625
G1 X96.218 Y79.010 E49.05790
G1 X96.218 Y120.990 E50.09198
G1 X95.746 Y120.990 E50.10363
G1 X95.746 Y79.010 E51.13771
G1 X95.273 Y79.010 E51.14936
G1 X95.273 Y120.990 E52.18344
G1 X94.800 Y120.990 E52.19509
G1 X94.800 Y79.010 E53.22918
G1 X94.328 Y79.010 E53.24082
G1 X94.328 Y120.990 E54.27491
G1 X93.855 Y120.990 E54.28655
G1 X93.855 Y79.010 E55.32064
G1 X93.382 Y79.010 E55.33228
G1 X93.382 Y120.990 E56.36637
G1 X92.910 Y120.990 E56.37801
G1 X92.910 Y79.010 E57.41210
G1 X92.437 Y79.010 E57.42374
G1 X92.437 Y120.990 E58.45783
G1 X91.964 Y120.990 E58.46947
G1 X91.964 Y79.010 E59.50356
G1 X91.492 Y79.010 E59.51521
G1 X91.492 Y120.990 E60.54929
G1 X91.019 Y120.990 E60.56094
G1 X91.019 Y79.010 E61.59502
G1 X90.546 Y79.010 E61.60667
G1 X90.546 Y120.990 E62.64075
G1 X90.073 Y120.990 E62.65240
G1 X90.073 Y79.010 E63.68649
G1 X89.601 Y79.010 E63.69813
G1 X89.601 Y120.990 E64.73222
G1 X89.128 Y120.990 E64.74386
G1 X89.128 Y79.010 E65.77795
G1 X88.655 Y79.010 E65.78959
G1 X88.655 Y120.990 E66.82368
G1 X88.183 Y120.990 E66.83532
G1 X88.183 Y79.010 E67.86941
G1 X87.710 Y79.010 E67.88105
G1 X87.710 Y120.990 E68.91514
G1 X87.237 Y120.990 E68.92678
G1 X87.237 Y79.010 E69.96087
G1 X86.765 Y79.010 E69.97251
G1 X86.765 Y120.990 E71.00660
G1 X86.292 Y120.990 E71.01825
G1 X86.292 Y79.010 E72.05233
G1 X85.819 Y79.010 E72.06398
G1 X85.819 Y120.990 E73.09806
G1 X85.347 Y120.990 E73.10971
G1 X85.347 Y79.010 E74.14379
G1 X84.874 Y79.010 E74.15544
G1 X84.874 Y120.990 E75.18953
G1 X84.401 Y120.990 E75.20117
G1 X84.401 Y79.010 E76.23526
G1 X83.928 Y79.010 E76.24690
G1 X83.928 Y120.990 E77.28099
G1 X83.456 Y120.990 E77.29263
G1 X83.456 Y79.010 E78.32672
G1 X82.983 Y79.010 E78.33836
G1 X82.983 Y120.990 E79.37245
G1 X82.510 Y120.990 E79.38409
G1 X82.510 Y79.010 E80.41818
G1 Z0.950 F7800.000
G1 E78.41818 F2400.00000
G92 E0
G1 X117.491 Y79.009 F7800.000
G1 E2.00000 F2400.00000
G1 F3600
G1 X82.509 Y79.009 E2.88096
G1 X117.491 Y79.009 E3.76192
G1 X117.491 Y79.481 E3.77380
G1 X82.509 Y79.481 E4.65477
G1 X82.509 Y79.953 E4.66664
G1 X117.491 Y79.953 E5.54761
G1 X117.491 Y80.424 E5.55949
G1 X82.509 Y80.424 E6.44045
G1 X82.509 Y80.896 E6.45233
G1 X117.491 Y80.896 E7.33329
G1 X117.491 Y81.368 E7.34517
G1 X82.509 Y81.368 E8.22613
G1 X82.509 Y81.840 E8.23801
G1 X117.491 Y81.840 E9.11897
G1 X117.491 Y82.311 E9.13085
G1 X82.509 Y82.311 E10.01181
G1 X82.509 Y82.783 E10.02369
G1 X117.491 Y82.783 E10.90465
G1 X117.491 Y83.255 E10.91653
G1 X82.509 Y83.255 E11.79749
G1 X82.509 Y83.726 E11.80937
G1 X117.491 Y83.726 E12.69034
G1 X117.491 Y84.198 E12.70222
G1 X82.509 Y84.198 E13.58318
G1 X82.509 Y84.670 E13.59506
G1 X117.491 Y84.670 E14.47602
G1 X117.491 Y85.141 E14.48790
G1 X82.509 Y85.141 E15.36886
G1 X82.509 Y85.613 E15.38074
G1 X117.491 Y85.613 E16.26170
G1 X117.491 Y86.085 E16.27358
G1 X82.509 Y86.085 E17.15454
G1 X82.509 Y86.557 E17.16642
G1 X117.491 Y86.557 E18.04738
G1 X117.491 Y87.028 E18.05926
G1 X82.509 Y87.028 E18.94022
G1 X82.509 Y87.500 E18.95210
G1 X117.491 Y87.500 E19.83307
G1 X117.491 Y87.972 E19.84494
G1 X82.509 Y87.972 E20.72591
G1 X82.509 Y88.443 E20.73779
G1 X117.491 Y88.443 E21.61875
G1 X117.491 Y88.915 E21.63063
G1 X82.509 Y88.915 E22.51159
G1 X82.509 Y89.387 E22.52347
G1 X117.491 Y89.387 E23.40443
G1 X117.491 Y89.858 E23.41631
G1 X82.509 Y89.858 E24.29727
G1 X82.509 Y90.330 E24.30915
G1 X117.491 Y90.330 E25.19011
G1 X117.491 Y90.802 E25.20199
G1 X82.509 Y90.802 E26.08295
G1 X82.509 Y91.274 E26.09483
G1 X117.491 Y91.274 E26.97579
G1 X117.491 Y91.745 E26.98767
G1 X82.509 Y91.745 E27.86864
G1 X82.509 Y92.217 E27.88052
G1 X117.491 Y92.217 E28.76148
G1 X117.491 Y92.689 E28.77336
G1 X82.509 Y92.689 E29.65432
G1 X82.509 Y93.160 E29.66620
G1 X117.491 Y93.160 E30.54716
G1 X117.491 Y93.632 E30.55904
G1 X82.509 Y93.632 E31.44000
G1 X82.509 Y94.104 E31.45188
G1 X117.491 Y94.104 E32.33284
G1 X117.491 Y94.575 E32.34472
G1 X82.509 Y94.575 E33.22568
G1 X82.509 Y95.047 E33.23756
G1 X117.491 Y95.047 E34.11852
G1 X117.491 Y95.519 E34.13040
G1 X82.509 Y95.519 E35.01137
G1 X82.509 Y95.991 E35.02324
G1 X117.491 Y95.991 E35.90421
G1 X117.491 Y96.462 E35.91609
G1 X82.509 Y96.462 E36.79705
G1 X82.509 Y96.934 E36.80893
G1 X117.491 Y96.934 E37.68989
G1 X117.491 Y97.406 E37.70177
G1 X82.509 Y97.406 E38.58273
G1 X82.509 Y97.877 E38.59461
G1 X117.491 Y97.877 E39.47557
G1 X117.491 Y98.349 E39.48745
G1 X82.509 Y98.349 E40.36841
G1 X82.509 Y98.821 E40.38029
G1 X117.491 Y98.821 E41.26125
G1 X117.491 Y99.292 E41.27313
G1 X82.509 Y99.292 E42.15409
G1 X82.509 Y99.764 E42.16597
G1 X117.491 Y99.764 E43.04694
G1 X117.491 Y100.236 E43.05882
G1 X82.509 Y100.236 E43.93978
G1 X82.509 Y100.708 E43.95166
G1 X117.491 Y100.708 E44.83262
G1 X117.491 Y101.179 E44.84450
G1 X82.509 Y101.179 E45.72546
G1 X82.509 Y101.651 E45.73734
G1 X117.491 Y101.651 E46.61830
G1 X117.491 Y102.123 E46.63018
G1 X82.509 Y102.123 E47.51114
G1 X82.509 Y102.594 E47.52302
G1 X117.491 Y102.594 E48.40398
G1 X117.491 Y103.066 E48.41586
G1 X82.509 Y103.066 E49.29682
G1 X82.509 Y103.538 E49.30870
G1 X117.491 Y103.538 E50.18967
G1 X117.491 Y104.010 E50.20154
G1 X82.509 Y104.010 E51.08251
G1 X82.509 Y104.481 E51.09439
G1 X117.491 Y104.481 E51.97535
G1 X117.491 Y104.953 E51.98723
G1 X82.509 Y104.953 E52.86819
G1 X82.509 Y105.425 E52.88007
G1 X117.491 Y105.425 E53.76103
G1 X117.491 Y105.896 E53.77291
G1 X82.509 Y105.896 E54.65387
G1 X82.509 Y106.368 E54.66575
G1 X117.491 Y106.368 E55.54671
G1 X117.491 Y106.840 E55.55859
G1 X82.509 Y106.840 E56.43955
G1 X82.509 Y107.311 E56.45143
G1 X117.491 Y107.311 E57.33239
G1 X117.491 Y107.783 E57.34427
G1 X82.509 Y107.783 E58.22524
G1 X82.509 Y108.255 E58.23712
G1 X117.491 Y108.255 E59.11808
G1 X117.491 Y108.727 E59.12996
G1 X82.509 Y108.727 E60.01092
G1 X82.509 Y109.198 E60.02280
G1 X117.491 Y109.198 E60.90376
G1 X117.491 Y109.670 E60.91564
G1 X82.509 Y109.670 E61.79660
G1 X82.509 Y110.142 E61.80848
G1 X117.491 Y110.142 E62.68944
G1 X117.491 Y110.613 E62.70132
G1 X82.509 Y110.613 E63.58228
G1 X82.509 Y111.085 E63.59416
G1 X117.491 Y111.085 E64.47512
G1 X117.491 Y111.557 E64.48700
G1 X82.509 Y111.557 E65.36797
G1 X82.509 Y112.028 E65.37984
G1 X117.491 Y112.028 E66.26081
G1 X117.491 Y112.500 E66.27269
G1 X82.509 Y112.500 E67.15365
G1 X82.509 Y112.972 E67.16553
G1 X117.491 Y112.972 E68.04649
G1 X117.491 Y113.444 E68.05837
G1 X82.509 Y113.444 E68.93933
G1 X82.509 Y113.915 E68.95121
G1 X117.491 Y113.915 E69.83217
G1 X117.491 Y114.387 E69.84405
G1 X82.509 Y114.387 E70.72501
G1 X82.509 Y114.859 E70.73689
G1 X117.491 Y114.859 E71.61785
G1 X117.491 Y115.330 E71.62973
G1 X82.509 Y115.330 E72.51069
G1 X82.509 Y115.802 E72.52257
G1 X117.491 Y115.802 E73.40354
G1 X117.491 Y116.274 E73.41542
G1 X82.509 Y116.274 E74.29638
G1 X82.509 Y116.745 E74.30826
G1 X117.491 Y116.745 E75.18922
G1 X117.491 Y117.217 E75.20110
G1 X82.509 Y117.217 E76.08206
G1 X82.509 Y117.689 E76.09394
G1 X117.491 Y117.689 E76.97490
G1 X117.491 Y118.161 E76.98678
G1 X82.509 Y118.161 E77.86774
G1 X82.509 Y118.632 E77.87962
G1 X117.491 Y118.632 E78.76058
G1 X117.491 Y119.104 E78.77246
G1 X82.509 Y119.104 E79.65342
G1 X82.509 Y119.576 E79.66530
G1 X117.491 Y119.576 E80.54627
G1 X117.491 Y120.047 E80.55814
G1 X82.509 Y120.047 E81.43911
G1 X82.509 Y120.519 E81.45099
G1 X117.491 Y120.519 E82.33195
G1 X117.491 Y120.991 E82.34383
G1 X82.509 Y120.991 E83.22479
M106 S150.45
G1 Z1.150 F7800.000
G1 E81.22479 F2400.00000
G92 E0
G1 X99.589 Y98.950 F7800.000
G1 E2.00000 F2400.00000
G1 F3600
G1 X99.589 Y98.000 E2.01363
G1 X95.411 Y98.000 E2.07358
