; #disp params :
; Printmode:0
; Layer:414
; Zmax:115.085 mm
; Xmax:158.557 mm
; Ymax:42.5 mm
; Xmin:115.311 mm
; Ymin:0.3 mm
; E0diam:0.4 mm
; E0len:3.2857 m
; E0temp:215 C
; Bedtemp:215 C
; Time:99.9308 min
; #params end
; GCode generated by CraftWare

G28 X Y ; home horizontally
G28 Z ; home vertically


M104 S215 ;set head temp (no wait)
M190 S60 ;set bed temp (wait)
M109 S215 ;set head temp (wait)

; ------------------------------------
; Raft Layer #0
; ------------------------------------
M106 S0 ;turn off fan
G21 ; mm
G90 ; abs
G92 E0 ;reset extr
G0 F600 Z0.300
;segType:Raft
G0 F3000 E-1.00000
G0 F600 Z2.300
G0 X115.376 Y112.329 F5400
G0 F600 Z0.300
G0 F3000 E0.00000
G1 X115.376 Y67.704 E2.22635 F600
G1 X118.001 Y65.079 E2.41156
G1 X118.461 Y65.013 E2.43472
G1 X155.736 Y65.013 E4.29438
G1 X158.361 Y67.638 E4.47959
G1 X158.427 Y68.098 E4.50275
G1 X158.427 Y112.198 E6.70291
G1 X158.230 Y112.526 E6.72202
G1 X155.736 Y115.020 E6.89797
G1 X118.067 Y115.020 E8.77727
G1 X117.870 Y114.823 E8.79118
G1 X115.376 Y112.329 E8.96713
G0 X118.104 Y114.429 F5400
G1 X118.104 Y65.735 E11.39647 F600
G0 X120.770 Y65.473 F5400
G1 X120.770 Y114.692 E13.85200 F600
G0 X123.437 Y114.692 F5400
G1 X123.437 Y65.473 E16.30754 F600
G0 X126.104 Y65.473 F5400
G1 X126.104 Y114.692 E18.76307 F600
G0 X128.770 Y114.692 F5400
G1 X128.770 Y65.473 E21.21861 F600
G0 X131.437 Y65.473 F5400
G1 X131.437 Y114.692 E23.67414 F600
G0 X134.104 Y114.692 F5400
G1 X134.104 Y65.473 E26.12967 F600
G0 X136.770 Y65.473 F5400
G1 X136.770 Y114.692 E28.58521 F600
G0 X139.437 Y114.692 F5400
G1 X139.437 Y65.473 E31.04074 F600
G0 X142.104 Y65.473 F5400
G1 X142.104 Y114.692 E33.49628 F600
G0 X144.770 Y114.692 F5400
G1 X144.770 Y65.473 E35.95181 F600
G0 X147.437 Y65.473 F5400
G1 X147.437 Y114.692 E38.40735 F600
G0 X150.104 Y114.692 F5400
G1 X150.104 Y65.473 E40.86289 F600
G0 X152.770 Y65.473 F5400
G1 X152.770 Y114.692 E43.31842 F600
G0 X155.437 Y114.692 F5400
G1 X155.437 Y65.473 E45.77396 F600



; ------------------------------------
; Raft Layer #1
; ------------------------------------
G92 E0 ;reset extr
G0 F600 Z0.600
;segType:Raft
G0 X156.063 Y65.329 F7200
G1 X115.508 Y105.885 E2.86144 F1800
G0 X115.508 Y103.999 F7200
G1 X154.488 Y65.018 E5.61176 F1800
G0 X152.520 Y65.101 F7200
G1 X115.508 Y102.114 E8.22317 F1800
G0 X115.508 Y100.228 F7200
G1 X150.682 Y65.053 E10.70494 F1800
G0 X148.713 Y65.136 F7200
G1 X115.508 Y98.342 E13.04780 F1800
G0 X115.508 Y96.457 F7200
G1 X146.876 Y65.088 E15.26102 F1800
G0 X145.038 Y65.040 F7200
G1 X115.508 Y94.571 E17.34460 F1800
G0 X115.508 Y92.686 F7200
G1 X143.070 Y65.123 E19.28927 F1800
G0 X141.232 Y65.075 F7200
G1 X115.508 Y90.800 E21.10429 F1800
G0 X115.508 Y88.914 F7200
G1 X139.395 Y65.027 E22.78967 F1800
G0 X137.426 Y65.110 F7200
G1 X115.508 Y87.029 E24.33614 F1800
G0 X115.508 Y85.143 F7200
G1 X135.589 Y65.062 E25.75297 F1800
G0 X133.751 Y65.014 F7200
G1 X115.508 Y83.257 E27.04016 F1800
G0 X115.508 Y81.372 F7200
G1 X131.782 Y65.097 E28.18844 F1800
G0 X129.945 Y65.049 F7200
G1 X115.508 Y79.486 E29.20708 F1800
G0 X115.508 Y77.601 F7200
G1 X127.976 Y65.132 E30.08681 F1800
G0 X126.139 Y65.084 F7200
G1 X115.508 Y75.715 E30.83689 F1800
G0 X115.508 Y73.829 F7200
G1 X124.301 Y65.036 E31.45734 F1800
G0 X122.332 Y65.119 F7200
G1 X115.508 Y71.944 E31.93887 F1800
G0 X115.508 Y70.058 F7200
G1 X120.495 Y65.071 E32.29077 F1800
G0 X118.658 Y65.022 F7200
G1 X115.508 Y68.172 E32.51301 F1800
G0 X115.508 Y107.770 F7200
G1 X156.982 Y66.295 E35.43928 F1800
G0 X158.032 Y67.131 F7200
G1 X115.508 Y109.656 E38.43962 F1800
G0 X115.508 Y111.542 F7200
G1 X158.557 Y68.492 E41.47701 F1800
G0 X158.557 Y70.377 F7200
G1 X116.033 Y112.902 E44.47736 F1800
G0 X116.916 Y113.904 F7200
G1 X158.522 Y72.298 E47.41288 F1800
G0 X158.439 Y74.267 F7200
G1 X117.883 Y114.823 E50.27433 F1800
G0 X119.441 Y115.020 F7200
G1 X158.422 Y76.039 E53.02466 F1800
G0 X158.339 Y78.008 F7200
G1 X121.458 Y114.889 E55.62682 F1800
G0 X123.343 Y114.889 F7200
G1 X158.387 Y79.845 E58.09933 F1800
G0 X158.304 Y81.814 F7200
G1 X125.098 Y115.020 E60.44221 F1800
G0 X127.049 Y115.085 F7200
G1 X158.548 Y83.585 E62.66468 F1800
G0 X158.400 Y85.489 F7200
G1 X128.869 Y115.020 E64.74827 F1800
G0 X130.755 Y115.020 F7200
G1 X158.317 Y87.457 E66.69296 F1800
G0 X158.365 Y89.295 F7200
G1 X132.640 Y115.020 E68.50800 F1800
G0 X134.591 Y115.085 F7200
G1 X158.478 Y91.198 E70.19338 F1800
G0 X158.330 Y93.101 F7200
G1 X136.411 Y115.020 E71.73986 F1800
G0 X138.297 Y115.020 F7200
G1 X158.378 Y94.939 E73.15670 F1800
G0 X158.426 Y96.776 F7200
G1 X140.183 Y115.020 E74.44390 F1800
G0 X142.200 Y114.889 F7200
G1 X158.343 Y98.745 E75.58292 F1800
G0 X158.391 Y100.582 F7200
G1 X143.954 Y115.020 E76.60156 F1800
G0 X145.971 Y114.889 F7200
G1 X158.308 Y102.551 E77.47203 F1800
G0 X158.356 Y104.389 F7200
G1 X147.725 Y115.020 E78.22212 F1800
G0 X149.611 Y115.020 F7200
G1 X158.404 Y106.226 E78.84257 F1800
G0 X158.518 Y108.129 F7200
G1 X151.562 Y115.085 E79.33337 F1800
G0 X153.382 Y115.020 F7200
G1 X158.369 Y110.032 E79.68527 F1800
G0 X158.418 Y111.870 F7200
G1 X155.268 Y115.020 E79.90752 F1800



; ------------------------------------
; Raft Layer #2
; ------------------------------------
G92 E0 ;reset extr
G0 F600 Z0.800
;segType:Raft
G0 X155.736 Y115.014 F7200
G1 X117.936 Y115.014 E1.25723 F2400
G1 X117.542 Y114.614 E1.27590
G1 X156.130 Y114.614 E2.55933
G1 X156.523 Y114.214 E2.57800
G1 X117.148 Y114.214 E3.88761
G1 X116.755 Y113.814 E3.90628
G1 X156.917 Y113.814 E5.24209
G1 X157.311 Y113.414 E5.26076
G1 X116.361 Y113.414 E6.62276
G1 X115.967 Y113.014 E6.64143
G1 X157.705 Y113.014 E8.02963
G1 X158.098 Y112.614 E8.04830
G1 X115.573 Y112.614 E9.46268
G1 X115.311 Y112.214 E9.47860
G1 X158.361 Y112.214 E10.91044
G1 X158.361 Y111.814 E10.92375
G1 X115.311 Y111.814 E12.35560
G1 X115.311 Y111.414 E12.36890
G1 X158.361 Y111.414 E13.80075
G1 X158.361 Y111.014 E13.81405
G1 X115.311 Y111.014 E15.24590
G1 X115.311 Y110.614 E15.25921
G1 X158.361 Y110.614 E16.69105
G1 X158.361 Y110.214 E16.70436
G1 X115.311 Y110.214 E18.13621
G1 X115.311 Y109.814 E18.14951
G1 X158.361 Y109.814 E19.58136
G1 X158.361 Y109.414 E19.59466
G1 X115.311 Y109.414 E21.02651
G1 X115.311 Y109.014 E21.03982
G1 X158.361 Y109.014 E22.47166
G1 X158.361 Y108.614 E22.48497
G1 X115.311 Y108.614 E23.91682
G1 X115.311 Y108.214 E23.93012
G1 X158.361 Y108.214 E25.36197
G1 X158.361 Y107.814 E25.37527
G1 X115.311 Y107.814 E26.80712
G1 X115.311 Y107.414 E26.82042
G1 X158.361 Y107.414 E28.25227
G1 X158.361 Y107.014 E28.26558
G1 X115.311 Y107.014 E29.69743
G1 X115.311 Y106.614 E29.71073
G1 X158.361 Y106.614 E31.14258
G1 X158.361 Y106.214 E31.15588
G1 X115.311 Y106.214 E32.58773
G1 X115.311 Y105.814 E32.60104
G1 X158.361 Y105.814 E34.03289
G1 X158.361 Y105.414 E34.04619
G1 X115.311 Y105.414 E35.47804
G1 X115.311 Y105.014 E35.49135
G1 X158.361 Y105.014 E36.92320
G1 X158.361 Y104.614 E36.93651
G1 X115.311 Y104.614 E38.36836
G1 X115.311 Y104.214 E38.38166
G1 X158.361 Y104.214 E39.81351
G1 X158.361 Y103.814 E39.82682
G1 X115.311 Y103.814 E41.25867
G1 X115.311 Y103.414 E41.27197
G1 X158.361 Y103.414 E42.70383
G1 X158.361 Y103.014 E42.71713
G1 X115.311 Y103.014 E44.14898
G1 X115.311 Y102.614 E44.16229
G1 X158.361 Y102.614 E45.59414
G1 X158.361 Y102.214 E45.60744
G1 X115.311 Y102.214 E47.03929
G1 X115.311 Y101.814 E47.05260
G1 X158.361 Y101.814 E48.48445
G1 X158.361 Y101.414 E48.49776
G1 X115.311 Y101.414 E49.92961
G1 X115.311 Y101.014 E49.94291
G1 X158.361 Y101.014 E51.37476
G1 X158.361 Y100.614 E51.38807
G1 X115.311 Y100.614 E52.81992
G1 X115.311 Y100.214 E52.83322
G1 X158.361 Y100.214 E54.26507
G1 X158.361 Y99.814 E54.27838
G1 X115.311 Y99.814 E55.71023
G1 X115.311 Y99.414 E55.72354
G1 X158.361 Y99.414 E57.15539
G1 X158.361 Y99.014 E57.16869
G1 X115.311 Y99.014 E58.60054
G1 X115.311 Y98.614 E58.61385
G1 X158.361 Y98.614 E60.04570
G1 X158.361 Y98.214 E60.05900
G1 X115.311 Y98.214 E61.49085
G1 X115.311 Y97.814 E61.50416
G1 X158.361 Y97.814 E62.93601
G1 X158.361 Y97.414 E62.94932
G1 X115.311 Y97.414 E64.38117
G1 X115.311 Y97.014 E64.39447
G1 X158.361 Y97.014 E65.82632
G1 X158.361 Y96.614 E65.83962
G1 X115.311 Y96.614 E67.27147
G1 X115.311 Y96.214 E67.28478
G1 X158.361 Y96.214 E68.71662
G1 X158.361 Y95.814 E68.72993
G1 X115.311 Y95.814 E70.16178
G1 X115.311 Y95.414 E70.17508
G1 X158.361 Y95.414 E71.60693
G1 X158.361 Y95.014 E71.62023
G1 X115.311 Y95.014 E73.05208
G1 X115.311 Y94.614 E73.06539
G1 X158.361 Y94.614 E74.49723
G1 X158.361 Y94.214 E74.51054
G1 X115.311 Y94.214 E75.94239
G1 X115.311 Y93.814 E75.95569
G1 X158.361 Y93.814 E77.38754
G1 X158.361 Y93.414 E77.40084
G1 X115.311 Y93.414 E78.83269
G1 X115.311 Y93.014 E78.84600
G1 X158.361 Y93.014 E80.27784
G1 X158.361 Y92.614 E80.29115
G1 X115.311 Y92.614 E81.72299
G1 X115.311 Y92.214 E81.73630
G1 X158.361 Y92.214 E83.16815
G1 X158.361 Y91.814 E83.18145
G1 X115.311 Y91.814 E84.61330
G1 X115.311 Y91.414 E84.62660
G1 X158.361 Y91.414 E86.05845
G1 X158.361 Y91.014 E86.07175
G1 X115.311 Y91.014 E87.50360
G1 X115.311 Y90.614 E87.51691
G1 X158.361 Y90.614 E88.94875
G1 X158.361 Y90.214 E88.96206
G1 X115.311 Y90.214 E90.39391
G1 X115.311 Y89.814 E90.40721
G1 X158.361 Y89.814 E91.83906
G1 X158.361 Y89.414 E91.85236
G1 X115.311 Y89.414 E93.28421
G1 X115.311 Y89.014 E93.29752
G1 X158.361 Y89.014 E94.72936
G1 X158.361 Y88.614 E94.74267
G1 X115.311 Y88.614 E96.17451
G1 X115.311 Y88.214 E96.18782
G1 X158.361 Y88.214 E97.61967
G1 X158.361 Y87.814 E97.63297
G1 X115.311 Y87.814 E99.06482
G1 X115.311 Y87.414 E99.07812
G1 X158.361 Y87.414 E100.50997
G1 X158.361 Y87.014 E100.52328
G1 X115.311 Y87.014 E101.95512
G1 X115.311 Y86.614 E101.96843
G1 X158.361 Y86.614 E103.40028
G1 X158.361 Y86.214 E103.41358
G1 X115.311 Y86.214 E104.84543
G1 X115.311 Y85.814 E104.85873
G1 X158.361 Y85.814 E106.29058
G1 X158.361 Y85.414 E106.30389
G1 X115.311 Y85.414 E107.73573
G1 X115.311 Y85.014 E107.74904
G1 X158.361 Y85.014 E109.18089
G1 X158.361 Y84.614 E109.19419
G1 X115.311 Y84.614 E110.62604
G1 X115.311 Y84.214 E110.63934
G1 X158.361 Y84.214 E112.07119
G1 X158.361 Y83.814 E112.08450
G1 X115.311 Y83.814 E113.51634
G1 X115.311 Y83.414 E113.52965
G1 X158.361 Y83.414 E114.96149
G1 X158.361 Y83.014 E114.97480
G1 X115.311 Y83.014 E116.40665
G1 X115.311 Y82.614 E116.41995
G1 X158.361 Y82.614 E117.85180
G1 X158.361 Y82.214 E117.86510
G1 X115.311 Y82.214 E119.29695
G1 X115.311 Y81.814 E119.31026
G1 X158.361 Y81.814 E120.74210
G1 X158.361 Y81.414 E120.75541
G1 X115.311 Y81.414 E122.18726
G1 X115.311 Y81.014 E122.20056
G1 X158.361 Y81.014 E123.63241
G1 X158.361 Y80.614 E123.64571
G1 X115.311 Y80.614 E125.07756
G1 X115.311 Y80.214 E125.09087
G1 X158.361 Y80.214 E126.52271
G1 X158.361 Y79.814 E126.53602
G1 X115.311 Y79.814 E127.96786
G1 X115.311 Y79.414 E127.98117
G1 X158.361 Y79.414 E129.41302
G1 X158.361 Y79.014 E129.42633
G1 X115.311 Y79.014 E130.85818
G1 X115.311 Y78.614 E130.87149
G1 X158.361 Y78.614 E132.30334
G1 X158.361 Y78.214 E132.31665
G1 X115.311 Y78.214 E133.74850
G1 X115.311 Y77.814 E133.76181
G1 X158.361 Y77.814 E135.19366
G1 X158.361 Y77.414 E135.20697
G1 X115.311 Y77.414 E136.63882
G1 X115.311 Y77.014 E136.65213
G1 X158.361 Y77.014 E138.08398
G1 X158.361 Y76.614 E138.09729
G1 X115.311 Y76.614 E139.52914
G1 X115.311 Y76.214 E139.54245
G1 X158.361 Y76.214 E140.97430
G1 X158.361 Y75.814 E140.98761
G1 X115.311 Y75.814 E142.41946
G1 X115.311 Y75.414 E142.43277
G1 X158.361 Y75.414 E143.86462
G1 X158.361 Y75.014 E143.87793
G1 X115.311 Y75.014 E145.30978
G1 X115.311 Y74.614 E145.32309
G1 X158.361 Y74.614 E146.75494
G1 X158.361 Y74.214 E146.76825
G1 X115.311 Y74.214 E148.20010
G1 X115.311 Y73.814 E148.21341
G1 X158.361 Y73.814 E149.64526
G1 X158.361 Y73.414 E149.65857
G1 X115.311 Y73.414 E151.09042
G1 X115.311 Y73.014 E151.10373
G1 X158.361 Y73.014 E152.53558
G1 X158.361 Y72.614 E152.54889
G1 X115.311 Y72.614 E153.98074
G1 X115.311 Y72.214 E153.99405
G1 X158.361 Y72.214 E155.42590
G1 X158.361 Y71.814 E155.43921
G1 X115.311 Y71.814 E156.87106
G1 X115.311 Y71.414 E156.88437
G1 X158.361 Y71.414 E158.31622
G1 X158.361 Y71.014 E158.32953
G1 X115.311 Y71.014 E159.76138
G1 X115.311 Y70.614 E159.77469
G1 X158.361 Y70.614 E161.20654
G1 X158.361 Y70.214 E161.21985
G1 X115.311 Y70.214 E162.65170
G1 X115.311 Y69.814 E162.66501
G1 X158.361 Y69.814 E164.09686
G1 X158.361 Y69.414 E164.11017
G1 X115.311 Y69.414 E165.54202
G1 X115.311 Y69.014 E165.55533
G1 X158.361 Y69.014 E166.98718
G1 X158.361 Y68.614 E167.00049
G1 X115.311 Y68.614 E168.43234
G1 X115.311 Y68.214 E168.44564
G1 X158.361 Y68.214 E169.87750
G1 X158.361 Y67.814 E169.89080
G1 X115.311 Y67.814 E171.32266
G1 X115.573 Y67.414 E171.33858
G1 X158.098 Y67.414 E172.75296
G1 X157.705 Y67.014 E172.77162
G1 X115.967 Y67.014 E174.15982
G1 X116.361 Y66.614 E174.17848
G1 X157.311 Y66.614 E175.54048
G1 X156.917 Y66.214 E175.55914
G1 X116.755 Y66.214 E176.89496
G1 X117.148 Y65.814 E176.91362
G1 X156.523 Y65.814 E178.22324
G1 X156.130 Y65.414 E178.24190
G1 X117.542 Y65.414 E179.52532
G1 X117.936 Y65.014 E179.54400
G1 X155.736 Y65.014 E180.80122



; ------------------------------------
; Raft Layer #3
; ------------------------------------
M106 S255 ;set fan speed
G92 E0 ;reset extr
G0 F600 Z1.000
;segType:Raft
G0 F3000 E-1.00000
G0 F600 Z3.000
G0 X158.370 Y112.460 F7200
G0 F600 Z1.000
G0 F3000 E0.00000
G1 X158.370 Y67.704 E1.48860 F2400
G1 X157.970 Y67.310 E1.50727
G1 X157.970 Y112.854 E3.02206
G1 X157.570 Y113.248 E3.04073
G1 X157.570 Y66.917 E4.58171
G1 X157.170 Y66.523 E4.60038
G1 X157.170 Y113.642 E6.16756
G1 X156.770 Y114.035 E6.18622
G1 X156.770 Y66.129 E7.77959
G1 X156.370 Y65.735 E7.79826
G1 X156.370 Y114.429 E9.41782
G1 X155.970 Y114.823 E9.43649
G1 X155.970 Y65.342 E11.08224
G1 X155.570 Y65.079 E11.09816
G1 X155.570 Y115.085 E12.76137
G1 X155.170 Y115.085 E12.77468
G1 X155.170 Y65.079 E14.43789
G1 X154.770 Y65.079 E14.45119
G1 X154.770 Y115.085 E16.11441
G1 X154.370 Y115.085 E16.12771
G1 X154.370 Y65.079 E17.79093
G1 X153.970 Y65.079 E17.80423
G1 X153.970 Y115.085 E19.46745
G1 X153.570 Y115.085 E19.48075
G1 X153.570 Y65.079 E21.14397
G1 X153.170 Y65.079 E21.15727
G1 X153.170 Y115.085 E22.82049
G1 X152.770 Y115.085 E22.83379
G1 X152.770 Y65.079 E24.49701
G1 X152.370 Y65.079 E24.51031
G1 X152.370 Y115.085 E26.17353
G1 X151.970 Y115.085 E26.18683
G1 X151.970 Y65.079 E27.85005
G1 X151.570 Y65.079 E27.86335
G1 X151.570 Y115.085 E29.52656
G1 X151.170 Y115.085 E29.53987
G1 X151.170 Y65.079 E31.20308
G1 X150.770 Y65.079 E31.21639
G1 X150.770 Y115.085 E32.87960
G1 X150.370 Y115.085 E32.89291
G1 X150.370 Y65.079 E34.55612
G1 X149.970 Y65.079 E34.56943
G1 X149.970 Y115.085 E36.23264
G1 X149.570 Y115.085 E36.24595
G1 X149.570 Y65.079 E37.90917
G1 X149.170 Y65.079 E37.92247
G1 X149.170 Y115.085 E39.58569
G1 X148.770 Y115.085 E39.59899
G1 X148.770 Y65.079 E41.26221
G1 X148.370 Y65.079 E41.27551
G1 X148.370 Y115.085 E42.93873
G1 X147.970 Y115.085 E42.95204
G1 X147.970 Y65.079 E44.61525
G1 X147.570 Y65.079 E44.62856
G1 X147.570 Y115.085 E46.29177
G1 X147.170 Y115.085 E46.30508
G1 X147.170 Y65.079 E47.96829
G1 X146.770 Y65.079 E47.98160
G1 X146.770 Y115.085 E49.64482
G1 X146.370 Y115.085 E49.65812
G1 X146.370 Y65.079 E51.32134
G1 X145.970 Y65.079 E51.33464
G1 X145.970 Y115.085 E52.99786
G1 X145.570 Y115.085 E53.01116
G1 X145.570 Y65.079 E54.67438
G1 X145.170 Y65.079 E54.68769
G1 X145.170 Y115.085 E56.35090
G1 X144.770 Y115.085 E56.36421
G1 X144.770 Y65.079 E58.02742
G1 X144.370 Y65.079 E58.04073
G1 X144.370 Y115.085 E59.70394
G1 X143.970 Y115.085 E59.71725
G1 X143.970 Y65.079 E61.38047
G1 X143.570 Y65.079 E61.39377
G1 X143.570 Y115.085 E63.05699
G1 X143.170 Y115.085 E63.07029
G1 X143.170 Y65.079 E64.73351
G1 X142.770 Y65.079 E64.74681
G1 X142.770 Y115.085 E66.41003
G1 X142.370 Y115.085 E66.42333
G1 X142.370 Y65.079 E68.08655
G1 X141.970 Y65.079 E68.09986
G1 X141.970 Y115.085 E69.76307
G1 X141.570 Y115.085 E69.77638
G1 X141.570 Y65.079 E71.43959
G1 X141.170 Y65.079 E71.45290
G1 X141.170 Y115.085 E73.11611
G1 X140.770 Y115.085 E73.12942
G1 X140.770 Y65.079 E74.79264
G1 X140.370 Y65.079 E74.80594
G1 X140.370 Y115.085 E76.46916
G1 X139.970 Y115.085 E76.48246
G1 X139.970 Y65.079 E78.14568
G1 X139.570 Y65.079 E78.15898
G1 X139.570 Y115.085 E79.82220
G1 X139.170 Y115.085 E79.83551
G1 X139.170 Y65.079 E81.49872
G1 X138.770 Y65.079 E81.51203
G1 X138.770 Y115.085 E83.17524
G1 X138.370 Y115.085 E83.18855
G1 X138.370 Y65.079 E84.85176
G1 X137.970 Y65.079 E84.86507
G1 X137.970 Y115.085 E86.52828
G1 X137.570 Y115.085 E86.54159
G1 X137.570 Y65.079 E88.20480
G1 X137.170 Y65.079 E88.21811
G1 X137.170 Y115.085 E89.88132
G1 X136.770 Y115.085 E89.89463
G1 X136.770 Y65.079 E91.55785
G1 X136.370 Y65.079 E91.57115
G1 X136.370 Y115.085 E93.23437
G1 X135.970 Y115.085 E93.24767
G1 X135.970 Y65.079 E94.91089
G1 X135.570 Y65.079 E94.92419
G1 X135.570 Y115.085 E96.58741
G1 X135.170 Y115.085 E96.60072
G1 X135.170 Y65.079 E98.26393
G1 X134.770 Y65.079 E98.27724
G1 X134.770 Y115.085 E99.94045
G1 X134.370 Y115.085 E99.95376
G1 X134.370 Y65.079 E101.61697
G1 X133.970 Y65.079 E101.63028
G1 X133.970 Y115.085 E103.29350
G1 X133.570 Y115.085 E103.30680
G1 X133.570 Y65.079 E104.97002
G1 X133.170 Y65.079 E104.98332
G1 X133.170 Y115.085 E106.64654
G1 X132.770 Y115.085 E106.65984
G1 X132.770 Y65.079 E108.32306
G1 X132.370 Y65.079 E108.33636
G1 X132.370 Y115.085 E109.99958
G1 X131.970 Y115.085 E110.01289
G1 X131.970 Y65.079 E111.67610
G1 X131.570 Y65.079 E111.68941
G1 X131.570 Y115.085 E113.35262
G1 X131.170 Y115.085 E113.36593
G1 X131.170 Y65.079 E115.02914
G1 X130.770 Y65.079 E115.04245
G1 X130.770 Y115.085 E116.70567
G1 X130.370 Y115.085 E116.71897
G1 X130.370 Y65.079 E118.38219
G1 X129.970 Y65.079 E118.39549
G1 X129.970 Y115.085 E120.05871
G1 X129.570 Y115.085 E120.07201
G1 X129.570 Y65.079 E121.73523
G1 X129.170 Y65.079 E121.74854
G1 X129.170 Y115.085 E123.41175
G1 X128.770 Y115.085 E123.42506
G1 X128.770 Y65.079 E125.08827
G1 X128.370 Y65.079 E125.10158
G1 X128.370 Y115.085 E126.76479
G1 X127.970 Y115.085 E126.77810
G1 X127.970 Y65.079 E128.44131
G1 X127.570 Y65.079 E128.45462
G1 X127.570 Y115.085 E130.11783
G1 X127.170 Y115.085 E130.13113
G1 X127.170 Y65.079 E131.79434
G1 X126.770 Y65.079 E131.80765
G1 X126.770 Y115.085 E133.47086
G1 X126.370 Y115.085 E133.48416
G1 X126.370 Y65.079 E135.14737
G1 X125.970 Y65.079 E135.16068
G1 X125.970 Y115.085 E136.82388
G1 X125.570 Y115.085 E136.83719
G1 X125.570 Y65.079 E138.50040
G1 X125.170 Y65.079 E138.51370
G1 X125.170 Y115.085 E140.17691
G1 X124.770 Y115.085 E140.19022
G1 X124.770 Y65.079 E141.85342
G1 X124.370 Y65.079 E141.86673
G1 X124.370 Y115.085 E143.52994
G1 X123.970 Y115.085 E143.54324
G1 X123.970 Y65.079 E145.20645
G1 X123.570 Y65.079 E145.21976
G1 X123.570 Y115.085 E146.88297
G1 X123.170 Y115.085 E146.89627
G1 X123.170 Y65.079 E148.55948
G1 X122.770 Y65.079 E148.57278
G1 X122.770 Y115.085 E150.23599
G1 X122.370 Y115.085 E150.24930
G1 X122.370 Y65.079 E151.91251
G1 X121.970 Y65.079 E151.92581
G1 X121.970 Y115.085 E153.58902
G1 X121.570 Y115.085 E153.60233
G1 X121.570 Y65.079 E155.26553
G1 X121.170 Y65.079 E155.27884
G1 X121.170 Y115.085 E156.94205
G1 X120.770 Y115.085 E156.95535
G1 X120.770 Y65.079 E158.61856
G1 X120.370 Y65.079 E158.63187
G1 X120.370 Y115.085 E160.29507
G1 X119.970 Y115.085 E160.30838
G1 X119.970 Y65.079 E161.97159
G1 X119.570 Y65.079 E161.98489
G1 X119.570 Y115.085 E163.64810
G1 X119.170 Y115.085 E163.66141
G1 X119.170 Y65.079 E165.32462
G1 X118.770 Y65.079 E165.33792
G1 X118.770 Y115.085 E167.00113
G1 X118.370 Y115.085 E167.01443
G1 X118.370 Y65.079 E168.67764
G1 X117.970 Y65.210 E168.69166
G1 X117.970 Y114.954 E170.34614
G1 X117.570 Y114.560 E170.36480
G1 X117.570 Y65.604 E171.99308
G1 X117.170 Y65.998 E172.01174
G1 X117.170 Y114.167 E173.61384
G1 X116.770 Y113.773 E173.63250
G1 X116.770 Y66.392 E175.20842
G1 X116.370 Y66.785 E175.22708
G1 X116.370 Y113.379 E176.77680
G1 X115.970 Y112.985 E176.79546
G1 X115.970 Y67.179 E178.31898
G1 X115.570 Y67.573 E178.33764
G1 X115.570 Y112.592 E179.83498


; ------------------------------------
; Layer #0
; ------------------------------------
G21 ; mm
G90 ; abs
G92 E0 ;reset extr
G0 F600 Z1.450
;segType:Support
G0 F3000 E-1.00000
G0 X132.400 Y89.600 F5400
G0 F3000 E0.00000
G1 X137.200 Y89.600 E0.13570 F2400
G1 X137.200 Y91.200 E0.18094
G1 X132.400 Y91.200 E0.31664
G0 F3000 E-0.68336
G0 X130.757 Y80.148 F5400
G0 F3000 E0.31664
;segType:HShell
G1 X121.585 Y70.977 E0.74802 F2400
G0 X120.883 Y70.797 F5400
;segType:Perimeter
G1 X120.727 Y70.217 E0.76798 F1200
G1 X153.267 Y70.217 E1.85024
G1 X153.267 Y109.816 E3.16731
G1 X120.667 Y109.816 E4.25157
G1 X120.667 Y70.277 E5.56665
G0 X120.727 Y70.217 F5400
G0 X122.327 Y70.217
G0 X121.767 Y70.617
;segType:Loop
G1 X152.867 Y70.617 E6.60102 F2400
G1 X152.867 Y109.416 E7.89149
G1 X121.067 Y109.416 E8.94914
G1 X121.067 Y70.617 E10.23960
G1 X121.567 Y70.617 E10.25623
G0 F3000 E9.25623
G0 X121.074 Y70.217 F5400
G0 X131.517 Y78.675
G0 X131.517 Y81.217
G0 X134.655 Y81.217
G0 X152.507 Y95.676
G0 F3000 E10.25623
;segType:HShell
G1 X138.178 Y81.347 E10.93023 F2400
G0 X138.157 Y81.217 F5400
;segType:Perimeter
G1 X137.357 Y81.217 E10.95684 F1200
G1 X131.517 Y81.217 E11.15110
G1 X131.517 Y77.316 E11.28084
G1 X137.417 Y77.316 E11.47710
G1 X137.417 Y81.157 E11.60484
G0 X137.357 Y81.217 F5400
G0 X135.757 Y81.217
G0 X136.317 Y81.617
;segType:Loop
G1 X131.117 Y81.617 E11.77782 F2400
G1 X131.117 Y76.916 E11.93417
G1 X137.817 Y76.916 E12.15703
G1 X137.817 Y81.617 E12.31338
G1 X136.517 Y81.617 E12.35662
G0 F3000 E11.35662
G0 X135.343 Y81.217 F5400
G0 X131.517 Y81.217
G0 X131.517 Y79.913
G0 X121.428 Y76.476
G0 F3000 E12.35662
;segType:HShell
G1 X132.263 Y87.312 E12.86630 F2400
G0 X132.828 Y87.104 F5400
;segType:Perimeter
G1 X132.637 Y86.327 E12.89291 F1200
G1 X132.531 Y85.911 E12.90719
G1 X132.531 Y85.422 E12.92346
G1 X132.652 Y84.948 E12.93973
G1 X132.888 Y84.519 E12.95601
G1 X133.223 Y84.163 E12.97228
G1 X133.636 Y83.900 E12.98856
G1 X134.101 Y83.749 E13.00483
G1 X134.590 Y83.719 E13.02110
G1 X135.070 Y83.810 E13.03738
G1 X135.513 Y84.019 E13.05366
G1 X135.890 Y84.331 E13.06993
G1 X136.178 Y84.726 E13.08620
G1 X136.358 Y85.181 E13.10247
G1 X136.419 Y85.667 E13.11875
G1 X136.358 Y86.152 E13.13502
G1 X136.178 Y86.607 E13.15130
G1 X135.890 Y87.003 E13.16757
G1 X135.513 Y87.315 E13.18384
G1 X135.070 Y87.523 E13.20012
G1 X134.590 Y87.615 E13.21640
G1 X134.101 Y87.584 E13.23267
G1 X133.636 Y87.433 E13.24894
G1 X133.223 Y87.171 E13.26522
G1 X132.888 Y86.814 E13.28149
G1 X132.681 Y86.438 E13.29577
G0 X132.637 Y86.327 F5400
G0 X132.531 Y85.911
G0 X132.531 Y85.422
G0 X132.652 Y84.948
G0 X132.745 Y84.780
G0 X132.155 Y85.275
;segType:Loop
G1 X132.277 Y84.800 E13.31208 F2400
G1 X132.562 Y84.282 E13.33172
G1 X132.966 Y83.852 E13.35135
G1 X133.464 Y83.536 E13.37098
G1 X134.026 Y83.353 E13.39062
G1 X134.615 Y83.316 E13.41025
G1 X135.195 Y83.427 E13.42989
G1 X135.729 Y83.678 E13.44954
G1 X136.184 Y84.055 E13.46917
G1 X136.531 Y84.532 E13.48880
G1 X136.748 Y85.081 E13.50844
G1 X136.822 Y85.667 E13.52807
G1 X136.748 Y86.252 E13.54771
G1 X136.531 Y86.801 E13.56735
G1 X136.184 Y87.279 E13.58698
G1 X135.729 Y87.655 E13.60661
G1 X135.639 Y87.698 E13.60992
G0 X135.601 Y87.821 F5400
G0 X135.469 Y87.851
G0 X135.337 Y87.880
G1 X135.096 Y87.921 E13.61787 F2400
G1 X134.981 Y87.932 E13.62140
G1 X134.867 Y87.942 E13.62472
G1 X134.753 Y87.953 E13.62783
G1 X134.639 Y87.964 E13.63074
G1 X134.524 Y87.964 E13.63363
G1 X134.410 Y87.960 E13.63660
G1 X134.296 Y87.957 E13.63964
G1 X134.181 Y87.953 E13.64274
G1 X134.067 Y87.950 E13.64591
G1 X133.953 Y87.936 E13.64937
G1 X133.839 Y87.918 E13.65319
G1 X133.724 Y87.900 E13.65736
G1 X133.610 Y87.882 E13.66187
G0 X133.339 Y87.826 F5400
G1 X133.306 Y87.697 E13.66629 F2400
G1 X132.966 Y87.481 E13.67968
G1 X132.562 Y87.051 E13.69931
G1 X132.277 Y86.534 E13.71894
G1 X132.131 Y85.962 E13.73859
G1 X132.131 Y85.472 E13.75489
G0 F3000 E12.75489
G0 X133.026 Y88.316 F5400
G0 X138.168 Y88.316
G0 X138.168 Y103.717
G0 X137.876 Y103.717
G0 X138.115 Y104.477
G0 F3000 E13.75489
;segType:HShell
G1 X142.694 Y109.056 E13.97026 F2400
G0 X143.259 Y109.056 F5400
G1 X138.681 Y104.477 E14.18564 F2400
G0 X138.108 Y103.717 F5400
;segType:Perimeter
G1 X130.767 Y103.717 E14.42980 F1200
G1 X130.767 Y88.316 E14.94203
G1 X138.168 Y88.316 E15.18818
G1 X138.168 Y103.657 E15.69842
G0 X138.108 Y103.717 F5400
G0 X136.508 Y103.717
G0 X137.068 Y104.117
;segType:Loop
G1 X135.781 Y104.117 E15.74120 F2400
G0 X135.667 Y104.208 F5400
G0 X135.553 Y104.202
G0 X135.439 Y104.176
G0 X135.324 Y104.151
G0 X135.210 Y104.125
G1 X135.096 Y104.113 E15.74493 F2400
G1 X134.981 Y104.102 E15.74846
G1 X134.867 Y104.091 E15.75177
G1 X134.753 Y104.080 E15.75488
G1 X134.639 Y104.069 E15.75779
G1 X134.524 Y104.069 E15.76069
G1 X134.410 Y104.073 E15.76365
G1 X134.296 Y104.077 E15.76669
G1 X134.181 Y104.080 E15.76979
G1 X134.067 Y104.084 E15.77296
G1 X133.953 Y104.098 E15.77641
G1 X133.839 Y104.116 E15.78023
G1 X133.724 Y104.134 E15.78440
G1 X133.610 Y104.152 E15.78892
G1 X133.496 Y104.162 E15.79360
G1 X133.381 Y104.196 E15.79911
G1 X133.267 Y104.117 E15.80372
G1 X130.367 Y104.117 E15.90019
G1 X130.367 Y87.916 E16.43903
G1 X133.267 Y87.916 E16.53550
G1 X133.381 Y87.838 E16.54192
G1 X133.496 Y87.871 E16.54677
G0 X133.610 Y87.882 F5400
G0 X133.953 Y87.936
G0 X134.067 Y87.950
G0 X134.524 Y87.964
G0 X134.639 Y87.964
G0 X135.096 Y87.921
G1 X135.210 Y87.908 E16.55075 F2400
G1 X135.324 Y87.883 E16.55530
G1 X135.439 Y87.857 E16.56034
G1 X135.553 Y87.832 E16.56589
G1 X135.667 Y87.825 E16.57143
G1 X135.781 Y87.916 E16.57629
G1 X138.568 Y87.916 E16.66896
G1 X138.568 Y104.117 E17.20780
G1 X137.268 Y104.117 E17.25104
G0 F3000 E16.25104
G0 X136.397 Y103.717 F5400
G0 X130.767 Y103.717
G0 X130.767 Y101.131
G0 X121.428 Y96.841
G0 F3000 E17.25104
;segType:HShell
G1 X131.935 Y107.348 E17.74526 F2400
G0 X132.828 Y107.804 F5400
;segType:Perimeter
G1 X132.637 Y107.027 E17.77187 F1200
G1 X132.531 Y106.611 E17.78615
G1 X132.531 Y106.122 E17.80242
G1 X132.652 Y105.648 E17.81869
G1 X132.888 Y105.219 E17.83497
G1 X133.223 Y104.863 E17.85124
G1 X133.636 Y104.601 E17.86752
G1 X134.101 Y104.449 E17.88379
G1 X134.590 Y104.418 E17.90007
G1 X135.070 Y104.510 E17.91634
G1 X135.513 Y104.719 E17.93262
G1 X135.890 Y105.030 E17.94889
G1 X136.178 Y105.426 E17.96517
G1 X136.358 Y105.881 E17.98144
G1 X136.419 Y106.367 E17.99772
G1 X136.358 Y106.852 E18.01398
G1 X136.178 Y107.307 E18.03026
G1 X135.890 Y107.703 E18.04654
G1 X135.513 Y108.015 E18.06281
G1 X135.070 Y108.223 E18.07909
G1 X134.590 Y108.315 E18.09536
G1 X134.101 Y108.284 E18.11164
G1 X133.636 Y108.133 E18.12791
G1 X133.223 Y107.871 E18.14418
G1 X132.888 Y107.514 E18.16046
G1 X132.681 Y107.138 E18.17473
G0 X132.637 Y107.027 F5400
G0 X132.531 Y106.611
G0 X132.531 Y106.122
G0 X132.652 Y105.648
G0 X132.745 Y105.480
G0 X132.155 Y105.975
;segType:Loop
G1 X132.277 Y105.500 E18.19104 F2400
G1 X132.562 Y104.982 E18.21068
G1 X132.966 Y104.552 E18.23031
G1 X133.344 Y104.312 E18.24520
G0 X133.610 Y104.152 F5400
G0 X133.953 Y104.098
G0 X134.067 Y104.084
G0 X134.524 Y104.069
G0 X134.639 Y104.069
G0 X135.096 Y104.113
G1 X135.418 Y104.172 E18.25905 F2400
G1 X135.550 Y104.201 E18.26545
G1 X135.597 Y104.316 E18.26957
G1 X135.729 Y104.378 E18.27444
G1 X136.184 Y104.754 E18.29407
G1 X136.531 Y105.232 E18.31371
G1 X136.748 Y105.781 E18.33335
G1 X136.822 Y106.367 E18.35298
G1 X136.748 Y106.952 E18.37261
G1 X136.531 Y107.501 E18.39224
G1 X136.184 Y107.979 E18.41188
G1 X135.729 Y108.355 E18.43152
G1 X135.195 Y108.607 E18.45116
G1 X134.615 Y108.717 E18.47080
G1 X134.026 Y108.680 E18.49043
G1 X133.464 Y108.498 E18.51006
G1 X132.966 Y108.181 E18.52971
G1 X132.562 Y107.751 E18.54934
G1 X132.277 Y107.234 E18.56897
G1 X132.131 Y106.662 E18.58862
G1 X132.131 Y106.172 E18.60492
G0 X131.770 Y106.618 F5400
;segType:HShell
G1 X121.428 Y96.275 E19.09141 F2400
G0 X121.428 Y95.710 F5400
G1 X130.007 Y104.288 E19.49494 F2400
G0 X130.007 Y103.723 F5400
G1 X121.428 Y95.144 E19.89847 F2400
G0 X121.428 Y94.578 F5400
G1 X130.007 Y103.157 E20.30199 F2400
G0 X130.007 Y102.591 F5400
G1 X121.428 Y94.012 E20.70552 F2400
G0 X121.428 Y93.447 F5400
G1 X130.007 Y102.026 E21.10905 F2400
G0 X130.007 Y101.460 F5400
G1 X121.428 Y92.881 E21.51257 F2400
G0 X121.428 Y92.315 F5400
G1 X130.007 Y100.894 E21.91610 F2400
G0 X130.007 Y100.329 F5400
G1 X121.428 Y91.750 E22.31963 F2400
G0 X121.428 Y91.184 F5400
G1 X130.007 Y99.763 E22.72315 F2400
G0 X130.007 Y99.197 F5400
G1 X121.428 Y90.618 E23.12668 F2400
G0 X121.428 Y90.053 F5400
G1 X130.007 Y98.632 E23.53020 F2400
G0 X130.007 Y98.066 F5400
G1 X121.428 Y89.487 E23.93373 F2400
G0 X121.428 Y88.921 F5400
G1 X130.007 Y97.500 E24.33726 F2400
G0 X130.007 Y96.935 F5400
G1 X121.428 Y88.356 E24.74078 F2400
G0 X121.428 Y87.790 F5400
G1 X130.007 Y96.369 E25.14431 F2400
G0 X130.007 Y95.803 F5400
G1 X121.428 Y87.224 E25.54784 F2400
G0 X121.428 Y86.659 F5400
G1 X130.007 Y95.237 E25.95136 F2400
G0 X130.007 Y94.672 F5400
G1 X121.428 Y86.093 E26.35489 F2400
G0 X121.428 Y85.527 F5400
G1 X130.007 Y94.106 E26.75841 F2400
G0 X130.007 Y93.540 F5400
G1 X121.428 Y84.962 E27.16194 F2400
G0 X121.428 Y84.396 F5400
G1 X130.007 Y92.975 E27.56547 F2400
G0 X130.007 Y92.409 F5400
G1 X121.428 Y83.830 E27.96899 F2400
G0 X121.428 Y83.264 F5400
G1 X130.007 Y91.843 E28.37252 F2400
G0 X130.007 Y91.278 F5400
G1 X121.428 Y82.699 E28.77605 F2400
G0 X121.428 Y82.133 F5400
G1 X130.007 Y90.712 E29.17957 F2400
G0 X130.007 Y90.146 F5400
G1 X121.428 Y81.567 E29.58310 F2400
G0 X121.428 Y81.002 F5400
G1 X130.007 Y89.581 E29.98663 F2400
G0 X130.007 Y89.015 F5400
G1 X121.428 Y80.436 E30.39015 F2400
G0 X121.428 Y79.870 F5400
G1 X130.007 Y88.449 E30.79368 F2400
G0 X130.007 Y87.884 F5400
G1 X121.428 Y79.305 E31.19720 F2400
G0 X121.428 Y78.739 F5400
G1 X130.245 Y87.556 E31.61194 F2400
G0 X130.811 Y87.556 F5400
G1 X121.428 Y78.173 E32.05329 F2400
G0 X121.428 Y77.608 F5400
G1 X131.376 Y87.556 E32.52125 F2400
G0 X131.942 Y87.556 F5400
G1 X121.428 Y77.042 E33.01581 F2400
G0 X130.757 Y80.714 F5400
G1 X121.428 Y71.385 E33.45462 F2400
G0 X121.428 Y71.951 F5400
G1 X130.757 Y81.280 E33.89343 F2400
G0 X130.757 Y81.845 F5400
G1 X121.428 Y72.516 E34.33223 F2400
G0 X122.151 Y70.977 F5400
G1 X130.757 Y79.583 E34.73701 F2400
G0 X130.757 Y79.017 F5400
G1 X122.717 Y70.977 E35.11517 F2400
G0 X123.282 Y70.977 F5400
G1 X130.757 Y78.451 E35.46673 F2400
G0 X130.757 Y77.886 F5400
G1 X123.848 Y70.977 E35.79168 F2400
G0 X124.414 Y70.977 F5400
G1 X130.757 Y77.320 E36.09003 F2400
G0 X130.757 Y76.754 F5400
G1 X124.980 Y70.977 E36.36176 F2400
G0 X125.545 Y70.977 F5400
G1 X131.124 Y76.556 E36.62418 F2400
G0 X131.690 Y76.556 F5400
G1 X126.111 Y70.977 E36.88659 F2400
G0 X126.677 Y70.977 F5400
G1 X132.256 Y76.556 E37.14900 F2400
G0 X132.821 Y76.556 F5400
G1 X127.242 Y70.977 E37.41142 F2400
G0 X127.808 Y70.977 F5400
G1 X133.387 Y76.556 E37.67383 F2400
G0 X133.953 Y76.556 F5400
G1 X128.374 Y70.977 E37.93624 F2400
G0 X128.939 Y70.977 F5400
G1 X134.518 Y76.556 E38.19866 F2400
G0 X135.084 Y76.556 F5400
G1 X129.505 Y70.977 E38.46107 F2400
G0 X130.071 Y70.977 F5400
G1 X135.650 Y76.556 E38.72348 F2400
G0 X136.215 Y76.556 F5400
G1 X130.636 Y70.977 E38.98589 F2400
G0 X131.202 Y70.977 F5400
G1 X136.781 Y76.556 E39.24831 F2400
G0 X137.347 Y76.556 F5400
G1 X131.768 Y70.977 E39.51072 F2400
G0 X132.333 Y70.977 F5400
G1 X137.912 Y76.556 E39.77313 F2400
G0 X138.178 Y76.821 F5400
G1 X152.507 Y91.150 E40.44713 F2400
G0 X152.507 Y91.716 F5400
G1 X138.178 Y77.387 E41.12113 F2400
G0 X138.178 Y77.953 F5400
G1 X152.507 Y92.282 E41.79512 F2400
G0 X152.507 Y92.847 F5400
G1 X138.178 Y78.518 E42.46912 F2400
G0 X138.178 Y79.084 F5400
G1 X152.507 Y93.413 E43.14311 F2400
G0 X152.507 Y93.979 F5400
G1 X138.178 Y79.650 E43.81711 F2400
G0 X138.178 Y80.215 F5400
G1 X152.507 Y94.545 E44.49111 F2400
G0 X152.507 Y95.110 F5400
G1 X138.178 Y80.781 E45.16510 F2400
G0 F3000 E44.16510
G0 X137.417 Y79.369 F5400
G0 X137.417 Y77.316
G0 X136.312 Y77.316
G0 X132.899 Y70.977
G0 F3000 E45.16510
G1 X152.507 Y90.585 E46.08738 F2400
G0 X152.507 Y90.019 F5400
G1 X133.465 Y70.977 E46.98305 F2400
G0 X134.031 Y70.977 F5400
G1 X152.507 Y89.453 E47.85211 F2400
G0 X152.507 Y88.888 F5400
G1 X134.596 Y70.977 E48.69456 F2400
G0 X135.162 Y70.977 F5400
G1 X152.507 Y88.322 E49.51041 F2400
G0 X152.507 Y87.756 F5400
G1 X135.728 Y70.977 E50.29965 F2400
G0 X136.293 Y70.977 F5400
G1 X152.507 Y87.191 E51.06228 F2400
G0 X152.507 Y86.625 F5400
G1 X136.859 Y70.977 E51.79830 F2400
G0 X137.425 Y70.977 F5400
G1 X152.507 Y86.059 E52.50771 F2400
G0 X152.507 Y85.494 F5400
G1 X137.990 Y70.977 E53.19051 F2400
G0 X138.556 Y70.977 F5400
G1 X152.507 Y84.928 E53.84671 F2400
G0 X152.507 Y84.362 F5400
G1 X139.122 Y70.977 E54.47630 F2400
G0 X139.687 Y70.977 F5400
G1 X152.507 Y83.797 E55.07928 F2400
G0 X152.507 Y83.231 F5400
G1 X140.253 Y70.977 E55.65565 F2400
G0 X140.819 Y70.977 F5400
G1 X152.507 Y82.665 E56.20542 F2400
G0 X152.507 Y82.099 F5400
G1 X141.384 Y70.977 E56.72857 F2400
G0 X141.950 Y70.977 F5400
G1 X152.507 Y81.534 E57.22512 F2400
G0 X152.507 Y80.968 F5400
G1 X142.516 Y70.977 E57.69506 F2400
G0 X143.081 Y70.977 F5400
G1 X152.507 Y80.402 E58.13839 F2400
G0 X152.507 Y79.837 F5400
G1 X143.647 Y70.977 E58.55512 F2400
G0 X144.213 Y70.977 F5400
G1 X152.507 Y79.271 E58.94523 F2400
G0 X152.507 Y78.705 F5400
G1 X144.779 Y70.977 E59.30874 F2400
G0 X145.344 Y70.977 F5400
G1 X152.507 Y78.140 E59.64564 F2400
G0 X152.507 Y77.574 F5400
G1 X145.910 Y70.977 E59.95593 F2400
G0 X146.476 Y70.977 F5400
G1 X152.507 Y77.008 E60.23962 F2400
G0 X152.507 Y76.443 F5400
G1 X147.041 Y70.977 E60.49669 F2400
G0 X147.607 Y70.977 F5400
G1 X152.507 Y75.877 E60.72716 F2400
G0 X152.507 Y75.311 F5400
G1 X148.173 Y70.977 E60.93102 F2400
G0 X148.738 Y70.977 F5400
G1 X152.507 Y74.746 E61.10827 F2400
G0 X152.507 Y74.180 F5400
G1 X149.304 Y70.977 E61.25891 F2400
G0 X149.870 Y70.977 F5400
G1 X152.507 Y73.614 E61.38294 F2400
G0 X152.507 Y73.048 F5400
G1 X150.435 Y70.977 E61.48037 F2400
G0 X151.001 Y70.977 F5400
G1 X152.507 Y72.483 E61.55119 F2400
G0 X152.507 Y71.917 F5400
G1 X151.567 Y70.977 E61.59540 F2400
G0 X152.132 Y70.977 F5400
G1 X152.507 Y71.351 E61.61301 F2400
G0 X152.507 Y96.242 F5400
G1 X138.178 Y81.913 E62.28700 F2400
G0 X137.676 Y81.977 F5400
G1 X152.507 Y96.807 E62.98457 F2400
G0 X152.507 Y97.373 F5400
G1 X137.111 Y81.977 E63.70874 F2400
G0 X136.545 Y81.977 F5400
G1 X152.507 Y97.939 E64.45953 F2400
G0 X152.507 Y98.504 F5400
G1 X135.979 Y81.977 E65.23692 F2400
G0 X135.414 Y81.977 F5400
G1 X152.507 Y99.070 E66.04092 F2400
G0 X152.507 Y99.636 F5400
G1 X134.848 Y81.977 E66.87152 F2400
G0 X134.282 Y81.977 F5400
G1 X135.458 Y83.152 E66.92681 F2400
G0 X134.707 Y82.967 F5400
G1 X133.717 Y81.977 E66.97338 F2400
G0 X133.151 Y81.977 F5400
G1 X134.158 Y82.984 E67.02074 F2400
G0 X133.691 Y83.083 F5400
G1 X132.585 Y81.977 E67.07276 F2400
G0 X132.020 Y81.977 F5400
G1 X133.273 Y83.231 E67.13172 F2400
G0 X132.927 Y83.450 F5400
G1 X131.454 Y81.977 E67.20101 F2400
G0 X130.888 Y81.977 F5400
G1 X132.613 Y83.702 E67.28214 F2400
G0 X132.339 Y83.994 F5400
G1 X121.428 Y73.082 E67.79537 F2400
G0 X121.428 Y73.648 F5400
G1 X132.119 Y84.340 E68.29828 F2400
G0 X131.928 Y84.713 F5400
G1 X121.428 Y74.213 E68.79217 F2400
G0 X121.428 Y74.779 F5400
G1 X131.812 Y85.164 E69.28063 F2400
G0 X131.770 Y85.688 F5400
G1 X121.428 Y75.345 E69.76712 F2400
G0 X121.428 Y75.911 F5400
G1 X131.855 Y86.338 E70.25762 F2400
G0 X132.353 Y87.511 F5400
;segType:InnerHair
G1 X132.467 Y87.524 E70.26130 F2400
G1 X132.581 Y87.573 E70.26427
G1 X132.696 Y87.623 E70.26621
G1 X132.722 Y87.634 E70.26660
G1 X132.609 Y87.585 E70.26927
G1 X132.496 Y87.536 E70.27295
G1 X132.384 Y87.488 E70.27763
G1 X132.353 Y87.511 E70.27896
G0 F3000 E69.27896
G0 X133.906 Y87.521 F5400
G0 X134.101 Y87.584
G0 X134.590 Y87.615
G0 X135.047 Y87.528
G0 X136.467 Y87.536
G0 F3000 E70.27896
G1 X136.353 Y87.594 E70.28156 F2400
G1 X136.239 Y87.619 E70.28345
G1 X136.216 Y87.628 E70.28381
G1 X136.334 Y87.585 E70.28657
G1 X136.453 Y87.542 E70.29023
G1 X136.561 Y87.488 E70.29480
G1 X136.467 Y87.536 E70.29796
G0 X136.682 Y87.206 F5400
;segType:HShell
G1 X137.033 Y87.556 E70.31446 F2400
G0 X137.599 Y87.556 F5400
G1 X136.897 Y86.855 E70.34745 F2400
G0 X137.058 Y86.449 F5400
G1 X138.164 Y87.556 E70.39952 F2400
G0 X138.730 Y87.556 F5400
G1 X137.147 Y85.973 E70.47400 F2400
G0 X137.153 Y85.414 F5400
G1 X152.507 Y100.767 E71.19618 F2400
G0 X152.507 Y100.201 F5400
G1 X136.971 Y84.666 E71.92691 F2400
G0 X138.928 Y87.754 F5400
G1 X152.507 Y101.333 E72.56562 F2400
G0 X152.507 Y101.898 F5400
G1 X138.928 Y88.319 E73.20434 F2400
G0 X138.928 Y88.885 F5400
G1 X152.507 Y102.464 E73.84306 F2400
G0 X152.507 Y103.030 F5400
G1 X138.928 Y89.451 E74.48178 F2400
G0 X138.928 Y90.017 F5400
G1 X152.507 Y103.596 E75.12049 F2400
G0 X152.507 Y104.161 F5400
G1 X138.928 Y90.582 E75.75921 F2400
G0 X138.928 Y91.148 F5400
G1 X152.507 Y104.727 E76.39793 F2400
G0 X152.507 Y105.293 F5400
G1 X138.928 Y91.714 E77.03665 F2400
G0 X138.928 Y92.279 F5400
G1 X152.507 Y105.858 E77.67536 F2400
G0 X152.507 Y106.424 F5400
G1 X138.928 Y92.845 E78.31408 F2400
G0 X138.928 Y93.411 F5400
G1 X152.507 Y106.990 E78.95280 F2400
G0 X152.507 Y107.555 F5400
G1 X138.928 Y93.976 E79.59152 F2400
G0 X138.928 Y94.542 F5400
G1 X152.507 Y108.121 E80.23023 F2400
G0 X152.507 Y108.687 F5400
G1 X138.928 Y95.108 E80.86895 F2400
G0 X138.928 Y95.673 F5400
G1 X152.310 Y109.056 E81.49844 F2400
G0 X151.745 Y109.056 F5400
G1 X138.928 Y96.239 E82.10131 F2400
G0 X138.928 Y96.805 F5400
G1 X151.179 Y109.056 E82.67758 F2400
G0 X150.613 Y109.056 F5400
G1 X138.928 Y97.370 E83.22724 F2400
G0 X138.928 Y97.936 F5400
G1 X150.048 Y109.056 E83.75030 F2400
G0 X149.482 Y109.056 F5400
G1 X138.928 Y98.502 E84.24674 F2400
G0 X138.928 Y99.067 F5400
G1 X148.916 Y109.056 E84.71658 F2400
G0 X148.351 Y109.056 F5400
G1 X138.928 Y99.633 E85.15981 F2400
G0 X138.928 Y100.199 F5400
G1 X147.785 Y109.056 E85.57642 F2400
G0 X147.219 Y109.056 F5400
G1 X138.928 Y100.765 E85.96644 F2400
G0 X138.928 Y101.330 F5400
G1 X146.654 Y109.056 E86.32984 F2400
G0 X146.088 Y109.056 F5400
G1 X138.928 Y101.896 E86.66664 F2400
G0 X138.928 Y102.462 F5400
G1 X145.522 Y109.056 E86.97683 F2400
G0 X144.957 Y109.056 F5400
G1 X138.928 Y103.027 E87.26041 F2400
G0 X138.928 Y103.593 F5400
G1 X144.391 Y109.056 E87.51738 F2400
G0 X143.825 Y109.056 F5400
G1 X138.928 Y104.159 E87.74774 F2400
G0 X137.549 Y104.477 F5400
G1 X142.128 Y109.056 E87.96312 F2400
G0 X141.562 Y109.056 F5400
G1 X136.984 Y104.477 E88.17850 F2400
G0 X136.559 Y104.619 F5400
G1 X140.997 Y109.056 E88.38721 F2400
G0 X140.431 Y109.056 F5400
G1 X137.105 Y105.730 E88.54366 F2400
G0 X137.184 Y106.375 F5400
G1 X139.865 Y109.056 E88.66978 F2400
G0 X139.300 Y109.056 F5400
G1 X137.121 Y106.877 E88.77226 F2400
G0 X136.992 Y107.314 F5400
G1 X138.734 Y109.056 E88.85419 F2400
G0 X138.168 Y109.056 F5400
G1 X136.823 Y107.711 E88.91744 F2400
G0 X136.585 Y108.039 F5400
G1 X137.603 Y109.056 E88.96529 F2400
G0 X137.037 Y109.056 F5400
G1 X136.317 Y108.336 E88.99915 F2400
G0 X136.472 Y108.774 F5400
G1 X135.774 Y108.925 E89.05849 F2400
G0 X135.439 Y108.977 F5400
;segType:InnerHair
G1 X135.324 Y109.003 E89.06264 F2400
G1 X135.210 Y109.014 E89.06651
G1 X135.096 Y109.024 E89.07018
G1 X134.981 Y109.035 E89.07363
G1 X134.867 Y109.046 E89.07688
G1 X134.753 Y109.057 E89.07993
G1 X134.639 Y109.068 E89.08276
G1 X134.524 Y109.064 E89.08566
G1 X134.410 Y109.061 E89.08862
G1 X134.296 Y109.057 E89.09164
G1 X134.181 Y109.053 E89.09474
G1 X134.067 Y109.050 E89.09791
G1 X133.953 Y109.046 E89.10115
G1 X133.839 Y109.028 E89.10477
G1 X133.724 Y109.010 E89.10875
G1 X133.610 Y108.992 E89.11308
G0 X133.463 Y108.876 F5400
;segType:HShell
G1 X133.496 Y108.909 E89.11462 F2400
G0 X133.077 Y109.056 F5400
G1 X121.428 Y97.407 E89.66258 F2400
G0 X121.428 Y97.972 F5400
G1 X132.511 Y109.056 E90.18394 F2400
G0 X131.946 Y109.056 F5400
G1 X121.428 Y98.538 E90.67868 F2400
G0 X121.428 Y99.104 F5400
G1 X131.380 Y109.056 E91.14681 F2400
G0 X130.814 Y109.056 F5400
G1 X121.428 Y99.669 E91.58834 F2400
G0 X121.428 Y100.235 F5400
G1 X130.249 Y109.056 E92.00326 F2400
G0 X129.683 Y109.056 F5400
G1 X121.428 Y100.801 E92.39157 F2400
G0 X121.428 Y101.366 F5400
G1 X129.117 Y109.056 E92.75327 F2400
G0 X128.552 Y109.056 F5400
G1 X121.428 Y101.932 E93.08837 F2400
G0 X121.428 Y102.498 F5400
G1 X127.986 Y109.056 E93.39686 F2400
G0 X127.420 Y109.056 F5400
G1 X121.428 Y103.063 E93.67873 F2400
G0 X121.428 Y103.629 F5400
G1 X126.855 Y109.056 E93.93401 F2400
G0 X126.289 Y109.056 F5400
G1 X121.428 Y104.195 E94.16267 F2400
G0 X121.428 Y104.760 F5400
G1 X125.723 Y109.056 E94.36472 F2400
G0 X125.158 Y109.056 F5400
G1 X121.428 Y105.326 E94.54017 F2400
G0 X121.428 Y105.892 F5400
G1 X124.592 Y109.056 E94.68900 F2400
G0 X124.026 Y109.056 F5400
G1 X121.428 Y106.458 E94.81123 F2400
G0 X121.428 Y107.023 F5400
G1 X123.460 Y109.056 E94.90685 F2400
G0 X122.895 Y109.056 F5400
G1 X121.428 Y107.589 E94.97587 F2400
G0 X121.428 Y108.155 F5400
G1 X122.329 Y109.056 E95.01827 F2400
G0 X121.763 Y109.056 F5400
G1 X121.428 Y108.720 E95.03407 F2400
G0 X130.195 Y104.477 F5400
G1 X131.770 Y106.052 E95.10816 F2400
G0 X131.881 Y105.597 F5400
G1 X130.761 Y104.477 E95.16082 F2400
G0 X131.327 Y104.477 F5400
G1 X132.038 Y105.188 E95.19426 F2400
G0 X132.238 Y104.823 F5400
G1 X131.892 Y104.477 E95.21053 F2400
G0 X132.353 Y104.522 F5400
;segType:InnerHair
G1 X132.467 Y104.510 E95.21422 F2400
G1 X132.581 Y104.460 E95.21719
G1 X132.696 Y104.411 E95.21912
G1 X132.653 Y104.429 E95.22000
G1 X132.540 Y104.478 E95.22330
G1 X132.427 Y104.527 E95.22758
G1 X132.353 Y104.522 E95.23012
G0 F3000 E94.23012
G0 X133.906 Y104.513 F5400
G0 X134.101 Y104.449
G0 X134.590 Y104.418
G0 X135.047 Y104.506
G0 X136.467 Y104.497
G0 F3000 E95.23012
G1 X136.353 Y104.439 E95.23272 F2400
G1 X136.239 Y104.414 E95.23460
G1 X136.289 Y104.432 E95.23562
G1 X136.407 Y104.475 E95.23893
G1 X136.520 Y104.524 E95.24316
G1 X136.467 Y104.497 E95.24493
; ------------------------------------
; Layer #1
; ------------------------------------
G92 E0 ;reset extr
G0 F3000 E-1.00000
G0 F600 Z1.300
G0 X138.168 Y103.717 F7200
G0 X138.168 Y88.316
G0 X137.200 Y91.200
G0 F3000 E0.00000
;segType:Support
G1 X132.400 Y91.200 E0.06785 F1606
G1 X132.400 Y89.600 E0.09047
G1 X137.200 Y89.600 E0.15832
G0 F3000 E-0.84168
G0 X136.302 Y88.316 F7200
G0 X135.569 Y87.269
G0 X135.890 Y87.003
G0 X136.178 Y86.607
G0 X136.358 Y86.152
G0 X136.419 Y85.667
G0 X136.358 Y85.181
G0 X136.178 Y84.726
G0 X135.890 Y84.331
G0 X135.513 Y84.019
G0 X135.070 Y83.810
G0 X134.590 Y83.719
G0 X134.101 Y83.749
G0 X133.636 Y83.900
G0 X133.342 Y84.087
G0 X124.165 Y70.977
G0 F3000 E0.15832
;segType:HShell
G1 X121.428 Y73.715 E0.22271 F2880
G0 X121.428 Y73.149 F7200
G1 X123.600 Y70.977 E0.27380 F2880
G0 X123.034 Y70.977 F7200
G1 X121.428 Y72.584 E0.31158 F2880
G0 X121.428 Y72.018 F7200
G1 X122.468 Y70.977 E0.33606 F2880
G0 X121.903 Y70.977 F7200
G1 X121.428 Y71.452 E0.34723 F2880
G0 X120.883 Y70.797 F7200
;segType:Perimeter
G1 X120.727 Y70.217 E0.35721 F1440
G1 X153.267 Y70.217 E0.89834
G1 X153.267 Y109.816 E1.55688
G1 X120.667 Y109.816 E2.09901
G1 X120.667 Y70.277 E2.75655
G0 X120.727 Y70.217 F7200
G0 X122.327 Y70.217
G0 X121.767 Y70.617
;segType:Loop
G1 X152.867 Y70.617 E3.27373 F2880
G1 X152.867 Y109.416 E3.91896
G1 X121.067 Y109.416 E4.44779
G1 X121.067 Y70.617 E5.09302
G1 X121.567 Y70.617 E5.10134
G0 F3000 E4.10134
G0 X147.924 Y70.977 F7200
G0 F3000 E5.10134
;segType:HShell
G1 X138.178 Y80.724 E5.33056 F2880
G0 X138.157 Y81.217 F7200
;segType:Perimeter
G1 X137.357 Y81.217 E5.34387 F1440
G1 X131.517 Y81.217 E5.44100
G1 X131.517 Y77.316 E5.50587
G1 X137.417 Y77.316 E5.60400
G1 X137.417 Y81.157 E5.66787
G0 X137.357 Y81.217 F7200
G0 X135.757 Y81.217
G0 X136.317 Y81.617
;segType:Loop
G1 X131.117 Y81.617 E5.75436 F2880
G1 X131.117 Y76.916 E5.83253
G1 X137.817 Y76.916 E5.94397
G1 X137.817 Y81.617 E6.02214
G1 X136.517 Y81.617 E6.04376
G0 F3000 E5.04376
G0 X136.944 Y81.217 F7200
G0 X134.255 Y83.740
G0 X134.101 Y83.749
G0 X133.636 Y83.900
G0 X133.223 Y84.163
G0 X132.888 Y84.519
G0 X132.652 Y84.948
G0 X132.552 Y85.338
G0 X121.428 Y95.777
G0 F3000 E6.04376
;segType:HShell
G1 X131.770 Y85.434 E6.28701 F2880
G0 X131.770 Y86.000 F7200
G1 X130.214 Y87.556 E6.32362 F2880
G0 X130.780 Y87.556 F7200
G1 X131.884 Y86.451 E6.34960 F2880
G0 X132.044 Y86.857 F7200
G1 X131.345 Y87.556 E6.36604 F2880
G0 X131.911 Y87.556 F7200
G1 X132.245 Y87.222 E6.37390 F2880
G0 X132.828 Y87.104 F7200
;segType:Perimeter
G1 X132.637 Y86.327 E6.38720 F1440
G1 X132.531 Y85.911 E6.39434
G1 X132.531 Y85.422 E6.40248
G1 X132.652 Y84.948 E6.41061
G1 X132.888 Y84.519 E6.41875
G1 X133.223 Y84.163 E6.42689
G1 X133.636 Y83.900 E6.43503
G1 X134.101 Y83.749 E6.44316
G1 X134.590 Y83.719 E6.45130
G1 X135.070 Y83.810 E6.45944
G1 X135.513 Y84.019 E6.46758
G1 X135.890 Y84.331 E6.47571
G1 X136.178 Y84.726 E6.48385
G1 X136.358 Y85.181 E6.49199
G1 X136.419 Y85.667 E6.50012
G1 X136.358 Y86.152 E6.50826
G1 X136.178 Y86.607 E6.51640
G1 X135.890 Y87.003 E6.52453
G1 X135.513 Y87.315 E6.53267
G1 X135.070 Y87.523 E6.54081
G1 X134.590 Y87.615 E6.54895
G1 X134.101 Y87.584 E6.55708
G1 X133.636 Y87.433 E6.56522
G1 X133.223 Y87.171 E6.57336
G1 X132.888 Y86.814 E6.58150
G1 X132.681 Y86.438 E6.58863
G0 X132.637 Y86.327 F7200
G0 X132.531 Y85.911
G0 X132.531 Y85.422
G0 X132.652 Y84.948
G0 X132.745 Y84.780
G0 X132.155 Y85.275
;segType:Loop
G1 X132.277 Y84.800 E6.59679 F2880
G1 X132.562 Y84.282 E6.60661
G1 X132.966 Y83.852 E6.61642
G1 X133.464 Y83.536 E6.62624
G1 X134.026 Y83.353 E6.63606
G1 X134.615 Y83.316 E6.64588
G1 X135.195 Y83.427 E6.65569
G1 X135.729 Y83.678 E6.66552
G1 X136.184 Y84.055 E6.67533
G1 X136.531 Y84.532 E6.68515
G1 X136.748 Y85.081 E6.69497
G1 X136.822 Y85.667 E6.70478
G1 X136.748 Y86.252 E6.71460
G1 X136.531 Y86.801 E6.72442
G1 X136.184 Y87.279 E6.73424
G1 X135.729 Y87.655 E6.74406
G1 X135.639 Y87.698 E6.74571
G0 X135.601 Y87.821 F7200
G0 X135.469 Y87.851
G0 X135.337 Y87.880
G1 X135.096 Y87.921 E6.74968 F2880
G1 X134.981 Y87.932 E6.75145
G1 X134.867 Y87.942 E6.75311
G1 X134.753 Y87.953 E6.75466
G1 X134.639 Y87.964 E6.75612
G1 X134.524 Y87.964 E6.75757
G1 X134.410 Y87.960 E6.75905
G1 X134.296 Y87.957 E6.76057
G1 X134.181 Y87.953 E6.76212
G1 X134.067 Y87.950 E6.76370
G1 X133.953 Y87.936 E6.76543
G1 X133.839 Y87.918 E6.76734
G1 X133.724 Y87.900 E6.76943
G1 X133.610 Y87.882 E6.77168
G0 X133.339 Y87.826 F7200
G1 X133.306 Y87.697 E6.77389 F2880
G1 X132.966 Y87.481 E6.78059
G1 X132.562 Y87.051 E6.79040
G1 X132.277 Y86.534 E6.80022
G1 X132.131 Y85.962 E6.81004
G1 X132.131 Y85.472 E6.81819
G0 F3000 E5.81819
G0 X132.531 Y85.575 F7200
G0 X132.531 Y85.911
G0 X132.652 Y86.385
G0 X132.888 Y86.814
G0 X133.223 Y87.171
G0 X133.636 Y87.433
G0 X134.101 Y87.584
G0 X134.590 Y87.615
G0 X135.070 Y87.523
G0 X135.513 Y87.315
G0 X135.890 Y87.003
G0 X136.178 Y86.607
G0 X136.211 Y86.522
G0 X153.267 Y90.915
G0 X152.507 Y90.719
G0 F3000 E6.81819
;segType:HShell
G1 X138.928 Y104.298 E7.13755 F2880
G0 X138.183 Y104.477 F7200
G1 X137.063 Y105.597 E7.16389 F2880
G0 X137.149 Y106.077 F7200
G1 X138.749 Y104.477 E7.20152 F2880
G0 X138.108 Y103.717 F7200
;segType:Perimeter
G1 X130.767 Y103.717 E7.32360 F1440
G1 X130.767 Y88.316 E7.57972
G1 X138.168 Y88.316 E7.70279
G1 X138.168 Y103.657 E7.95791
G0 X138.108 Y103.717 F7200
G0 X136.508 Y103.717
G0 X137.068 Y104.117
;segType:Loop
G1 X135.781 Y104.117 E7.97930 F2880
G0 X135.667 Y104.208 F7200
G0 X135.553 Y104.202
G0 X135.439 Y104.176
G0 X135.324 Y104.151
G0 X135.210 Y104.125
G1 X135.096 Y104.113 E7.98117 F2880
G1 X134.981 Y104.102 E7.98293
G1 X134.867 Y104.091 E7.98459
G1 X134.753 Y104.080 E7.98614
G1 X134.639 Y104.069 E7.98760
G1 X134.524 Y104.069 E7.98904
G1 X134.410 Y104.073 E7.99053
G1 X134.296 Y104.077 E7.99204
G1 X134.181 Y104.080 E7.99360
G1 X134.067 Y104.084 E7.99518
G1 X133.953 Y104.098 E7.99691
G1 X133.839 Y104.116 E7.99882
G1 X133.724 Y104.134 E8.00090
G1 X133.610 Y104.152 E8.00316
G1 X133.496 Y104.162 E8.00550
G1 X133.381 Y104.196 E8.00826
G1 X133.267 Y104.117 E8.01056
G1 X130.367 Y104.117 E8.05880
G1 X130.367 Y87.916 E8.32822
G1 X133.267 Y87.916 E8.37645
G1 X133.381 Y87.838 E8.37966
G1 X133.496 Y87.871 E8.38209
G0 X133.610 Y87.882 F7200
G0 X133.953 Y87.936
G0 X134.067 Y87.950
G0 X134.524 Y87.964
G0 X134.639 Y87.964
G0 X135.096 Y87.921
G1 X135.210 Y87.908 E8.38408 F2880
G1 X135.324 Y87.883 E8.38635
G1 X135.439 Y87.857 E8.38887
G1 X135.553 Y87.832 E8.39164
G1 X135.667 Y87.825 E8.39442
G1 X135.781 Y87.916 E8.39685
G1 X138.568 Y87.916 E8.44318
G1 X138.568 Y104.117 E8.71260
G1 X137.268 Y104.117 E8.73422
G0 F3000 E7.73422
G0 X137.788 Y103.717 F7200
G0 X138.168 Y103.717
G0 X138.168 Y103.426
G0 X152.507 Y92.416
G0 F3000 E8.73422
;segType:HShell
G1 X135.867 Y109.056 E9.12556 F2880
G0 X135.493 Y108.864 F7200
G1 X135.481 Y108.877 E9.12586 F2880
G0 X135.439 Y108.977 F7200
;segType:InnerHair
G1 X135.324 Y109.003 E9.12794 F2880
G1 X135.210 Y109.014 E9.12987
G1 X135.096 Y109.024 E9.13170
G1 X134.981 Y109.035 E9.13343
G1 X134.867 Y109.046 E9.13506
G1 X134.753 Y109.057 E9.13658
G1 X134.639 Y109.068 E9.13800
G1 X134.524 Y109.064 E9.13944
G1 X134.410 Y109.061 E9.14092
G1 X134.296 Y109.057 E9.14243
G1 X134.181 Y109.053 E9.14398
G1 X134.067 Y109.050 E9.14556
G1 X133.953 Y109.046 E9.14718
G1 X133.839 Y109.028 E9.14900
G1 X133.724 Y109.010 E9.15098
G1 X133.610 Y108.992 E9.15315
G0 X133.284 Y108.810 F7200
;segType:HShell
G0 X133.389 Y108.988
G1 X132.706 Y108.823 E9.17484 F2880
G0 X132.622 Y108.341 F7200
G1 X131.907 Y109.056 E9.19165 F2880
G0 X131.341 Y109.056 F7200
G1 X132.348 Y108.049 E9.21533 F2880
G0 X132.828 Y107.804 F7200
;segType:Perimeter
G1 X132.637 Y107.027 E9.22863 F1440
G1 X132.531 Y106.611 E9.23577
G1 X132.531 Y106.122 E9.24391
G1 X132.652 Y105.648 E9.25204
G1 X132.888 Y105.219 E9.26018
G1 X133.223 Y104.863 E9.26832
G1 X133.636 Y104.601 E9.27646
G1 X134.101 Y104.449 E9.28459
G1 X134.590 Y104.418 E9.29273
G1 X135.070 Y104.510 E9.30087
G1 X135.513 Y104.719 E9.30901
G1 X135.890 Y105.030 E9.31714
G1 X136.178 Y105.426 E9.32528
G1 X136.358 Y105.881 E9.33342
G1 X136.419 Y106.367 E9.34155
G1 X136.358 Y106.852 E9.34969
G1 X136.178 Y107.307 E9.35783
G1 X135.890 Y107.703 E9.36597
G1 X135.513 Y108.015 E9.37410
G1 X135.070 Y108.223 E9.38224
G1 X134.590 Y108.315 E9.39038
G1 X134.101 Y108.284 E9.39852
G1 X133.636 Y108.133 E9.40665
G1 X133.223 Y107.871 E9.41479
G1 X132.888 Y107.514 E9.42293
G1 X132.681 Y107.138 E9.43006
G0 X132.637 Y107.027 F7200
G0 X132.531 Y106.611
G0 X132.531 Y106.122
G0 X132.652 Y105.648
G0 X132.745 Y105.480
G0 X132.155 Y105.975
;segType:Loop
G1 X132.277 Y105.500 E9.43822 F2880
G1 X132.562 Y104.982 E9.44804
G1 X132.966 Y104.552 E9.45785
G1 X133.344 Y104.312 E9.46530
G0 X133.610 Y104.152 F7200
G0 X133.953 Y104.098
G0 X134.067 Y104.084
G0 X134.524 Y104.069
G0 X134.639 Y104.069
G0 X135.096 Y104.113
G1 X135.418 Y104.172 E9.47222 F2880
G1 X135.550 Y104.201 E9.47542
G1 X135.597 Y104.316 E9.47748
G1 X135.729 Y104.378 E9.47992
G1 X136.184 Y104.754 E9.48973
G1 X136.531 Y105.232 E9.49955
G1 X136.748 Y105.781 E9.50937
G1 X136.822 Y106.367 E9.51919
G1 X136.748 Y106.952 E9.52900
G1 X136.531 Y107.501 E9.53882
G1 X136.184 Y107.979 E9.54864
G1 X135.729 Y108.355 E9.55846
G1 X135.195 Y108.607 E9.56828
G1 X134.615 Y108.717 E9.57810
G1 X134.026 Y108.680 E9.58791
G1 X133.464 Y108.498 E9.59773
G1 X132.966 Y108.181 E9.60755
G1 X132.562 Y107.751 E9.61737
G1 X132.277 Y107.234 E9.62718
G1 X132.131 Y106.662 E9.63701
G1 X132.131 Y106.172 E9.64516
G0 X132.126 Y107.706 F7200
;segType:HShell
G1 X130.776 Y109.056 E9.67691 F2880
G0 X130.210 Y109.056 F7200
G1 X131.931 Y107.335 E9.71740 F2880
G0 X131.816 Y106.885 F7200
G1 X129.644 Y109.056 E9.76847 F2880
G0 X129.079 Y109.056 F7200
G1 X131.770 Y106.364 E9.83178 F2880
G0 X131.849 Y105.720 F7200
G1 X128.513 Y109.056 E9.91023 F2880
G0 X127.947 Y109.056 F7200
G1 X132.372 Y104.632 E10.01429 F2880
G0 X131.960 Y104.477 F7200
G1 X127.382 Y109.056 E10.12198 F2880
G0 X126.816 Y109.056 F7200
G1 X131.395 Y104.477 E10.22967 F2880
G0 X130.829 Y104.477 F7200
G1 X126.250 Y109.056 E10.33736 F2880
G0 X125.685 Y109.056 F7200
G1 X130.263 Y104.477 E10.44505 F2880
G0 X130.007 Y104.168 F7200
G1 X125.119 Y109.056 E10.56000 F2880
G0 X124.553 Y109.056 F7200
G1 X130.007 Y103.603 E10.68825 F2880
G0 X130.007 Y103.037 F7200
G1 X123.987 Y109.056 E10.82981 F2880
G0 X123.422 Y109.056 F7200
G1 X130.007 Y102.471 E10.98467 F2880
G0 X130.007 Y101.906 F7200
G1 X122.856 Y109.056 E11.15284 F2880
G0 X122.290 Y109.056 F7200
G1 X130.007 Y101.340 E11.33431 F2880
G0 X130.007 Y100.774 F7200
G1 X121.725 Y109.056 E11.52909 F2880
G0 X121.428 Y108.788 F7200
G1 X130.007 Y100.209 E11.73085 F2880
G0 X130.007 Y99.643 F7200
G1 X121.428 Y108.222 E11.93261 F2880
G0 X121.428 Y107.656 F7200
G1 X130.007 Y99.077 E12.13438 F2880
G0 X130.007 Y98.512 F7200
G1 X121.428 Y107.091 E12.33614 F2880
G0 X121.428 Y106.525 F7200
G1 X130.007 Y97.946 E12.53790 F2880
G0 X130.007 Y97.380 F7200
G1 X121.428 Y105.959 E12.73966 F2880
G0 X121.428 Y105.393 F7200
G1 X130.007 Y96.815 E12.94143 F2880
G0 X130.007 Y96.249 F7200
G1 X121.428 Y104.828 E13.14319 F2880
G0 X121.428 Y104.262 F7200
G1 X130.007 Y95.683 E13.34495 F2880
G0 X130.007 Y95.117 F7200
G1 X121.428 Y103.696 E13.54672 F2880
G0 X121.428 Y103.131 F7200
G1 X130.007 Y94.552 E13.74848 F2880
G0 X130.007 Y93.986 F7200
G1 X121.428 Y102.565 E13.95024 F2880
G0 X121.428 Y101.999 F7200
G1 X130.007 Y93.420 E14.15201 F2880
G0 X130.007 Y92.855 F7200
G1 X121.428 Y101.434 E14.35377 F2880
G0 X121.428 Y100.868 F7200
G1 X130.007 Y92.289 E14.55553 F2880
G0 X130.007 Y91.723 F7200
G1 X121.428 Y100.302 E14.75730 F2880
G0 X121.428 Y99.737 F7200
G1 X130.007 Y91.158 E14.95906 F2880
G0 X130.007 Y90.592 F7200
G1 X121.428 Y99.171 E15.16083 F2880
G0 X121.428 Y98.605 F7200
G1 X130.007 Y90.026 E15.36259 F2880
G0 X130.007 Y89.461 F7200
G1 X121.428 Y98.040 E15.56436 F2880
G0 X121.428 Y97.474 F7200
G1 X130.007 Y88.895 E15.76612 F2880
G0 X130.007 Y88.329 F7200
G1 X121.428 Y96.908 E15.96788 F2880
G0 X121.428 Y96.343 F7200
G1 X130.007 Y87.764 E16.16965 F2880
G0 X132.353 Y87.511 F7200
;segType:InnerHair
G1 X132.467 Y87.524 E16.17149 F2880
G1 X132.581 Y87.573 E16.17297
G1 X132.696 Y87.623 E16.17394
G1 X132.722 Y87.634 E16.17414
G1 X132.609 Y87.585 E16.17548
G1 X132.496 Y87.536 E16.17732
G1 X132.384 Y87.488 E16.17966
G1 X132.353 Y87.511 E16.18032
G0 F3000 E15.18032
G0 X133.906 Y87.521 F7200
G0 X134.101 Y87.584
G0 X134.590 Y87.615
G0 X135.047 Y87.528
G0 X136.467 Y87.536
G0 F3000 E16.18032
G1 X136.353 Y87.594 E16.18162 F2880
G1 X136.239 Y87.619 E16.18256
G1 X136.216 Y87.628 E16.18275
G1 X136.334 Y87.585 E16.18413
G1 X136.453 Y87.542 E16.18596
G1 X136.561 Y87.488 E16.18824
G1 X136.467 Y87.536 E16.18982
G0 F3000 E15.18982
G0 X138.178 Y81.855 F7200
G0 F3000 E16.18982
;segType:HShell
G1 X149.056 Y70.977 E16.44566 F2880
G0 X148.490 Y70.977 F7200
G1 X138.178 Y81.290 E16.68819 F2880
G0 X131.928 Y84.710 F7200
G1 X121.428 Y95.211 E16.93515 F2880
G0 F3000 E15.93515
G0 X130.767 Y103.170 F7200
G0 X130.767 Y103.717
G0 X131.408 Y103.717
G0 X132.353 Y104.522
G0 F3000 E16.93515
;segType:InnerHair
G1 X132.467 Y104.510 E16.93699 F2880
G1 X132.581 Y104.460 E16.93847
G1 X132.696 Y104.411 E16.93944
G1 X132.653 Y104.429 E16.93988
G1 X132.540 Y104.478 E16.94153
G1 X132.427 Y104.527 E16.94367
G1 X132.353 Y104.522 E16.94494
G0 F3000 E15.94494
G0 X133.906 Y104.513 F7200
G0 X134.101 Y104.449
G0 X134.590 Y104.418
G0 X135.047 Y104.506
G0 X136.467 Y104.497
G0 F3000 E16.94494
G1 X136.353 Y104.439 E16.94624 F2880
G1 X136.239 Y104.414 E16.94718
G1 X136.289 Y104.432 E16.94769
G1 X136.407 Y104.475 E16.94935
G1 X136.520 Y104.524 E16.95146
G1 X136.467 Y104.497 E16.95235
G0 X137.617 Y104.477 F7200
;segType:HShell
G1 X136.902 Y105.192 E16.96916 F2880
G0 X136.690 Y104.839 F7200
G1 X137.052 Y104.477 E16.97766 F2880
G0 X138.928 Y103.733 F7200
G1 X152.507 Y90.154 E17.29702 F2880
G0 X152.507 Y89.588 F7200
G1 X138.928 Y103.167 E17.61638 F2880
G0 X138.928 Y102.601 F7200
G1 X152.507 Y89.022 E17.93574 F2880
G0 X152.507 Y88.456 F7200
G1 X138.928 Y102.036 E18.25510 F2880
G0 X138.928 Y101.470 F7200
G1 X152.507 Y87.891 E18.57445 F2880
G0 X152.507 Y87.325 F7200
G1 X138.928 Y100.904 E18.89381 F2880
G0 X138.928 Y100.338 F7200
G1 X152.507 Y86.759 E19.21317 F2880
G0 X152.507 Y86.194 F7200
G1 X138.928 Y99.773 E19.53253 F2880
G0 X138.928 Y99.207 F7200
G1 X152.507 Y85.628 E19.85189 F2880
G0 X152.507 Y85.062 F7200
G1 X138.928 Y98.641 E20.17125 F2880
G0 X138.928 Y98.076 F7200
G1 X152.507 Y84.497 E20.49061 F2880
G0 X152.507 Y83.931 F7200
G1 X138.928 Y97.510 E20.80997 F2880
G0 X138.928 Y96.944 F7200
G1 X152.507 Y83.365 E21.12933 F2880
G0 X152.507 Y82.800 F7200
G1 X138.928 Y96.379 E21.44868 F2880
G0 X138.928 Y95.813 F7200
G1 X152.507 Y82.234 E21.76804 F2880
G0 X152.507 Y81.668 F7200
G1 X138.928 Y95.247 E22.08740 F2880
G0 X138.928 Y94.682 F7200
G1 X152.507 Y81.103 E22.40676 F2880
G0 X152.507 Y80.537 F7200
G1 X138.928 Y94.116 E22.72612 F2880
G0 X138.928 Y93.550 F7200
G1 X152.507 Y79.971 E23.04548 F2880
G0 X152.507 Y79.406 F7200
G1 X138.928 Y92.985 E23.36484 F2880
G0 X138.928 Y92.419 F7200
G1 X152.507 Y78.840 E23.68419 F2880
G0 X152.507 Y78.274 F7200
G1 X138.928 Y91.853 E24.00355 F2880
G0 X138.928 Y91.288 F7200
G1 X152.507 Y77.708 E24.32291 F2880
G0 X152.507 Y77.143 F7200
G1 X138.928 Y90.722 E24.64226 F2880
G0 X138.928 Y90.156 F7200
G1 X152.507 Y76.577 E24.96162 F2880
G0 X152.507 Y76.011 F7200
G1 X138.928 Y89.590 E25.28098 F2880
G0 X138.928 Y89.025 F7200
G1 X152.507 Y75.446 E25.60034 F2880
G0 X152.507 Y74.880 F7200
G1 X138.928 Y88.459 E25.91969 F2880
G0 X138.928 Y87.893 F7200
G1 X152.507 Y74.314 E26.23905 F2880
G0 X152.507 Y73.749 F7200
G1 X138.699 Y87.556 E26.56378 F2880
G0 X138.133 Y87.556 F7200
G1 X152.507 Y73.183 E26.90182 F2880
G0 X152.507 Y72.617 F7200
G1 X137.568 Y87.556 E27.25316 F2880
G0 X137.002 Y87.556 F7200
G1 X152.507 Y72.052 E27.61780 F2880
G0 X152.507 Y71.486 F7200
G1 X136.581 Y87.412 E27.99236 F2880
G0 X137.102 Y86.325 F7200
G1 X152.450 Y70.977 E28.35331 F2880
G0 X151.884 Y70.977 F7200
G1 X137.184 Y85.677 E28.69903 F2880
G0 X137.123 Y85.173 F7200
G1 X151.318 Y70.977 E29.03289 F2880
G0 X150.753 Y70.977 F7200
G1 X136.998 Y84.732 E29.35638 F2880
G0 X136.831 Y84.333 F7200
G1 X150.187 Y70.977 E29.67048 F2880
G0 X149.621 Y70.977 F7200
G1 X136.593 Y84.005 E29.97688 F2880
G0 X136.327 Y83.706 F7200
G1 X138.056 Y81.977 E30.01754 F2880
G0 X137.490 Y81.977 F7200
G1 X136.018 Y83.449 E30.05216 F2880
G0 X135.656 Y83.246 F7200
G1 X136.924 Y81.977 E30.08200 F2880
G0 X136.359 Y81.977 F7200
G1 X135.263 Y83.073 E30.10777 F2880
G0 X134.788 Y82.983 F7200
G1 X135.793 Y81.977 E30.13142 F2880
G0 X135.227 Y81.977 F7200
G1 X134.225 Y82.980 E30.15500 F2880
G0 X133.490 Y83.149 F7200
G1 X134.662 Y81.977 E30.18256 F2880
G0 X134.096 Y81.977 F7200
G1 X121.428 Y94.645 E30.48050 F2880
G0 X121.428 Y94.080 F7200
G1 X133.530 Y81.977 E30.76514 F2880
G0 X132.965 Y81.977 F7200
G1 X121.428 Y93.514 E31.03647 F2880
G0 X121.428 Y92.948 F7200
G1 X132.399 Y81.977 E31.29450 F2880
G0 X131.833 Y81.977 F7200
G1 X121.428 Y92.383 E31.53922 F2880
G0 X121.428 Y91.817 F7200
G1 X131.268 Y81.977 E31.77064 F2880
G0 X130.757 Y81.922 F7200
G1 X121.428 Y91.251 E31.99004 F2880
G0 X121.428 Y90.686 F7200
G1 X130.757 Y81.357 E32.20945 F2880
G0 X130.757 Y80.791 F7200
G1 X121.428 Y90.120 E32.42885 F2880
G0 X121.428 Y89.554 F7200
G1 X130.757 Y80.225 E32.64825 F2880
G0 X130.757 Y79.660 F7200
G1 X121.428 Y88.989 E32.86766 F2880
G0 X121.428 Y88.423 F7200
G1 X130.757 Y79.094 E33.08706 F2880
G0 X130.757 Y78.528 F7200
G1 X121.428 Y87.857 E33.30647 F2880
G0 X121.428 Y87.292 F7200
G1 X130.757 Y77.963 E33.52587 F2880
G0 X130.757 Y77.397 F7200
G1 X121.428 Y86.726 E33.74527 F2880
G0 X121.428 Y86.160 F7200
G1 X130.757 Y76.831 E33.96468 F2880
G0 F3000 E32.96468
G0 X121.428 Y74.281 F7200
G0 F3000 E33.96468
G1 X124.731 Y70.977 E34.04237 F2880
G0 X125.297 Y70.977 F7200
G1 X121.428 Y74.846 E34.13337 F2880
G0 X121.428 Y75.412 F7200
G1 X125.863 Y70.977 E34.23768 F2880
G0 X126.428 Y70.977 F7200
G1 X121.428 Y75.978 E34.35528 F2880
G0 X121.428 Y76.544 F7200
G1 X126.994 Y70.977 E34.48620 F2880
G0 X127.560 Y70.977 F7200
G1 X121.428 Y77.109 E34.63041 F2880
G0 X121.428 Y77.675 F7200
G1 X128.125 Y70.977 E34.78793 F2880
G0 X128.691 Y70.977 F7200
G1 X121.428 Y78.241 E34.95875 F2880
G0 X121.428 Y78.806 F7200
G1 X129.257 Y70.977 E35.14288 F2880
G0 X129.822 Y70.977 F7200
G1 X121.428 Y79.372 E35.34031 F2880
G0 X121.428 Y79.938 F7200
G1 X130.388 Y70.977 E35.55105 F2880
G0 X130.954 Y70.977 F7200
G1 X121.428 Y80.503 E35.77509 F2880
G0 X121.428 Y81.069 F7200
G1 X131.519 Y70.977 E36.01243 F2880
G0 X132.085 Y70.977 F7200
G1 X121.428 Y81.635 E36.26308 F2880
G0 X121.428 Y82.200 F7200
G1 X132.651 Y70.977 E36.52703 F2880
G0 X133.216 Y70.977 F7200
G1 X121.428 Y82.766 E36.80428 F2880
G0 X121.428 Y83.332 F7200
G1 X133.782 Y70.977 E37.09484 F2880
G0 X134.348 Y70.977 F7200
G1 X121.428 Y83.897 E37.39871 F2880
G0 X121.428 Y84.463 F7200
G1 X134.913 Y70.977 E37.71587 F2880
G0 X135.479 Y70.977 F7200
G1 X121.428 Y85.029 E38.04635 F2880
G0 X121.428 Y85.595 F7200
G1 X136.045 Y70.977 E38.39012 F2880
G0 X136.611 Y70.977 F7200
G1 X131.032 Y76.556 E38.52133 F2880
G0 X131.597 Y76.556 F7200
G1 X137.176 Y70.977 E38.65254 F2880
G0 X137.742 Y70.977 F7200
G1 X132.163 Y76.556 E38.78374 F2880
G0 X132.729 Y76.556 F7200
G1 X138.308 Y70.977 E38.91495 F2880
G0 X138.873 Y70.977 F7200
G1 X133.294 Y76.556 E39.04616 F2880
G0 X133.860 Y76.556 F7200
G1 X139.439 Y70.977 E39.17736 F2880
G0 X140.005 Y70.977 F7200
G1 X134.426 Y76.556 E39.30857 F2880
G0 X134.991 Y76.556 F7200
G1 X140.570 Y70.977 E39.43977 F2880
G0 X141.136 Y70.977 F7200
G1 X135.557 Y76.556 E39.57098 F2880
G0 X136.123 Y76.556 F7200
G1 X141.702 Y70.977 E39.70219 F2880
G0 X142.267 Y70.977 F7200
G1 X136.688 Y76.556 E39.83339 F2880
G0 X137.254 Y76.556 F7200
G1 X142.833 Y70.977 E39.96460 F2880
G0 X143.399 Y70.977 F7200
G1 X137.820 Y76.556 E40.09581 F2880
G0 X138.178 Y76.764 F7200
G1 X143.964 Y70.977 E40.23190 F2880
G0 X144.530 Y70.977 F7200
G1 X138.178 Y77.330 E40.38131 F2880
G0 X138.178 Y77.895 F7200
G1 X145.096 Y70.977 E40.54401 F2880
G0 X145.661 Y70.977 F7200
G1 X138.178 Y78.461 E40.72002 F2880
G0 X138.178 Y79.027 F7200
G1 X146.227 Y70.977 E40.90933 F2880
G0 X146.793 Y70.977 F7200
G1 X138.178 Y79.592 E41.11195 F2880
G0 X138.178 Y80.158 F7200
G1 X147.359 Y70.977 E41.32787 F2880
G0 F3000 E40.32787
G0 X152.507 Y91.285 F7200
G0 F3000 E41.32787
G1 X137.151 Y106.641 E41.68902 F2880
G0 X136.959 Y107.398 F7200
G1 X152.507 Y91.851 E42.05468 F2880
G0 X152.507 Y108.821 F7200
G1 X152.272 Y109.056 E42.06021 F2880
G0 X151.706 Y109.056 F7200
G1 X152.507 Y108.255 E42.07904 F2880
G0 X152.507 Y107.690 F7200
G1 X151.140 Y109.056 E42.11117 F2880
G0 X150.575 Y109.056 F7200
G1 X152.507 Y107.124 E42.15661 F2880
G0 X152.507 Y106.558 F7200
G1 X150.009 Y109.056 E42.21535 F2880
G0 X149.443 Y109.056 F7200
G1 X152.507 Y105.993 E42.28740 F2880
G0 X152.507 Y105.427 F7200
G1 X148.878 Y109.056 E42.37275 F2880
G0 X148.312 Y109.056 F7200
G1 X152.507 Y104.861 E42.47140 F2880
G0 X152.507 Y104.296 F7200
G1 X147.746 Y109.056 E42.58336 F2880
G0 X147.181 Y109.056 F7200
G1 X152.507 Y103.730 E42.70862 F2880
G0 X152.507 Y103.164 F7200
G1 X146.615 Y109.056 E42.84719 F2880
G0 X146.049 Y109.056 F7200
G1 X152.507 Y102.599 E42.99906 F2880
G0 X152.507 Y102.033 F7200
G1 X145.484 Y109.056 E43.16424 F2880
G0 X144.918 Y109.056 F7200
G1 X152.507 Y101.467 E43.34271 F2880
G0 X152.507 Y100.902 F7200
G1 X144.352 Y109.056 E43.53450 F2880
G0 X143.786 Y109.056 F7200
G1 X152.507 Y100.336 E43.73958 F2880
G0 X152.507 Y99.770 F7200
G1 X143.221 Y109.056 E43.95798 F2880
G0 X142.655 Y109.056 F7200
G1 X152.507 Y99.205 E44.18967 F2880
G0 X152.507 Y98.639 F7200
G1 X142.089 Y109.056 E44.43467 F2880
G0 X141.524 Y109.056 F7200
G1 X152.507 Y98.073 E44.69298 F2880
G0 X152.507 Y97.507 F7200
G1 X140.958 Y109.056 E44.96458 F2880
G0 X140.392 Y109.056 F7200
G1 X152.507 Y96.942 E45.24950 F2880
G0 X152.507 Y96.376 F7200
G1 X139.827 Y109.056 E45.54771 F2880
G0 X139.261 Y109.056 F7200
G1 X152.507 Y95.810 E45.85923 F2880
G0 X152.507 Y95.245 F7200
G1 X138.695 Y109.056 E46.18405 F2880
G0 X138.130 Y109.056 F7200
G1 X152.507 Y94.679 E46.52218 F2880
G0 X152.507 Y94.113 F7200
G1 X137.564 Y109.056 E46.87361 F2880
G0 X136.998 Y109.056 F7200
G1 X152.507 Y93.548 E47.23835 F2880
G0 X152.507 Y92.982 F7200
G1 X136.433 Y109.056 E47.61639 F2880
; ------------------------------------
; Layer #2
; ------------------------------------
G92 E0 ;reset extr
G0 F3000 E-1.00000
G0 F600 Z1.400
G0 X136.590 Y109.816 F7200
G0 X136.094 Y107.422
G0 X136.178 Y107.307
G0 X136.358 Y106.852
G0 X136.419 Y106.367
G0 X136.358 Y105.881
G0 X136.178 Y105.426
G0 X135.890 Y105.030
G0 X135.538 Y104.739
G0 X135.326 Y103.717
G0 X130.767 Y103.717
G0 X130.767 Y88.316
G0 X132.400 Y89.600
G0 F3000 E0.00000
;segType:Support
G1 X137.200 Y89.600 E0.06785 F1259
G1 X137.200 Y91.200 E0.09047
G1 X132.400 Y91.200 E0.15832
G0 F3000 E-0.84168
G0 X130.757 Y80.148 F7200
G0 F3000 E0.15832
;segType:HShell
G1 X121.585 Y70.977 E0.37401 F2880
G0 X120.883 Y70.797 F7200
;segType:Perimeter
G1 X120.727 Y70.217 E0.38399 F1440
G1 X153.267 Y70.217 E0.92512
G1 X153.267 Y109.816 E1.58366
G1 X120.667 Y109.816 E2.12579
G1 X120.667 Y70.277 E2.78333
G0 X120.727 Y70.217 F7200
G0 X122.327 Y70.217
G0 X121.767 Y70.617
;segType:Loop
G1 X152.867 Y70.617 E3.30051 F2880
G1 X152.867 Y109.416 E3.94574
G1 X121.067 Y109.416 E4.47457
G1 X121.067 Y70.617 E5.11980
G1 X121.567 Y70.617 E5.12812
G0 F3000 E4.12812
G0 X121.062 Y70.217 F7200
G0 X131.517 Y78.493
G0 X131.517 Y81.217
G0 X134.957 Y81.217
G0 X152.507 Y95.110
G0 F3000 E5.12812
;segType:HShell
G1 X138.178 Y80.781 E5.46511 F2880
G0 X138.157 Y81.217 F7200
;segType:Perimeter
G1 X137.357 Y81.217 E5.47842 F1440
G1 X131.517 Y81.217 E5.57555
G1 X131.517 Y77.316 E5.64042
G1 X137.417 Y77.316 E5.73855
G1 X137.417 Y81.157 E5.80242
G0 X137.357 Y81.217 F7200
G0 X135.757 Y81.217
G0 X136.317 Y81.617
;segType:Loop
G1 X131.117 Y81.617 E5.88891 F2880
G1 X131.117 Y76.916 E5.96708
G1 X137.817 Y76.916 E6.07852
G1 X137.817 Y81.617 E6.15669
G1 X136.517 Y81.617 E6.17831
G0 F3000 E5.17831
G0 X135.343 Y81.217 F7200
G0 X131.517 Y81.217
G0 X131.517 Y79.913
G0 X121.428 Y76.476
G0 F3000 E6.17831
;segType:HShell
G1 X132.263 Y87.312 E6.43315 F2880
G0 X132.828 Y87.104 F7200
;segType:Perimeter
G1 X132.637 Y86.327 E6.44645 F1440
G1 X132.531 Y85.911 E6.45360
G1 X132.531 Y85.422 E6.46173
G1 X132.652 Y84.948 E6.46987
G1 X132.888 Y84.519 E6.47801
G1 X133.223 Y84.163 E6.48614
G1 X133.636 Y83.900 E6.49428
G1 X134.101 Y83.749 E6.50241
G1 X134.590 Y83.719 E6.51055
G1 X135.070 Y83.810 E6.51869
G1 X135.513 Y84.019 E6.52683
G1 X135.890 Y84.331 E6.53496
G1 X136.178 Y84.726 E6.54310
G1 X136.358 Y85.181 E6.55124
G1 X136.419 Y85.667 E6.55938
G1 X136.358 Y86.152 E6.56751
G1 X136.178 Y86.607 E6.57565
G1 X135.890 Y87.003 E6.58379
G1 X135.513 Y87.315 E6.59192
G1 X135.070 Y87.523 E6.60006
G1 X134.590 Y87.615 E6.60820
G1 X134.101 Y87.584 E6.61634
G1 X133.636 Y87.433 E6.62447
G1 X133.223 Y87.171 E6.63261
G1 X132.888 Y86.814 E6.64075
G1 X132.681 Y86.438 E6.64789
G0 X132.637 Y86.327 F7200
G0 X132.531 Y85.911
G0 X132.531 Y85.422
G0 X132.652 Y84.948
G0 X132.745 Y84.780
G0 X132.155 Y85.275
;segType:Loop
G1 X132.277 Y84.800 E6.65604 F2880
G1 X132.562 Y84.282 E6.66586
G1 X132.966 Y83.852 E6.67567
G1 X133.464 Y83.536 E6.68549
G1 X134.026 Y83.353 E6.69531
G1 X134.615 Y83.316 E6.70513
G1 X135.195 Y83.427 E6.71494
G1 X135.729 Y83.678 E6.72477
G1 X136.184 Y84.055 E6.73458
G1 X136.531 Y84.532 E6.74440
G1 X136.748 Y85.081 E6.75422
G1 X136.822 Y85.667 E6.76404
G1 X136.748 Y86.252 E6.77385
G1 X136.531 Y86.801 E6.78367
G1 X136.184 Y87.279 E6.79349
G1 X135.729 Y87.655 E6.80331
G1 X135.639 Y87.698 E6.80496
G0 X135.601 Y87.821 F7200
G0 X135.469 Y87.851
G0 X135.337 Y87.880
G1 X135.096 Y87.921 E6.80893 F2880
G1 X134.981 Y87.932 E6.81070
G1 X134.867 Y87.942 E6.81236
G1 X134.753 Y87.953 E6.81391
G1 X134.639 Y87.964 E6.81537
G1 X134.524 Y87.964 E6.81682
G1 X134.410 Y87.960 E6.81830
G1 X134.296 Y87.957 E6.81982
G1 X134.181 Y87.953 E6.82137
G1 X134.067 Y87.950 E6.82296
G1 X133.953 Y87.936 E6.82468
G1 X133.839 Y87.918 E6.82659
G1 X133.724 Y87.900 E6.82868
G1 X133.610 Y87.882 E6.83094
G0 X133.339 Y87.826 F7200
G1 X133.306 Y87.697 E6.83314 F2880
G1 X132.966 Y87.481 E6.83984
G1 X132.562 Y87.051 E6.84965
G1 X132.277 Y86.534 E6.85947
G1 X132.131 Y85.962 E6.86929
G1 X132.131 Y85.472 E6.87744
G0 F3000 E5.87744
G0 X133.026 Y88.316 F7200
G0 X138.168 Y88.316
G0 X138.168 Y103.717
G0 X137.876 Y103.717
G0 X138.115 Y104.477
G0 F3000 E6.87744
;segType:HShell
G1 X142.694 Y109.056 E6.98513 F2880
G0 X142.128 Y109.056 F7200
G1 X137.549 Y104.477 E7.09282 F2880
G0 X138.108 Y103.717 F7200
;segType:Perimeter
G1 X130.767 Y103.717 E7.21490 F1440
G1 X130.767 Y88.316 E7.47101
G1 X138.168 Y88.316 E7.59409
G1 X138.168 Y103.657 E7.84921
G0 X138.108 Y103.717 F7200
G0 X136.508 Y103.717
G0 X137.068 Y104.117
;segType:Loop
G1 X135.781 Y104.117 E7.87060 F2880
G0 X135.667 Y104.208 F7200
G0 X135.553 Y104.202
G0 X135.439 Y104.176
G0 X135.324 Y104.151
G0 X135.210 Y104.125
G1 X135.096 Y104.113 E7.87247 F2880
G1 X134.981 Y104.102 E7.87423
G1 X134.867 Y104.091 E7.87589
G1 X134.753 Y104.080 E7.87744
G1 X134.639 Y104.069 E7.87889
G1 X134.524 Y104.069 E7.88034
G1 X134.410 Y104.073 E7.88183
G1 X134.296 Y104.077 E7.88334
G1 X134.181 Y104.080 E7.88489
G1 X134.067 Y104.084 E7.88648
G1 X133.953 Y104.098 E7.88821
G1 X133.839 Y104.116 E7.89012
G1 X133.724 Y104.134 E7.89220
G1 X133.610 Y104.152 E7.89446
G1 X133.496 Y104.162 E7.89680
G1 X133.381 Y104.196 E7.89956
G1 X133.267 Y104.117 E7.90186
G1 X130.367 Y104.117 E7.95010
G1 X130.367 Y87.916 E8.21952
G1 X133.267 Y87.916 E8.26775
G1 X133.381 Y87.838 E8.27096
G1 X133.496 Y87.871 E8.27338
G0 X133.610 Y87.882 F7200
G0 X133.953 Y87.936
G0 X134.067 Y87.950
G0 X134.524 Y87.964
G0 X134.639 Y87.964
G0 X135.096 Y87.921
G1 X135.210 Y87.908 E8.27537 F2880
G1 X135.324 Y87.883 E8.27765
G1 X135.439 Y87.857 E8.28017
G1 X135.553 Y87.832 E8.28294
G1 X135.667 Y87.825 E8.28572
G1 X135.781 Y87.916 E8.28815
G1 X138.568 Y87.916 E8.33448
G1 X138.568 Y104.117 E8.60390
G1 X137.268 Y104.117 E8.62552
G0 F3000 E7.62552
G0 X136.397 Y103.717 F7200
G0 X130.767 Y103.717
G0 X130.767 Y101.131
G0 X121.428 Y96.841
G0 F3000 E8.62552
;segType:HShell
G1 X131.935 Y107.348 E8.87263 F2880
G0 X132.828 Y107.804 F7200
;segType:Perimeter
G1 X132.637 Y107.027 E8.88593 F1440
G1 X132.531 Y106.611 E8.89308
G1 X132.531 Y106.122 E8.90121
G1 X132.652 Y105.648 E8.90935
G1 X132.888 Y105.219 E8.91749
G1 X133.223 Y104.863 E8.92562
G1 X133.636 Y104.601 E8.93376
G1 X134.101 Y104.449 E8.94189
G1 X134.590 Y104.418 E8.95003
G1 X135.070 Y104.510 E8.95817
G1 X135.513 Y104.719 E8.96631
G1 X135.890 Y105.030 E8.97444
G1 X136.178 Y105.426 E8.98258
G1 X136.358 Y105.881 E8.99072
G1 X136.419 Y106.367 E8.99886
G1 X136.358 Y106.852 E9.00699
G1 X136.178 Y107.307 E9.01513
G1 X135.890 Y107.703 E9.02327
G1 X135.513 Y108.015 E9.03140
G1 X135.070 Y108.223 E9.03954
G1 X134.590 Y108.315 E9.04768
G1 X134.101 Y108.284 E9.05582
G1 X133.636 Y108.133 E9.06395
G1 X133.223 Y107.871 E9.07209
G1 X132.888 Y107.514 E9.08023
G1 X132.681 Y107.138 E9.08737
G0 X132.637 Y107.027 F7200
G0 X132.531 Y106.611
G0 X132.531 Y106.122
G0 X132.652 Y105.648
G0 X132.745 Y105.480
G0 X132.155 Y105.975
;segType:Loop
G1 X132.277 Y105.500 E9.09552 F2880
G1 X132.562 Y104.982 E9.10534
G1 X132.966 Y104.552 E9.11516
G1 X133.344 Y104.312 E9.12260
G0 X133.610 Y104.152 F7200
G0 X133.953 Y104.098
G0 X134.067 Y104.084
G0 X134.524 Y104.069
G0 X134.639 Y104.069
G0 X135.096 Y104.113
G1 X135.418 Y104.172 E9.12953 F2880
G1 X135.550 Y104.201 E9.13272
G1 X135.597 Y104.316 E9.13478
G1 X135.729 Y104.378 E9.13722
G1 X136.184 Y104.754 E9.14703
G1 X136.531 Y105.232 E9.15685
G1 X136.748 Y105.781 E9.16667
G1 X136.822 Y106.367 E9.17649
G1 X136.748 Y106.952 E9.18630
G1 X136.531 Y107.501 E9.19612
G1 X136.184 Y107.979 E9.20594
G1 X135.729 Y108.355 E9.21576
G1 X135.195 Y108.607 E9.22558
G1 X134.615 Y108.717 E9.23540
G1 X134.026 Y108.680 E9.24522
G1 X133.464 Y108.498 E9.25503
G1 X132.966 Y108.181 E9.26485
G1 X132.562 Y107.751 E9.27467
G1 X132.277 Y107.234 E9.28449
G1 X132.131 Y106.662 E9.29431
G1 X132.131 Y106.172 E9.30246
G0 X132.353 Y104.522 F7200
;segType:InnerHair
G1 X132.467 Y104.510 E9.30430 F2880
G1 X132.581 Y104.460 E9.30578
G1 X132.696 Y104.411 E9.30675
G1 X132.653 Y104.429 E9.30719
G1 X132.540 Y104.478 E9.30883
G1 X132.427 Y104.527 E9.31098
G1 X132.353 Y104.522 E9.31225
G0 X132.238 Y104.823 F7200
;segType:HShell
G1 X131.892 Y104.477 E9.32038 F2880
G0 X131.327 Y104.477 F7200
G1 X132.038 Y105.188 E9.33710 F2880
G0 X131.881 Y105.597 F7200
G1 X130.761 Y104.477 E9.36344 F2880
G0 X130.195 Y104.477 F7200
G1 X131.770 Y106.052 E9.40048 F2880
G0 X121.428 Y97.407 F7200
G1 X133.077 Y109.056 E9.67446 F2880
G0 X132.511 Y109.056 F7200
G1 X121.428 Y97.972 E9.93514 F2880
G0 X121.428 Y98.538 F7200
G1 X131.946 Y109.056 E10.18251 F2880
G0 X131.380 Y109.056 F7200
G1 X121.428 Y99.104 E10.41657 F2880
G0 X121.428 Y99.669 F7200
G1 X130.814 Y109.056 E10.63734 F2880
G0 X130.249 Y109.056 F7200
G1 X121.428 Y100.235 E10.84480 F2880
G0 X121.428 Y100.801 F7200
G1 X129.683 Y109.056 E11.03895 F2880
G0 X129.117 Y109.056 F7200
G1 X121.428 Y101.366 E11.21980 F2880
G0 X121.428 Y101.932 F7200
G1 X128.552 Y109.056 E11.38735 F2880
G0 X127.986 Y109.056 F7200
G1 X121.428 Y102.498 E11.54159 F2880
G0 X121.428 Y103.063 F7200
G1 X127.420 Y109.056 E11.68253 F2880
G0 X126.855 Y109.056 F7200
G1 X121.428 Y103.629 E11.81017 F2880
G0 X121.428 Y104.195 F7200
G1 X126.289 Y109.056 E11.92450 F2880
G0 X125.723 Y109.056 F7200
G1 X121.428 Y104.760 E12.02553 F2880
G0 X121.428 Y105.326 F7200
G1 X125.158 Y109.056 E12.11325 F2880
G0 X124.592 Y109.056 F7200
G1 X121.428 Y105.892 E12.18767 F2880
G0 X121.428 Y106.458 F7200
G1 X124.026 Y109.056 E12.24878 F2880
G0 X123.460 Y109.056 F7200
G1 X121.428 Y107.023 E12.29659 F2880
G0 X121.428 Y107.589 F7200
G1 X122.895 Y109.056 E12.33110 F2880
G0 X122.329 Y109.056 F7200
G1 X121.428 Y108.155 E12.35230 F2880
G0 X121.428 Y108.720 F7200
G1 X121.763 Y109.056 E12.36020 F2880
G0 F3000 E11.36020
G0 X132.531 Y106.611 F7200
G0 X131.770 Y106.618
G0 F3000 E12.36020
G1 X121.428 Y96.275 E12.60345 F2880
G0 X121.428 Y95.710 F7200
G1 X130.007 Y104.288 E12.80521 F2880
G0 X130.007 Y103.723 F7200
G1 X121.428 Y95.144 E13.00698 F2880
G0 X121.428 Y94.578 F7200
G1 X130.007 Y103.157 E13.20874 F2880
G0 X130.007 Y102.591 F7200
G1 X121.428 Y94.012 E13.41050 F2880
G0 X121.428 Y93.447 F7200
G1 X130.007 Y102.026 E13.61227 F2880
G0 X130.007 Y101.460 F7200
G1 X121.428 Y92.881 E13.81403 F2880
G0 X121.428 Y92.315 F7200
G1 X130.007 Y100.894 E14.01579 F2880
G0 X130.007 Y100.329 F7200
G1 X121.428 Y91.750 E14.21755 F2880
G0 X121.428 Y91.184 F7200
G1 X130.007 Y99.763 E14.41932 F2880
G0 X130.007 Y99.197 F7200
G1 X121.428 Y90.618 E14.62108 F2880
G0 X121.428 Y90.053 F7200
G1 X130.007 Y98.632 E14.82284 F2880
G0 X130.007 Y98.066 F7200
G1 X121.428 Y89.487 E15.02461 F2880
G0 X121.428 Y88.921 F7200
G1 X130.007 Y97.500 E15.22637 F2880
G0 X130.007 Y96.935 F7200
G1 X121.428 Y88.356 E15.42813 F2880
G0 X121.428 Y87.790 F7200
G1 X130.007 Y96.369 E15.62990 F2880
G0 X130.007 Y95.803 F7200
G1 X121.428 Y87.224 E15.83166 F2880
G0 X121.428 Y86.659 F7200
G1 X130.007 Y95.237 E16.03342 F2880
G0 X130.007 Y94.672 F7200
G1 X121.428 Y86.093 E16.23519 F2880
G0 X121.428 Y85.527 F7200
G1 X130.007 Y94.106 E16.43695 F2880
G0 X130.007 Y93.540 F7200
G1 X121.428 Y84.962 E16.63871 F2880
G0 X121.428 Y84.396 F7200
G1 X130.007 Y92.975 E16.84048 F2880
G0 X130.007 Y92.409 F7200
G1 X121.428 Y83.830 E17.04224 F2880
G0 X121.428 Y83.264 F7200
G1 X130.007 Y91.843 E17.24400 F2880
G0 X130.007 Y91.278 F7200
G1 X121.428 Y82.699 E17.44577 F2880
G0 X121.428 Y82.133 F7200
G1 X130.007 Y90.712 E17.64753 F2880
G0 X130.007 Y90.146 F7200
G1 X121.428 Y81.567 E17.84929 F2880
G0 X121.428 Y81.002 F7200
G1 X130.007 Y89.581 E18.05105 F2880
G0 X130.007 Y89.015 F7200
G1 X121.428 Y80.436 E18.25282 F2880
G0 X121.428 Y79.870 F7200
G1 X130.007 Y88.449 E18.45458 F2880
G0 X130.007 Y87.884 F7200
G1 X121.428 Y79.305 E18.65634 F2880
G0 X121.428 Y78.739 F7200
G1 X130.245 Y87.556 E18.86371 F2880
G0 X130.811 Y87.556 F7200
G1 X121.428 Y78.173 E19.08439 F2880
G0 X121.428 Y77.608 F7200
G1 X131.376 Y87.556 E19.31836 F2880
G0 X131.942 Y87.556 F7200
G1 X121.428 Y77.042 E19.56565 F2880
G0 X121.428 Y71.385 F7200
G1 X130.757 Y80.714 E19.78505 F2880
G0 X130.757 Y81.280 F7200
G1 X121.428 Y71.951 E20.00445 F2880
G0 X121.428 Y72.516 F7200
G1 X130.757 Y81.845 E20.22386 F2880
G0 X130.888 Y81.977 F7200
G1 X132.613 Y83.702 E20.26442 F2880
G0 X132.927 Y83.450 F7200
G1 X131.454 Y81.977 E20.29907 F2880
G0 X132.020 Y81.977 F7200
G1 X133.273 Y83.231 E20.32855 F2880
G0 X133.691 Y83.083 F7200
G1 X132.585 Y81.977 E20.35456 F2880
G0 X133.151 Y81.977 F7200
G1 X134.158 Y82.984 E20.37824 F2880
G0 X134.707 Y82.967 F7200
G1 X133.717 Y81.977 E20.40153 F2880
G0 X134.282 Y81.977 F7200
G1 X135.458 Y83.152 E20.42917 F2880
G0 F3000 E19.42917
G0 X135.001 Y83.797 F7200
G0 X134.590 Y83.719
G0 X134.101 Y83.749
G0 X133.636 Y83.900
G0 X133.223 Y84.163
G0 X132.888 Y84.519
G0 X132.652 Y84.948
G0 X132.531 Y85.422
G0 X132.531 Y85.911
G0 X132.652 Y86.385
G0 X132.876 Y86.793
G0 X132.384 Y87.488
G0 F3000 E20.42917
;segType:InnerHair
G1 X132.496 Y87.536 E20.43100 F2880
G1 X132.609 Y87.585 E20.43235
G1 X132.722 Y87.634 E20.43319
G1 X132.696 Y87.623 E20.43341
G1 X132.581 Y87.573 E20.43489
G1 X132.467 Y87.524 E20.43689
G1 X132.353 Y87.511 E20.43885
G1 X132.384 Y87.488 E20.43959
G0 X131.855 Y86.338 F7200
;segType:HShell
G1 X121.428 Y75.911 E20.68483 F2880
G0 X121.428 Y75.345 F7200
G1 X131.770 Y85.688 E20.92808 F2880
G0 X131.812 Y85.164 F7200
G1 X121.428 Y74.779 E21.17231 F2880
G0 X121.428 Y74.213 F7200
G1 X131.928 Y84.713 E21.41925 F2880
G0 X132.119 Y84.340 F7200
G1 X121.428 Y73.648 E21.67071 F2880
G0 X121.428 Y73.082 F7200
G1 X132.339 Y83.994 E21.92732 F2880
G0 X130.757 Y79.583 F7200
G1 X122.151 Y70.977 E22.12971 F2880
G0 X122.717 Y70.977 F7200
G1 X130.757 Y79.017 E22.31880 F2880
G0 X130.757 Y78.451 F7200
G1 X123.282 Y70.977 E22.49457 F2880
G0 X123.848 Y70.977 F7200
G1 X130.757 Y77.886 E22.65705 F2880
G0 X130.757 Y77.320 F7200
G1 X124.414 Y70.977 E22.80622 F2880
G0 X124.980 Y70.977 F7200
G1 X130.757 Y76.754 E22.94209 F2880
G0 X131.124 Y76.556 F7200
G1 X125.545 Y70.977 E23.07330 F2880
G0 X126.111 Y70.977 F7200
G1 X131.690 Y76.556 E23.20451 F2880
G0 X132.256 Y76.556 F7200
G1 X126.677 Y70.977 E23.33571 F2880
G0 X127.242 Y70.977 F7200
G1 X132.821 Y76.556 E23.46692 F2880
G0 X133.387 Y76.556 F7200
G1 X127.808 Y70.977 E23.59813 F2880
G0 X128.374 Y70.977 F7200
G1 X133.953 Y76.556 E23.72934 F2880
G0 X134.518 Y76.556 F7200
G1 X128.939 Y70.977 E23.86054 F2880
G0 X129.505 Y70.977 F7200
G1 X135.084 Y76.556 E23.99175 F2880
G0 X135.650 Y76.556 F7200
G1 X130.071 Y70.977 E24.12296 F2880
G0 X130.636 Y70.977 F7200
G1 X136.215 Y76.556 E24.25417 F2880
G0 X136.781 Y76.556 F7200
G1 X131.202 Y70.977 E24.38538 F2880
G0 X131.768 Y70.977 F7200
G1 X137.347 Y76.556 E24.51658 F2880
G0 X137.912 Y76.556 F7200
G1 X132.333 Y70.977 E24.64779 F2880
G0 X132.899 Y70.977 F7200
G1 X152.507 Y90.585 E25.10893 F2880
G0 X152.507 Y90.019 F7200
G1 X133.465 Y70.977 E25.55677 F2880
G0 X134.031 Y70.977 F7200
G1 X152.507 Y89.453 E25.99130 F2880
G0 X152.507 Y88.888 F7200
G1 X134.596 Y70.977 E26.41252 F2880
G0 X135.162 Y70.977 F7200
G1 X152.507 Y88.322 E26.82045 F2880
G0 X152.507 Y87.756 F7200
G1 X135.728 Y70.977 E27.21507 F2880
G0 X136.293 Y70.977 F7200
G1 X152.507 Y87.191 E27.59638 F2880
G0 X152.507 Y86.625 F7200
G1 X136.859 Y70.977 E27.96439 F2880
G0 X137.425 Y70.977 F7200
G1 X152.507 Y86.059 E28.31910 F2880
G0 X152.507 Y85.494 F7200
G1 X137.990 Y70.977 E28.66050 F2880
G0 X138.556 Y70.977 F7200
G1 X152.507 Y84.928 E28.98860 F2880
G0 X152.507 Y84.362 F7200
G1 X139.122 Y70.977 E29.30339 F2880
G0 X139.687 Y70.977 F7200
G1 X152.507 Y83.797 E29.60488 F2880
G0 X152.507 Y83.231 F7200
G1 X140.253 Y70.977 E29.89307 F2880
G0 X140.819 Y70.977 F7200
G1 X152.507 Y82.665 E30.16795 F2880
G0 X152.507 Y82.099 F7200
G1 X141.384 Y70.977 E30.42953 F2880
G0 X141.950 Y70.977 F7200
G1 X152.507 Y81.534 E30.67781 F2880
G0 X152.507 Y80.968 F7200
G1 X142.516 Y70.977 E30.91278 F2880
G0 X143.081 Y70.977 F7200
G1 X152.507 Y80.402 E31.13444 F2880
G0 X152.507 Y79.837 F7200
G1 X143.647 Y70.977 E31.34281 F2880
G0 X144.213 Y70.977 F7200
G1 X152.507 Y79.271 E31.53786 F2880
G0 X152.507 Y78.705 F7200
G1 X144.779 Y70.977 E31.71962 F2880
G0 X145.344 Y70.977 F7200
G1 X152.507 Y78.140 E31.88807 F2880
G0 X152.507 Y77.574 F7200
G1 X145.910 Y70.977 E32.04321 F2880
G0 X146.476 Y70.977 F7200
G1 X152.507 Y77.008 E32.18506 F2880
G0 X152.507 Y76.443 F7200
G1 X147.041 Y70.977 E32.31359 F2880
G0 X147.607 Y70.977 F7200
G1 X152.507 Y75.877 E32.42883 F2880
G0 X152.507 Y75.311 F7200
G1 X148.173 Y70.977 E32.53076 F2880
G0 X148.738 Y70.977 F7200
G1 X152.507 Y74.746 E32.61938 F2880
G0 X152.507 Y74.180 F7200
G1 X149.304 Y70.977 E32.69470 F2880
G0 X149.870 Y70.977 F7200
G1 X152.507 Y73.614 E32.75672 F2880
G0 X152.507 Y73.048 F7200
G1 X150.435 Y70.977 E32.80543 F2880
G0 X151.001 Y70.977 F7200
G1 X152.507 Y72.483 E32.84084 F2880
G0 X152.507 Y71.917 F7200
G1 X151.567 Y70.977 E32.86295 F2880
G0 X152.132 Y70.977 F7200
G1 X152.507 Y71.351 E32.87175 F2880
G0 X138.730 Y87.556 F7200
G1 X137.147 Y85.973 E32.90899 F2880
G0 X137.058 Y86.449 F7200
G1 X138.164 Y87.556 E32.93502 F2880
G0 X137.599 Y87.556 F7200
G1 X136.897 Y86.855 E32.95152 F2880
G0 X136.682 Y87.206 F7200
G1 X137.033 Y87.556 E32.95977 F2880
G0 X136.561 Y87.488 F7200
;segType:InnerHair
G1 X136.453 Y87.542 E32.96151 F2880
G1 X136.334 Y87.585 E32.96290
G1 X136.216 Y87.628 E32.96383
G1 X136.239 Y87.619 E32.96402
G1 X136.353 Y87.594 E32.96521
G1 X136.467 Y87.536 E32.96713
G1 X136.561 Y87.488 E32.96913
G0 F3000 E31.96913
G0 X138.178 Y80.215 F7200
G0 F3000 E32.96913
;segType:HShell
G1 X152.507 Y94.545 E33.30613 F2880
G0 X152.507 Y93.979 F7200
G1 X138.178 Y79.650 E33.64313 F2880
G0 X138.178 Y79.084 F7200
G1 X152.507 Y93.413 E33.98013 F2880
G0 X152.507 Y92.847 F7200
G1 X138.178 Y78.518 E34.31712 F2880
G0 X138.178 Y77.953 F7200
G1 X152.507 Y92.282 E34.65412 F2880
G0 X152.507 Y91.716 F7200
G1 X138.178 Y77.387 E34.99112 F2880
G0 X138.178 Y76.821 F7200
G1 X152.507 Y91.150 E35.32812 F2880
G0 X152.507 Y95.676 F7200
G1 X138.178 Y81.347 E35.66512 F2880
G0 X138.178 Y81.913 F7200
G1 X152.507 Y96.242 E36.00211 F2880
G0 X152.507 Y96.807 F7200
G1 X137.676 Y81.977 E36.35090 F2880
G0 X137.111 Y81.977 F7200
G1 X152.507 Y97.373 E36.71298 F2880
G0 X152.507 Y97.939 F7200
G1 X136.545 Y81.977 E37.08838 F2880
G0 X135.979 Y81.977 F7200
G1 X152.507 Y98.504 E37.47707 F2880
G0 X152.507 Y99.070 F7200
G1 X135.414 Y81.977 E37.87907 F2880
G0 X134.848 Y81.977 F7200
G1 X152.507 Y99.636 E38.29437 F2880
G0 X152.507 Y100.201 F7200
G1 X136.971 Y84.666 E38.65974 F2880
G0 X137.153 Y85.414 F7200
G1 X152.507 Y100.767 E39.02083 F2880
G0 X152.507 Y101.333 F7200
G1 X138.928 Y87.754 E39.34018 F2880
G0 X138.928 Y88.319 F7200
G1 X152.507 Y101.898 E39.65954 F2880
G0 X152.507 Y102.464 F7200
G1 X138.928 Y88.885 E39.97890 F2880
G0 X138.928 Y89.451 F7200
G1 X152.507 Y103.030 E40.29826 F2880
G0 X152.507 Y103.596 F7200
G1 X138.928 Y90.017 E40.61762 F2880
G0 X138.928 Y90.582 F7200
G1 X152.507 Y104.161 E40.93698 F2880
G0 X152.507 Y104.727 F7200
G1 X138.928 Y91.148 E41.25634 F2880
G0 X138.928 Y91.714 F7200
G1 X152.507 Y105.293 E41.57570 F2880
G0 X152.507 Y105.858 F7200
G1 X138.928 Y92.279 E41.89506 F2880
G0 X138.928 Y92.845 F7200
G1 X152.507 Y106.424 E42.21442 F2880
G0 X152.507 Y106.990 F7200
G1 X138.928 Y93.411 E42.53377 F2880
G0 X138.928 Y93.976 F7200
G1 X152.507 Y107.555 E42.85313 F2880
G0 X152.507 Y108.121 F7200
G1 X138.928 Y94.542 E43.17249 F2880
G0 X138.928 Y95.108 F7200
G1 X152.507 Y108.687 E43.49185 F2880
G0 X152.310 Y109.056 F7200
G1 X138.928 Y95.673 E43.80659 F2880
G0 X138.928 Y96.239 F7200
G1 X151.745 Y109.056 E44.10803 F2880
G0 X151.179 Y109.056 F7200
G1 X138.928 Y96.805 E44.39617 F2880
G0 X138.928 Y97.370 F7200
G1 X150.613 Y109.056 E44.67100 F2880
G0 X150.048 Y109.056 F7200
G1 X138.928 Y97.936 E44.93252 F2880
G0 X138.928 Y98.502 F7200
G1 X149.482 Y109.056 E45.18075 F2880
G0 X148.916 Y109.056 F7200
G1 X138.928 Y99.067 E45.41566 F2880
G0 X138.928 Y99.633 F7200
G1 X148.351 Y109.056 E45.63728 F2880
G0 X147.785 Y109.056 F7200
G1 X138.928 Y100.199 E45.84559 F2880
G0 X138.928 Y100.765 F7200
G1 X147.219 Y109.056 E46.04059 F2880
G0 X146.654 Y109.056 F7200
G1 X138.928 Y101.330 E46.22230 F2880
G0 X138.928 Y101.896 F7200
G1 X146.088 Y109.056 E46.39070 F2880
G0 X145.522 Y109.056 F7200
G1 X138.928 Y102.462 E46.54579 F2880
G0 X138.928 Y103.027 F7200
G1 X144.957 Y109.056 E46.68758 F2880
G0 X144.391 Y109.056 F7200
G1 X138.928 Y103.593 E46.81607 F2880
G0 X138.928 Y104.159 F7200
G1 X143.825 Y109.056 E46.93125 F2880
G0 X143.259 Y109.056 F7200
G1 X138.681 Y104.477 E47.03894 F2880
G0 X136.520 Y104.524 F7200
;segType:InnerHair
G1 X136.407 Y104.475 E47.04055 F2880
G1 X136.289 Y104.432 E47.04175
G1 X136.239 Y104.414 E47.04219
G1 X136.353 Y104.439 E47.04337
G1 X136.467 Y104.497 E47.04529
G1 X136.520 Y104.524 E47.04631
G0 X136.984 Y104.477 F7200
;segType:HShell
G1 X141.562 Y109.056 E47.15400 F2880
G0 X140.997 Y109.056 F7200
G1 X136.559 Y104.619 E47.25836 F2880
G0 X137.105 Y105.730 F7200
G1 X140.431 Y109.056 E47.33658 F2880
G0 X139.865 Y109.056 F7200
G1 X137.184 Y106.375 E47.39964 F2880
G0 X137.121 Y106.877 F7200
G1 X139.300 Y109.056 E47.45088 F2880
G0 X138.734 Y109.056 F7200
G1 X136.992 Y107.314 E47.49185 F2880
G0 X136.823 Y107.711 F7200
G1 X138.168 Y109.056 E47.52347 F2880
G0 X137.603 Y109.056 F7200
G1 X136.585 Y108.039 E47.54740 F2880
G0 X136.317 Y108.336 F7200
G1 X137.037 Y109.056 E47.56433 F2880
G0 X136.472 Y108.774 F7200
G1 X135.774 Y108.925 E47.59400 F2880
G0 X133.463 Y108.876 F7200
G1 X133.496 Y108.909 E47.59477 F2880
G0 X133.610 Y108.992 F7200
;segType:InnerHair
G1 X133.724 Y109.010 E47.59676 F2880
G1 X133.839 Y109.028 E47.59857
G1 X133.953 Y109.046 E47.60021
G1 X134.067 Y109.050 E47.60180
G1 X134.181 Y109.053 E47.60335
G1 X134.296 Y109.057 E47.60486
G1 X134.410 Y109.061 E47.60634
G1 X134.524 Y109.064 E47.60779
G1 X134.639 Y109.068 E47.60920
G1 X134.753 Y109.057 E47.61072
G1 X134.867 Y109.046 E47.61235
G1 X134.981 Y109.035 E47.61407
G1 X135.096 Y109.024 E47.61590
G1 X135.210 Y109.014 E47.61784
G1 X135.324 Y109.003 E47.61988
G1 X135.439 Y108.977 E47.62221
; ------------------------------------
; Layer #3
; ------------------------------------
G92 E0 ;reset extr
G0 F3000 E-1.00000
G0 F600 Z1.500
G0 X135.292 Y108.119 F7200
G0 X135.513 Y108.015
G0 X135.890 Y107.703
G0 X136.178 Y107.307
G0 X136.358 Y106.852
G0 X136.419 Y106.367
G0 X136.358 Y105.881
G0 X136.178 Y105.426
G0 X135.890 Y105.030
G0 X135.513 Y104.719
G0 X135.070 Y104.510
G0 X134.662 Y104.432
G0 X134.539 Y103.717
G0 X130.767 Y103.717
G0 X130.767 Y88.316
G0 X132.400 Y91.200
G0 F3000 E0.00000
;segType:Support
G1 X137.200 Y91.200 E0.06785 F1470
G1 X137.200 Y89.600 E0.09047
G1 X132.400 Y89.600 E0.15832
G0 F3000 E-0.84168
G0 X124.165 Y70.977 F7200
G0 F3000 E0.15832
;segType:HShell
G1 X121.428 Y73.715 E0.22271 F2880
G0 X121.428 Y73.149 F7200
G1 X123.600 Y70.977 E0.27380 F2880
G0 X123.034 Y70.977 F7200
G1 X121.428 Y72.584 E0.31158 F2880
G0 X121.428 Y72.018 F7200
G1 X122.468 Y70.977 E0.33606 F2880
G0 X121.903 Y70.977 F7200
G1 X121.428 Y71.452 E0.34723 F2880
G0 X120.883 Y70.797 F7200
;segType:Perimeter
G1 X120.727 Y70.217 E0.35721 F1440
G1 X153.267 Y70.217 E0.89834
G1 X153.267 Y109.816 E1.55688
G1 X120.667 Y109.816 E2.09901
G1 X120.667 Y70.277 E2.75655
G0 X120.727 Y70.217 F7200
G0 X122.327 Y70.217
G0 X121.767 Y70.617
;segType:Loop
G1 X152.867 Y70.617 E3.27373 F2880
G1 X152.867 Y109.416 E3.91897
G1 X121.067 Y109.416 E4.44779
G1 X121.067 Y70.617 E5.09302
G1 X121.567 Y70.617 E5.10134
G0 F3000 E4.10134
G0 X148.490 Y70.977 F7200
G0 F3000 E5.10134
;segType:HShell
G1 X138.178 Y81.290 E5.34387 F2880
G0 X138.157 Y81.217 F7200
;segType:Perimeter
G1 X137.357 Y81.217 E5.35718 F1440
G1 X131.517 Y81.217 E5.45431
G1 X131.517 Y77.316 E5.51918
G1 X137.417 Y77.316 E5.61731
G1 X137.417 Y81.157 E5.68118
G0 X137.357 Y81.217 F7200
G0 X135.757 Y81.217
G0 X136.317 Y81.617
;segType:Loop
G1 X131.117 Y81.617 E5.76767 F2880
G1 X131.117 Y76.916 E5.84584
G1 X137.817 Y76.916 E5.95727
G1 X137.817 Y81.617 E6.03545
G1 X136.517 Y81.617 E6.05707
G0 F3000 E5.05707
G0 X136.944 Y81.217 F7200
G0 X134.255 Y83.740
G0 X134.101 Y83.749
G0 X133.636 Y83.900
G0 X133.223 Y84.163
G0 X132.888 Y84.519
G0 X132.652 Y84.948
G0 X132.552 Y85.338
G0 X121.428 Y95.777
G0 F3000 E6.05707
;segType:HShell
G1 X131.770 Y85.434 E6.30031 F2880
G0 X131.770 Y86.000 F7200
G1 X130.214 Y87.556 E6.33692 F2880
G0 X130.780 Y87.556 F7200
G1 X131.884 Y86.451 E6.36291 F2880
G0 X132.044 Y86.857 F7200
G1 X131.345 Y87.556 E6.37935 F2880
G0 X132.245 Y87.222 F7200
G1 X131.911 Y87.556 E6.38721 F2880
G0 X132.828 Y87.104 F7200
;segType:Perimeter
G1 X132.637 Y86.327 E6.40051 F1440
G1 X132.531 Y85.911 E6.40765
G1 X132.531 Y85.422 E6.41579
G1 X132.652 Y84.948 E6.42392
G1 X132.888 Y84.519 E6.43206
G1 X133.223 Y84.163 E6.44020
G1 X133.636 Y83.900 E6.44833
G1 X134.101 Y83.749 E6.45647
G1 X134.590 Y83.719 E6.46461
G1 X135.070 Y83.810 E6.47274
G1 X135.513 Y84.019 E6.48089
G1 X135.890 Y84.331 E6.48902
G1 X136.178 Y84.726 E6.49716
G1 X136.358 Y85.181 E6.50529
G1 X136.419 Y85.667 E6.51343
G1 X136.358 Y86.152 E6.52157
G1 X136.178 Y86.607 E6.52971
G1 X135.890 Y87.003 E6.53784
G1 X135.513 Y87.315 E6.54598
G1 X135.070 Y87.523 E6.55412
G1 X134.590 Y87.615 E6.56225
G1 X134.101 Y87.584 E6.57039
G1 X133.636 Y87.433 E6.57853
G1 X133.223 Y87.171 E6.58667
G1 X132.888 Y86.814 E6.59480
G1 X132.681 Y86.438 E6.60194
G0 X132.637 Y86.327 F7200
G0 X132.531 Y85.911
G0 X132.531 Y85.422
G0 X132.652 Y84.948
G0 X132.745 Y84.780
G0 X132.155 Y85.275
;segType:Loop
G1 X132.277 Y84.800 E6.61010 F2880
G1 X132.562 Y84.282 E6.61992
G1 X132.966 Y83.852 E6.62973
G1 X133.464 Y83.536 E6.63955
G1 X134.026 Y83.353 E6.64937
G1 X134.615 Y83.316 E6.65918
G1 X135.195 Y83.427 E6.66900
G1 X135.729 Y83.678 E6.67883
G1 X136.184 Y84.055 E6.68864
G1 X136.531 Y84.532 E6.69846
G1 X136.748 Y85.081 E6.70828
G1 X136.822 Y85.667 E6.71809
G1 X136.748 Y86.252 E6.72791
G1 X136.531 Y86.801 E6.73773
G1 X136.184 Y87.279 E6.74755
G1 X135.729 Y87.655 E6.75736
G1 X135.639 Y87.698 E6.75902
G0 X135.601 Y87.821 F7200
G0 X135.469 Y87.851
G0 X135.337 Y87.880
G1 X135.096 Y87.921 E6.76299 F2880
G1 X134.981 Y87.932 E6.76475
G1 X134.867 Y87.942 E6.76641
G1 X134.753 Y87.953 E6.76797
G1 X134.639 Y87.964 E6.76942
G1 X134.524 Y87.964 E6.77087
G1 X134.410 Y87.960 E6.77236
G1 X134.296 Y87.957 E6.77388
G1 X134.181 Y87.953 E6.77543
G1 X134.067 Y87.950 E6.77701
G1 X133.953 Y87.936 E6.77874
G1 X133.839 Y87.918 E6.78065
G1 X133.724 Y87.900 E6.78273
G1 X133.610 Y87.882 E6.78499
G0 X133.339 Y87.826 F7200
G1 X133.306 Y87.697 E6.78720 F2880
G1 X132.966 Y87.481 E6.79390
G1 X132.562 Y87.051 E6.80371
G1 X132.277 Y86.534 E6.81353
G1 X132.131 Y85.962 E6.82335
G1 X132.131 Y85.472 E6.83150
G0 F3000 E5.83150
G0 X132.531 Y85.575 F7200
G0 X132.531 Y85.911
G0 X132.652 Y86.385
G0 X132.888 Y86.814
G0 X133.223 Y87.171
G0 X133.636 Y87.433
G0 X134.101 Y87.584
G0 X134.590 Y87.615
G0 X135.070 Y87.523
G0 X135.513 Y87.315
G0 X135.890 Y87.003
G0 X136.178 Y86.607
G0 X136.211 Y86.522
G0 X153.267 Y90.915
G0 X152.507 Y90.719
G0 F3000 E6.83150
;segType:HShell
G1 X138.928 Y104.298 E7.15086 F2880
G0 X138.749 Y104.477 F7200
G1 X137.149 Y106.077 E7.18849 F2880
G0 X136.690 Y104.839 F7200
G1 X137.052 Y104.477 E7.19699 F2880
G0 X137.617 Y104.477 F7200
G1 X136.902 Y105.192 E7.21380 F2880
G0 X137.063 Y105.597 F7200
G1 X138.183 Y104.477 E7.24014 F2880
G0 X138.108 Y103.717 F7200
;segType:Perimeter
G1 X130.767 Y103.717 E7.36222 F1440
G1 X130.767 Y88.316 E7.61833
G1 X138.168 Y88.316 E7.74141
G1 X138.168 Y103.657 E7.99653
G0 X138.108 Y103.717 F7200
G0 X136.508 Y103.717
G0 X137.068 Y104.117
;segType:Loop
G1 X135.781 Y104.117 E8.01792 F2880
G0 X135.667 Y104.208 F7200
G0 X135.553 Y104.202
G0 X135.439 Y104.176
G0 X135.324 Y104.151
G0 X135.210 Y104.125
G1 X135.096 Y104.113 E8.01978 F2880
G1 X134.981 Y104.102 E8.02155
G1 X134.867 Y104.091 E8.02321
G1 X134.753 Y104.080 E8.02476
G1 X134.639 Y104.069 E8.02621
G1 X134.524 Y104.069 E8.02766
G1 X134.410 Y104.073 E8.02914
G1 X134.296 Y104.077 E8.03066
G1 X134.181 Y104.080 E8.03221
G1 X134.067 Y104.084 E8.03380
G1 X133.953 Y104.098 E8.03553
G1 X133.839 Y104.116 E8.03744
G1 X133.724 Y104.134 E8.03952
G1 X133.610 Y104.152 E8.04178
G1 X133.496 Y104.162 E8.04412
G1 X133.381 Y104.196 E8.04687
G1 X133.267 Y104.117 E8.04918
G1 X130.367 Y104.117 E8.09741
G1 X130.367 Y87.916 E8.36683
G1 X133.267 Y87.916 E8.41507
G1 X133.381 Y87.838 E8.41828
G1 X133.496 Y87.871 E8.42070
G0 X133.610 Y87.882 F7200
G0 X133.953 Y87.936
G0 X134.067 Y87.950
G0 X134.524 Y87.964
G0 X134.639 Y87.964
G0 X135.096 Y87.921
G1 X135.210 Y87.908 E8.42269 F2880
G1 X135.324 Y87.883 E8.42497
G1 X135.439 Y87.857 E8.42749
G1 X135.553 Y87.832 E8.43026
G1 X135.667 Y87.825 E8.43303
G1 X135.781 Y87.916 E8.43547
G1 X138.568 Y87.916 E8.48180
G1 X138.568 Y104.117 E8.75122
G1 X137.268 Y104.117 E8.77284
G0 F3000 E7.77284
G0 X137.789 Y103.717 F7200
G0 X138.168 Y103.717
G0 X138.168 Y103.426
G0 X152.507 Y92.416
G0 F3000 E8.77284
;segType:HShell
G1 X135.867 Y109.056 E9.16418 F2880
G0 X135.439 Y108.977 F7200
;segType:InnerHair
G1 X135.324 Y109.003 E9.16626 F2880
G1 X135.210 Y109.014 E9.16819
G1 X135.096 Y109.024 E9.17002
G1 X134.981 Y109.035 E9.17175
G1 X134.867 Y109.046 E9.17338
G1 X134.753 Y109.057 E9.17490
G1 X134.639 Y109.068 E9.17632
G1 X134.524 Y109.064 E9.17776
G1 X134.410 Y109.061 E9.17924
G1 X134.296 Y109.057 E9.18075
G1 X134.181 Y109.053 E9.18230
G1 X134.067 Y109.050 E9.18388
G1 X133.953 Y109.046 E9.18550
G1 X133.839 Y109.028 E9.18732
G1 X133.724 Y109.010 E9.18931
G1 X133.610 Y108.992 E9.19147
G0 X133.038 Y109.056 F7200
;segType:HShell
G0 X133.389 Y108.988
G1 X132.706 Y108.823 E9.21316 F2880
G0 X131.907 Y109.056 F7200
G1 X132.622 Y108.341 E9.22997 F2880
G0 X132.828 Y107.804 F7200
;segType:Perimeter
G1 X132.637 Y107.027 E9.24328 F1440
G1 X132.531 Y106.611 E9.25042
G1 X132.531 Y106.122 E9.25855
G1 X132.652 Y105.648 E9.26669
G1 X132.888 Y105.219 E9.27483
G1 X133.223 Y104.863 E9.28296
G1 X133.636 Y104.601 E9.29110
G1 X134.101 Y104.449 E9.29924
G1 X134.590 Y104.418 E9.30737
G1 X135.070 Y104.510 E9.31551
G1 X135.513 Y104.719 E9.32365
G1 X135.890 Y105.030 E9.33179
G1 X136.178 Y105.426 E9.33993
G1 X136.358 Y105.881 E9.34806
G1 X136.419 Y106.367 E9.35620
G1 X136.358 Y106.852 E9.36433
G1 X136.178 Y107.307 E9.37247
G1 X135.890 Y107.703 E9.38061
G1 X135.513 Y108.015 E9.38875
G1 X135.070 Y108.223 E9.39689
G1 X134.590 Y108.315 E9.40502
G1 X134.101 Y108.284 E9.41316
G1 X133.636 Y108.133 E9.42130
G1 X133.223 Y107.871 E9.42943
G1 X132.888 Y107.514 E9.43757
G1 X132.681 Y107.138 E9.44471
G0 X132.637 Y107.027 F7200
G0 X132.531 Y106.611
G0 X132.531 Y106.122
G0 X132.652 Y105.648
G0 X132.745 Y105.480
G0 X132.155 Y105.975
;segType:Loop
G1 X132.277 Y105.500 E9.45286 F2880
G1 X132.562 Y104.982 E9.46268
G1 X132.966 Y104.552 E9.47250
G1 X133.344 Y104.312 E9.47994
G0 X133.610 Y104.152 F7200
G0 X133.953 Y104.098
G0 X134.067 Y104.084
G0 X134.524 Y104.069
G0 X134.639 Y104.069
G0 X135.096 Y104.113
G1 X135.418 Y104.172 E9.48687 F2880
G1 X135.550 Y104.201 E9.49006
G1 X135.597 Y104.316 E9.49213
G1 X135.729 Y104.378 E9.49456
G1 X136.184 Y104.754 E9.50437
G1 X136.531 Y105.232 E9.51420
G1 X136.748 Y105.781 E9.52401
G1 X136.822 Y106.367 E9.53383
G1 X136.748 Y106.952 E9.54365
G1 X136.531 Y107.501 E9.55346
G1 X136.184 Y107.979 E9.56328
G1 X135.729 Y108.355 E9.57310
G1 X135.195 Y108.607 E9.58292
G1 X134.615 Y108.717 E9.59274
G1 X134.026 Y108.680 E9.60256
G1 X133.464 Y108.498 E9.61237
G1 X132.966 Y108.181 E9.62219
G1 X132.562 Y107.751 E9.63201
G1 X132.277 Y107.234 E9.64183
G1 X132.131 Y106.662 E9.65165
G1 X132.131 Y106.172 E9.65980
G0 X132.353 Y104.522 F7200
;segType:InnerHair
G1 X132.467 Y104.510 E9.66164 F2880
G1 X132.581 Y104.460 E9.66312
G1 X132.696 Y104.411 E9.66409
G1 X132.653 Y104.429 E9.66453
G1 X132.540 Y104.478 E9.66618
G1 X132.427 Y104.527 E9.66832
G1 X132.353 Y104.522 E9.66959
G0 F3000 E8.66959
G0 X132.552 Y103.717 F7200
G0 X130.767 Y103.717
G0 X130.767 Y88.316
G0 X136.356 Y88.316
G0 X136.561 Y87.488
G0 F3000 E9.66959
G1 X136.453 Y87.542 E9.67134 F2880
G1 X136.334 Y87.585 E9.67272
G1 X136.216 Y87.628 E9.67365
G1 X136.239 Y87.619 E9.67385
G1 X136.353 Y87.594 E9.67504
G1 X136.467 Y87.536 E9.67696
G1 X136.561 Y87.488 E9.67896
G0 F3000 E8.67896
G0 X135.145 Y87.488 F7200
G0 X135.070 Y87.523
G0 X134.590 Y87.615
G0 X134.101 Y87.584
G0 X133.805 Y87.488
G0 X132.384 Y87.488
G0 F3000 E9.67896
G1 X132.496 Y87.536 E9.68080 F2880
G1 X132.609 Y87.585 E9.68214
G1 X132.722 Y87.634 E9.68298
G1 X132.696 Y87.623 E9.68320
G1 X132.581 Y87.573 E9.68469
G1 X132.467 Y87.524 E9.68668
G1 X132.353 Y87.511 E9.68864
G1 X132.384 Y87.488 E9.68938
G0 X131.928 Y84.710 F7200
;segType:HShell
G1 X121.428 Y95.211 E9.93634 F2880
G0 X121.428 Y94.645 F7200
G1 X134.096 Y81.977 E10.23428 F2880
G0 X133.530 Y81.977 F7200
G1 X121.428 Y94.080 E10.51892 F2880
G0 X121.428 Y93.514 F7200
G1 X132.965 Y81.977 E10.79025 F2880
G0 X132.399 Y81.977 F7200
G1 X121.428 Y92.948 E11.04828 F2880
G0 X121.428 Y92.383 F7200
G1 X131.833 Y81.977 E11.29300 F2880
G0 X131.268 Y81.977 F7200
G1 X121.428 Y91.817 E11.52442 F2880
G0 X121.428 Y91.251 F7200
G1 X130.757 Y81.922 E11.74383 F2880
G0 X130.757 Y81.357 F7200
G1 X121.428 Y90.686 E11.96323 F2880
G0 X121.428 Y90.120 F7200
G1 X130.757 Y80.791 E12.18264 F2880
G0 X130.757 Y80.225 F7200
G1 X121.428 Y89.554 E12.40204 F2880
G0 X121.428 Y88.989 F7200
G1 X130.757 Y79.660 E12.62144 F2880
G0 X130.757 Y79.094 F7200
G1 X121.428 Y88.423 E12.84085 F2880
G0 X121.428 Y87.857 F7200
G1 X130.757 Y78.528 E13.06025 F2880
G0 X130.757 Y77.963 F7200
G1 X121.428 Y87.292 E13.27966 F2880
G0 X121.428 Y86.726 F7200
G1 X130.757 Y77.397 E13.49906 F2880
G0 X130.757 Y76.831 F7200
G1 X121.428 Y86.160 E13.71847 F2880
G0 X121.428 Y85.594 F7200
G1 X136.045 Y70.977 E14.06224 F2880
G0 X135.479 Y70.977 F7200
G1 X121.428 Y85.029 E14.39271 F2880
G0 X121.428 Y84.463 F7200
G1 X134.914 Y70.977 E14.70988 F2880
G0 X134.348 Y70.977 F7200
G1 X121.428 Y83.897 E15.01374 F2880
G0 X121.428 Y83.332 F7200
G1 X133.782 Y70.977 E15.30430 F2880
G0 X133.216 Y70.977 F7200
G1 X121.428 Y82.766 E15.58156 F2880
G0 X121.428 Y82.200 F7200
G1 X132.651 Y70.977 E15.84551 F2880
G0 X132.085 Y70.977 F7200
G1 X121.428 Y81.635 E16.09616 F2880
G0 X121.428 Y81.069 F7200
G1 X131.519 Y70.977 E16.33351 F2880
G0 X130.954 Y70.977 F7200
G1 X121.428 Y80.503 E16.55755 F2880
G0 X121.428 Y79.938 F7200
G1 X130.388 Y70.977 E16.76828 F2880
G0 X129.822 Y70.977 F7200
G1 X121.428 Y79.372 E16.96571 F2880
G0 X121.428 Y78.806 F7200
G1 X129.257 Y70.977 E17.14984 F2880
G0 X128.691 Y70.977 F7200
G1 X121.428 Y78.241 E17.32066 F2880
G0 X121.428 Y77.675 F7200
G1 X128.125 Y70.977 E17.47818 F2880
G0 X127.560 Y70.977 F7200
G1 X121.428 Y77.109 E17.62240 F2880
G0 X121.428 Y76.544 F7200
G1 X126.994 Y70.977 E17.75331 F2880
G0 X126.428 Y70.977 F7200
G1 X121.428 Y75.978 E17.87092 F2880
G0 X121.428 Y75.412 F7200
G1 X125.863 Y70.977 E17.97522 F2880
G0 X125.297 Y70.977 F7200
G1 X121.428 Y74.846 E18.06622 F2880
G0 X121.428 Y74.281 F7200
G1 X124.731 Y70.977 E18.14392 F2880
G0 X131.032 Y76.556 F7200
G1 X136.611 Y70.977 E18.27512 F2880
G0 X137.176 Y70.977 F7200
G1 X131.597 Y76.556 E18.40633 F2880
G0 X132.163 Y76.556 F7200
G1 X137.742 Y70.977 E18.53754 F2880
G0 X138.308 Y70.977 F7200
G1 X132.729 Y76.556 E18.66875 F2880
G0 X133.294 Y76.556 F7200
G1 X138.873 Y70.977 E18.79996 F2880
G0 X139.439 Y70.977 F7200
G1 X133.860 Y76.556 E18.93117 F2880
G0 X134.426 Y76.556 F7200
G1 X140.005 Y70.977 E19.06237 F2880
G0 X140.570 Y70.977 F7200
G1 X134.991 Y76.556 E19.19358 F2880
G0 X135.557 Y76.556 F7200
G1 X141.136 Y70.977 E19.32479 F2880
G0 X141.702 Y70.977 F7200
G1 X136.123 Y76.556 E19.45600 F2880
G0 X136.688 Y76.556 F7200
G1 X142.267 Y70.977 E19.58721 F2880
G0 X142.833 Y70.977 F7200
G1 X137.254 Y76.556 E19.71842 F2880
G0 X137.820 Y76.556 F7200
G1 X143.399 Y70.977 E19.84963 F2880
G0 X143.964 Y70.977 F7200
G1 X138.178 Y76.764 E19.98572 F2880
G0 X138.178 Y77.330 F7200
G1 X144.530 Y70.977 E20.13513 F2880
G0 X145.096 Y70.977 F7200
G1 X138.178 Y77.895 E20.29783 F2880
G0 X138.178 Y78.461 F7200
G1 X145.662 Y70.977 E20.47384 F2880
G0 X146.227 Y70.977 F7200
G1 X138.178 Y79.027 E20.66316 F2880
G0 X138.178 Y79.593 F7200
G1 X146.793 Y70.977 E20.86577 F2880
G0 X147.359 Y70.977 F7200
G1 X138.178 Y80.158 E21.08170 F2880
G0 X138.178 Y80.724 F7200
G1 X147.924 Y70.977 E21.31093 F2880
G0 F3000 E20.31093
G0 X137.417 Y79.691 F7200
G0 X137.417 Y81.217
G0 X135.578 Y81.217
G0 X134.662 Y81.977
G0 F3000 E21.31093
