; #disp params :
; Printmode:0
; Layer:414
; Zmax:125.069 mm
; Xmax:151.59 mm
; Ymax:42.5 mm
; Xmin:108.344 mm
; Ymin:0.3 mm
; E0diam:0.4 mm
; E0len:3.34994 m
; E0temp:215 C
; Bedtemp:215 C
; Time:101.389 min
; #params end
; GCode generated by CraftWare

G28 X Y ; home horizontally
G28 Z ; home vertically


M104 S215 ;set head temp (no wait)
M190 S60 ;set bed temp (wait)
M109 S215 ;set head temp (wait)

; ------------------------------------
; Raft Layer #0
; ------------------------------------
M106 S0 ;turn off fan
G21 ; mm
G90 ; abs
G92 E0 ;reset extr
G0 F600 Z0.300
;segType:Raft
G0 F3000 E-1.00000
G0 F600 Z2.300
G0 X108.409 Y122.313 F5400
G0 F600 Z0.300
G0 F3000 E0.00000
G1 X108.409 Y77.688 E2.22635 F600
G1 X111.034 Y75.063 E2.41156
G1 X111.494 Y74.997 E2.43472
G1 X148.769 Y74.997 E4.29438
G1 X151.394 Y77.622 E4.47959
G1 X151.460 Y78.081 E4.50275
G1 X151.460 Y122.181 E6.70291
G1 X151.263 Y122.510 E6.72202
G1 X148.769 Y125.003 E6.89797
G1 X111.100 Y125.003 E8.77727
G1 X110.903 Y124.806 E8.79118
G1 X108.409 Y122.313 E8.96713
G0 X111.137 Y124.413 F5400
G1 X111.137 Y75.719 E11.39647 F600
G0 X113.803 Y75.456 F5400
G1 X113.803 Y124.675 E13.85200 F600
G0 X116.470 Y124.675 F5400
G1 X116.470 Y75.456 E16.30754 F600
G0 X119.136 Y75.456 F5400
G1 X119.136 Y124.675 E18.76307 F600
G0 X121.803 Y124.675 F5400
G1 X121.803 Y75.456 E21.21860 F600
G0 X124.470 Y75.456 F5400
G1 X124.470 Y124.675 E23.67414 F600
G0 X127.136 Y124.675 F5400
G1 X127.136 Y75.456 E26.12967 F600
G0 X129.803 Y75.456 F5400
G1 X129.803 Y124.675 E28.58521 F600
G0 X132.470 Y124.675 F5400
G1 X132.470 Y75.456 E31.04074 F600
G0 X135.136 Y75.456 F5400
G1 X135.136 Y124.675 E33.49627 F600
G0 X137.803 Y124.675 F5400
G1 X137.803 Y75.456 E35.95181 F600
G0 X140.470 Y75.456 F5400
G1 X140.470 Y124.675 E38.40734 F600
G0 X143.136 Y124.675 F5400
G1 X143.136 Y75.456 E40.86288 F600
G0 X145.803 Y75.456 F5400
G1 X145.803 Y124.675 E43.31842 F600
G0 X148.470 Y124.675 F5400
G1 X148.470 Y75.456 E45.77395 F600



; ------------------------------------
; Raft Layer #1
; ------------------------------------
G92 E0 ;reset extr
G0 F600 Z0.600
;segType:Raft
G0 X149.096 Y75.312 F7200
G1 X108.540 Y115.868 E2.86144 F1800
G0 X108.540 Y113.983 F7200
G1 X147.521 Y75.001 E5.61176 F1800
G0 X145.552 Y75.084 F7200
G1 X108.540 Y112.097 E8.22317 F1800
G0 X108.540 Y110.211 F7200
G1 X143.715 Y75.036 E10.70494 F1800
G0 X141.746 Y75.119 F7200
G1 X108.540 Y108.326 E13.04780 F1800
G0 X108.540 Y106.440 F7200
G1 X139.909 Y75.071 E15.26102 F1800
G0 X138.071 Y75.023 F7200
G1 X108.540 Y104.554 E17.34459 F1800
G0 X108.540 Y102.669 F7200
G1 X136.103 Y75.106 E19.28926 F1800
G0 X134.265 Y75.058 F7200
G1 X108.540 Y100.783 E21.10429 F1800
G0 X108.540 Y98.898 F7200
G1 X132.428 Y75.010 E22.78966 F1800
G0 X130.459 Y75.093 F7200
G1 X108.540 Y97.012 E24.33614 F1800
G0 X108.540 Y95.126 F7200
G1 X128.621 Y75.045 E25.75297 F1800
G0 X126.784 Y74.997 F7200
G1 X108.540 Y93.241 E27.04015 F1800
G0 X108.540 Y91.355 F7200
G1 X124.815 Y75.080 E28.18844 F1800
G0 X122.978 Y75.032 F7200
G1 X108.540 Y89.470 E29.20707 F1800
G0 X108.540 Y87.584 F7200
G1 X121.009 Y75.115 E30.08680 F1800
G0 X119.172 Y75.067 F7200
G1 X108.540 Y85.698 E30.83689 F1800
G0 X108.540 Y83.813 F7200
G1 X117.334 Y75.019 E31.45733 F1800
G0 X115.365 Y75.102 F7200
G1 X108.540 Y81.927 E31.93887 F1800
G0 X108.540 Y80.041 F7200
G1 X113.528 Y75.054 E32.29076 F1800
G0 X111.690 Y75.006 F7200
G1 X108.540 Y78.156 E32.51301 F1800
G0 X108.540 Y117.754 F7200
G1 X150.015 Y76.279 E35.43927 F1800
G0 X151.065 Y77.114 F7200
G1 X108.540 Y119.639 E38.43962 F1800
G0 X108.540 Y121.525 F7200
G1 X151.590 Y78.475 E41.47701 F1800
G0 X151.590 Y80.361 F7200
G1 X109.065 Y122.886 E44.47735 F1800
G0 X109.949 Y123.888 F7200
G1 X151.555 Y82.281 E47.41288 F1800
G0 X151.472 Y84.250 F7200
G1 X110.916 Y124.806 E50.27432 F1800
G0 X112.474 Y125.003 F7200
G1 X151.455 Y86.022 E53.02466 F1800
G0 X151.372 Y87.991 F7200
G1 X114.491 Y124.872 E55.62681 F1800
G0 X116.376 Y124.872 F7200
G1 X151.420 Y89.829 E58.09932 F1800
G0 X151.337 Y91.797 F7200
G1 X118.131 Y125.003 E60.44220 F1800
G0 X120.082 Y125.069 F7200
G1 X151.581 Y93.569 E62.66468 F1800
G0 X151.498 Y95.538 F7200
G1 X121.967 Y125.069 E64.74826 F1800
G0 X123.853 Y125.069 F7200
G1 X151.546 Y97.375 E66.70218 F1800
G0 X151.463 Y99.344 F7200
G1 X125.739 Y125.069 E68.51721 F1800
G0 X127.624 Y125.069 F7200
G1 X151.511 Y101.181 E70.20259 F1800
G0 X151.559 Y103.019 F7200
G1 X129.510 Y125.069 E71.75832 F1800
G0 X131.395 Y125.069 F7200
G1 X151.476 Y104.988 E73.17515 F1800
G0 X151.459 Y106.759 F7200
G1 X133.216 Y125.003 E74.46234 F1800
G0 X135.232 Y124.872 F7200
G1 X151.376 Y108.729 E75.60137 F1800
G0 X151.490 Y110.631 F7200
G1 X137.052 Y125.069 E76.62001 F1800
G0 X138.938 Y125.069 F7200
G1 X151.538 Y112.469 E77.50900 F1800
G0 X151.586 Y114.306 F7200
G1 X140.824 Y125.069 E78.26834 F1800
G0 X142.644 Y125.003 F7200
G1 X151.437 Y116.209 E78.88879 F1800
G0 X151.551 Y118.113 F7200
G1 X144.595 Y125.069 E79.37959 F1800
G0 X146.480 Y125.069 F7200
G1 X151.468 Y120.081 E79.73148 F1800
G0 X151.516 Y121.919 F7200
G1 X148.366 Y125.069 E79.95372 F1800



; ------------------------------------
; Raft Layer #2
; ------------------------------------
G92 E0 ;reset extr
G0 F600 Z0.800
;segType:Raft
G0 X148.769 Y124.997 F7200
G1 X110.969 Y124.997 E1.25723 F2400
G1 X110.575 Y124.597 E1.27590
G1 X149.163 Y124.597 E2.55933
G1 X149.556 Y124.197 E2.57800
G1 X110.181 Y124.197 E3.88761
G1 X109.788 Y123.797 E3.90628
G1 X149.950 Y123.797 E5.24209
G1 X150.344 Y123.397 E5.26076
G1 X109.394 Y123.397 E6.62276
G1 X109.000 Y122.997 E6.64143
G1 X150.738 Y122.997 E8.02963
G1 X151.131 Y122.597 E8.04830
G1 X108.606 Y122.597 E9.46268
G1 X108.344 Y122.197 E9.47860
G1 X151.394 Y122.197 E10.91044
G1 X151.394 Y121.797 E10.92375
G1 X108.344 Y121.797 E12.35560
G1 X108.344 Y121.397 E12.36890
G1 X151.394 Y121.397 E13.80075
G1 X151.394 Y120.997 E13.81405
G1 X108.344 Y120.997 E15.24590
G1 X108.344 Y120.597 E15.25921
G1 X151.394 Y120.597 E16.69105
G1 X151.394 Y120.197 E16.70436
G1 X108.344 Y120.197 E18.13621
G1 X108.344 Y119.797 E18.14951
G1 X151.394 Y119.797 E19.58136
G1 X151.394 Y119.397 E19.59466
G1 X108.344 Y119.397 E21.02651
G1 X108.344 Y118.997 E21.03982
G1 X151.394 Y118.997 E22.47166
G1 X151.394 Y118.597 E22.48497
G1 X108.344 Y118.597 E23.91682
G1 X108.344 Y118.197 E23.93012
G1 X151.394 Y118.197 E25.36197
G1 X151.394 Y117.797 E25.37527
G1 X108.344 Y117.797 E26.80712
G1 X108.344 Y117.397 E26.82042
G1 X151.394 Y117.397 E28.25227
G1 X151.394 Y116.997 E28.26558
G1 X108.344 Y116.997 E29.69743
G1 X108.344 Y116.597 E29.71073
G1 X151.394 Y116.597 E31.14258
G1 X151.394 Y116.197 E31.15588
G1 X108.344 Y116.197 E32.58773
G1 X108.344 Y115.797 E32.60104
G1 X151.394 Y115.797 E34.03289
G1 X151.394 Y115.397 E34.04619
G1 X108.344 Y115.397 E35.47804
G1 X108.344 Y114.997 E35.49135
G1 X151.394 Y114.997 E36.92320
G1 X151.394 Y114.597 E36.93651
G1 X108.344 Y114.597 E38.36836
G1 X108.344 Y114.197 E38.38166
G1 X151.394 Y114.197 E39.81351
G1 X151.394 Y113.797 E39.82682
G1 X108.344 Y113.797 E41.25867
G1 X108.344 Y113.397 E41.27197
G1 X151.394 Y113.397 E42.70383
G1 X151.394 Y112.997 E42.71713
G1 X108.344 Y112.997 E44.14898
G1 X108.344 Y112.597 E44.16229
G1 X151.394 Y112.597 E45.59414
G1 X151.394 Y112.197 E45.60744
G1 X108.344 Y112.197 E47.03929
G1 X108.344 Y111.797 E47.05260
G1 X151.394 Y111.797 E48.48445
G1 X151.394 Y111.397 E48.49776
G1 X108.344 Y111.397 E49.92961
G1 X108.344 Y110.997 E49.94291
G1 X151.394 Y110.997 E51.37476
G1 X151.394 Y110.597 E51.38807
G1 X108.344 Y110.597 E52.81992
G1 X108.344 Y110.197 E52.83322
G1 X151.394 Y110.197 E54.26507
G1 X151.394 Y109.797 E54.27838
G1 X108.344 Y109.797 E55.71023
G1 X108.344 Y109.397 E55.72354
G1 X151.394 Y109.397 E57.15539
G1 X151.394 Y108.997 E57.16869
G1 X108.344 Y108.997 E58.60054
G1 X108.344 Y108.597 E58.61385
G1 X151.394 Y108.597 E60.04570
G1 X151.394 Y108.197 E60.05900
G1 X108.344 Y108.197 E61.49085
G1 X108.344 Y107.797 E61.50416
G1 X151.394 Y107.797 E62.93601
G1 X151.394 Y107.397 E62.94932
G1 X108.344 Y107.397 E64.38117
G1 X108.344 Y106.997 E64.39447
G1 X151.394 Y106.997 E65.82632
G1 X151.394 Y106.597 E65.83962
G1 X108.344 Y106.597 E67.27147
G1 X108.344 Y106.197 E67.28478
G1 X151.394 Y106.197 E68.71662
G1 X151.394 Y105.797 E68.72993
G1 X108.344 Y105.797 E70.16178
G1 X108.344 Y105.397 E70.17508
G1 X151.394 Y105.397 E71.60693
G1 X151.394 Y104.997 E71.62023
G1 X108.344 Y104.997 E73.05208
G1 X108.344 Y104.597 E73.06539
G1 X151.394 Y104.597 E74.49723
G1 X151.394 Y104.197 E74.51054
G1 X108.344 Y104.197 E75.94239
G1 X108.344 Y103.797 E75.95569
G1 X151.394 Y103.797 E77.38754
G1 X151.394 Y103.397 E77.40084
G1 X108.344 Y103.397 E78.83269
G1 X108.344 Y102.997 E78.84600
G1 X151.394 Y102.997 E80.27784
G1 X151.394 Y102.597 E80.29115
G1 X108.344 Y102.597 E81.72299
G1 X108.344 Y102.197 E81.73630
G1 X151.394 Y102.197 E83.16815
G1 X151.394 Y101.797 E83.18145
G1 X108.344 Y101.797 E84.61330
G1 X108.344 Y101.397 E84.62660
G1 X151.394 Y101.397 E86.05845
G1 X151.394 Y100.997 E86.07175
G1 X108.344 Y100.997 E87.50360
G1 X108.344 Y100.597 E87.51691
G1 X151.394 Y100.597 E88.94875
G1 X151.394 Y100.197 E88.96206
G1 X108.344 Y100.197 E90.39391
G1 X108.344 Y99.797 E90.40721
G1 X151.394 Y99.797 E91.83906
G1 X151.394 Y99.397 E91.85236
G1 X108.344 Y99.397 E93.28421
G1 X108.344 Y98.997 E93.29752
G1 X151.394 Y98.997 E94.72936
G1 X151.394 Y98.597 E94.74267
G1 X108.344 Y98.597 E96.17451
G1 X108.344 Y98.197 E96.18782
G1 X151.394 Y98.197 E97.61967
G1 X151.394 Y97.797 E97.63297
G1 X108.344 Y97.797 E99.06482
G1 X108.344 Y97.397 E99.07812
G1 X151.394 Y97.397 E100.50997
G1 X151.394 Y96.997 E100.52328
G1 X108.344 Y96.997 E101.95512
G1 X108.344 Y96.597 E101.96843
G1 X151.394 Y96.597 E103.40028
G1 X151.394 Y96.197 E103.41358
G1 X108.344 Y96.197 E104.84543
G1 X108.344 Y95.797 E104.85873
G1 X151.394 Y95.797 E106.29058
G1 X151.394 Y95.397 E106.30389
G1 X108.344 Y95.397 E107.73573
G1 X108.344 Y94.997 E107.74904
G1 X151.394 Y94.997 E109.18089
G1 X151.394 Y94.597 E109.19419
G1 X108.344 Y94.597 E110.62604
G1 X108.344 Y94.197 E110.63934
G1 X151.394 Y94.197 E112.07119
G1 X151.394 Y93.797 E112.08450
G1 X108.344 Y93.797 E113.51634
G1 X108.344 Y93.397 E113.52965
G1 X151.394 Y93.397 E114.96149
G1 X151.394 Y92.997 E114.97480
G1 X108.344 Y92.997 E116.40665
G1 X108.344 Y92.597 E116.41995
G1 X151.394 Y92.597 E117.85180
G1 X151.394 Y92.197 E117.86510
G1 X108.344 Y92.197 E119.29695
G1 X108.344 Y91.797 E119.31026
G1 X151.394 Y91.797 E120.74210
G1 X151.394 Y91.397 E120.75541
G1 X108.344 Y91.397 E122.18726
G1 X108.344 Y90.997 E122.20056
G1 X151.394 Y90.997 E123.63241
G1 X151.394 Y90.597 E123.64571
G1 X108.344 Y90.597 E125.07756
G1 X108.344 Y90.197 E125.09087
G1 X151.394 Y90.197 E126.52271
G1 X151.394 Y89.797 E126.53602
G1 X108.344 Y89.797 E127.96786
G1 X108.344 Y89.397 E127.98117
G1 X151.394 Y89.397 E129.41302
G1 X151.394 Y88.997 E129.42633
G1 X108.344 Y88.997 E130.85818
G1 X108.344 Y88.597 E130.87149
G1 X151.394 Y88.597 E132.30334
G1 X151.394 Y88.197 E132.31665
G1 X108.344 Y88.197 E133.74850
G1 X108.344 Y87.797 E133.76181
G1 X151.394 Y87.797 E135.19366
G1 X151.394 Y87.397 E135.20697
G1 X108.344 Y87.397 E136.63882
G1 X108.344 Y86.997 E136.65213
G1 X151.394 Y86.997 E138.08398
G1 X151.394 Y86.597 E138.09729
G1 X108.344 Y86.597 E139.52914
G1 X108.344 Y86.197 E139.54245
G1 X151.394 Y86.197 E140.97430
G1 X151.394 Y85.797 E140.98761
G1 X108.344 Y85.797 E142.41946
G1 X108.344 Y85.397 E142.43277
G1 X151.394 Y85.397 E143.86462
G1 X151.394 Y84.997 E143.87793
G1 X108.344 Y84.997 E145.30978
G1 X108.344 Y84.597 E145.32309
G1 X151.394 Y84.597 E146.75494
G1 X151.394 Y84.197 E146.76825
G1 X108.344 Y84.197 E148.20010
G1 X108.344 Y83.797 E148.21341
G1 X151.394 Y83.797 E149.64526
G1 X151.394 Y83.397 E149.65857
G1 X108.344 Y83.397 E151.09042
G1 X108.344 Y82.997 E151.10373
G1 X151.394 Y82.997 E152.53558
G1 X151.394 Y82.597 E152.54889
G1 X108.344 Y82.597 E153.98074
G1 X108.344 Y82.197 E153.99405
G1 X151.394 Y82.197 E155.42590
G1 X151.394 Y81.797 E155.43921
G1 X108.344 Y81.797 E156.87106
G1 X108.344 Y81.397 E156.88437
G1 X151.394 Y81.397 E158.31622
G1 X151.394 Y80.997 E158.32953
G1 X108.344 Y80.997 E159.76138
G1 X108.344 Y80.597 E159.77469
G1 X151.394 Y80.597 E161.20654
G1 X151.394 Y80.197 E161.21985
G1 X108.344 Y80.197 E162.65170
G1 X108.344 Y79.797 E162.66501
G1 X151.394 Y79.797 E164.09686
G1 X151.394 Y79.397 E164.11017
G1 X108.344 Y79.397 E165.54202
G1 X108.344 Y78.997 E165.55533
G1 X151.394 Y78.997 E166.98718
G1 X151.394 Y78.597 E167.00049
G1 X108.344 Y78.597 E168.43234
G1 X108.344 Y78.197 E168.44564
G1 X151.394 Y78.197 E169.87750
G1 X151.394 Y77.797 E169.89080
G1 X108.344 Y77.797 E171.32266
G1 X108.606 Y77.397 E171.33858
G1 X151.131 Y77.397 E172.75296
G1 X150.738 Y76.997 E172.77162
G1 X109.000 Y76.997 E174.15982
G1 X109.394 Y76.597 E174.17848
G1 X150.344 Y76.597 E175.54048
G1 X149.950 Y76.197 E175.55914
G1 X109.788 Y76.197 E176.89496
G1 X110.181 Y75.797 E176.91362
G1 X149.556 Y75.797 E178.22324
G1 X149.163 Y75.397 E178.24190
G1 X110.575 Y75.397 E179.52532
G1 X110.969 Y74.997 E179.54400
G1 X148.769 Y74.997 E180.80122



; ------------------------------------
; Raft Layer #3
; ------------------------------------
M106 S255 ;set fan speed
G92 E0 ;reset extr
G0 F600 Z1.000
;segType:Raft
G0 F3000 E-1.00000
G0 F600 Z3.000
G0 X151.403 Y122.444 F7200
G0 F600 Z1.000
G0 F3000 E0.00000
G1 X151.403 Y77.688 E1.48860 F2400
G1 X151.003 Y77.294 E1.50727
G1 X151.003 Y122.838 E3.02206
G1 X150.603 Y123.231 E3.04073
G1 X150.603 Y76.900 E4.58171
G1 X150.203 Y76.506 E4.60038
G1 X150.203 Y123.625 E6.16756
G1 X149.803 Y124.019 E6.18622
G1 X149.803 Y76.112 E7.77959
G1 X149.403 Y75.719 E7.79826
G1 X149.403 Y124.413 E9.41782
G1 X149.003 Y124.806 E9.43649
G1 X149.003 Y75.325 E11.08224
G1 X148.603 Y75.063 E11.09816
G1 X148.603 Y125.069 E12.76137
G1 X148.203 Y125.069 E12.77468
G1 X148.203 Y75.063 E14.43789
G1 X147.803 Y75.063 E14.45119
G1 X147.803 Y125.069 E16.11441
G1 X147.403 Y125.069 E16.12771
G1 X147.403 Y75.063 E17.79092
G1 X147.003 Y75.063 E17.80423
G1 X147.003 Y125.069 E19.46744
G1 X146.603 Y125.069 E19.48075
G1 X146.603 Y75.063 E21.14396
G1 X146.203 Y75.063 E21.15726
G1 X146.203 Y125.069 E22.82048
G1 X145.803 Y125.069 E22.83378
G1 X145.803 Y75.063 E24.49700
G1 X145.403 Y75.063 E24.51030
G1 X145.403 Y125.069 E26.17351
G1 X145.003 Y125.069 E26.18682
G1 X145.003 Y75.063 E27.85003
G1 X144.603 Y75.063 E27.86333
G1 X144.603 Y125.069 E29.52655
G1 X144.203 Y125.069 E29.53985
G1 X144.203 Y75.063 E31.20307
G1 X143.803 Y75.063 E31.21637
G1 X143.803 Y125.069 E32.87958
G1 X143.403 Y125.069 E32.89289
G1 X143.403 Y75.063 E34.55610
G1 X143.003 Y75.063 E34.56941
G1 X143.003 Y125.069 E36.23263
G1 X142.603 Y125.069 E36.24593
G1 X142.603 Y75.063 E37.90915
G1 X142.203 Y75.063 E37.92245
G1 X142.203 Y125.069 E39.58567
G1 X141.803 Y125.069 E39.59897
G1 X141.803 Y75.063 E41.26219
G1 X141.403 Y75.063 E41.27549
G1 X141.403 Y125.069 E42.93871
G1 X141.003 Y125.069 E42.95202
G1 X141.003 Y75.063 E44.61523
G1 X140.603 Y75.063 E44.62854
G1 X140.603 Y125.069 E46.29175
G1 X140.203 Y125.069 E46.30506
G1 X140.203 Y75.063 E47.96828
G1 X139.803 Y75.063 E47.98158
G1 X139.803 Y125.069 E49.64480
G1 X139.403 Y125.069 E49.65810
G1 X139.403 Y75.063 E51.32132
G1 X139.003 Y75.063 E51.33462
G1 X139.003 Y125.069 E52.99784
G1 X138.603 Y125.069 E53.01115
G1 X138.603 Y75.063 E54.67436
G1 X138.203 Y75.063 E54.68767
G1 X138.203 Y125.069 E56.35088
G1 X137.803 Y125.069 E56.36419
G1 X137.803 Y75.063 E58.02740
G1 X137.403 Y75.063 E58.04071
G1 X137.403 Y125.069 E59.70392
G1 X137.003 Y125.069 E59.71723
G1 X137.003 Y75.063 E61.38045
G1 X136.603 Y75.063 E61.39375
G1 X136.603 Y125.069 E63.05697
G1 X136.203 Y125.069 E63.07027
G1 X136.203 Y75.063 E64.73348
G1 X135.803 Y75.063 E64.74679
G1 X135.803 Y125.069 E66.41001
G1 X135.403 Y125.069 E66.42331
G1 X135.403 Y75.063 E68.08653
G1 X135.003 Y75.063 E68.09983
G1 X135.003 Y125.069 E69.76305
G1 X134.603 Y125.069 E69.77635
G1 X134.603 Y75.063 E71.43957
G1 X134.203 Y75.063 E71.45288
G1 X134.203 Y125.069 E73.11609
G1 X133.803 Y125.069 E73.12940
G1 X133.803 Y75.063 E74.79261
G1 X133.403 Y75.063 E74.80592
G1 X133.403 Y125.069 E76.46913
G1 X133.003 Y125.069 E76.48244
G1 X133.003 Y75.063 E78.14566
G1 X132.603 Y75.063 E78.15896
G1 X132.603 Y125.069 E79.82218
G1 X132.203 Y125.069 E79.83548
G1 X132.203 Y75.063 E81.49870
G1 X131.803 Y75.063 E81.51200
G1 X131.803 Y125.069 E83.17522
G1 X131.403 Y125.069 E83.18852
G1 X131.403 Y75.063 E84.85174
G1 X131.003 Y75.063 E84.86504
G1 X131.003 Y125.069 E86.52826
G1 X130.603 Y125.069 E86.54156
G1 X130.603 Y75.063 E88.20478
G1 X130.203 Y75.063 E88.21809
G1 X130.203 Y125.069 E89.88130
G1 X129.803 Y125.069 E89.89461
G1 X129.803 Y75.063 E91.55782
G1 X129.403 Y75.063 E91.57113
G1 X129.403 Y125.069 E93.23434
G1 X129.003 Y125.069 E93.24765
G1 X129.003 Y75.063 E94.91087
G1 X128.603 Y75.063 E94.92417
G1 X128.603 Y125.069 E96.58739
G1 X128.203 Y125.069 E96.60069
G1 X128.203 Y75.063 E98.26391
G1 X127.803 Y75.063 E98.27721
G1 X127.803 Y125.069 E99.94043
G1 X127.403 Y125.069 E99.95374
G1 X127.403 Y75.063 E101.61695
G1 X127.003 Y75.063 E101.63026
G1 X127.003 Y125.069 E103.29347
G1 X126.603 Y125.069 E103.30678
G1 X126.603 Y75.063 E104.96999
G1 X126.203 Y75.063 E104.98330
G1 X126.203 Y125.069 E106.64651
G1 X125.803 Y125.069 E106.65982
G1 X125.803 Y75.063 E108.32304
G1 X125.403 Y75.063 E108.33634
G1 X125.403 Y125.069 E109.99956
G1 X125.003 Y125.069 E110.01286
G1 X125.003 Y75.063 E111.67608
G1 X124.603 Y75.063 E111.68938
G1 X124.603 Y125.069 E113.35260
G1 X124.203 Y125.069 E113.36591
G1 X124.203 Y75.063 E115.02912
G1 X123.803 Y75.063 E115.04243
G1 X123.803 Y125.069 E116.70564
G1 X123.403 Y125.069 E116.71895
G1 X123.403 Y75.063 E118.38216
G1 X123.003 Y75.063 E118.39547
G1 X123.003 Y125.069 E120.05869
G1 X122.603 Y125.069 E120.07199
G1 X122.603 Y75.063 E121.73521
G1 X122.203 Y75.063 E121.74851
G1 X122.203 Y125.069 E123.41173
G1 X121.803 Y125.069 E123.42503
G1 X121.803 Y75.063 E125.08825
G1 X121.403 Y75.063 E125.10155
G1 X121.403 Y125.069 E126.76477
G1 X121.003 Y125.069 E126.77808
G1 X121.003 Y75.063 E128.44128
G1 X120.603 Y75.063 E128.45459
G1 X120.603 Y125.069 E130.11780
G1 X120.203 Y125.069 E130.13110
G1 X120.203 Y75.063 E131.79431
G1 X119.803 Y75.063 E131.80762
G1 X119.803 Y125.069 E133.47083
G1 X119.403 Y125.069 E133.48413
G1 X119.403 Y75.063 E135.14734
G1 X119.003 Y75.063 E135.16064
G1 X119.003 Y125.069 E136.82385
G1 X118.603 Y125.069 E136.83716
G1 X118.603 Y75.063 E138.50037
G1 X118.203 Y75.063 E138.51367
G1 X118.203 Y125.069 E140.17688
G1 X117.803 Y125.069 E140.19019
G1 X117.803 Y75.063 E141.85339
G1 X117.403 Y75.063 E141.86670
G1 X117.403 Y125.069 E143.52991
G1 X117.003 Y125.069 E143.54321
G1 X117.003 Y75.063 E145.20642
G1 X116.603 Y75.063 E145.21973
G1 X116.603 Y125.069 E146.88293
G1 X116.203 Y125.069 E146.89624
G1 X116.203 Y75.063 E148.55945
G1 X115.803 Y75.063 E148.57275
G1 X115.803 Y125.069 E150.23596
G1 X115.403 Y125.069 E150.24927
G1 X115.403 Y75.063 E151.91248
G1 X115.003 Y75.063 E151.92578
G1 X115.003 Y125.069 E153.58899
G1 X114.603 Y125.069 E153.60229
G1 X114.603 Y75.063 E155.26550
G1 X114.203 Y75.063 E155.27881
G1 X114.203 Y125.069 E156.94202
G1 X113.803 Y125.069 E156.95532
G1 X113.803 Y75.063 E158.61853
G1 X113.403 Y75.063 E158.63184
G1 X113.403 Y125.069 E160.29504
G1 X113.003 Y125.069 E160.30835
G1 X113.003 Y75.063 E161.97156
G1 X112.603 Y75.063 E161.98486
G1 X112.603 Y125.069 E163.64807
G1 X112.203 Y125.069 E163.66138
G1 X112.203 Y75.063 E165.32458
G1 X111.803 Y75.063 E165.33789
G1 X111.803 Y125.069 E167.00110
G1 X111.403 Y125.069 E167.01440
G1 X111.403 Y75.063 E168.67762
G1 X111.003 Y75.194 E168.69162
G1 X111.003 Y124.938 E170.34610
G1 X110.603 Y124.544 E170.36476
G1 X110.603 Y75.587 E171.99306
G1 X110.203 Y75.981 E172.01172
G1 X110.203 Y124.150 E173.61382
G1 X109.803 Y123.756 E173.63248
G1 X109.803 Y76.375 E175.20838
G1 X109.403 Y76.769 E175.22706
G1 X109.403 Y123.363 E176.77676
G1 X109.003 Y122.969 E176.79542
G1 X109.003 Y77.163 E178.31896
G1 X108.603 Y77.556 E178.33762
G1 X108.603 Y122.575 E179.83494


; ------------------------------------
; Layer #0
; ------------------------------------
G21 ; mm
G90 ; abs
G92 E0 ;reset extr
G0 F600 Z1.450
;segType:Support
G0 F3000 E-1.00000
G0 X130.074 Y100.562 F5400
G0 F3000 E0.00000
G1 X128.285 Y100.562 E0.05059 F2400
G1 X126.358 Y100.646 E0.10512
G1 X124.558 Y100.646 E0.15600
G0 F3000 E-0.84400
G0 X123.789 Y90.132 F5400
G0 F3000 E0.15600
;segType:HShell
G1 X114.618 Y80.961 E0.58739 F2400
G0 X113.916 Y80.780 F5400
;segType:Perimeter
G1 X113.760 Y80.200 E0.60734 F1200
G1 X146.300 Y80.200 E1.68961
G1 X146.300 Y119.800 E3.00668
G1 X113.700 Y119.800 E4.09094
G1 X113.700 Y80.260 E5.40602
G0 X113.760 Y80.200 F5400
G0 X115.360 Y80.200
G0 X114.800 Y80.600
;segType:Loop
G1 X145.900 Y80.600 E6.44039 F2400
G1 X145.900 Y119.400 E7.73085
G1 X114.100 Y119.400 E8.78850
G1 X114.100 Y80.600 E10.07897
G1 X114.600 Y80.600 E10.09560
G0 F3000 E9.09560
G0 X114.106 Y80.200 F5400
G0 X124.550 Y88.659
G0 X124.550 Y91.200
G0 X127.688 Y91.200
G0 X145.540 Y105.659
G0 F3000 E10.09560
;segType:HShell
G1 X131.210 Y91.330 E10.76960 F2400
G0 X131.190 Y91.200 F5400
;segType:Perimeter
G1 X130.390 Y91.200 E10.79621 F1200
G1 X124.550 Y91.200 E10.99047
G1 X124.550 Y87.300 E11.12021
G1 X130.450 Y87.300 E11.31647
G1 X130.450 Y91.140 E11.44421
G0 X130.390 Y91.200 F5400
G0 X128.790 Y91.200
G0 X129.350 Y91.600
;segType:Loop
G1 X124.150 Y91.600 E11.61719 F2400
G1 X124.150 Y86.900 E11.77353
G1 X130.850 Y86.900 E11.99640
G1 X130.850 Y91.600 E12.15275
G1 X129.550 Y91.600 E12.19599
G0 F3000 E11.19599
G0 X128.376 Y91.200 F5400
G0 X124.550 Y91.200
G0 X124.550 Y89.897
G0 X114.460 Y86.460
G0 F3000 E12.19599
;segType:HShell
G1 X125.296 Y97.295 E12.70567 F2400
G0 X125.861 Y97.087 F5400
;segType:Perimeter
G1 X125.670 Y96.310 E12.73227 F1200
G1 X125.563 Y95.894 E12.74656
G1 X125.563 Y95.405 E12.76283
G1 X125.685 Y94.931 E12.77910
G1 X125.921 Y94.503 E12.79538
G1 X126.256 Y94.146 E12.81165
G1 X126.669 Y93.884 E12.82792
G1 X127.134 Y93.733 E12.84420
G1 X127.622 Y93.702 E12.86047
G1 X128.103 Y93.793 E12.87674
G1 X128.546 Y94.002 E12.89303
G1 X128.923 Y94.314 E12.90930
G1 X129.211 Y94.710 E12.92557
G1 X129.391 Y95.165 E12.94184
G1 X129.452 Y95.650 E12.95812
G1 X129.391 Y96.136 E12.97439
G1 X129.211 Y96.590 E12.99067
G1 X128.923 Y96.986 E13.00694
G1 X128.546 Y97.298 E13.02321
G1 X128.103 Y97.506 E13.03949
G1 X127.623 Y97.598 E13.05576
G1 X127.134 Y97.568 E13.07204
G1 X126.669 Y97.416 E13.08831
G1 X126.256 Y97.154 E13.10459
G1 X125.921 Y96.797 E13.12086
G1 X125.714 Y96.421 E13.13514
G0 X125.670 Y96.310 F5400
G0 X125.563 Y95.894
G0 X125.563 Y95.405
G0 X125.685 Y94.931
G0 X125.778 Y94.763
G0 X125.188 Y95.258
;segType:Loop
G1 X125.310 Y94.783 E13.15145 F2400
G1 X125.595 Y94.266 E13.17109
G1 X125.999 Y93.835 E13.19072
G1 X126.497 Y93.519 E13.21035
G1 X127.059 Y93.336 E13.22999
G1 X127.648 Y93.300 E13.24962
G1 X128.228 Y93.410 E13.26926
G1 X128.762 Y93.662 E13.28891
G1 X129.217 Y94.038 E13.30854
G1 X129.564 Y94.515 E13.32817
G1 X129.781 Y95.064 E13.34781
G1 X129.855 Y95.650 E13.36744
G1 X129.781 Y96.236 E13.38708
G1 X129.564 Y96.785 E13.40672
G1 X129.217 Y97.262 E13.42635
G1 X128.762 Y97.639 E13.44598
G1 X128.672 Y97.681 E13.44929
G0 X128.634 Y97.804 F5400
G0 X128.502 Y97.834
G0 X128.369 Y97.863
G1 X128.129 Y97.904 E13.45724 F2400
G1 X128.014 Y97.915 E13.46077
G1 X127.900 Y97.926 E13.46409
G1 X127.786 Y97.937 E13.46720
G1 X127.671 Y97.947 E13.47011
G1 X127.557 Y97.947 E13.47300
G1 X127.443 Y97.944 E13.47597
G1 X127.329 Y97.940 E13.47901
G1 X127.214 Y97.936 E13.48211
G1 X127.100 Y97.933 E13.48528
G1 X126.986 Y97.919 E13.48874
G1 X126.871 Y97.901 E13.49256
G1 X126.757 Y97.883 E13.49672
G1 X126.643 Y97.865 E13.50124
G0 X126.372 Y97.809 F5400
G1 X126.338 Y97.680 E13.50566 F2400
G1 X125.999 Y97.465 E13.51905
G1 X125.595 Y97.034 E13.53868
G1 X125.310 Y96.517 E13.55831
G1 X125.163 Y95.945 E13.57795
G1 X125.163 Y95.455 E13.59426
G0 F3000 E12.59426
G0 X126.059 Y98.300 F5400
G0 X123.800 Y98.300
G0 X123.800 Y113.700
G0 X130.908 Y113.700
G0 X131.148 Y114.461
G0 F3000 E13.59426
;segType:HShell
G1 X135.727 Y119.039 E13.80963 F2400
G0 X136.292 Y119.039 F5400
G1 X131.713 Y114.461 E14.02501 F2400
G0 X131.140 Y113.700 F5400
;segType:Perimeter
G1 X123.800 Y113.700 E14.26917 F1200
G1 X123.800 Y98.300 E14.78140
G1 X131.200 Y98.300 E15.02755
G1 X131.200 Y113.640 E15.53779
G0 X131.140 Y113.700 F5400
G0 X129.540 Y113.700
G0 X130.100 Y114.100
;segType:Loop
G1 X128.814 Y114.100 E15.58056 F2400
G0 X128.700 Y114.192 F5400
G0 X128.586 Y114.185
G0 X128.471 Y114.160
G0 X128.357 Y114.134
G0 X128.243 Y114.108
G1 X128.129 Y114.096 E15.58430 F2400
G1 X128.014 Y114.085 E15.58782
G1 X127.900 Y114.074 E15.59114
G1 X127.786 Y114.063 E15.59425
G1 X127.671 Y114.053 E15.59716
G1 X127.557 Y114.053 E15.60005
G1 X127.443 Y114.056 E15.60302
G1 X127.329 Y114.060 E15.60605
G1 X127.214 Y114.064 E15.60916
G1 X127.100 Y114.067 E15.61233
G1 X126.986 Y114.081 E15.61578
G1 X126.871 Y114.099 E15.61960
G1 X126.757 Y114.117 E15.62377
G1 X126.643 Y114.135 E15.62829
G1 X126.529 Y114.146 E15.63297
G1 X126.414 Y114.179 E15.63848
G1 X126.300 Y114.100 E15.64309
G1 X123.400 Y114.100 E15.73956
G1 X123.400 Y97.900 E16.27840
G1 X126.300 Y97.900 E16.37487
G1 X126.414 Y97.821 E16.38128
G1 X126.529 Y97.855 E16.38614
G0 X126.643 Y97.865 F5400
G0 X126.986 Y97.919
G0 X127.100 Y97.933
G0 X127.557 Y97.947
G0 X127.671 Y97.947
G0 X128.129 Y97.904
G1 X128.243 Y97.892 E16.39011 F2400
G1 X128.357 Y97.866 E16.39466
G1 X128.471 Y97.841 E16.39971
G1 X128.586 Y97.815 E16.40525
G1 X128.700 Y97.808 E16.41080
G1 X128.814 Y97.900 E16.41566
G1 X131.600 Y97.900 E16.50833
G1 X131.600 Y114.100 E17.04717
G1 X130.300 Y114.100 E17.09040
G0 F3000 E16.09040
G0 X129.430 Y113.700 F5400
G0 X123.800 Y113.700
G0 X123.800 Y111.114
G0 X114.460 Y106.824
G0 F3000 E17.09040
;segType:HShell
G1 X124.968 Y117.331 E17.58463 F2400
G0 X125.861 Y117.787 F5400
;segType:Perimeter
G1 X125.670 Y117.011 E17.61124 F1200
G1 X125.563 Y116.595 E17.62552
G1 X125.563 Y116.105 E17.64179
G1 X125.685 Y115.632 E17.65806
G1 X125.921 Y115.203 E17.67434
G1 X126.256 Y114.846 E17.69061
G1 X126.669 Y114.584 E17.70688
G1 X127.134 Y114.433 E17.72315
G1 X127.622 Y114.402 E17.73943
G1 X128.103 Y114.494 E17.75571
G1 X128.546 Y114.702 E17.77199
G1 X128.923 Y115.014 E17.78825
G1 X129.211 Y115.410 E17.80453
G1 X129.391 Y115.865 E17.82081
G1 X129.452 Y116.350 E17.83708
G1 X129.391 Y116.835 E17.85335
G1 X129.211 Y117.290 E17.86962
G1 X128.923 Y117.686 E17.88590
G1 X128.546 Y117.998 E17.90217
G1 X128.103 Y118.206 E17.91845
G1 X127.622 Y118.298 E17.93473
G1 X127.134 Y118.267 E17.95100
G1 X126.669 Y118.116 E17.96727
G1 X126.256 Y117.854 E17.98355
G1 X125.921 Y117.497 E17.99982
G1 X125.714 Y117.121 E18.01410
G0 X125.670 Y117.011 F5400
G0 X125.563 Y116.595
G0 X125.563 Y116.105
G0 X125.685 Y115.632
G0 X125.778 Y115.463
G0 X125.188 Y115.958
;segType:Loop
G1 X125.310 Y115.483 E18.03040 F2400
G1 X125.595 Y114.966 E18.05005
G1 X125.999 Y114.535 E18.06968
G1 X126.377 Y114.296 E18.08456
G0 X126.643 Y114.135 F5400
G0 X126.986 Y114.081
G0 X127.100 Y114.067
G0 X127.557 Y114.053
G0 X127.671 Y114.053
G0 X128.129 Y114.096
G1 X128.451 Y114.155 E18.09842 F2400
G1 X128.583 Y114.184 E18.10481
G1 X128.630 Y114.299 E18.10893
G1 X128.762 Y114.362 E18.11380
G1 X129.217 Y114.738 E18.13343
G1 X129.564 Y115.215 E18.15307
G1 X129.781 Y115.764 E18.17271
G1 X129.855 Y116.350 E18.19234
G1 X129.781 Y116.936 E18.21197
G1 X129.564 Y117.485 E18.23161
G1 X129.217 Y117.962 E18.25124
G1 X128.762 Y118.339 E18.27088
G1 X128.228 Y118.590 E18.29052
G1 X127.648 Y118.701 E18.31016
G1 X127.059 Y118.663 E18.32979
G1 X126.497 Y118.481 E18.34942
G1 X125.999 Y118.165 E18.36906
G1 X125.595 Y117.734 E18.38870
G1 X125.310 Y117.217 E18.40833
G1 X125.163 Y116.645 E18.42798
G1 X125.163 Y116.155 E18.44428
G0 X124.803 Y116.601 F5400
;segType:HShell
G1 X114.460 Y106.259 E18.93077 F2400
G0 X114.460 Y105.693 F5400
G1 X123.039 Y114.272 E19.33430 F2400
G0 X123.039 Y113.706 F5400
G1 X114.460 Y105.127 E19.73782 F2400
G0 X114.460 Y104.561 F5400
G1 X123.039 Y113.140 E20.14135 F2400
G0 X123.039 Y112.575 F5400
G1 X114.460 Y103.996 E20.54488 F2400
G0 X114.460 Y103.430 F5400
G1 X123.039 Y112.009 E20.94840 F2400
G0 X123.039 Y111.443 F5400
G1 X114.460 Y102.864 E21.35193 F2400
G0 X114.460 Y102.299 F5400
G1 X123.039 Y110.878 E21.75546 F2400
G0 X123.039 Y110.312 F5400
G1 X114.460 Y101.733 E22.15898 F2400
G0 X114.460 Y101.167 F5400
G1 X123.039 Y109.746 E22.56251 F2400
G0 X123.039 Y109.181 F5400
G1 X114.460 Y100.602 E22.96604 F2400
G0 X114.460 Y100.036 F5400
G1 X123.039 Y108.615 E23.36956 F2400
G0 X123.039 Y108.049 F5400
G1 X114.460 Y99.470 E23.77309 F2400
G0 X114.460 Y98.905 F5400
G1 X123.039 Y107.484 E24.17661 F2400
G0 X123.039 Y106.918 F5400
G1 X114.460 Y98.339 E24.58014 F2400
G0 X114.460 Y97.773 F5400
G1 X123.039 Y106.352 E24.98367 F2400
G0 X123.039 Y105.787 F5400
G1 X114.460 Y97.208 E25.38719 F2400
G0 X114.460 Y96.642 F5400
G1 X123.039 Y105.221 E25.79072 F2400
G0 X123.039 Y104.655 F5400
G1 X114.460 Y96.076 E26.19425 F2400
G0 X114.460 Y95.511 F5400
G1 X123.039 Y104.089 E26.59777 F2400
G0 X123.039 Y103.524 F5400
G1 X114.460 Y94.945 E27.00130 F2400
G0 X114.460 Y94.379 F5400
G1 X123.039 Y102.958 E27.40482 F2400
G0 X123.039 Y102.392 F5400
G1 X114.460 Y93.813 E27.80835 F2400
G0 X114.460 Y93.248 F5400
G1 X123.039 Y101.827 E28.21188 F2400
G0 X123.039 Y101.261 F5400
G1 X114.460 Y92.682 E28.61540 F2400
G0 X114.460 Y92.116 F5400
G1 X123.039 Y100.695 E29.01893 F2400
G0 X123.039 Y100.130 F5400
G1 X114.460 Y91.551 E29.42246 F2400
G0 X114.460 Y90.985 F5400
G1 X123.039 Y99.564 E29.82598 F2400
G0 X123.039 Y98.998 F5400
G1 X114.460 Y90.419 E30.22951 F2400
G0 X114.460 Y89.854 F5400
G1 X123.039 Y98.433 E30.63304 F2400
G0 X123.039 Y97.867 F5400
G1 X114.460 Y89.288 E31.03656 F2400
G0 X114.460 Y88.722 F5400
G1 X123.278 Y97.540 E31.45130 F2400
G0 X123.843 Y97.540 F5400
G1 X114.460 Y88.157 E31.89265 F2400
G0 X114.460 Y87.591 F5400
G1 X124.409 Y97.540 E32.36060 F2400
G0 X124.975 Y97.540 F5400
G1 X114.460 Y87.025 E32.85516 F2400
G0 X123.789 Y90.697 F5400
G1 X114.460 Y81.368 E33.29397 F2400
G0 X114.460 Y81.934 F5400
G1 X123.789 Y91.263 E33.73278 F2400
G0 X123.789 Y91.829 F5400
G1 X114.460 Y82.500 E34.17159 F2400
G0 X115.184 Y80.961 F5400
G1 X123.789 Y89.566 E34.57636 F2400
G0 X123.789 Y89.000 F5400
G1 X115.750 Y80.961 E34.95453 F2400
G0 X116.315 Y80.961 F5400
G1 X123.789 Y88.435 E35.30609 F2400
G0 X123.789 Y87.869 F5400
G1 X116.881 Y80.961 E35.63104 F2400
G0 X117.447 Y80.961 F5400
G1 X123.789 Y87.303 E35.92938 F2400
G0 X123.789 Y86.738 F5400
G1 X118.012 Y80.961 E36.20112 F2400
G0 X118.578 Y80.961 F5400
G1 X124.157 Y86.539 E36.46353 F2400
G0 X124.723 Y86.539 F5400
G1 X119.144 Y80.961 E36.72594 F2400
G0 X119.709 Y80.961 F5400
G1 X125.288 Y86.539 E36.98835 F2400
G0 X125.854 Y86.539 F5400
G1 X120.275 Y80.961 E37.25077 F2400
G0 X120.841 Y80.961 F5400
G1 X126.420 Y86.539 E37.51318 F2400
G0 X126.985 Y86.539 F5400
G1 X121.407 Y80.961 E37.77559 F2400
G0 X121.972 Y80.961 F5400
G1 X127.551 Y86.539 E38.03801 F2400
G0 X128.117 Y86.539 F5400
G1 X122.538 Y80.961 E38.30042 F2400
G0 X123.104 Y80.961 F5400
G1 X128.682 Y86.539 E38.56283 F2400
G0 X129.248 Y86.539 F5400
G1 X123.669 Y80.961 E38.82525 F2400
G0 X124.235 Y80.961 F5400
G1 X129.814 Y86.539 E39.08766 F2400
G0 X130.380 Y86.539 F5400
G1 X124.801 Y80.961 E39.35007 F2400
G0 X125.366 Y80.961 F5400
G1 X130.945 Y86.539 E39.61249 F2400
G0 X131.210 Y86.805 F5400
G1 X145.540 Y101.134 E40.28648 F2400
G0 X145.540 Y101.699 F5400
G1 X131.210 Y87.370 E40.96048 F2400
G0 X131.210 Y87.936 F5400
G1 X145.540 Y102.265 E41.63447 F2400
G0 X145.540 Y102.831 F5400
G1 X131.210 Y88.502 E42.30847 F2400
G0 X131.210 Y89.067 F5400
G1 X145.540 Y103.396 E42.98247 F2400
G0 X145.540 Y103.962 F5400
G1 X131.210 Y89.633 E43.65646 F2400
G0 X131.210 Y90.199 F5400
G1 X145.540 Y104.528 E44.33046 F2400
G0 X145.540 Y105.094 F5400
G1 X131.210 Y90.764 E45.00445 F2400
G0 F3000 E44.00445
G0 X130.450 Y89.353 F5400
G0 X130.450 Y87.300
G0 X129.345 Y87.300
G0 X125.932 Y80.961
G0 F3000 E45.00445
G1 X145.540 Y100.568 E45.92673 F2400
G0 X145.540 Y100.002 F5400
G1 X126.498 Y80.961 E46.82240 F2400
G0 X127.063 Y80.961 F5400
G1 X145.540 Y99.437 E47.69146 F2400
G0 X145.540 Y98.871 F5400
G1 X127.629 Y80.961 E48.53392 F2400
G0 X128.195 Y80.961 F5400
G1 X145.540 Y98.305 E49.34976 F2400
G0 X145.540 Y97.740 F5400
G1 X128.760 Y80.961 E50.13900 F2400
G0 X129.326 Y80.961 F5400
G1 X145.540 Y97.174 E50.90163 F2400
G0 X145.540 Y96.608 F5400
G1 X129.892 Y80.961 E51.63765 F2400
G0 X130.458 Y80.961 F5400
G1 X145.540 Y96.043 E52.34706 F2400
G0 X145.540 Y95.477 F5400
G1 X131.023 Y80.961 E53.02986 F2400
G0 X131.589 Y80.961 F5400
G1 X145.540 Y94.911 E53.68606 F2400
G0 X145.540 Y94.346 F5400
G1 X132.155 Y80.961 E54.31565 F2400
G0 X132.720 Y80.961 F5400
G1 X145.540 Y93.780 E54.91863 F2400
G0 X145.540 Y93.214 F5400
G1 X133.286 Y80.961 E55.49501 F2400
G0 X133.852 Y80.961 F5400
G1 X145.540 Y92.648 E56.04477 F2400
G0 X145.540 Y92.083 F5400
G1 X134.417 Y80.961 E56.56792 F2400
G0 X134.983 Y80.961 F5400
G1 X145.540 Y91.517 E57.06447 F2400
G0 X145.540 Y90.951 F5400
G1 X135.549 Y80.961 E57.53441 F2400
G0 X136.114 Y80.961 F5400
G1 X145.540 Y90.386 E57.97774 F2400
G0 X145.540 Y89.820 F5400
G1 X136.680 Y80.961 E58.39447 F2400
G0 X137.246 Y80.961 F5400
G1 X145.540 Y89.254 E58.78458 F2400
G0 X145.540 Y88.689 F5400
G1 X137.811 Y80.961 E59.14809 F2400
G0 X138.377 Y80.961 F5400
G1 X145.540 Y88.123 E59.48499 F2400
G0 X145.540 Y87.557 F5400
G1 X138.943 Y80.961 E59.79528 F2400
G0 X139.508 Y80.961 F5400
G1 X145.540 Y86.992 E60.07896 F2400
G0 X145.540 Y86.426 F5400
G1 X140.074 Y80.961 E60.33604 F2400
G0 X140.640 Y80.961 F5400
G1 X145.540 Y85.860 E60.56651 F2400
G0 X145.540 Y85.295 F5400
G1 X141.206 Y80.961 E60.77037 F2400
G0 X141.771 Y80.961 F5400
G1 X145.540 Y84.729 E60.94762 F2400
G0 X145.540 Y84.163 F5400
G1 X142.337 Y80.961 E61.09826 F2400
G0 X142.903 Y80.961 F5400
G1 X145.540 Y83.597 E61.22229 F2400
G0 X145.540 Y83.032 F5400
G1 X143.468 Y80.961 E61.31972 F2400
G0 X144.034 Y80.961 F5400
G1 X145.540 Y82.466 E61.39054 F2400
G0 X145.540 Y81.900 F5400
G1 X144.600 Y80.961 E61.43475 F2400
G0 X145.165 Y80.961 F5400
G1 X145.540 Y81.335 E61.45235 F2400
G0 X145.540 Y106.225 F5400
G1 X131.210 Y91.896 E62.12635 F2400
G0 X130.709 Y91.960 F5400
G1 X145.540 Y106.791 E62.82391 F2400
G0 X145.540 Y107.356 F5400
G1 X130.144 Y91.960 E63.54809 F2400
G0 X129.578 Y91.960 F5400
G1 X145.540 Y107.922 E64.29887 F2400
G0 X145.540 Y108.488 F5400
G1 X129.012 Y91.960 E65.07626 F2400
G0 X128.447 Y91.960 F5400
G1 X145.540 Y109.053 E65.88026 F2400
G0 X145.540 Y109.619 F5400
G1 X127.881 Y91.960 E66.71086 F2400
G0 X127.315 Y91.960 F5400
G1 X128.490 Y93.136 E66.76615 F2400
G0 X127.740 Y92.950 F5400
G1 X126.750 Y91.960 E66.81272 F2400
G0 X126.184 Y91.960 F5400
G1 X127.191 Y92.967 E66.86008 F2400
G0 X126.724 Y93.067 F5400
G1 X125.618 Y91.960 E66.91210 F2400
G0 X125.053 Y91.960 F5400
G1 X126.306 Y93.214 E66.97106 F2400
G0 X125.960 Y93.433 F5400
G1 X124.487 Y91.960 E67.04035 F2400
G0 X123.921 Y91.960 F5400
G1 X125.646 Y93.685 E67.12148 F2400
G0 X125.372 Y93.977 F5400
G1 X114.460 Y83.065 E67.63471 F2400
G0 X114.460 Y83.631 F5400
G1 X125.152 Y94.323 E68.13762 F2400
G0 X124.960 Y94.697 F5400
G1 X114.460 Y84.197 E68.63151 F2400
G0 X114.460 Y84.762 F5400
G1 X124.845 Y95.147 E69.11997 F2400
G0 X124.803 Y95.671 F5400
G1 X114.460 Y85.328 E69.60646 F2400
G0 X114.460 Y85.894 F5400
G1 X124.888 Y96.322 E70.09696 F2400
G0 X125.386 Y97.495 F5400
;segType:InnerHair
G1 X125.500 Y97.507 E70.10064 F2400
G1 X125.614 Y97.557 E70.10361
G1 X125.729 Y97.606 E70.10555
G1 X125.755 Y97.617 E70.10594
G1 X125.642 Y97.569 E70.10861
G1 X125.529 Y97.520 E70.11229
G1 X125.416 Y97.471 E70.11697
G1 X125.386 Y97.495 E70.11830
G0 F3000 E69.11830
G0 X126.939 Y97.504 F5400
G0 X127.134 Y97.568
G0 X127.623 Y97.598
G0 X128.080 Y97.511
G0 X129.500 Y97.519
G0 F3000 E70.11830
G1 X129.386 Y97.578 E70.12090 F2400
G1 X129.271 Y97.603 E70.12279
G1 X129.248 Y97.611 E70.12315
G1 X129.367 Y97.568 E70.12591
G1 X129.486 Y97.525 E70.12957
G1 X129.594 Y97.472 E70.13414
G1 X129.500 Y97.519 E70.13730
G0 X129.715 Y97.189 F5400
;segType:HShell
G1 X130.066 Y97.540 E70.15380 F2400
G0 X130.632 Y97.540 F5400
G1 X129.930 Y96.838 E70.18679 F2400
G0 X130.091 Y96.433 F5400
G1 X131.197 Y97.540 E70.23886 F2400
G0 X131.763 Y97.540 F5400
G1 X130.179 Y95.956 E70.31334 F2400
G0 X130.186 Y95.397 F5400
G1 X145.540 Y110.750 E71.03552 F2400
G0 X145.540 Y110.185 F5400
G1 X130.004 Y94.650 E71.76625 F2400
G0 X131.961 Y97.737 F5400
G1 X145.540 Y111.316 E72.40496 F2400
G0 X145.540 Y111.882 F5400
G1 X131.961 Y98.303 E73.04368 F2400
G0 X131.961 Y98.868 F5400
G1 X145.540 Y112.447 E73.68240 F2400
G0 X145.540 Y113.013 F5400
G1 X131.961 Y99.434 E74.32112 F2400
G0 X131.961 Y100.000 F5400
G1 X145.540 Y113.579 E74.95983 F2400
G0 X145.540 Y114.145 F5400
G1 X131.961 Y100.566 E75.59855 F2400
G0 X131.961 Y101.131 F5400
G1 X145.540 Y114.710 E76.23727 F2400
G0 X145.540 Y115.276 F5400
G1 X131.961 Y101.697 E76.87599 F2400
G0 X131.961 Y102.263 F5400
G1 X145.540 Y115.842 E77.51470 F2400
G0 X145.540 Y116.407 F5400
G1 X131.961 Y102.828 E78.15342 F2400
G0 X131.961 Y103.394 F5400
G1 X145.540 Y116.973 E78.79214 F2400
G0 X145.540 Y117.539 F5400
G1 X131.961 Y103.960 E79.43086 F2400
G0 X131.961 Y104.525 F5400
G1 X145.540 Y118.104 E80.06957 F2400
G0 X145.540 Y118.670 F5400
G1 X131.961 Y105.091 E80.70829 F2400
G0 X131.961 Y105.657 F5400
G1 X145.343 Y119.039 E81.33778 F2400
G0 X144.778 Y119.039 F5400
G1 X131.961 Y106.222 E81.94065 F2400
G0 X131.961 Y106.788 F5400
G1 X144.212 Y119.039 E82.51692 F2400
G0 X143.646 Y119.039 F5400
G1 X131.961 Y107.354 E83.06658 F2400
G0 X131.961 Y107.919 F5400
G1 X143.081 Y119.039 E83.58964 F2400
G0 X142.515 Y119.039 F5400
G1 X131.961 Y108.485 E84.08608 F2400
G0 X131.961 Y109.051 F5400
G1 X141.949 Y119.039 E84.55592 F2400
G0 X141.384 Y119.039 F5400
G1 X131.961 Y109.616 E84.99915 F2400
G0 X131.961 Y110.182 F5400
G1 X140.818 Y119.039 E85.41576 F2400
G0 X140.252 Y119.039 F5400
G1 X131.961 Y110.748 E85.80578 F2400
G0 X131.961 Y111.314 F5400
G1 X139.686 Y119.039 E86.16918 F2400
G0 X139.121 Y119.039 F5400
G1 X131.961 Y111.879 E86.50598 F2400
G0 X131.961 Y112.445 F5400
G1 X138.555 Y119.039 E86.81617 F2400
G0 X137.989 Y119.039 F5400
G1 X131.961 Y113.011 E87.09975 F2400
G0 X131.961 Y113.576 F5400
G1 X137.424 Y119.039 E87.35672 F2400
G0 X136.858 Y119.039 F5400
G1 X131.961 Y114.142 E87.58708 F2400
G0 X130.582 Y114.461 F5400
G1 X135.161 Y119.039 E87.80246 F2400
G0 X134.595 Y119.039 F5400
G1 X130.016 Y114.461 E88.01784 F2400
G0 X129.592 Y114.602 F5400
G1 X134.030 Y119.039 E88.22655 F2400
G0 X133.464 Y119.039 F5400
G1 X130.138 Y115.713 E88.38300 F2400
G0 X130.217 Y116.358 F5400
G1 X132.898 Y119.039 E88.50912 F2400
G0 X132.333 Y119.039 F5400
G1 X130.154 Y116.861 E88.61160 F2400
G0 X130.025 Y117.298 F5400
G1 X131.767 Y119.039 E88.69353 F2400
G0 X131.201 Y119.039 F5400
G1 X129.856 Y117.695 E88.75678 F2400
G0 X129.618 Y118.022 F5400
G1 X130.636 Y119.039 E88.80463 F2400
G0 X130.070 Y119.039 F5400
G1 X129.350 Y118.320 E88.83849 F2400
G0 X129.505 Y118.757 F5400
G1 X128.807 Y118.908 E88.89783 F2400
G0 X128.471 Y118.960 F5400
;segType:InnerHair
G1 X128.357 Y118.986 E88.90199 F2400
G1 X128.243 Y118.997 E88.90585
G1 X128.129 Y119.008 E88.90952
G1 X128.014 Y119.019 E88.91297
G1 X127.900 Y119.029 E88.91622
G1 X127.786 Y119.040 E88.91927
G1 X127.671 Y119.051 E88.92210
G1 X127.557 Y119.048 E88.92500
G1 X127.443 Y119.044 E88.92796
G1 X127.329 Y119.040 E88.93098
G1 X127.214 Y119.037 E88.93408
G1 X127.100 Y119.033 E88.93725
G1 X126.986 Y119.029 E88.94049
G1 X126.871 Y119.011 E88.94411
G1 X126.757 Y118.993 E88.94809
G1 X126.643 Y118.975 E88.95242
G0 X126.495 Y118.859 F5400
;segType:HShell
G1 X126.528 Y118.892 E88.95396 F2400
G0 X126.110 Y119.039 F5400
G1 X114.460 Y107.390 E89.50192 F2400
G0 X114.460 Y107.956 F5400
G1 X125.544 Y119.039 E90.02328 F2400
G0 X124.979 Y119.039 F5400
G1 X114.460 Y108.521 E90.51802 F2400
G0 X114.460 Y109.087 F5400
G1 X124.413 Y119.039 E90.98615 F2400
G0 X123.847 Y119.039 F5400
G1 X114.460 Y109.653 E91.42768 F2400
G0 X114.460 Y110.218 F5400
G1 X123.282 Y119.039 E91.84260 F2400
G0 X122.716 Y119.039 F5400
G1 X114.460 Y110.784 E92.23091 F2400
G0 X114.460 Y111.350 F5400
G1 X122.150 Y119.039 E92.59261 F2400
G0 X121.585 Y119.039 F5400
G1 X114.460 Y111.915 E92.92771 F2400
G0 X114.460 Y112.481 F5400
G1 X121.019 Y119.039 E93.23620 F2400
G0 X120.453 Y119.039 F5400
G1 X114.460 Y113.047 E93.51807 F2400
G0 X114.460 Y113.612 F5400
G1 X119.887 Y119.039 E93.77335 F2400
G0 X119.322 Y119.039 F5400
G1 X114.460 Y114.178 E94.00201 F2400
G0 X114.460 Y114.744 F5400
G1 X118.756 Y119.039 E94.20406 F2400
G0 X118.190 Y119.039 F5400
G1 X114.460 Y115.309 E94.37951 F2400
G0 X114.460 Y115.875 F5400
G1 X117.625 Y119.039 E94.52834 F2400
G0 X117.059 Y119.039 F5400
G1 X114.460 Y116.441 E94.65057 F2400
G0 X114.460 Y117.007 F5400
G1 X116.493 Y119.039 E94.74619 F2400
G0 X115.928 Y119.039 F5400
G1 X114.460 Y117.572 E94.81521 F2400
G0 X114.460 Y118.138 F5400
G1 X115.362 Y119.039 E94.85761 F2400
G0 X114.796 Y119.039 F5400
G1 X114.460 Y118.704 E94.87341 F2400
G0 X123.228 Y114.461 F5400
G1 X124.803 Y116.036 E94.94750 F2400
G0 X124.913 Y115.580 F5400
G1 X123.794 Y114.461 E95.00016 F2400
G0 X124.360 Y114.461 F5400
G1 X125.070 Y115.172 E95.03360 F2400
G0 X125.271 Y114.807 F5400
G1 X124.925 Y114.461 E95.04987 F2400
G0 X125.386 Y114.505 F5400
;segType:InnerHair
G1 X125.500 Y114.493 E95.05356 F2400
G1 X125.614 Y114.444 E95.05653
G1 X125.729 Y114.394 E95.05846
G1 X125.686 Y114.413 E95.05934
G1 X125.573 Y114.462 E95.06264
G1 X125.460 Y114.510 E95.06693
G1 X125.386 Y114.505 E95.06946
G0 F3000 E94.06946
G0 X126.939 Y114.496 F5400
G0 X127.134 Y114.433
G0 X127.622 Y114.402
G0 X128.080 Y114.489
G0 X129.500 Y114.481
G0 F3000 E95.06946
G1 X129.386 Y114.422 E95.07206 F2400
G1 X129.271 Y114.397 E95.07394
G1 X129.322 Y114.415 E95.07496
G1 X129.440 Y114.458 E95.07827
G1 X129.553 Y114.507 E95.08250
G1 X129.500 Y114.481 E95.08427
; ------------------------------------
; Layer #1
; ------------------------------------
G92 E0 ;reset extr
G0 F3000 E-1.00000
G0 F600 Z1.300
G0 X131.200 Y113.700 F7200
G0 X131.200 Y98.300
G0 X130.074 Y100.562
G0 F3000 E0.00000
;segType:Support
G1 X128.292 Y100.562 E0.02520 F1200
G1 X126.358 Y100.646 E0.05256
G1 X124.558 Y100.646 E0.07800
G0 F3000 E-0.92200
G0 X117.198 Y80.961 F7200
G0 F3000 E0.07800
;segType:HShell
G1 X114.460 Y83.698 E0.14239 F2880
G0 X114.460 Y83.133 F7200
G1 X116.633 Y80.961 E0.19348 F2880
G0 X116.067 Y80.961 F7200
G1 X114.460 Y82.567 E0.23126 F2880
G0 X114.460 Y82.001 F7200
G1 X115.501 Y80.961 E0.25574 F2880
G0 X114.936 Y80.961 F7200
G1 X114.460 Y81.436 E0.26691 F2880
G0 X113.916 Y80.780 F7200
;segType:Perimeter
G1 X113.760 Y80.200 E0.27689 F1440
G1 X146.300 Y80.200 E0.81802
G1 X146.300 Y119.800 E1.47656
G1 X113.700 Y119.800 E2.01869
G1 X113.700 Y80.260 E2.67623
G0 X113.760 Y80.200 F7200
G0 X115.360 Y80.200
G0 X114.800 Y80.600
;segType:Loop
G1 X145.900 Y80.600 E3.19341 F2880
G1 X145.900 Y119.400 E3.83865
G1 X114.100 Y119.400 E4.36747
G1 X114.100 Y80.600 E5.01271
G1 X114.600 Y80.600 E5.02102
G0 F3000 E4.02102
G0 X140.957 Y80.961 F7200
G0 F3000 E5.02102
;segType:HShell
G1 X131.210 Y90.707 E5.25025 F2880
G0 X131.190 Y91.200 F7200
;segType:Perimeter
G1 X130.390 Y91.200 E5.26355 F1440
G1 X124.550 Y91.200 E5.36068
G1 X124.550 Y87.300 E5.42555
G1 X130.450 Y87.300 E5.52368
G1 X130.450 Y91.140 E5.58755
G0 X130.390 Y91.200 F7200
G0 X128.790 Y91.200
G0 X129.350 Y91.600
;segType:Loop
G1 X124.150 Y91.600 E5.67404 F2880
G1 X124.150 Y86.900 E5.75221
G1 X130.850 Y86.900 E5.86365
G1 X130.850 Y91.600 E5.94182
G1 X129.550 Y91.600 E5.96344
G0 F3000 E4.96344
G0 X129.977 Y91.200 F7200
G0 X127.288 Y93.723
G0 X127.134 Y93.733
G0 X126.669 Y93.884
G0 X126.256 Y94.146
G0 X125.921 Y94.503
G0 X125.685 Y94.931
G0 X125.585 Y95.321
G0 X114.460 Y105.760
G0 F3000 E5.96344
;segType:HShell
G1 X124.803 Y95.417 E6.20669 F2880
G0 X124.803 Y95.983 F7200
G1 X123.247 Y97.540 E6.24330 F2880
G0 X123.812 Y97.540 F7200
G1 X124.917 Y96.435 E6.26928 F2880
G0 X125.077 Y96.841 F7200
G1 X124.378 Y97.540 E6.28572 F2880
G0 X124.944 Y97.540 F7200
G1 X125.278 Y97.205 E6.29358 F2880
G0 X125.861 Y97.087 F7200
;segType:Perimeter
G1 X125.670 Y96.310 E6.30689 F1440
G1 X125.563 Y95.894 E6.31403
G1 X125.563 Y95.405 E6.32216
G1 X125.685 Y94.931 E6.33030
G1 X125.921 Y94.503 E6.33844
G1 X126.256 Y94.146 E6.34657
G1 X126.669 Y93.884 E6.35471
G1 X127.134 Y93.733 E6.36285
G1 X127.622 Y93.702 E6.37098
G1 X128.103 Y93.793 E6.37912
G1 X128.546 Y94.002 E6.38726
G1 X128.923 Y94.314 E6.39540
G1 X129.211 Y94.710 E6.40353
G1 X129.391 Y95.165 E6.41167
G1 X129.452 Y95.650 E6.41981
G1 X129.391 Y96.136 E6.42794
G1 X129.211 Y96.590 E6.43608
G1 X128.923 Y96.986 E6.44422
G1 X128.546 Y97.298 E6.45235
G1 X128.103 Y97.506 E6.46049
G1 X127.623 Y97.598 E6.46863
G1 X127.134 Y97.568 E6.47677
G1 X126.669 Y97.416 E6.48490
G1 X126.256 Y97.154 E6.49304
G1 X125.921 Y96.797 E6.50118
G1 X125.714 Y96.421 E6.50832
G0 X125.670 Y96.310 F7200
G0 X125.563 Y95.894
G0 X125.563 Y95.405
G0 X125.685 Y94.931
G0 X125.778 Y94.763
G0 X125.188 Y95.258
;segType:Loop
G1 X125.310 Y94.783 E6.51647 F2880
G1 X125.595 Y94.266 E6.52629
G1 X125.999 Y93.835 E6.53611
G1 X126.497 Y93.519 E6.54592
G1 X127.059 Y93.336 E6.55574
G1 X127.648 Y93.300 E6.56556
G1 X128.228 Y93.410 E6.57538
G1 X128.762 Y93.662 E6.58520
G1 X129.217 Y94.038 E6.59502
G1 X129.564 Y94.515 E6.60483
G1 X129.781 Y95.064 E6.61465
G1 X129.855 Y95.650 E6.62447
G1 X129.781 Y96.236 E6.63429
G1 X129.564 Y96.785 E6.64411
G1 X129.217 Y97.262 E6.65392
G1 X128.762 Y97.639 E6.66374
G1 X128.672 Y97.681 E6.66540
G0 X128.634 Y97.804 F7200
G0 X128.502 Y97.834
G0 X128.369 Y97.863
G1 X128.129 Y97.904 E6.66937 F2880
G1 X128.014 Y97.915 E6.67113
G1 X127.900 Y97.926 E6.67279
G1 X127.786 Y97.937 E6.67435
G1 X127.671 Y97.947 E6.67580
G1 X127.557 Y97.947 E6.67725
G1 X127.443 Y97.944 E6.67873
G1 X127.329 Y97.940 E6.68025
G1 X127.214 Y97.936 E6.68180
G1 X127.100 Y97.933 E6.68339
G1 X126.986 Y97.919 E6.68512
G1 X126.871 Y97.901 E6.68703
G1 X126.757 Y97.883 E6.68911
G1 X126.643 Y97.865 E6.69137
G0 X126.372 Y97.809 F7200
G1 X126.338 Y97.680 E6.69358 F2880
G1 X125.999 Y97.465 E6.70027
G1 X125.595 Y97.034 E6.71009
G1 X125.310 Y96.517 E6.71990
G1 X125.163 Y95.945 E6.72973
G1 X125.163 Y95.455 E6.73788
G0 F3000 E5.73788
G0 X125.563 Y95.558 F7200
G0 X125.563 Y95.894
G0 X125.685 Y96.369
G0 X125.921 Y96.797
G0 X126.256 Y97.154
G0 X126.669 Y97.416
G0 X127.134 Y97.568
G0 X127.623 Y97.598
G0 X128.103 Y97.506
G0 X128.546 Y97.298
G0 X128.923 Y96.986
G0 X129.211 Y96.590
G0 X129.244 Y96.506
G0 X146.300 Y100.898
G0 X145.540 Y100.703
G0 F3000 E6.73788
;segType:HShell
G1 X131.961 Y114.282 E7.05723 F2880
G0 X131.216 Y114.461 F7200
G1 X130.096 Y115.581 E7.08358 F2880
G0 X130.182 Y116.061 F7200
G1 X131.782 Y114.461 E7.12121 F2880
G0 X131.140 Y113.700 F7200
;segType:Perimeter
G1 X123.800 Y113.700 E7.24329 F1440
G1 X123.800 Y98.300 E7.49940
G1 X131.200 Y98.300 E7.62248
G1 X131.200 Y113.640 E7.87759
G0 X131.140 Y113.700 F7200
G0 X129.540 Y113.700
G0 X130.100 Y114.100
;segType:Loop
G1 X128.814 Y114.100 E7.89898 F2880
G0 X128.700 Y114.192 F7200
G0 X128.586 Y114.185
G0 X128.471 Y114.160
G0 X128.357 Y114.134
G0 X128.243 Y114.108
G1 X128.129 Y114.096 E7.90085 F2880
G1 X128.014 Y114.085 E7.90261
G1 X127.900 Y114.074 E7.90427
G1 X127.786 Y114.063 E7.90583
G1 X127.671 Y114.053 E7.90728
G1 X127.557 Y114.053 E7.90873
G1 X127.443 Y114.056 E7.91021
G1 X127.329 Y114.060 E7.91173
G1 X127.214 Y114.064 E7.91328
G1 X127.100 Y114.067 E7.91487
G1 X126.986 Y114.081 E7.91659
G1 X126.871 Y114.099 E7.91850
G1 X126.757 Y114.117 E7.92059
G1 X126.643 Y114.135 E7.92285
G1 X126.529 Y114.146 E7.92519
G1 X126.414 Y114.179 E7.92794
G1 X126.300 Y114.100 E7.93025
G1 X123.400 Y114.100 E7.97848
G1 X123.400 Y97.900 E8.24790
G1 X126.300 Y97.900 E8.29613
G1 X126.414 Y97.821 E8.29934
G1 X126.529 Y97.855 E8.30177
G0 X126.643 Y97.865 F7200
G0 X126.986 Y97.919
G0 X127.100 Y97.933
G0 X127.557 Y97.947
G0 X127.671 Y97.947
G0 X128.129 Y97.904
G1 X128.243 Y97.892 E8.30376 F2880
G1 X128.357 Y97.866 E8.30603
G1 X128.471 Y97.841 E8.30856
G1 X128.586 Y97.815 E8.31133
G1 X128.700 Y97.808 E8.31410
G1 X128.814 Y97.900 E8.31653
G1 X131.600 Y97.900 E8.36286
G1 X131.600 Y114.100 E8.63228
G1 X130.300 Y114.100 E8.65390
G0 F3000 E7.65390
G0 X130.821 Y113.700 F7200
G0 X131.200 Y113.700
G0 X131.200 Y113.409
G0 X145.540 Y102.400
G0 F3000 E8.65390
;segType:HShell
G1 X128.900 Y119.039 E9.04525 F2880
G0 X128.526 Y118.848 F7200
G1 X128.513 Y118.860 E9.04554 F2880
G0 X128.471 Y118.960 F7200
;segType:InnerHair
G1 X128.357 Y118.986 E9.04762 F2880
G1 X128.243 Y118.997 E9.04955
G1 X128.129 Y119.008 E9.05139
G1 X128.014 Y119.019 E9.05311
G1 X127.900 Y119.029 E9.05474
G1 X127.786 Y119.040 E9.05626
G1 X127.671 Y119.051 E9.05768
G1 X127.557 Y119.048 E9.05912
G1 X127.443 Y119.044 E9.06060
G1 X127.329 Y119.040 E9.06212
G1 X127.214 Y119.037 E9.06366
G1 X127.100 Y119.033 E9.06525
G1 X126.986 Y119.029 E9.06687
G1 X126.871 Y119.011 E9.06868
G1 X126.757 Y118.993 E9.07067
G1 X126.643 Y118.975 E9.07283
G0 X126.317 Y118.793 F7200
;segType:HShell
G0 X126.422 Y118.971
G1 X125.738 Y118.807 E9.09452 F2880
G0 X125.655 Y118.325 F7200
G1 X124.940 Y119.039 E9.11134 F2880
G0 X124.374 Y119.039 F7200
G1 X125.381 Y118.033 E9.13501 F2880
G0 X125.861 Y117.787 F7200
;segType:Perimeter
G1 X125.670 Y117.011 E9.14832 F1440
G1 X125.563 Y116.595 E9.15546
G1 X125.563 Y116.105 E9.16359
G1 X125.685 Y115.632 E9.17173
G1 X125.921 Y115.203 E9.17987
G1 X126.256 Y114.846 E9.18800
G1 X126.669 Y114.584 E9.19614
G1 X127.134 Y114.433 E9.20427
G1 X127.622 Y114.402 E9.21241
G1 X128.103 Y114.494 E9.22055
G1 X128.546 Y114.702 E9.22869
G1 X128.923 Y115.014 E9.23683
G1 X129.211 Y115.410 E9.24496
G1 X129.391 Y115.865 E9.25310
G1 X129.452 Y116.350 E9.26124
G1 X129.391 Y116.835 E9.26937
G1 X129.211 Y117.290 E9.27751
G1 X128.923 Y117.686 E9.28565
G1 X128.546 Y117.998 E9.29379
G1 X128.103 Y118.206 E9.30192
G1 X127.622 Y118.298 E9.31006
G1 X127.134 Y118.267 E9.31820
G1 X126.669 Y118.116 E9.32633
G1 X126.256 Y117.854 E9.33447
G1 X125.921 Y117.497 E9.34261
G1 X125.714 Y117.121 E9.34975
G0 X125.670 Y117.011 F7200
G0 X125.563 Y116.595
G0 X125.563 Y116.105
G0 X125.685 Y115.632
G0 X125.778 Y115.463
G0 X125.188 Y115.958
;segType:Loop
G1 X125.310 Y115.483 E9.35790 F2880
G1 X125.595 Y114.966 E9.36772
G1 X125.999 Y114.535 E9.37754
G1 X126.377 Y114.296 E9.38498
G0 X126.643 Y114.135 F7200
G0 X126.986 Y114.081
G0 X127.100 Y114.067
G0 X127.557 Y114.053
G0 X127.671 Y114.053
G0 X128.129 Y114.096
G1 X128.451 Y114.155 E9.39191 F2880
G1 X128.583 Y114.184 E9.39510
G1 X128.630 Y114.299 E9.39716
G1 X128.762 Y114.362 E9.39960
G1 X129.217 Y114.738 E9.40941
G1 X129.564 Y115.215 E9.41923
G1 X129.781 Y115.764 E9.42905
G1 X129.855 Y116.350 E9.43887
G1 X129.781 Y116.936 E9.44868
G1 X129.564 Y117.485 E9.45850
G1 X129.217 Y117.962 E9.46832
G1 X128.762 Y118.339 E9.47814
G1 X128.228 Y118.590 E9.48796
G1 X127.648 Y118.701 E9.49778
G1 X127.059 Y118.663 E9.50760
G1 X126.497 Y118.481 E9.51741
G1 X125.999 Y118.165 E9.52723
G1 X125.595 Y117.734 E9.53705
G1 X125.310 Y117.217 E9.54686
G1 X125.163 Y116.645 E9.55669
G1 X125.163 Y116.155 E9.56484
G0 X125.159 Y117.689 F7200
;segType:HShell
G1 X123.809 Y119.039 E9.59659 F2880
G0 X123.243 Y119.039 F7200
G1 X124.964 Y117.318 E9.63708 F2880
G0 X124.849 Y116.868 F7200
G1 X122.677 Y119.039 E9.68815 F2880
G0 X122.112 Y119.039 F7200
G1 X124.803 Y116.348 E9.75146 F2880
G0 X124.882 Y115.703 F7200
G1 X121.546 Y119.039 E9.82991 F2880
G0 X120.980 Y119.039 F7200
G1 X125.405 Y114.615 E9.93397 F2880
G0 X124.993 Y114.461 F7200
G1 X120.414 Y119.039 E10.04166 F2880
G0 X119.849 Y119.039 F7200
G1 X124.428 Y114.461 E10.14935 F2880
G0 X123.862 Y114.461 F7200
G1 X119.283 Y119.039 E10.25704 F2880
G0 X118.717 Y119.039 F7200
G1 X123.296 Y114.461 E10.36473 F2880
G0 X123.039 Y114.152 F7200
G1 X118.152 Y119.039 E10.47968 F2880
G0 X117.586 Y119.039 F7200
G1 X123.039 Y113.586 E10.60793 F2880
G0 X123.039 Y113.020 F7200
G1 X117.020 Y119.039 E10.74949 F2880
G0 X116.455 Y119.039 F7200
G1 X123.039 Y112.455 E10.90435 F2880
G0 X123.039 Y111.889 F7200
G1 X115.889 Y119.039 E11.07252 F2880
G0 X115.323 Y119.039 F7200
G1 X123.039 Y111.323 E11.25399 F2880
G0 X123.039 Y110.758 F7200
G1 X114.758 Y119.039 E11.44877 F2880
G0 X114.460 Y118.771 F7200
G1 X123.039 Y110.192 E11.65053 F2880
G0 X123.039 Y109.626 F7200
G1 X114.460 Y118.205 E11.85229 F2880
G0 X114.460 Y117.640 F7200
G1 X123.039 Y109.061 E12.05406 F2880
G0 X123.039 Y108.495 F7200
G1 X114.460 Y117.074 E12.25582 F2880
G0 X114.460 Y116.508 F7200
G1 X123.039 Y107.929 E12.45758 F2880
G0 X123.039 Y107.364 F7200
G1 X114.460 Y115.942 E12.65935 F2880
G0 X114.460 Y115.377 F7200
G1 X123.039 Y106.798 E12.86111 F2880
G0 X123.039 Y106.232 F7200
G1 X114.460 Y114.811 E13.06287 F2880
G0 X114.460 Y114.245 F7200
G1 X123.039 Y105.667 E13.26463 F2880
G0 X123.039 Y105.101 F7200
G1 X114.460 Y113.680 E13.46640 F2880
G0 X114.460 Y113.114 F7200
G1 X123.039 Y104.535 E13.66816 F2880
G0 X123.039 Y103.969 F7200
G1 X114.460 Y112.548 E13.86992 F2880
G0 X114.460 Y111.983 F7200
G1 X123.039 Y103.404 E14.07169 F2880
G0 X123.039 Y102.838 F7200
G1 X114.460 Y111.417 E14.27345 F2880
G0 X114.460 Y110.851 F7200
G1 X123.039 Y102.272 E14.47521 F2880
G0 X123.039 Y101.707 F7200
G1 X114.460 Y110.286 E14.67698 F2880
G0 X114.460 Y109.720 F7200
G1 X123.039 Y101.141 E14.87874 F2880
G0 X123.039 Y100.575 F7200
G1 X114.460 Y109.154 E15.08050 F2880
G0 X114.460 Y108.589 F7200
G1 X123.039 Y100.010 E15.28227 F2880
G0 X123.039 Y99.444 F7200
G1 X114.460 Y108.023 E15.48403 F2880
G0 X114.460 Y107.457 F7200
G1 X123.039 Y98.878 E15.68579 F2880
G0 X123.039 Y98.313 F7200
G1 X114.460 Y106.892 E15.88756 F2880
G0 X114.460 Y106.326 F7200
G1 X123.039 Y97.747 E16.08932 F2880
G0 X125.386 Y97.495 F7200
;segType:InnerHair
G1 X125.500 Y97.507 E16.09116 F2880
G1 X125.614 Y97.557 E16.09264
G1 X125.729 Y97.606 E16.09362
G1 X125.755 Y97.617 E16.09381
G1 X125.642 Y97.569 E16.09515
G1 X125.529 Y97.520 E16.09699
G1 X125.416 Y97.471 E16.09933
G1 X125.386 Y97.495 E16.09999
G0 F3000 E15.09999
G0 X126.939 Y97.504 F7200
G0 X127.134 Y97.568
G0 X127.623 Y97.598
G0 X128.080 Y97.511
G0 X129.500 Y97.519
G0 F3000 E16.09999
G1 X129.386 Y97.578 E16.10129 F2880
G1 X129.271 Y97.603 E16.10224
G1 X129.248 Y97.611 E16.10242
G1 X129.367 Y97.568 E16.10380
G1 X129.486 Y97.525 E16.10563
G1 X129.594 Y97.472 E16.10792
G1 X129.500 Y97.519 E16.10950
G0 F3000 E15.10950
G0 X131.210 Y91.839 F7200
G0 F3000 E16.10950
;segType:HShell
G1 X142.088 Y80.961 E16.36533 F2880
G0 X141.523 Y80.961 F7200
G1 X131.210 Y91.273 E16.60786 F2880
G0 X124.961 Y94.694 F7200
G1 X114.460 Y105.194 E16.85482 F2880
G0 F3000 E15.85482
G0 X123.800 Y113.154 F7200
G0 X123.800 Y113.700
G0 X124.441 Y113.700
G0 X125.386 Y114.505
G0 F3000 E16.85482
;segType:InnerHair
G1 X125.500 Y114.493 E16.85667 F2880
G1 X125.614 Y114.444 E16.85815
G1 X125.729 Y114.394 E16.85912
G1 X125.686 Y114.413 E16.85956
G1 X125.573 Y114.462 E16.86120
G1 X125.460 Y114.510 E16.86335
G1 X125.386 Y114.505 E16.86462
G0 F3000 E15.86462
G0 X126.939 Y114.496 F7200
G0 X127.134 Y114.433
G0 X127.622 Y114.402
G0 X128.080 Y114.489
G0 X129.500 Y114.481
G0 F3000 E16.86462
G1 X129.386 Y114.422 E16.86592 F2880
G1 X129.271 Y114.397 E16.86686
G1 X129.322 Y114.415 E16.86737
G1 X129.440 Y114.458 E16.86903
G1 X129.553 Y114.507 E16.87114
G1 X129.500 Y114.481 E16.87203
G0 X130.650 Y114.461 F7200
;segType:HShell
G1 X129.935 Y115.175 E16.88884 F2880
G0 X129.723 Y114.822 F7200
G1 X130.085 Y114.461 E16.89734 F2880
G0 X131.961 Y113.716 F7200
G1 X145.540 Y100.137 E17.21669 F2880
G0 X145.540 Y99.571 F7200
G1 X131.961 Y113.150 E17.53605 F2880
G0 X131.961 Y112.585 F7200
G1 X145.540 Y99.006 E17.85541 F2880
G0 X145.540 Y98.440 F7200
G1 X131.961 Y112.019 E18.17477 F2880
G0 X131.961 Y111.453 F7200
G1 X145.540 Y97.874 E18.49413 F2880
G0 X145.540 Y97.308 F7200
G1 X131.961 Y110.887 E18.81349 F2880
G0 X131.961 Y110.322 F7200
G1 X145.540 Y96.743 E19.13285 F2880
G0 X145.540 Y96.177 F7200
G1 X131.961 Y109.756 E19.45221 F2880
G0 X131.961 Y109.190 F7200
G1 X145.540 Y95.611 E19.77157 F2880
G0 X145.540 Y95.046 F7200
G1 X131.961 Y108.625 E20.09092 F2880
G0 X131.961 Y108.059 F7200
G1 X145.540 Y94.480 E20.41028 F2880
G0 X145.540 Y93.914 F7200
G1 X131.961 Y107.493 E20.72964 F2880
G0 X131.961 Y106.928 F7200
G1 X145.540 Y93.349 E21.04900 F2880
G0 X145.540 Y92.783 F7200
G1 X131.961 Y106.362 E21.36836 F2880
G0 X131.961 Y105.796 F7200
G1 X145.540 Y92.217 E21.68772 F2880
G0 X145.540 Y91.652 F7200
G1 X131.961 Y105.231 E22.00708 F2880
G0 X131.961 Y104.665 F7200
G1 X145.540 Y91.086 E22.32644 F2880
G0 X145.540 Y90.520 F7200
G1 X131.961 Y104.099 E22.64580 F2880
G0 X131.961 Y103.534 F7200
G1 X145.540 Y89.955 E22.96515 F2880
G0 X145.540 Y89.389 F7200
G1 X131.961 Y102.968 E23.28451 F2880
G0 X131.961 Y102.402 F7200
G1 X145.540 Y88.823 E23.60387 F2880
G0 X145.540 Y88.257 F7200
G1 X131.961 Y101.837 E23.92322 F2880
G0 X131.961 Y101.271 F7200
G1 X145.540 Y87.692 E24.24258 F2880
G0 X145.540 Y87.126 F7200
G1 X131.961 Y100.705 E24.56194 F2880
G0 X131.961 Y100.139 F7200
G1 X145.540 Y86.560 E24.88130 F2880
G0 X145.540 Y85.995 F7200
G1 X131.961 Y99.574 E25.20065 F2880
G0 X131.961 Y99.008 F7200
G1 X145.540 Y85.429 E25.52001 F2880
G0 X145.540 Y84.863 F7200
G1 X131.961 Y98.442 E25.83937 F2880
G0 X131.961 Y97.877 F7200
G1 X145.540 Y84.298 E26.15872 F2880
G0 X145.540 Y83.732 F7200
G1 X131.732 Y97.540 E26.48346 F2880
G0 X131.166 Y97.540 F7200
G1 X145.540 Y83.166 E26.82149 F2880
G0 X145.540 Y82.601 F7200
G1 X130.601 Y97.540 E27.17283 F2880
G0 X130.035 Y97.540 F7200
G1 X145.540 Y82.035 E27.53748 F2880
G0 X145.540 Y81.469 F7200
G1 X129.614 Y97.395 E27.91203 F2880
G0 X130.135 Y96.308 F7200
G1 X145.483 Y80.961 E28.27298 F2880
G0 X144.917 Y80.961 F7200
G1 X130.217 Y95.661 E28.61871 F2880
G0 X130.156 Y95.156 F7200
G1 X144.351 Y80.961 E28.95256 F2880
G0 X143.786 Y80.961 F7200
G1 X130.031 Y94.716 E29.27606 F2880
G0 X129.864 Y94.316 F7200
G1 X143.220 Y80.961 E29.59016 F2880
G0 X142.654 Y80.961 F7200
G1 X129.626 Y93.989 E29.89656 F2880
G0 X129.360 Y93.689 F7200
G1 X131.089 Y91.960 E29.93721 F2880
G0 X130.523 Y91.960 F7200
G1 X129.051 Y93.433 E29.97184 F2880
G0 X128.689 Y93.229 F7200
G1 X129.957 Y91.960 E30.00167 F2880
G0 X129.392 Y91.960 F7200
G1 X128.296 Y93.056 E30.02744 F2880
G0 X127.820 Y92.966 F7200
G1 X128.826 Y91.960 E30.05109 F2880
G0 X128.260 Y91.960 F7200
G1 X127.257 Y92.963 E30.07467 F2880
G0 X126.523 Y93.132 F7200
G1 X127.695 Y91.960 E30.10223 F2880
G0 X127.129 Y91.960 F7200
G1 X114.460 Y104.629 E30.40017 F2880
G0 X114.460 Y104.063 F7200
G1 X126.563 Y91.960 E30.68480 F2880
G0 X125.997 Y91.960 F7200
G1 X114.460 Y103.497 E30.95614 F2880
G0 X114.460 Y102.932 F7200
G1 X125.432 Y91.960 E31.21416 F2880
G0 X124.866 Y91.960 F7200
G1 X114.460 Y102.366 E31.45889 F2880
G0 X114.460 Y101.800 F7200
G1 X124.300 Y91.960 E31.69031 F2880
G0 X123.789 Y91.906 F7200
G1 X114.460 Y101.235 E31.90971 F2880
G0 X114.460 Y100.669 F7200
G1 X123.789 Y91.340 E32.12912 F2880
G0 X123.789 Y90.774 F7200
G1 X114.460 Y100.103 E32.34852 F2880
G0 X114.460 Y99.538 F7200
G1 X123.789 Y90.209 E32.56793 F2880
G0 X123.789 Y89.643 F7200
G1 X114.460 Y98.972 E32.78734 F2880
G0 X114.460 Y98.406 F7200
G1 X123.789 Y89.077 E33.00674 F2880
G0 X123.789 Y88.512 F7200
G1 X114.460 Y97.841 E33.22615 F2880
G0 X114.460 Y97.275 F7200
G1 X123.789 Y87.946 E33.44555 F2880
G0 X123.789 Y87.380 F7200
G1 X114.460 Y96.709 E33.66496 F2880
G0 X114.460 Y96.144 F7200
G1 X123.789 Y86.814 E33.88437 F2880
G0 F3000 E32.88437
G0 X114.460 Y84.264 F7200
G0 F3000 E33.88437
G1 X117.764 Y80.961 E33.96206 F2880
G0 X118.330 Y80.961 F7200
G1 X114.460 Y84.830 E34.05306 F2880
G0 X114.460 Y85.395 F7200
G1 X118.895 Y80.961 E34.15736 F2880
G0 X119.461 Y80.961 F7200
G1 X114.460 Y85.961 E34.27497 F2880
G0 X114.460 Y86.527 F7200
G1 X120.027 Y80.961 E34.40588 F2880
G0 X120.592 Y80.961 F7200
G1 X114.460 Y87.093 E34.55010 F2880
G0 X114.460 Y87.658 F7200
G1 X121.158 Y80.961 E34.70762 F2880
G0 X121.724 Y80.961 F7200
G1 X114.460 Y88.224 E34.87844 F2880
G0 X114.460 Y88.790 F7200
G1 X122.290 Y80.961 E35.06257 F2880
G0 X122.855 Y80.961 F7200
G1 X114.460 Y89.355 E35.26000 F2880
G0 X114.460 Y89.921 F7200
G1 X123.421 Y80.961 E35.47073 F2880
G0 X123.987 Y80.961 F7200
G1 X114.460 Y90.487 E35.69477 F2880
G0 X114.460 Y91.052 F7200
G1 X124.552 Y80.961 E35.93211 F2880
G0 X125.118 Y80.961 F7200
G1 X114.460 Y91.618 E36.18276 F2880
G0 X114.460 Y92.184 F7200
G1 X125.684 Y80.961 E36.44671 F2880
G0 X126.249 Y80.961 F7200
G1 X114.460 Y92.749 E36.72397 F2880
G0 X114.460 Y93.315 F7200
G1 X126.815 Y80.961 E37.01453 F2880
G0 X127.381 Y80.961 F7200
G1 X114.460 Y93.881 E37.31839 F2880
G0 X114.460 Y94.446 F7200
G1 X127.946 Y80.961 E37.63556 F2880
G0 X128.512 Y80.961 F7200
G1 X114.460 Y95.012 E37.96603 F2880
G0 X114.460 Y95.578 F7200
G1 X129.078 Y80.961 E38.30981 F2880
G0 X129.643 Y80.961 F7200
G1 X124.065 Y86.539 E38.44101 F2880
G0 X124.630 Y86.539 F7200
G1 X130.209 Y80.961 E38.57222 F2880
G0 X130.775 Y80.961 F7200
G1 X125.196 Y86.539 E38.70343 F2880
G0 X125.762 Y86.539 F7200
G1 X131.340 Y80.961 E38.83463 F2880
G0 X131.906 Y80.961 F7200
G1 X126.327 Y86.539 E38.96584 F2880
G0 X126.893 Y86.539 F7200
G1 X132.472 Y80.961 E39.09705 F2880
G0 X133.038 Y80.961 F7200
G1 X127.459 Y86.539 E39.22825 F2880
G0 X128.024 Y86.539 F7200
G1 X133.603 Y80.961 E39.35946 F2880
G0 X134.169 Y80.961 F7200
G1 X128.590 Y86.539 E39.49067 F2880
G0 X129.156 Y86.539 F7200
G1 X134.735 Y80.961 E39.62187 F2880
G0 X135.300 Y80.961 F7200
G1 X129.721 Y86.539 E39.75308 F2880
G0 X130.287 Y86.539 F7200
G1 X135.866 Y80.961 E39.88429 F2880
G0 X136.432 Y80.961 F7200
G1 X130.853 Y86.539 E40.01549 F2880
G0 X131.210 Y86.747 F7200
G1 X136.997 Y80.961 E40.15159 F2880
G0 X137.563 Y80.961 F7200
G1 X131.210 Y87.313 E40.30099 F2880
G0 X131.210 Y87.879 F7200
G1 X138.129 Y80.961 E40.46370 F2880
G0 X138.694 Y80.961 F7200
G1 X131.210 Y88.444 E40.63971 F2880
G0 X131.210 Y89.010 F7200
G1 X139.260 Y80.961 E40.82902 F2880
G0 X139.826 Y80.961 F7200
G1 X131.210 Y89.576 E41.03164 F2880
G0 X131.210 Y90.142 F7200
G1 X140.391 Y80.961 E41.24756 F2880
G0 F3000 E40.24756
G0 X145.540 Y101.268 F7200
G0 F3000 E41.24756
G1 X130.183 Y116.624 E41.60871 F2880
G0 X129.992 Y117.381 F7200
G1 X145.540 Y101.834 E41.97436 F2880
G0 X145.540 Y118.804 F7200
G1 X145.305 Y119.039 E41.97989 F2880
G0 X144.739 Y119.039 F7200
G1 X145.540 Y118.239 E41.99872 F2880
G0 X145.540 Y117.673 F7200
G1 X144.173 Y119.039 E42.03086 F2880
G0 X143.608 Y119.039 F7200
G1 X145.540 Y117.107 E42.07629 F2880
G0 X145.540 Y116.542 F7200
G1 X143.042 Y119.039 E42.13504 F2880
G0 X142.476 Y119.039 F7200
G1 X145.540 Y115.976 E42.20708 F2880
G0 X145.540 Y115.410 F7200
G1 X141.911 Y119.039 E42.29243 F2880
G0 X141.345 Y119.039 F7200
G1 X145.540 Y114.845 E42.39109 F2880
G0 X145.540 Y114.279 F7200
G1 X140.779 Y119.039 E42.50305 F2880
G0 X140.213 Y119.039 F7200
G1 X145.540 Y113.713 E42.62831 F2880
G0 X145.540 Y113.148 F7200
G1 X139.648 Y119.039 E42.76688 F2880
G0 X139.082 Y119.039 F7200
G1 X145.540 Y112.582 E42.91875 F2880
G0 X145.540 Y112.016 F7200
G1 X138.516 Y119.039 E43.08393 F2880
G0 X137.951 Y119.039 F7200
G1 X145.540 Y111.451 E43.26240 F2880
G0 X145.540 Y110.885 F7200
G1 X137.385 Y119.039 E43.45419 F2880
G0 X136.819 Y119.039 F7200
G1 X145.540 Y110.319 E43.65927 F2880
G0 X145.540 Y109.754 F7200
G1 X136.254 Y119.039 E43.87767 F2880
G0 X135.688 Y119.039 F7200
G1 X145.540 Y109.188 E44.10936 F2880
G0 X145.540 Y108.622 F7200
G1 X135.122 Y119.039 E44.35436 F2880
G0 X134.557 Y119.039 F7200
G1 X145.540 Y108.056 E44.61267 F2880
G0 X145.540 Y107.491 F7200
G1 X133.991 Y119.039 E44.88427 F2880
G0 X133.425 Y119.039 F7200
G1 X145.540 Y106.925 E45.16918 F2880
G0 X145.540 Y106.359 F7200
G1 X132.860 Y119.039 E45.46740 F2880
G0 X132.294 Y119.039 F7200
G1 X145.540 Y105.794 E45.77892 F2880
G0 X145.540 Y105.228 F7200
G1 X131.728 Y119.039 E46.10374 F2880
G0 X131.162 Y119.039 F7200
G1 X145.540 Y104.662 E46.44187 F2880
G0 X145.540 Y104.097 F7200
G1 X130.597 Y119.039 E46.79330 F2880
G0 X130.031 Y119.039 F7200
G1 X145.540 Y103.531 E47.15804 F2880
G0 X145.540 Y102.965 F7200
G1 X129.465 Y119.039 E47.53608 F2880
; ------------------------------------
; Layer #2
; ------------------------------------
G92 E0 ;reset extr
G0 F3000 E-1.00000
G0 F600 Z1.400
G0 X129.440 Y119.800 F7200
G0 X129.641 Y113.700
G0 X131.200 Y113.700
G0 X131.200 Y98.300
G0 X130.074 Y100.562
G0 F3000 E0.00000
;segType:Support
G1 X128.299 Y100.562 E0.02510 F1200
G1 X126.358 Y100.646 E0.05256
G1 X124.558 Y100.646 E0.07800
G0 F3000 E-0.92200
G0 X123.789 Y90.132 F7200
G0 F3000 E0.07800
;segType:HShell
G1 X114.618 Y80.961 E0.29369 F2880
G0 X113.916 Y80.780 F7200
;segType:Perimeter
G1 X113.760 Y80.200 E0.30367 F1440
G1 X146.300 Y80.200 E0.84480
G1 X146.300 Y119.800 E1.50334
G1 X113.700 Y119.800 E2.04547
G1 X113.700 Y80.260 E2.70301
G0 X113.760 Y80.200 F7200
G0 X115.360 Y80.200
G0 X114.800 Y80.600
;segType:Loop
G1 X145.900 Y80.600 E3.22019 F2880
G1 X145.900 Y119.400 E3.86543
G1 X114.100 Y119.400 E4.39425
G1 X114.100 Y80.600 E5.03949
G1 X114.600 Y80.600 E5.04780
G0 F3000 E4.04780
G0 X114.095 Y80.200 F7200
G0 X124.550 Y88.477
G0 X124.550 Y91.200
G0 X127.990 Y91.200
G0 X145.540 Y105.094
G0 F3000 E5.04780
;segType:HShell
G1 X131.210 Y90.764 E5.38480 F2880
G0 X131.190 Y91.200 F7200
;segType:Perimeter
G1 X130.390 Y91.200 E5.39810 F1440
G1 X124.550 Y91.200 E5.49523
G1 X124.550 Y87.300 E5.56010
G1 X130.450 Y87.300 E5.65823
G1 X130.450 Y91.140 E5.72210
G0 X130.390 Y91.200 F7200
G0 X128.790 Y91.200
G0 X129.350 Y91.600
;segType:Loop
G1 X124.150 Y91.600 E5.80859 F2880
G1 X124.150 Y86.900 E5.88677
G1 X130.850 Y86.900 E5.99820
G1 X130.850 Y91.600 E6.07637
G1 X129.550 Y91.600 E6.09799
G0 F3000 E5.09799
G0 X128.376 Y91.200 F7200
G0 X124.550 Y91.200
G0 X124.550 Y89.897
G0 X114.460 Y86.460
G0 F3000 E6.09799
;segType:HShell
G1 X125.296 Y97.295 E6.35283 F2880
G0 X125.861 Y97.087 F7200
;segType:Perimeter
G1 X125.670 Y96.310 E6.36614 F1440
G1 X125.563 Y95.894 E6.37328
G1 X125.563 Y95.405 E6.38141
G1 X125.685 Y94.931 E6.38955
G1 X125.921 Y94.503 E6.39769
G1 X126.256 Y94.146 E6.40582
G1 X126.669 Y93.884 E6.41396
G1 X127.134 Y93.733 E6.42210
G1 X127.622 Y93.702 E6.43023
G1 X128.103 Y93.793 E6.43837
G1 X128.546 Y94.002 E6.44651
G1 X128.923 Y94.314 E6.45465
G1 X129.211 Y94.710 E6.46278
G1 X129.391 Y95.165 E6.47092
G1 X129.452 Y95.650 E6.47906
G1 X129.391 Y96.136 E6.48720
G1 X129.211 Y96.590 E6.49533
G1 X128.923 Y96.986 E6.50347
G1 X128.546 Y97.298 E6.51161
G1 X128.103 Y97.506 E6.51974
G1 X127.623 Y97.598 E6.52788
G1 X127.134 Y97.568 E6.53602
G1 X126.669 Y97.416 E6.54416
G1 X126.256 Y97.154 E6.55229
G1 X125.921 Y96.797 E6.56043
G1 X125.714 Y96.421 E6.56757
G0 X125.670 Y96.310 F7200
G0 X125.563 Y95.894
G0 X125.563 Y95.405
G0 X125.685 Y94.931
G0 X125.778 Y94.763
G0 X125.188 Y95.258
;segType:Loop
G1 X125.310 Y94.783 E6.57572 F2880
G1 X125.595 Y94.266 E6.58554
G1 X125.999 Y93.835 E6.59536
G1 X126.497 Y93.519 E6.60518
G1 X127.059 Y93.336 E6.61499
G1 X127.648 Y93.300 E6.62481
G1 X128.228 Y93.410 E6.63463
G1 X128.762 Y93.662 E6.64445
G1 X129.217 Y94.038 E6.65427
G1 X129.564 Y94.515 E6.66408
G1 X129.781 Y95.064 E6.67390
G1 X129.855 Y95.650 E6.68372
G1 X129.781 Y96.236 E6.69354
G1 X129.564 Y96.785 E6.70336
G1 X129.217 Y97.262 E6.71317
G1 X128.762 Y97.639 E6.72299
G1 X128.672 Y97.681 E6.72465
G0 X128.634 Y97.804 F7200
G0 X128.502 Y97.834
G0 X128.369 Y97.863
G1 X128.129 Y97.904 E6.72862 F2880
G1 X128.014 Y97.915 E6.73038
G1 X127.900 Y97.926 E6.73204
G1 X127.786 Y97.937 E6.73360
G1 X127.671 Y97.947 E6.73505
G1 X127.557 Y97.947 E6.73650
G1 X127.443 Y97.944 E6.73799
G1 X127.329 Y97.940 E6.73950
G1 X127.214 Y97.936 E6.74105
G1 X127.100 Y97.933 E6.74264
G1 X126.986 Y97.919 E6.74437
G1 X126.871 Y97.901 E6.74628
G1 X126.757 Y97.883 E6.74836
G1 X126.643 Y97.865 E6.75062
G0 X126.372 Y97.809 F7200
G1 X126.338 Y97.680 E6.75283 F2880
G1 X125.999 Y97.465 E6.75952
G1 X125.595 Y97.034 E6.76934
G1 X125.310 Y96.517 E6.77916
G1 X125.163 Y95.945 E6.78898
G1 X125.163 Y95.455 E6.79713
G0 F3000 E5.79713
G0 X126.059 Y98.300 F7200
G0 X123.800 Y98.300
G0 X123.800 Y113.700
G0 X130.908 Y113.700
G0 X131.148 Y114.461
G0 F3000 E6.79713
;segType:HShell
G1 X135.727 Y119.039 E6.90482 F2880
G0 X135.161 Y119.039 F7200
G1 X130.582 Y114.461 E7.01250 F2880
G0 X131.140 Y113.700 F7200
;segType:Perimeter
G1 X123.800 Y113.700 E7.13458 F1440
G1 X123.800 Y98.300 E7.39070
G1 X131.200 Y98.300 E7.51378
G1 X131.200 Y113.640 E7.76889
G0 X131.140 Y113.700 F7200
G0 X129.540 Y113.700
G0 X130.100 Y114.100
;segType:Loop
G1 X128.814 Y114.100 E7.79028 F2880
G0 X128.700 Y114.192 F7200
G0 X128.586 Y114.185
G0 X128.471 Y114.160
G0 X128.357 Y114.134
G0 X128.243 Y114.108
G1 X128.129 Y114.096 E7.79215 F2880
G1 X128.014 Y114.085 E7.79391
G1 X127.900 Y114.074 E7.79557
G1 X127.786 Y114.063 E7.79713
G1 X127.671 Y114.053 E7.79858
G1 X127.557 Y114.053 E7.80003
G1 X127.443 Y114.056 E7.80151
G1 X127.329 Y114.060 E7.80303
G1 X127.214 Y114.064 E7.80458
G1 X127.100 Y114.067 E7.80616
G1 X126.986 Y114.081 E7.80789
G1 X126.871 Y114.099 E7.80980
G1 X126.757 Y114.117 E7.81189
G1 X126.643 Y114.135 E7.81414
G1 X126.529 Y114.146 E7.81648
G1 X126.414 Y114.179 E7.81924
G1 X126.300 Y114.100 E7.82154
G1 X123.400 Y114.100 E7.86978
G1 X123.400 Y97.900 E8.13920
G1 X126.300 Y97.900 E8.18743
G1 X126.414 Y97.821 E8.19064
G1 X126.529 Y97.855 E8.19307
G0 X126.643 Y97.865 F7200
G0 X126.986 Y97.919
G0 X127.100 Y97.933
G0 X127.557 Y97.947
G0 X127.671 Y97.947
G0 X128.129 Y97.904
G1 X128.243 Y97.892 E8.19506 F2880
G1 X128.357 Y97.866 E8.19733
G1 X128.471 Y97.841 E8.19986
G1 X128.586 Y97.815 E8.20263
G1 X128.700 Y97.808 E8.20540
G1 X128.814 Y97.900 E8.20783
G1 X131.600 Y97.900 E8.25416
G1 X131.600 Y114.100 E8.52358
G1 X130.300 Y114.100 E8.54520
G0 F3000 E7.54520
G0 X129.430 Y113.700 F7200
G0 X123.800 Y113.700
G0 X123.800 Y111.114
G0 X114.460 Y106.824
G0 F3000 E8.54520
;segType:HShell
G1 X124.968 Y117.331 E8.79231 F2880
G0 X125.861 Y117.787 F7200
;segType:Perimeter
G1 X125.670 Y117.011 E8.80562 F1440
G1 X125.563 Y116.595 E8.81276
G1 X125.563 Y116.105 E8.82089
G1 X125.685 Y115.632 E8.82903
G1 X125.921 Y115.203 E8.83717
G1 X126.256 Y114.846 E8.84530
G1 X126.669 Y114.584 E8.85344
G1 X127.134 Y114.433 E8.86158
G1 X127.622 Y114.402 E8.86972
G1 X128.103 Y114.494 E8.87785
G1 X128.546 Y114.702 E8.88599
G1 X128.923 Y115.014 E8.89413
G1 X129.211 Y115.410 E8.90227
G1 X129.391 Y115.865 E8.91040
G1 X129.452 Y116.350 E8.91854
G1 X129.391 Y116.835 E8.92667
G1 X129.211 Y117.290 E8.93481
G1 X128.923 Y117.686 E8.94295
G1 X128.546 Y117.998 E8.95109
G1 X128.103 Y118.206 E8.95923
G1 X127.622 Y118.298 E8.96736
G1 X127.134 Y118.267 E8.97550
G1 X126.669 Y118.116 E8.98364
G1 X126.256 Y117.854 E8.99177
G1 X125.921 Y117.497 E8.99991
G1 X125.714 Y117.121 E9.00705
G0 X125.670 Y117.011 F7200
G0 X125.563 Y116.595
G0 X125.563 Y116.105
G0 X125.685 Y115.632
G0 X125.778 Y115.463
G0 X125.188 Y115.958
;segType:Loop
G1 X125.310 Y115.483 E9.01520 F2880
G1 X125.595 Y114.966 E9.02502
G1 X125.999 Y114.535 E9.03484
G1 X126.377 Y114.296 E9.04228
G0 X126.643 Y114.135 F7200
G0 X126.986 Y114.081
G0 X127.100 Y114.067
G0 X127.557 Y114.053
G0 X127.671 Y114.053
G0 X128.129 Y114.096
G1 X128.451 Y114.155 E9.04921 F2880
G1 X128.583 Y114.184 E9.05240
G1 X128.630 Y114.299 E9.05447
G1 X128.762 Y114.362 E9.05690
G1 X129.217 Y114.738 E9.06672
G1 X129.564 Y115.215 E9.07654
G1 X129.781 Y115.764 E9.08635
G1 X129.855 Y116.350 E9.09617
G1 X129.781 Y116.936 E9.10599
G1 X129.564 Y117.485 E9.11580
G1 X129.217 Y117.962 E9.12562
G1 X128.762 Y118.339 E9.13544
G1 X128.228 Y118.590 E9.14526
G1 X127.648 Y118.701 E9.15508
G1 X127.059 Y118.663 E9.16490
G1 X126.497 Y118.481 E9.17471
G1 X125.999 Y118.165 E9.18453
G1 X125.595 Y117.734 E9.19435
G1 X125.310 Y117.217 E9.20417
G1 X125.163 Y116.645 E9.21399
G1 X125.163 Y116.155 E9.22214
G0 X125.386 Y114.505 F7200
;segType:InnerHair
G1 X125.500 Y114.493 E9.22398 F2880
G1 X125.614 Y114.444 E9.22546
G1 X125.729 Y114.394 E9.22643
G1 X125.686 Y114.413 E9.22687
G1 X125.573 Y114.462 E9.22851
G1 X125.460 Y114.510 E9.23066
G1 X125.386 Y114.505 E9.23193
G0 X125.271 Y114.807 F7200
;segType:HShell
G1 X124.925 Y114.461 E9.24006 F2880
G0 X124.360 Y114.461 F7200
G1 X125.070 Y115.172 E9.25678 F2880
G0 X124.913 Y115.580 F7200
G1 X123.794 Y114.461 E9.28312 F2880
G0 X123.228 Y114.461 F7200
G1 X124.803 Y116.036 E9.32016 F2880
G0 X114.460 Y107.390 F7200
G1 X126.110 Y119.039 E9.59414 F2880
G0 X125.544 Y119.039 F7200
G1 X114.460 Y107.956 E9.85482 F2880
G0 X114.460 Y108.521 F7200
G1 X124.979 Y119.039 E10.10219 F2880
G0 X124.413 Y119.039 F7200
G1 X114.460 Y109.087 E10.33626 F2880
G0 X114.460 Y109.653 F7200
G1 X123.847 Y119.039 E10.55702 F2880
G0 X123.282 Y119.039 F7200
G1 X114.460 Y110.218 E10.76448 F2880
G0 X114.460 Y110.784 F7200
G1 X122.716 Y119.039 E10.95863 F2880
G0 X122.150 Y119.039 F7200
G1 X114.460 Y111.350 E11.13949 F2880
G0 X114.460 Y111.915 F7200
G1 X121.585 Y119.039 E11.30703 F2880
G0 X121.019 Y119.039 F7200
G1 X114.460 Y112.481 E11.46128 F2880
G0 X114.460 Y113.047 F7200
G1 X120.453 Y119.039 E11.60222 F2880
G0 X119.887 Y119.039 F7200
G1 X114.460 Y113.612 E11.72985 F2880
G0 X114.460 Y114.178 F7200
G1 X119.322 Y119.039 E11.84418 F2880
G0 X118.756 Y119.039 F7200
G1 X114.460 Y114.744 E11.94521 F2880
G0 X114.460 Y115.309 F7200
G1 X118.190 Y119.039 E12.03293 F2880
G0 X117.625 Y119.039 F7200
G1 X114.460 Y115.875 E12.10735 F2880
G0 X114.460 Y116.441 F7200
G1 X117.059 Y119.039 E12.16847 F2880
G0 X116.493 Y119.039 F7200
G1 X114.460 Y117.007 E12.21628 F2880
G0 X114.460 Y117.572 F7200
G1 X115.928 Y119.039 E12.25078 F2880
G0 X115.362 Y119.039 F7200
G1 X114.460 Y118.138 E12.27199 F2880
G0 X114.460 Y118.704 F7200
G1 X114.796 Y119.039 E12.27988 F2880
G0 F3000 E11.27988
G0 X125.563 Y116.595 F7200
G0 X124.803 Y116.601
G0 F3000 E12.27988
G1 X114.460 Y106.259 E12.52313 F2880
G0 X114.460 Y105.693 F7200
G1 X123.039 Y114.272 E12.72490 F2880
G0 X123.039 Y113.706 F7200
G1 X114.460 Y105.127 E12.92666 F2880
G0 X114.460 Y104.561 F7200
G1 X123.039 Y113.140 E13.12842 F2880
G0 X123.039 Y112.575 F7200
G1 X114.460 Y103.996 E13.33019 F2880
G0 X114.460 Y103.430 F7200
G1 X123.039 Y112.009 E13.53195 F2880
G0 X123.039 Y111.443 F7200
G1 X114.460 Y102.864 E13.73371 F2880
G0 X114.460 Y102.299 F7200
G1 X123.039 Y110.878 E13.93548 F2880
G0 X123.039 Y110.312 F7200
G1 X114.460 Y101.733 E14.13724 F2880
G0 X114.460 Y101.167 F7200
G1 X123.039 Y109.746 E14.33900 F2880
G0 X123.039 Y109.181 F7200
G1 X114.460 Y100.602 E14.54076 F2880
G0 X114.460 Y100.036 F7200
G1 X123.039 Y108.615 E14.74253 F2880
G0 X123.039 Y108.049 F7200
G1 X114.460 Y99.470 E14.94429 F2880
G0 X114.460 Y98.905 F7200
G1 X123.039 Y107.484 E15.14605 F2880
G0 X123.039 Y106.918 F7200
G1 X114.460 Y98.339 E15.34782 F2880
G0 X114.460 Y97.773 F7200
G1 X123.039 Y106.352 E15.54958 F2880
G0 X123.039 Y105.787 F7200
G1 X114.460 Y97.208 E15.75134 F2880
G0 X114.460 Y96.642 F7200
G1 X123.039 Y105.221 E15.95311 F2880
G0 X123.039 Y104.655 F7200
G1 X114.460 Y96.076 E16.15487 F2880
G0 X114.460 Y95.511 F7200
G1 X123.039 Y104.089 E16.35663 F2880
G0 X123.039 Y103.524 F7200
G1 X114.460 Y94.945 E16.55840 F2880
G0 X114.460 Y94.379 F7200
G1 X123.039 Y102.958 E16.76016 F2880
G0 X123.039 Y102.392 F7200
G1 X114.460 Y93.813 E16.96192 F2880
G0 X114.460 Y93.248 F7200
G1 X123.039 Y101.827 E17.16369 F2880
G0 X123.039 Y101.261 F7200
G1 X114.460 Y92.682 E17.36545 F2880
G0 X114.460 Y92.116 F7200
G1 X123.039 Y100.695 E17.56721 F2880
G0 X123.039 Y100.130 F7200
G1 X114.460 Y91.551 E17.76897 F2880
G0 X114.460 Y90.985 F7200
G1 X123.039 Y99.564 E17.97074 F2880
G0 X123.039 Y98.998 F7200
G1 X114.460 Y90.419 E18.17250 F2880
G0 X114.460 Y89.854 F7200
G1 X123.039 Y98.433 E18.37426 F2880
G0 X123.039 Y97.867 F7200
G1 X114.460 Y89.288 E18.57603 F2880
G0 X114.460 Y88.722 F7200
G1 X123.278 Y97.540 E18.78340 F2880
G0 X123.843 Y97.540 F7200
G1 X114.460 Y88.157 E19.00407 F2880
G0 X114.460 Y87.591 F7200
G1 X124.409 Y97.540 E19.23805 F2880
G0 X124.975 Y97.540 F7200
G1 X114.460 Y87.025 E19.48533 F2880
G0 X114.460 Y81.368 F7200
G1 X123.789 Y90.697 E19.70473 F2880
G0 X123.789 Y91.263 F7200
G1 X114.460 Y81.934 E19.92414 F2880
G0 X114.460 Y82.500 F7200
G1 X123.789 Y91.829 E20.14354 F2880
G0 X123.921 Y91.960 F7200
G1 X125.646 Y93.685 E20.18410 F2880
G0 X125.960 Y93.433 F7200
G1 X124.487 Y91.960 E20.21875 F2880
G0 X125.053 Y91.960 F7200
G1 X126.306 Y93.214 E20.24822 F2880
G0 X126.724 Y93.067 F7200
G1 X125.618 Y91.960 E20.27424 F2880
G0 X126.184 Y91.960 F7200
G1 X127.191 Y92.967 E20.29792 F2880
G0 X127.740 Y92.950 F7200
G1 X126.750 Y91.960 E20.32121 F2880
G0 X127.315 Y91.960 F7200
G1 X128.490 Y93.136 E20.34885 F2880
G0 F3000 E19.34885
G0 X128.033 Y93.780 F7200
G0 X127.622 Y93.702
G0 X127.134 Y93.733
G0 X126.669 Y93.884
G0 X126.256 Y94.146
G0 X125.921 Y94.503
G0 X125.685 Y94.931
G0 X125.563 Y95.405
G0 X125.563 Y95.894
G0 X125.685 Y96.369
G0 X125.909 Y96.776
G0 X125.416 Y97.471
G0 F3000 E20.34885
;segType:InnerHair
G1 X125.529 Y97.520 E20.35068 F2880
G1 X125.642 Y97.569 E20.35202
G1 X125.755 Y97.617 E20.35287
G1 X125.729 Y97.606 E20.35309
G1 X125.614 Y97.557 E20.35457
G1 X125.500 Y97.507 E20.35657
G1 X125.386 Y97.495 E20.35853
G1 X125.416 Y97.471 E20.35926
G0 X124.888 Y96.322 F7200
;segType:HShell
G1 X114.460 Y85.894 E20.60451 F2880
G0 X114.460 Y85.328 F7200
G1 X124.803 Y95.671 E20.84776 F2880
G0 X124.845 Y95.147 F7200
G1 X114.460 Y84.762 E21.09199 F2880
G0 X114.460 Y84.197 F7200
G1 X124.960 Y94.697 E21.33893 F2880
G0 X125.152 Y94.323 F7200
G1 X114.460 Y83.631 E21.59038 F2880
G0 X114.460 Y83.065 F7200
G1 X125.372 Y93.977 E21.84700 F2880
G0 X123.789 Y89.566 F7200
G1 X115.184 Y80.961 E22.04939 F2880
G0 X115.750 Y80.961 F7200
G1 X123.789 Y89.000 E22.23847 F2880
G0 X123.789 Y88.435 F7200
G1 X116.315 Y80.961 E22.41425 F2880
G0 X116.881 Y80.961 F7200
G1 X123.789 Y87.869 E22.57673 F2880
G0 X123.789 Y87.303 F7200
G1 X117.447 Y80.961 E22.72590 F2880
G0 X118.012 Y80.961 F7200
G1 X123.789 Y86.738 E22.86177 F2880
G0 X124.157 Y86.539 F7200
G1 X118.578 Y80.961 E22.99298 F2880
G0 X119.144 Y80.961 F7200
G1 X124.723 Y86.539 E23.12418 F2880
G0 X125.288 Y86.539 F7200
G1 X119.709 Y80.961 E23.25539 F2880
G0 X120.275 Y80.961 F7200
G1 X125.854 Y86.539 E23.38660 F2880
G0 X126.420 Y86.539 F7200
G1 X120.841 Y80.961 E23.51781 F2880
G0 X121.407 Y80.961 F7200
G1 X126.985 Y86.539 E23.64902 F2880
G0 X127.551 Y86.539 F7200
G1 X121.972 Y80.961 E23.78023 F2880
G0 X122.538 Y80.961 F7200
G1 X128.117 Y86.539 E23.91143 F2880
G0 X128.682 Y86.539 F7200
G1 X123.104 Y80.961 E24.04264 F2880
G0 X123.669 Y80.961 F7200
G1 X129.248 Y86.539 E24.17385 F2880
G0 X129.814 Y86.539 F7200
G1 X124.235 Y80.961 E24.30506 F2880
G0 X124.801 Y80.961 F7200
G1 X130.380 Y86.539 E24.43626 F2880
G0 X130.945 Y86.539 F7200
G1 X125.366 Y80.961 E24.56747 F2880
G0 X125.932 Y80.961 F7200
G1 X145.540 Y100.568 E25.02861 F2880
G0 X145.540 Y100.002 F7200
G1 X126.498 Y80.961 E25.47644 F2880
G0 X127.063 Y80.961 F7200
G1 X145.540 Y99.437 E25.91097 F2880
G0 X145.540 Y98.871 F7200
G1 X127.629 Y80.961 E26.33220 F2880
G0 X128.195 Y80.961 F7200
G1 X145.540 Y98.305 E26.74012 F2880
G0 X145.540 Y97.740 F7200
G1 X128.760 Y80.961 E27.13474 F2880
G0 X129.326 Y80.961 F7200
G1 X145.540 Y97.174 E27.51606 F2880
G0 X145.540 Y96.608 F7200
G1 X129.892 Y80.961 E27.88407 F2880
G0 X130.458 Y80.961 F7200
G1 X145.540 Y96.043 E28.23877 F2880
G0 X145.540 Y95.477 F7200
G1 X131.023 Y80.961 E28.58018 F2880
G0 X131.589 Y80.961 F7200
G1 X145.540 Y94.911 E28.90827 F2880
G0 X145.540 Y94.346 F7200
G1 X132.155 Y80.961 E29.22307 F2880
G0 X132.720 Y80.961 F7200
G1 X145.540 Y93.780 E29.52456 F2880
G0 X145.540 Y93.214 F7200
G1 X133.286 Y80.961 E29.81275 F2880
G0 X133.852 Y80.961 F7200
G1 X145.540 Y92.648 E30.08763 F2880
G0 X145.540 Y92.083 F7200
G1 X134.417 Y80.961 E30.34921 F2880
G0 X134.983 Y80.961 F7200
G1 X145.540 Y91.517 E30.59748 F2880
G0 X145.540 Y90.951 F7200
G1 X135.549 Y80.961 E30.83245 F2880
G0 X136.114 Y80.961 F7200
G1 X145.540 Y90.386 E31.05412 F2880
G0 X145.540 Y89.820 F7200
G1 X136.680 Y80.961 E31.26248 F2880
G0 X137.246 Y80.961 F7200
G1 X145.540 Y89.254 E31.45754 F2880
G0 X145.540 Y88.689 F7200
G1 X137.811 Y80.961 E31.63929 F2880
G0 X138.377 Y80.961 F7200
G1 X145.540 Y88.123 E31.80774 F2880
G0 X145.540 Y87.557 F7200
G1 X138.943 Y80.961 E31.96288 F2880
G0 X139.508 Y80.961 F7200
G1 X145.540 Y86.992 E32.10473 F2880
G0 X145.540 Y86.426 F7200
G1 X140.074 Y80.961 E32.23326 F2880
G0 X140.640 Y80.961 F7200
G1 X145.540 Y85.860 E32.34850 F2880
G0 X145.540 Y85.295 F7200
G1 X141.206 Y80.961 E32.45043 F2880
G0 X141.771 Y80.961 F7200
G1 X145.540 Y84.729 E32.53905 F2880
G0 X145.540 Y84.163 F7200
G1 X142.337 Y80.961 E32.61437 F2880
G0 X142.903 Y80.961 F7200
G1 X145.540 Y83.597 E32.67639 F2880
G0 X145.540 Y83.032 F7200
G1 X143.468 Y80.961 E32.72510 F2880
G0 X144.034 Y80.961 F7200
G1 X145.540 Y82.466 E32.76051 F2880
G0 X145.540 Y81.900 F7200
G1 X144.600 Y80.961 E32.78262 F2880
G0 X145.165 Y80.961 F7200
G1 X145.540 Y81.335 E32.79142 F2880
G0 X131.763 Y97.540 F7200
G1 X130.179 Y95.956 E32.82866 F2880
G0 X130.091 Y96.433 F7200
G1 X131.197 Y97.540 E32.85469 F2880
G0 X130.632 Y97.540 F7200
G1 X129.930 Y96.838 E32.87119 F2880
G0 X129.715 Y97.189 F7200
G1 X130.066 Y97.540 E32.87944 F2880
G0 X129.594 Y97.472 F7200
;segType:InnerHair
G1 X129.486 Y97.525 E32.88118 F2880
G1 X129.367 Y97.568 E32.88257
G1 X129.248 Y97.611 E32.88350
G1 X129.271 Y97.603 E32.88369
G1 X129.386 Y97.578 E32.88488
G1 X129.500 Y97.519 E32.88680
G1 X129.594 Y97.472 E32.88880
G0 F3000 E31.88880
G0 X131.210 Y90.199 F7200
G0 F3000 E32.88880
;segType:HShell
G1 X145.540 Y104.528 E33.22580 F2880
G0 X145.540 Y103.962 F7200
G1 X131.210 Y89.633 E33.56280 F2880
G0 X131.210 Y89.067 F7200
G1 X145.540 Y103.396 E33.89980 F2880
G0 X145.540 Y102.831 F7200
G1 X131.210 Y88.502 E34.23679 F2880
G0 X131.210 Y87.936 F7200
G1 X145.540 Y102.265 E34.57379 F2880
G0 X145.540 Y101.699 F7200
G1 X131.210 Y87.370 E34.91079 F2880
G0 X131.210 Y86.805 F7200
G1 X145.540 Y101.134 E35.24779 F2880
G0 X145.540 Y105.659 F7200
G1 X131.210 Y91.330 E35.58479 F2880
G0 X131.210 Y91.896 F7200
G1 X145.540 Y106.225 E35.92178 F2880
G0 X145.540 Y106.791 F7200
G1 X130.709 Y91.960 E36.27057 F2880
G0 X130.144 Y91.960 F7200
G1 X145.540 Y107.356 E36.63265 F2880
G0 X145.540 Y107.922 F7200
G1 X129.578 Y91.960 E37.00805 F2880
G0 X129.012 Y91.960 F7200
G1 X145.540 Y108.488 E37.39674 F2880
G0 X145.540 Y109.053 F7200
G1 X128.447 Y91.960 E37.79874 F2880
G0 X127.881 Y91.960 F7200
G1 X145.540 Y109.619 E38.21404 F2880
G0 X145.540 Y110.185 F7200
G1 X130.004 Y94.650 E38.57941 F2880
G0 X130.186 Y95.397 F7200
G1 X145.540 Y110.750 E38.94050 F2880
G0 X145.540 Y111.316 F7200
G1 X131.961 Y97.737 E39.25985 F2880
G0 X131.961 Y98.303 F7200
G1 X145.540 Y111.882 E39.57921 F2880
G0 X145.540 Y112.447 F7200
G1 X131.961 Y98.868 E39.89857 F2880
G0 X131.961 Y99.434 F7200
G1 X145.540 Y113.013 E40.21793 F2880
G0 X145.540 Y113.579 F7200
G1 X131.961 Y100.000 E40.53729 F2880
G0 X131.961 Y100.566 F7200
G1 X145.540 Y114.145 E40.85665 F2880
G0 X145.540 Y114.710 F7200
G1 X131.961 Y101.131 E41.17601 F2880
G0 X131.961 Y101.697 F7200
G1 X145.540 Y115.276 E41.49537 F2880
G0 X145.540 Y115.842 F7200
G1 X131.961 Y102.263 E41.81473 F2880
G0 X131.961 Y102.828 F7200
G1 X145.540 Y116.407 E42.13409 F2880
G0 X145.540 Y116.973 F7200
G1 X131.961 Y103.394 E42.45344 F2880
G0 X131.961 Y103.960 F7200
G1 X145.540 Y117.539 E42.77280 F2880
G0 X145.540 Y118.104 F7200
G1 X131.961 Y104.525 E43.09216 F2880
G0 X131.961 Y105.091 F7200
G1 X145.540 Y118.670 E43.41152 F2880
G0 X145.343 Y119.039 F7200
G1 X131.961 Y105.657 E43.72626 F2880
G0 X131.961 Y106.222 F7200
G1 X144.778 Y119.039 E44.02770 F2880
G0 X144.212 Y119.039 F7200
G1 X131.961 Y106.788 E44.31584 F2880
G0 X131.961 Y107.354 F7200
G1 X143.646 Y119.039 E44.59067 F2880
G0 X143.081 Y119.039 F7200
G1 X131.961 Y107.919 E44.85219 F2880
G0 X131.961 Y108.485 F7200
G1 X142.515 Y119.039 E45.10042 F2880
G0 X141.949 Y119.039 F7200
G1 X131.961 Y109.051 E45.33533 F2880
G0 X131.961 Y109.616 F7200
G1 X141.384 Y119.039 E45.55695 F2880
G0 X140.818 Y119.039 F7200
G1 X131.961 Y110.182 E45.76526 F2880
G0 X131.961 Y110.748 F7200
G1 X140.252 Y119.039 E45.96026 F2880
G0 X139.686 Y119.039 F7200
G1 X131.961 Y111.314 E46.14197 F2880
G0 X131.961 Y111.879 F7200
G1 X139.121 Y119.039 E46.31036 F2880
G0 X138.555 Y119.039 F7200
G1 X131.961 Y112.445 E46.46546 F2880
G0 X131.961 Y113.011 F7200
G1 X137.989 Y119.039 E46.60725 F2880
G0 X137.424 Y119.039 F7200
G1 X131.961 Y113.576 E46.73573 F2880
G0 X131.961 Y114.142 F7200
G1 X136.858 Y119.039 E46.85091 F2880
G0 X136.292 Y119.039 F7200
G1 X131.713 Y114.461 E46.95860 F2880
G0 X129.553 Y114.507 F7200
;segType:InnerHair
G1 X129.440 Y114.458 E46.96021 F2880
G1 X129.322 Y114.415 E46.96142
G1 X129.271 Y114.397 E46.96185
G1 X129.386 Y114.422 E46.96304
G1 X129.500 Y114.481 E46.96496
G1 X129.553 Y114.507 E46.96598
G0 X130.016 Y114.461 F7200
;segType:HShell
G1 X134.595 Y119.039 E47.07367 F2880
G0 X134.030 Y119.039 F7200
G1 X129.592 Y114.602 E47.17803 F2880
G0 X130.138 Y115.713 F7200
G1 X133.464 Y119.039 E47.25625 F2880
G0 X132.898 Y119.039 F7200
G1 X130.217 Y116.358 E47.31931 F2880
G0 X130.154 Y116.861 F7200
G1 X132.333 Y119.039 E47.37055 F2880
G0 X131.767 Y119.039 F7200
G1 X130.025 Y117.298 E47.41151 F2880
G0 X129.856 Y117.695 F7200
G1 X131.201 Y119.039 E47.44314 F2880
G0 X130.636 Y119.039 F7200
G1 X129.618 Y118.022 E47.46706 F2880
G0 X129.350 Y118.320 F7200
G1 X130.070 Y119.039 E47.48399 F2880
G0 X129.505 Y118.757 F7200
G1 X128.807 Y118.908 E47.51367 F2880
G0 X126.495 Y118.859 F7200
G1 X126.528 Y118.892 E47.51444 F2880
G0 X126.643 Y118.975 F7200
;segType:InnerHair
G1 X126.757 Y118.993 E47.51643 F2880
G1 X126.871 Y119.011 E47.51824
G1 X126.986 Y119.029 E47.51988
G1 X127.100 Y119.033 E47.52146
G1 X127.214 Y119.037 E47.52301
G1 X127.329 Y119.040 E47.52453
G1 X127.443 Y119.044 E47.52601
G1 X127.557 Y119.048 E47.52745
G1 X127.671 Y119.051 E47.52886
G1 X127.786 Y119.040 E47.53039
G1 X127.900 Y119.029 E47.53201
G1 X128.014 Y119.019 E47.53374
G1 X128.129 Y119.008 E47.53557
G1 X128.243 Y118.997 E47.53750
G1 X128.357 Y118.986 E47.53955
G1 X128.471 Y118.960 E47.54187
; ------------------------------------
; Layer #3
; ------------------------------------
G92 E0 ;reset extr
G0 F3000 E-1.00000
G0 F600 Z1.500
G0 X128.230 Y118.147 F7200
G0 X128.546 Y117.998
G0 X128.923 Y117.686
G0 X129.211 Y117.290
G0 X129.391 Y116.835
G0 X129.452 Y116.350
G0 X129.391 Y115.865
G0 X129.211 Y115.410
G0 X128.923 Y115.014
G0 X128.546 Y114.702
G0 X128.103 Y114.494
G0 X127.622 Y114.402
G0 X127.134 Y114.433
G0 X127.129 Y114.434
G0 X126.911 Y113.700
G0 X123.800 Y113.700
G0 X123.800 Y103.212
G0 X116.973 Y80.200
G0 X117.198 Y80.960
G0 F3000 E0.00000
;segType:HShell
G1 X114.460 Y83.698 E0.06439 F2880
G0 X114.460 Y83.133 F7200
G1 X116.633 Y80.960 E0.11548 F2880
G0 X116.067 Y80.960 F7200
G1 X114.460 Y82.567 E0.15326 F2880
G0 X114.460 Y82.001 F7200
G1 X115.501 Y80.960 E0.17774 F2880
G0 X114.936 Y80.960 F7200
G1 X114.460 Y81.436 E0.18892 F2880
G0 X113.916 Y80.780 F7200
;segType:Perimeter
G1 X113.760 Y80.200 E0.19889 F1440
G1 X146.300 Y80.200 E0.74003
G1 X146.300 Y119.800 E1.39856
G1 X113.700 Y119.800 E1.94069
G1 X113.700 Y80.260 E2.59823
G0 X113.760 Y80.200 F7200
G0 X115.360 Y80.200
G0 X114.800 Y80.600
;segType:Loop
G1 X145.900 Y80.600 E3.11542 F2880
G1 X145.900 Y119.400 E3.76065
G1 X114.100 Y119.400 E4.28947
G1 X114.100 Y80.600 E4.93471
G1 X114.600 Y80.600 E4.94302
G0 F3000 E3.94302
G0 X141.523 Y80.961 F7200
G0 F3000 E4.94302
;segType:HShell
G1 X131.210 Y91.273 E5.18555 F2880
G0 X131.190 Y91.200 F7200
;segType:Perimeter
G1 X130.390 Y91.200 E5.19886 F1440
G1 X124.550 Y91.200 E5.29599
G1 X124.550 Y87.300 E5.36086
G1 X130.450 Y87.300 E5.45899
G1 X130.450 Y91.140 E5.52286
G0 X130.390 Y91.200 F7200
G0 X128.790 Y91.200
G0 X129.350 Y91.600
;segType:Loop
G1 X124.150 Y91.600 E5.60935 F2880
G1 X124.150 Y86.900 E5.68752
G1 X130.850 Y86.900 E5.79895
G1 X130.850 Y91.600 E5.87713
G1 X129.550 Y91.600 E5.89875
G0 F3000 E4.89875
G0 X129.977 Y91.200 F7200
G0 X127.288 Y93.723
G0 X127.134 Y93.733
G0 X126.669 Y93.884
G0 X126.256 Y94.146
G0 X125.921 Y94.503
G0 X125.685 Y94.931
G0 X125.585 Y95.321
G0 X114.460 Y105.760
G0 F3000 E5.89875
;segType:HShell
G1 X124.803 Y95.417 E6.14200 F2880
G0 X124.803 Y95.983 F7200
G1 X123.247 Y97.540 E6.17860 F2880
G0 X123.812 Y97.540 F7200
G1 X124.917 Y96.435 E6.20459 F2880
G0 X125.077 Y96.841 F7200
G1 X124.378 Y97.540 E6.22103 F2880
G0 X125.278 Y97.205 F7200
G1 X124.944 Y97.540 E6.22889 F2880
G0 X125.861 Y97.087 F7200
;segType:Perimeter
G1 X125.670 Y96.310 E6.24219 F1440
G1 X125.563 Y95.894 E6.24933
G1 X125.563 Y95.405 E6.25747
G1 X125.685 Y94.931 E6.26560
G1 X125.921 Y94.503 E6.27374
G1 X126.256 Y94.146 E6.28188
G1 X126.669 Y93.884 E6.29002
G1 X127.134 Y93.733 E6.29815
G1 X127.622 Y93.702 E6.30629
G1 X128.103 Y93.793 E6.31443
G1 X128.546 Y94.002 E6.32257
G1 X128.923 Y94.314 E6.33070
G1 X129.211 Y94.710 E6.33884
G1 X129.391 Y95.165 E6.34698
G1 X129.452 Y95.650 E6.35511
G1 X129.391 Y96.136 E6.36325
G1 X129.211 Y96.590 E6.37139
G1 X128.923 Y96.986 E6.37952
G1 X128.546 Y97.298 E6.38766
G1 X128.103 Y97.506 E6.39580
G1 X127.623 Y97.598 E6.40394
G1 X127.134 Y97.568 E6.41207
G1 X126.669 Y97.416 E6.42021
G1 X126.256 Y97.154 E6.42835
G1 X125.921 Y96.797 E6.43649
G1 X125.714 Y96.421 E6.44362
G0 X125.670 Y96.310 F7200
G0 X125.563 Y95.894
G0 X125.563 Y95.405
G0 X125.685 Y94.931
G0 X125.778 Y94.763
G0 X125.188 Y95.258
;segType:Loop
G1 X125.310 Y94.783 E6.45178 F2880
G1 X125.595 Y94.266 E6.46160
G1 X125.999 Y93.835 E6.47141
G1 X126.497 Y93.519 E6.48123
G1 X127.059 Y93.336 E6.49105
G1 X127.648 Y93.300 E6.50087
G1 X128.228 Y93.410 E6.51068
G1 X128.762 Y93.662 E6.52051
G1 X129.217 Y94.038 E6.53032
G1 X129.564 Y94.515 E6.54014
G1 X129.781 Y95.064 E6.54996
G1 X129.855 Y95.650 E6.55978
G1 X129.781 Y96.236 E6.56959
G1 X129.564 Y96.785 E6.57941
G1 X129.217 Y97.262 E6.58923
G1 X128.762 Y97.639 E6.59905
G1 X128.672 Y97.681 E6.60070
G0 X128.634 Y97.804 F7200
G0 X128.502 Y97.834
G0 X128.369 Y97.863
G1 X128.129 Y97.904 E6.60467 F2880
G1 X128.014 Y97.915 E6.60644
G1 X127.900 Y97.926 E6.60810
G1 X127.786 Y97.937 E6.60965
G1 X127.671 Y97.947 E6.61111
G1 X127.557 Y97.947 E6.61256
G1 X127.443 Y97.944 E6.61404
G1 X127.329 Y97.940 E6.61556
G1 X127.214 Y97.936 E6.61711
G1 X127.100 Y97.933 E6.61870
G1 X126.986 Y97.919 E6.62042
G1 X126.871 Y97.901 E6.62233
G1 X126.757 Y97.883 E6.62442
G1 X126.643 Y97.865 E6.62668
G0 X126.372 Y97.809 F7200
G1 X126.338 Y97.680 E6.62888 F2880
G1 X125.999 Y97.465 E6.63558
G1 X125.595 Y97.034 E6.64539
G1 X125.310 Y96.517 E6.65521
G1 X125.163 Y95.945 E6.66503
G1 X125.163 Y95.455 E6.67318
G0 F3000 E5.67318
G0 X125.563 Y95.558 F7200
G0 X125.563 Y95.894
G0 X125.685 Y96.369
G0 X125.921 Y96.797
G0 X126.256 Y97.154
G0 X126.669 Y97.416
G0 X127.134 Y97.568
G0 X127.623 Y97.598
G0 X128.103 Y97.506
G0 X128.546 Y97.298
G0 X128.923 Y96.986
G0 X129.211 Y96.590
G0 X129.244 Y96.506
G0 X146.300 Y100.898
G0 X145.540 Y100.703
G0 F3000 E6.67318
;segType:HShell
G1 X131.961 Y114.282 E6.99254 F2880
G0 X131.782 Y114.461 F7200
G1 X130.182 Y116.061 E7.03017 F2880
G0 X129.723 Y114.822 F7200
G1 X130.085 Y114.461 E7.03867 F2880
G0 X130.650 Y114.461 F7200
G1 X129.935 Y115.175 E7.05548 F2880
G0 X130.096 Y115.581 F7200
G1 X131.216 Y114.461 E7.08182 F2880
G0 X131.140 Y113.700 F7200
;segType:Perimeter
G1 X123.800 Y113.700 E7.20390 F1440
G1 X123.800 Y98.300 E7.46002
G1 X131.200 Y98.300 E7.58309
G1 X131.200 Y113.640 E7.83821
G0 X131.140 Y113.700 F7200
G0 X129.540 Y113.700
G0 X130.100 Y114.100
;segType:Loop
G1 X128.814 Y114.100 E7.85960 F2880
G0 X128.700 Y114.192 F7200
G0 X128.586 Y114.185
G0 X128.471 Y114.160
G0 X128.357 Y114.134
G0 X128.243 Y114.108
G1 X128.129 Y114.096 E7.86147 F2880
G1 X128.014 Y114.085 E7.86323
G1 X127.900 Y114.074 E7.86489
G1 X127.786 Y114.063 E7.86644
G1 X127.671 Y114.053 E7.86789
G1 X127.557 Y114.053 E7.86934
G1 X127.443 Y114.056 E7.87083
G1 X127.329 Y114.060 E7.87234
G1 X127.214 Y114.064 E7.87390
G1 X127.100 Y114.067 E7.87548
G1 X126.986 Y114.081 E7.87721
G1 X126.871 Y114.099 E7.87912
G1 X126.757 Y114.117 E7.88120
G1 X126.643 Y114.135 E7.88346
G1 X126.529 Y114.146 E7.88580
G1 X126.414 Y114.179 E7.88856
G1 X126.300 Y114.100 E7.89086
G1 X123.400 Y114.100 E7.93910
G1 X123.400 Y97.900 E8.20851
G1 X126.300 Y97.900 E8.25675
G1 X126.414 Y97.821 E8.25996
G1 X126.529 Y97.855 E8.26238
G0 X126.643 Y97.865 F7200
G0 X126.986 Y97.919
G0 X127.100 Y97.933
G0 X127.557 Y97.947
G0 X127.671 Y97.947
G0 X128.129 Y97.904
G1 X128.243 Y97.892 E8.26437 F2880
G1 X128.357 Y97.866 E8.26665
G1 X128.471 Y97.841 E8.26917
G1 X128.586 Y97.815 E8.27194
G1 X128.700 Y97.808 E8.27471
G1 X128.814 Y97.900 E8.27715
G1 X131.600 Y97.900 E8.32348
G1 X131.600 Y114.100 E8.59290
G1 X130.300 Y114.100 E8.61452
G0 F3000 E7.61452
G0 X130.821 Y113.700 F7200
G0 X131.200 Y113.700
G0 X131.200 Y113.409
G0 X145.540 Y102.400
G0 F3000 E8.61452
;segType:HShell
G1 X128.900 Y119.039 E9.00586 F2880
G0 X128.471 Y118.960 F7200
;segType:InnerHair
G1 X128.357 Y118.986 E9.00794 F2880
G1 X128.243 Y118.997 E9.00988
G1 X128.129 Y119.008 E9.01171
G1 X128.014 Y119.019 E9.01343
G1 X127.900 Y119.029 E9.01506
G1 X127.786 Y119.040 E9.01658
G1 X127.671 Y119.051 E9.01800
G1 X127.557 Y119.048 E9.01944
G1 X127.443 Y119.044 E9.02092
G1 X127.329 Y119.040 E9.02244
G1 X127.214 Y119.037 E9.02399
G1 X127.100 Y119.033 E9.02557
G1 X126.986 Y119.029 E9.02719
G1 X126.871 Y119.011 E9.02900
G1 X126.757 Y118.993 E9.03099
G1 X126.643 Y118.975 E9.03315
G0 X126.071 Y119.039 F7200
;segType:HShell
G0 X126.422 Y118.971
G1 X125.738 Y118.807 E9.05484 F2880
G0 X124.940 Y119.039 F7200
G1 X125.655 Y118.325 E9.07166 F2880
G0 X125.861 Y117.787 F7200
;segType:Perimeter
G1 X125.670 Y117.011 E9.08496 F1440
G1 X125.563 Y116.595 E9.09210
G1 X125.563 Y116.105 E9.10024
G1 X125.685 Y115.632 E9.10837
G1 X125.921 Y115.203 E9.11651
G1 X126.256 Y114.846 E9.12465
G1 X126.669 Y114.584 E9.13278
G1 X127.134 Y114.433 E9.14092
G1 X127.622 Y114.402 E9.14906
G1 X128.103 Y114.494 E9.15720
G1 X128.546 Y114.702 E9.16534
G1 X128.923 Y115.014 E9.17347
G1 X129.211 Y115.410 E9.18161
G1 X129.391 Y115.865 E9.18975
G1 X129.452 Y116.350 E9.19788
G1 X129.391 Y116.835 E9.20602
G1 X129.211 Y117.290 E9.21415
G1 X128.923 Y117.686 E9.22229
G1 X128.546 Y117.998 E9.23043
G1 X128.103 Y118.206 E9.23857
G1 X127.622 Y118.298 E9.24671
G1 X127.134 Y118.267 E9.25484
G1 X126.669 Y118.116 E9.26298
G1 X126.256 Y117.854 E9.27112
G1 X125.921 Y117.497 E9.27925
G1 X125.714 Y117.121 E9.28639
G0 X125.670 Y117.011 F7200
G0 X125.563 Y116.595
G0 X125.563 Y116.105
G0 X125.685 Y115.632
G0 X125.778 Y115.463
G0 X125.188 Y115.958
;segType:Loop
G1 X125.310 Y115.483 E9.29454 F2880
G1 X125.595 Y114.966 E9.30437
G1 X125.999 Y114.535 E9.31418
G1 X126.377 Y114.296 E9.32162
G0 X126.643 Y114.135 F7200
G0 X126.986 Y114.081
G0 X127.100 Y114.067
G0 X127.557 Y114.053
G0 X127.671 Y114.053
G0 X128.129 Y114.096
G1 X128.451 Y114.155 E9.32855 F2880
G1 X128.583 Y114.184 E9.33175
G1 X128.630 Y114.299 E9.33381
G1 X128.762 Y114.362 E9.33624
G1 X129.217 Y114.738 E9.34606
G1 X129.564 Y115.215 E9.35588
G1 X129.781 Y115.764 E9.36570
G1 X129.855 Y116.350 E9.37551
G1 X129.781 Y116.936 E9.38533
G1 X129.564 Y117.485 E9.39515
G1 X129.217 Y117.962 E9.40496
G1 X128.762 Y118.339 E9.41478
G1 X128.228 Y118.590 E9.42460
G1 X127.648 Y118.701 E9.43442
G1 X127.059 Y118.663 E9.44424
G1 X126.497 Y118.481 E9.45405
G1 X125.999 Y118.165 E9.46388
G1 X125.595 Y117.734 E9.47369
G1 X125.310 Y117.217 E9.48351
G1 X125.163 Y116.645 E9.49333
G1 X125.163 Y116.155 E9.50148
G0 X125.386 Y114.505 F7200
;segType:InnerHair
G1 X125.500 Y114.493 E9.50332 F2880
G1 X125.614 Y114.444 E9.50480
G1 X125.729 Y114.394 E9.50577
G1 X125.686 Y114.413 E9.50621
G1 X125.573 Y114.462 E9.50786
G1 X125.460 Y114.510 E9.51000
G1 X125.386 Y114.505 E9.51127
G0 F3000 E8.51127
G0 X125.585 Y113.700 F7200
G0 X123.800 Y113.700
G0 X123.800 Y98.300
G0 X129.389 Y98.300
G0 X129.594 Y97.472
G0 F3000 E9.51127
G1 X129.486 Y97.525 E9.51302 F2880
G1 X129.367 Y97.568 E9.51440
G1 X129.248 Y97.611 E9.51533
G1 X129.271 Y97.603 E9.51553
G1 X129.386 Y97.578 E9.51672
G1 X129.500 Y97.519 E9.51864
G1 X129.594 Y97.472 E9.52064
G0 F3000 E8.52064
G0 X128.178 Y97.471 F7200
G0 X128.103 Y97.506
G0 X127.623 Y97.598
G0 X127.134 Y97.568
G0 X126.838 Y97.471
G0 X125.416 Y97.471
G0 F3000 E9.52064
G1 X125.529 Y97.520 E9.52248 F2880
G1 X125.642 Y97.569 E9.52382
G1 X125.755 Y97.617 E9.52466
G1 X125.729 Y97.606 E9.52488
G1 X125.614 Y97.557 E9.52636
G1 X125.500 Y97.507 E9.52836
G1 X125.386 Y97.495 E9.53032
G1 X125.416 Y97.471 E9.53106
G0 X124.961 Y94.694 F7200
;segType:HShell
G1 X114.460 Y105.194 E9.77802 F2880
G0 X114.460 Y104.629 F7200
G1 X127.129 Y91.960 E10.07596 F2880
G0 X126.563 Y91.960 F7200
G1 X114.460 Y104.063 E10.36060 F2880
G0 X114.460 Y103.497 F7200
G1 X125.997 Y91.960 E10.63193 F2880
G0 X125.432 Y91.960 F7200
G1 X114.460 Y102.932 E10.88996 F2880
G0 X114.460 Y102.366 F7200
G1 X124.866 Y91.960 E11.13468 F2880
G0 X124.300 Y91.960 F7200
G1 X114.460 Y101.800 E11.36610 F2880
G0 X114.460 Y101.235 F7200
G1 X123.789 Y91.906 E11.58551 F2880
G0 X123.789 Y91.340 F7200
G1 X114.460 Y100.669 E11.80491 F2880
G0 X114.460 Y100.103 F7200
G1 X123.789 Y90.774 E12.02432 F2880
G0 X123.789 Y90.209 F7200
G1 X114.460 Y99.538 E12.24372 F2880
G0 X114.460 Y98.972 F7200
G1 X123.789 Y89.643 E12.46312 F2880
G0 X123.789 Y89.077 F7200
G1 X114.460 Y98.406 E12.68253 F2880
G0 X114.460 Y97.841 F7200
G1 X123.789 Y88.512 E12.90193 F2880
G0 X123.789 Y87.946 F7200
G1 X114.460 Y97.275 E13.12134 F2880
G0 X114.460 Y96.709 F7200
G1 X123.789 Y87.380 E13.34074 F2880
G0 X123.789 Y86.814 F7200
G1 X114.460 Y96.143 E13.56015 F2880
G0 X114.460 Y95.578 F7200
G1 X129.078 Y80.961 E13.90392 F2880
G0 X128.512 Y80.961 F7200
G1 X114.460 Y95.012 E14.23439 F2880
G0 X114.460 Y94.446 F7200
G1 X127.946 Y80.961 E14.55156 F2880
G0 X127.381 Y80.961 F7200
G1 X114.460 Y93.881 E14.85543 F2880
G0 X114.460 Y93.315 F7200
G1 X126.815 Y80.961 E15.14599 F2880
G0 X126.249 Y80.961 F7200
G1 X114.460 Y92.749 E15.42324 F2880
G0 X114.460 Y92.184 F7200
G1 X125.684 Y80.961 E15.68719 F2880
G0 X125.118 Y80.961 F7200
G1 X114.460 Y91.618 E15.93784 F2880
G0 X114.460 Y91.052 F7200
G1 X124.552 Y80.961 E16.17518 F2880
G0 X123.987 Y80.961 F7200
G1 X114.460 Y90.487 E16.39922 F2880
G0 X114.460 Y89.921 F7200
G1 X123.421 Y80.961 E16.60996 F2880
G0 X122.855 Y80.960 F7200
G1 X114.460 Y89.355 E16.80739 F2880
G0 X114.460 Y88.790 F7200
G1 X122.290 Y80.960 E16.99152 F2880
G0 X121.724 Y80.960 F7200
G1 X114.460 Y88.224 E17.16234 F2880
G0 X114.460 Y87.658 F7200
G1 X121.158 Y80.960 E17.31986 F2880
G0 X120.592 Y80.960 F7200
G1 X114.460 Y87.093 E17.46408 F2880
G0 X114.460 Y86.527 F7200
G1 X120.027 Y80.960 E17.59499 F2880
G0 X119.461 Y80.960 F7200
G1 X114.460 Y85.961 E17.71260 F2880
G0 X114.460 Y85.395 F7200
G1 X118.895 Y80.960 E17.81690 F2880
G0 X118.330 Y80.960 F7200
G1 X114.460 Y84.830 E17.90790 F2880
G0 X114.460 Y84.264 F7200
G1 X117.764 Y80.960 E17.98559 F2880
G0 X124.065 Y86.539 F7200
G1 X129.643 Y80.961 E18.11680 F2880
G0 X130.209 Y80.961 F7200
G1 X124.630 Y86.539 E18.24801 F2880
G0 X125.196 Y86.539 F7200
G1 X130.775 Y80.961 E18.37922 F2880
G0 X131.340 Y80.961 F7200
G1 X125.762 Y86.539 E18.51043 F2880
G0 X126.327 Y86.539 F7200
G1 X131.906 Y80.961 E18.64164 F2880
G0 X132.472 Y80.961 F7200
G1 X126.893 Y86.539 E18.77284 F2880
G0 X127.459 Y86.539 F7200
G1 X133.038 Y80.961 E18.90405 F2880
G0 X133.603 Y80.961 F7200
G1 X128.024 Y86.539 E19.03526 F2880
G0 X128.590 Y86.539 F7200
G1 X134.169 Y80.961 E19.16647 F2880
G0 X134.735 Y80.961 F7200
G1 X129.156 Y86.539 E19.29768 F2880
G0 X129.721 Y86.539 F7200
G1 X135.300 Y80.961 E19.42889 F2880
G0 X135.866 Y80.961 F7200
G1 X130.287 Y86.539 E19.56009 F2880
G0 X130.853 Y86.539 F7200
G1 X136.432 Y80.961 E19.69130 F2880
G0 X136.997 Y80.961 F7200
G1 X131.210 Y86.747 E19.82740 F2880
G0 X131.210 Y87.313 F7200
G1 X137.563 Y80.961 E19.97680 F2880
G0 X138.129 Y80.961 F7200
G1 X131.210 Y87.879 E20.13951 F2880
G0 X131.210 Y88.444 F7200
G1 X138.694 Y80.961 E20.31552 F2880
G0 X139.260 Y80.961 F7200
G1 X131.210 Y89.010 E20.50483 F2880
G0 X131.210 Y89.576 F7200
G1 X139.826 Y80.961 E20.70745 F2880
G0 X140.391 Y80.961 F7200
G1 X131.210 Y90.142 E20.92337 F2880
G0 X131.210 Y90.707 F7200
G1 X140.957 Y80.961 E21.15260 F2880
G0 F3000 E20.15260
G0 X130.450 Y89.675 F7200
G0 X130.450 Y91.200
G0 X128.611 Y91.200
G0 X127.694 Y91.960
G0 F3000 E21.15260
G1 X126.523 Y93.132 E21.18016 F2880
G0 X127.257 Y92.963 F7200
G1 X128.260 Y91.960 E21.20374 F2880
G0 X128.826 Y91.960 F7200
G1 X127.820 Y92.966 E21.22739 F2880
G0 X128.296 Y93.056 F7200
G1 X129.392 Y91.960 E21.25316 F2880
G0 X129.957 Y91.960 F7200
G1 X128.689 Y93.229 E21.28299 F2880
