; generated by Slic3r 1.3.0 on 2021-01-26 at 23:11:42

; external perimeters extrusion width = 0.55mm (1.06mm^3/s)
; perimeters extrusion width = 0.70mm (2.71mm^3/s)
; infill extrusion width = 0.62mm (3.62mm^3/s)
; solid infill extrusion width = 0.70mm (1.36mm^3/s)
; top infill extrusion width = 0.70mm (1.02mm^3/s)
; support material extrusion width = 0.55mm (3.17mm^3/s)

M107
M190 S60 ; set bed temperature and wait for it to be reached
M104 S215 ; set temperature
G28 ; home all axes
G1 Z5 F5000 ; lift nozzle

; Filament gcode

M109 S215 ; set temperature and wait for it to be reached
G21 ; set units to millimeters
G90 ; use absolute coordinates
M82 ; use absolute distances for extrusion
G92 E0
G1 Z0.200 F7800.000
G1 E-2.00000 F2400.00000
G92 E0
G1 X117.472 Y79.029 F7800.000
G1 E2.00000 F2400.00000
G1 F1800
G1 X82.528 Y79.029 E2.50134
G1 X82.528 Y79.540 E2.50868
G1 X117.472 Y79.540 E3.01003
G1 X117.472 Y80.052 E3.01736
G1 X82.528 Y80.052 E3.51871
G1 X82.528 Y80.563 E3.52605
G1 X117.472 Y80.563 E4.02739
G1 X117.472 Y81.075 E4.03473
G1 X82.528 Y81.075 E4.53607
G1 X82.528 Y81.586 E4.54341
G1 X117.472 Y81.586 E5.04476
G1 X117.472 Y82.098 E5.05209
G1 X82.528 Y82.098 E5.55344
G1 X82.528 Y82.609 E5.56078
G1 X117.472 Y82.609 E6.06212
G1 X117.472 Y83.121 E6.06946
G1 X82.528 Y83.121 E6.57080
G1 X82.528 Y83.632 E6.57814
G1 X117.472 Y83.632 E7.07948
G1 X117.472 Y84.144 E7.08682
G1 X82.528 Y84.144 E7.58817
G1 X82.528 Y84.655 E7.59551
G1 X117.472 Y84.655 E8.09685
G1 X117.472 Y85.167 E8.10419
G1 X82.528 Y85.167 E8.60553
G1 X82.528 Y85.678 E8.61287
G1 X117.472 Y85.678 E9.11421
G1 X117.472 Y86.190 E9.12155
G1 X82.528 Y86.190 E9.62290
G1 X82.528 Y86.701 E9.63023
G1 X117.472 Y86.701 E10.13158
G1 X117.472 Y87.213 E10.13892
G1 X82.528 Y87.213 E10.64026
G1 X82.528 Y87.724 E10.64760
G1 X117.472 Y87.724 E11.14894
G1 X117.472 Y88.236 E11.15628
G1 X82.528 Y88.236 E11.65763
G1 X82.528 Y88.747 E11.66496
G1 X117.472 Y88.747 E12.16631
G1 X117.472 Y89.259 E12.17365
G1 X82.528 Y89.259 E12.67499
G1 X82.528 Y89.770 E12.68233
G1 X117.472 Y89.770 E13.18367
G1 X117.472 Y90.282 E13.19101
G1 X82.528 Y90.282 E13.69235
G1 X82.528 Y90.793 E13.69969
G1 X117.472 Y90.793 E14.20104
G1 X117.472 Y91.305 E14.20838
G1 X82.528 Y91.305 E14.70972
G1 X82.528 Y91.816 E14.71706
G1 X117.472 Y91.816 E15.21840
G1 X117.472 Y92.328 E15.22574
G1 X82.528 Y92.328 E15.72708
G1 X82.528 Y92.839 E15.73442
G1 X117.472 Y92.839 E16.23577
G1 X117.472 Y93.351 E16.24310
G1 X82.528 Y93.351 E16.74445
G1 X82.528 Y93.862 E16.75179
G1 X117.472 Y93.862 E17.25313
G1 X117.472 Y94.374 E17.26047
G1 X82.528 Y94.374 E17.76181
G1 X82.528 Y94.885 E17.76915
G1 X117.472 Y94.885 E18.27050
G1 X117.472 Y95.397 E18.27783
G1 X82.528 Y95.397 E18.77918
G1 X82.528 Y95.908 E18.78652
G1 X117.472 Y95.908 E19.28786
G1 X117.472 Y96.420 E19.29520
G1 X82.528 Y96.420 E19.79654
G1 X82.528 Y96.931 E19.80388
G1 X117.472 Y96.931 E20.30522
G1 X117.472 Y97.443 E20.31256
G1 X82.528 Y97.443 E20.81391
G1 X82.528 Y97.954 E20.82125
G1 X117.472 Y97.954 E21.32259
G1 X117.472 Y98.466 E21.32993
G1 X82.528 Y98.466 E21.83127
G1 X82.528 Y98.977 E21.83861
G1 X117.472 Y98.977 E22.33995
G1 X117.472 Y99.489 E22.34729
G1 X82.528 Y99.489 E22.84864
G1 X82.528 Y100.000 E22.85597
G1 X117.472 Y100.000 E23.35732
G1 X117.472 Y100.512 E23.36466
G1 X82.528 Y100.512 E23.86600
G1 X82.528 Y101.023 E23.87334
G1 X117.472 Y101.023 E24.37468
G1 X117.472 Y101.534 E24.38202
G1 X82.528 Y101.534 E24.88337
G1 X82.528 Y102.046 E24.89070
G1 X117.472 Y102.046 E25.39205
G1 X117.472 Y102.557 E25.39939
G1 X82.528 Y102.557 E25.90073
G1 X82.528 Y103.069 E25.90807
G1 X117.472 Y103.069 E26.40941
G1 X117.472 Y103.580 E26.41675
G1 X82.528 Y103.580 E26.91809
G1 X82.528 Y104.092 E26.92543
G1 X117.472 Y104.092 E27.42678
G1 X117.472 Y104.603 E27.43412
G1 X82.528 Y104.603 E27.93546
G1 X82.528 Y105.115 E27.94280
G1 X117.472 Y105.115 E28.44414
G1 X117.472 Y105.626 E28.45148
G1 X82.528 Y105.626 E28.95282
G1 X82.528 Y106.138 E28.96016
G1 X117.472 Y106.138 E29.46151
G1 X117.472 Y106.649 E29.46884
G1 X82.528 Y106.649 E29.97019
G1 X82.528 Y107.161 E29.97753
G1 X117.472 Y107.161 E30.47887
G1 X117.472 Y107.672 E30.48621
G1 X82.528 Y107.672 E30.98755
G1 X82.528 Y108.184 E30.99489
G1 X117.472 Y108.184 E31.49624
G1 X117.472 Y108.695 E31.50357
G1 X82.528 Y108.695 E32.00492
G1 X82.528 Y109.207 E32.01226
G1 X117.472 Y109.207 E32.51360
G1 X117.472 Y109.718 E32.52094
G1 X82.528 Y109.718 E33.02228
G1 X82.528 Y110.230 E33.02962
G1 X117.472 Y110.230 E33.53096
G1 X117.472 Y110.741 E33.53830
G1 X82.528 Y110.741 E34.03965
G1 X82.528 Y111.253 E34.04699
G1 X117.472 Y111.253 E34.54833
G1 X117.472 Y111.764 E34.55567
G1 X82.528 Y111.764 E35.05701
G1 X82.528 Y112.276 E35.06435
G1 X117.472 Y112.276 E35.56569
G1 X117.472 Y112.787 E35.57303
G1 X82.528 Y112.787 E36.07438
G1 X82.528 Y113.299 E36.08171
G1 X117.472 Y113.299 E36.58306
G1 X117.472 Y113.810 E36.59040
G1 X82.528 Y113.810 E37.09174
G1 X82.528 Y114.322 E37.09908
G1 X117.472 Y114.322 E37.60042
G1 X117.472 Y114.833 E37.60776
G1 X82.528 Y114.833 E38.10911
G1 X82.528 Y115.345 E38.11644
G1 X117.472 Y115.345 E38.61779
G1 X117.472 Y115.856 E38.62513
G1 X82.528 Y115.856 E39.12647
G1 X82.528 Y116.368 E39.13381
G1 X117.472 Y116.368 E39.63515
G1 X117.472 Y116.879 E39.64249
G1 X82.528 Y116.879 E40.14383
G1 X82.528 Y117.391 E40.15117
G1 X117.472 Y117.391 E40.65252
G1 X117.472 Y117.902 E40.65986
G1 X82.528 Y117.902 E41.16120
G1 X82.528 Y118.414 E41.16854
G1 X117.472 Y118.414 E41.66988
G1 X117.472 Y118.925 E41.67722
G1 X82.528 Y118.925 E42.17856
G1 X82.528 Y119.437 E42.18590
G1 X117.472 Y119.437 E42.68725
G1 X117.472 Y119.948 E42.69458
G1 X82.528 Y119.948 E43.19593
G1 X82.528 Y120.460 E43.20327
G1 X117.472 Y120.460 E43.70461
G1 X117.472 Y120.971 E43.71195
G1 X82.528 Y120.971 E44.21329
G1 Z0.380 F7800.000
G1 E42.21329 F2400.00000
G92 E0
G1 X117.469 Y120.969 F7800.000
G1 E2.00000 F2400.00000
G1 F3600
G1 X117.469 Y79.031 E2.54613
G1 X116.956 Y79.031 E2.55282
G1 X116.956 Y120.969 E3.09894
G1 X116.442 Y120.969 E3.10563
G1 X116.442 Y79.031 E3.65176
G1 X115.928 Y79.031 E3.65845
G1 X115.928 Y120.969 E4.20458
G1 X115.414 Y120.969 E4.21127
G1 X115.414 Y79.031 E4.75739
G1 X114.900 Y79.031 E4.76409
G1 X114.900 Y120.969 E5.31021
G1 X114.386 Y120.969 E5.31690
G1 X114.387 Y79.031 E5.86303
G1 X113.873 Y79.031 E5.86972
G1 X113.873 Y120.969 E6.41585
G1 X113.359 Y120.969 E6.42254
G1 X113.359 Y79.031 E6.96866
G1 X112.845 Y79.031 E6.97535
G1 X112.845 Y120.969 E7.52148
G1 X112.331 Y120.969 E7.52817
G1 X112.331 Y79.031 E8.07430
G1 X111.817 Y79.031 E8.08099
G1 X111.817 Y120.969 E8.62711
G1 X111.304 Y120.969 E8.63380
G1 X111.304 Y79.031 E9.17993
G1 X110.790 Y79.031 E9.18662
G1 X110.790 Y120.969 E9.73275
G1 X110.276 Y120.969 E9.73944
G1 X110.276 Y79.031 E10.28557
G1 X109.762 Y79.031 E10.29226
G1 X109.762 Y120.969 E10.83838
G1 X109.248 Y120.969 E10.84507
G1 X109.248 Y79.031 E11.39120
G1 X108.735 Y79.031 E11.39789
G1 X108.735 Y120.969 E11.94402
G1 X108.221 Y120.969 E11.95071
G1 X108.221 Y79.031 E12.49683
G1 X107.707 Y79.031 E12.50352
G1 X107.707 Y120.969 E13.04965
G1 X107.193 Y120.969 E13.05634
G1 X107.193 Y79.031 E13.60247
G1 X106.679 Y79.031 E13.60916
G1 X106.679 Y120.969 E14.15528
G1 X106.166 Y120.969 E14.16198
G1 X106.166 Y79.031 E14.70810
G1 X105.652 Y79.031 E14.71479
G1 X105.652 Y120.969 E15.26092
G1 X105.138 Y120.969 E15.26761
G1 X105.138 Y79.031 E15.81374
G1 X104.624 Y79.031 E15.82043
G1 X104.624 Y120.969 E16.36655
G1 X104.110 Y120.969 E16.37324
G1 X104.110 Y79.031 E16.91937
G1 X103.597 Y79.031 E16.92606
G1 X103.597 Y120.969 E17.47219
G1 X103.083 Y120.969 E17.47888
G1 X103.083 Y79.031 E18.02500
G1 X102.569 Y79.031 E18.03169
G1 X102.569 Y120.969 E18.57782
G1 X102.055 Y120.969 E18.58451
G1 X102.055 Y79.031 E19.13064
G1 X101.541 Y79.031 E19.13733
G1 X101.541 Y120.969 E19.68345
G1 X101.028 Y120.969 E19.69015
G1 X101.028 Y79.031 E20.23627
G1 X100.514 Y79.031 E20.24296
G1 X100.514 Y120.969 E20.78909
G1 X100.000 Y120.969 E20.79578
G1 X100.000 Y79.031 E21.34191
G1 X99.486 Y79.031 E21.34860
G1 X99.486 Y120.969 E21.89472
G1 X98.972 Y120.969 E21.90141
G1 X98.972 Y79.031 E22.44754
G1 X98.459 Y79.031 E22.45423
G1 X98.459 Y120.969 E23.00036
G1 X97.945 Y120.969 E23.00705
G1 X97.945 Y79.031 E23.55317
G1 X97.431 Y79.031 E23.55986
G1 X97.431 Y120.969 E24.10599
G1 X96.917 Y120.969 E24.11268
G1 X96.917 Y79.031 E24.65881
G1 X96.403 Y79.031 E24.66550
G1 X96.403 Y120.969 E25.21163
G1 X95.890 Y120.969 E25.21832
G1 X95.890 Y79.031 E25.76444
G1 X95.376 Y79.031 E25.77113
G1 X95.376 Y120.969 E26.31726
G1 X94.862 Y120.969 E26.32395
G1 X94.862 Y79.031 E26.87008
G1 X94.348 Y79.031 E26.87677
G1 X94.348 Y120.969 E27.42289
G1 X93.834 Y120.969 E27.42958
G1 X93.834 Y79.031 E27.97571
G1 X93.321 Y79.031 E27.98240
G1 X93.321 Y120.969 E28.52853
G1 X92.807 Y120.969 E28.53522
G1 X92.807 Y79.031 E29.08134
G1 X92.293 Y79.031 E29.08804
G1 X92.293 Y120.969 E29.63416
G1 X91.779 Y120.969 E29.64085
G1 X91.779 Y79.031 E30.18698
G1 X91.265 Y79.031 E30.19367
G1 X91.265 Y120.969 E30.73980
G1 X90.752 Y120.969 E30.74649
G1 X90.752 Y79.031 E31.29261
G1 X90.238 Y79.031 E31.29930
G1 X90.238 Y120.969 E31.84543
G1 X89.724 Y120.969 E31.85212
G1 X89.724 Y79.031 E32.39825
G1 X89.210 Y79.031 E32.40494
G1 X89.210 Y120.969 E32.95106
G1 X88.696 Y120.969 E32.95775
G1 X88.696 Y79.031 E33.50388
G1 X88.183 Y79.031 E33.51057
G1 X88.183 Y120.969 E34.05670
G1 X87.669 Y120.969 E34.06339
G1 X87.669 Y79.031 E34.60952
G1 X87.155 Y79.031 E34.61621
G1 X87.155 Y120.969 E35.16233
G1 X86.641 Y120.969 E35.16902
G1 X86.641 Y79.031 E35.71515
G1 X86.127 Y79.031 E35.72184
G1 X86.127 Y120.969 E36.26797
G1 X85.614 Y120.969 E36.27466
G1 X85.614 Y79.031 E36.82078
G1 X85.100 Y79.031 E36.82747
G1 X85.100 Y120.969 E37.37360
G1 X84.586 Y120.969 E37.38029
G1 X84.586 Y79.031 E37.92642
G1 X84.072 Y79.031 E37.93311
G1 X84.072 Y120.969 E38.47923
G1 X83.558 Y120.969 E38.48593
G1 X83.558 Y79.031 E39.03205
G1 X83.045 Y79.031 E39.03874
G1 X83.045 Y120.969 E39.58487
G1 X82.531 Y120.969 E39.59156
G1 X82.531 Y79.031 E40.13769
G1 Z0.550 F7800.000
G1 E38.13769 F2400.00000
G92 E0
G1 X117.468 Y79.032 F7800.000
G1 E2.00000 F2400.00000
G1 F3600
G1 X82.532 Y79.032 E2.43147
G1 X117.468 Y79.032 E2.86295
G1 X117.468 Y79.550 E2.86934
G1 X82.532 Y79.550 E3.30081
G1 X82.532 Y80.067 E3.30721
G1 X117.468 Y80.067 E3.73868
G1 X117.468 Y80.585 E3.74507
G1 X82.532 Y80.585 E4.17655
G1 X82.532 Y81.103 E4.18294
G1 X117.468 Y81.103 E4.61441
G1 X117.468 Y81.620 E4.62081
G1 X82.532 Y81.620 E5.05228
G1 X82.532 Y82.138 E5.05868
G1 X117.468 Y82.138 E5.49015
G1 X117.468 Y82.656 E5.49654
G1 X82.532 Y82.656 E5.92802
G1 X82.532 Y83.174 E5.93441
G1 X117.468 Y83.174 E6.36588
G1 X117.468 Y83.691 E6.37228
G1 X82.532 Y83.691 E6.80375
G1 X82.532 Y84.209 E6.81014
G1 X117.468 Y84.209 E7.24162
G1 X117.468 Y84.727 E7.24801
G1 X82.532 Y84.727 E7.67948
G1 X82.532 Y85.245 E7.68588
G1 X117.468 Y85.245 E8.11735
G1 X117.468 Y85.762 E8.12375
G1 X82.532 Y85.762 E8.55522
G1 X82.532 Y86.280 E8.56161
G1 X117.468 Y86.280 E8.99309
G1 X117.468 Y86.798 E8.99948
G1 X82.532 Y86.798 E9.43095
G1 X82.532 Y87.316 E9.43735
G1 X117.468 Y87.316 E9.86882
G1 X117.468 Y87.833 E9.87521
G1 X82.532 Y87.833 E10.30669
G1 X82.532 Y88.351 E10.31308
G1 X117.468 Y88.351 E10.74455
G1 X117.468 Y88.869 E10.75095
G1 X82.532 Y88.869 E11.18242
G1 X82.532 Y89.386 E11.18882
G1 X117.468 Y89.386 E11.62029
G1 X117.468 Y89.904 E11.62668
G1 X82.532 Y89.904 E12.05816
G1 X82.532 Y90.422 E12.06455
G1 X117.468 Y90.422 E12.49602
G1 X117.468 Y90.940 E12.50242
G1 X82.532 Y90.940 E12.93389
G1 X82.532 Y91.457 E12.94028
G1 X117.468 Y91.457 E13.37176
G1 X117.468 Y91.975 E13.37815
G1 X82.532 Y91.975 E13.80962
G1 X82.532 Y92.493 E13.81602
G1 X117.468 Y92.493 E14.24749
G1 X117.468 Y93.011 E14.25389
G1 X82.532 Y93.011 E14.68536
G1 X82.532 Y93.528 E14.69175
G1 X117.468 Y93.528 E15.12323
G1 X117.468 Y94.046 E15.12962
G1 X82.532 Y94.046 E15.56109
G1 X82.532 Y94.564 E15.56749
G1 X117.468 Y94.564 E15.99896
G1 X117.468 Y95.082 E16.00535
G1 X82.532 Y95.082 E16.43683
G1 X82.532 Y95.599 E16.44322
G1 X117.468 Y95.599 E16.87469
G1 X117.468 Y96.117 E16.88109
G1 X82.532 Y96.117 E17.31256
G1 X82.532 Y96.635 E17.31896
G1 X117.468 Y96.635 E17.75043
G1 X117.468 Y97.152 E17.75682
G1 X82.532 Y97.152 E18.18830
G1 X82.532 Y97.670 E18.19469
G1 X117.468 Y97.670 E18.62616
G1 X117.468 Y98.188 E18.63256
G1 X82.532 Y98.188 E19.06403
G1 X82.532 Y98.706 E19.07042
G1 X117.468 Y98.706 E19.50190
G1 X117.468 Y99.223 E19.50829
G1 X82.532 Y99.223 E19.93976
G1 X82.532 Y99.741 E19.94616
G1 X117.468 Y99.741 E20.37763
G1 X117.468 Y100.259 E20.38403
G1 X82.532 Y100.259 E20.81550
G1 X82.532 Y100.777 E20.82189
G1 X117.468 Y100.777 E21.25337
G1 X117.468 Y101.294 E21.25976
G1 X82.532 Y101.294 E21.69123
G1 X82.532 Y101.812 E21.69763
G1 X117.468 Y101.812 E22.12910
G1 X117.468 Y102.330 E22.13549
G1 X82.532 Y102.330 E22.56697
G1 X82.532 Y102.848 E22.57336
G1 X117.468 Y102.848 E23.00483
G1 X117.468 Y103.365 E23.01123
G1 X82.532 Y103.365 E23.44270
G1 X82.532 Y103.883 E23.44909
G1 X117.468 Y103.883 E23.88057
G1 X117.468 Y104.401 E23.88696
G1 X82.532 Y104.401 E24.31844
G1 X82.532 Y104.918 E24.32483
G1 X117.468 Y104.918 E24.75630
G1 X117.468 Y105.436 E24.76270
G1 X82.532 Y105.436 E25.19417
G1 X82.532 Y105.954 E25.20056
G1 X117.468 Y105.954 E25.63204
G1 X117.468 Y106.472 E25.63843
G1 X82.532 Y106.472 E26.06990
G1 X82.532 Y106.989 E26.07630
G1 X117.468 Y106.989 E26.50777
G1 X117.468 Y107.507 E26.51416
G1 X82.532 Y107.507 E26.94564
G1 X82.532 Y108.025 E26.95203
G1 X117.468 Y108.025 E27.38350
G1 X117.468 Y108.543 E27.38990
G1 X82.532 Y108.543 E27.82137
G1 X82.532 Y109.060 E27.82777
G1 X117.468 Y109.060 E28.25924
G1 X117.468 Y109.578 E28.26563
G1 X82.532 Y109.578 E28.69711
G1 X82.532 Y110.096 E28.70350
G1 X117.468 Y110.096 E29.13497
G1 X117.468 Y110.614 E29.14137
G1 X82.532 Y110.614 E29.57284
G1 X82.532 Y111.131 E29.57923
G1 X117.468 Y111.131 E30.01071
G1 X117.468 Y111.649 E30.01710
G1 X82.532 Y111.649 E30.44857
G1 X82.532 Y112.167 E30.45497
G1 X117.468 Y112.167 E30.88644
G1 X117.468 Y112.684 E30.89284
G1 X82.532 Y112.684 E31.32431
G1 X82.532 Y113.202 E31.33070
G1 X117.468 Y113.202 E31.76218
G1 X117.468 Y113.720 E31.76857
G1 X82.532 Y113.720 E32.20004
G1 X82.532 Y114.238 E32.20644
G1 X117.468 Y114.238 E32.63791
G1 X117.468 Y114.755 E32.64430
G1 X82.532 Y114.755 E33.07578
G1 X82.532 Y115.273 E33.08217
G1 X117.468 Y115.273 E33.51364
G1 X117.468 Y115.791 E33.52004
G1 X82.532 Y115.791 E33.95151
G1 X82.532 Y116.309 E33.95791
G1 X117.468 Y116.309 E34.38938
G1 X117.468 Y116.826 E34.39577
G1 X82.532 Y116.826 E34.82725
G1 X82.532 Y117.344 E34.83364
G1 X117.468 Y117.344 E35.26511
G1 X117.468 Y117.862 E35.27151
G1 X82.532 Y117.862 E35.70298
G1 X82.532 Y118.380 E35.70937
G1 X117.468 Y118.380 E36.14085
G1 X117.468 Y118.897 E36.14724
G1 X82.532 Y118.897 E36.57871
G1 X82.532 Y119.415 E36.58511
G1 X117.468 Y119.415 E37.01658
G1 X117.468 Y119.933 E37.02298
G1 X82.532 Y119.933 E37.45445
G1 X82.532 Y120.451 E37.46084
G1 X117.468 Y120.451 E37.89232
G1 X117.468 Y120.968 E37.89871
G1 X82.532 Y120.968 E38.33018
M106 S255
G1 Z0.775 F7800.000
G1 E36.33018 F2400.00000
G92 E0
G1 X98.089 Y101.050 F7800.000
G1 E2.00000 F2400.00000
G1 F600
G1 X98.089 Y99.325 E2.02755
G1 X96.911 Y99.325 E2.04637
G1 X96.911 Y101.050 E2.07392
G1 X95.411 Y101.050 E2.09788
G1 X95.411 Y102.000 E2.11305
G1 X99.589 Y102.000 E2.17978
G1 X99.589 Y101.050 E2.19495
G1 X98.089 Y101.050 E2.21891
M106 S163.2
G1 Z1.150 F7800.000
G1 F3600
G1 X99.589 Y101.050 E2.25627
G1 X99.589 Y102.000 E2.27994
G1 X95.411 Y102.000 E2.38402
G1 X95.411 Y101.050 E2.40769
G1 X96.911 Y101.050 E2.44505
G1 X96.911 Y99.325 E2.48802
G1 X98.089 Y99.325 E2.51738
G1 X98.089 Y101.050 E2.56035
G1 Z1.250 F7800.000
G1 E0.56035 F2400.00000
G92 E0
G1 X97.612 Y114.328 F7800.000
G1 E2.00000 F2400.00000
M106 S255

G1 F3600
G1 X98.125 Y114.422 E2.01451
G1 X98.586 Y114.638 E2.02866
G1 X98.978 Y114.962 E2.04277
G1 X99.276 Y115.373 E2.05689
G1 X99.463 Y115.846 E2.07100
G1 X99.527 Y116.350 E2.08512
G1 X99.463 Y116.854 E2.09923
G1 X99.276 Y117.327 E2.11335
G1 X98.978 Y117.738 E2.12746
G1 X98.586 Y118.062 E2.14158
