; generated by Slic3r 1.3.0 on 2021-01-27 at 01:46:12

; external perimeters extrusion width = 0.44mm (0.84mm^3/s)
; perimeters extrusion width = 0.56mm (2.15mm^3/s)
; infill extrusion width = 0.50mm (2.87mm^3/s)
; solid infill extrusion width = 0.56mm (1.08mm^3/s)
; top infill extrusion width = 0.56mm (0.81mm^3/s)
; support material extrusion width = 0.44mm (2.51mm^3/s)

M107
M190 S60 ; set bed temperature and wait for it to be reached
M104 S215 ; set temperature
;Craftbot Start Script
G28 X0Y0 ;home xy
G28 Z0 ;home z
G91 ;relative movements
G0 F100 ;speed 100mm/sec
G0 X15 Y15 Z0.4 E12 ;purge nozzle - move to xy15
G90 ;Absolute movements
; Filament gcode

M109 S215 ; set temperature and wait for it to be reached
G21 ; set units to millimeters
G90 ; use absolute coordinates
M82 ; use absolute distances for extrusion
G92 E0
G1 Z0.200 F7800.000
G1 E-2.00000 F2400.00000
G92 E0
G1 X117.582 Y78.919 F7800.000
G1 E2.00000 F2400.00000
G1 F1800
G1 X82.418 Y78.919 E2.39506
G1 X82.418 Y79.316 E2.39953
G1 X117.582 Y79.316 E2.79459
G1 X117.582 Y79.714 E2.79906
G1 X82.418 Y79.714 E3.19412
G1 X82.418 Y80.112 E3.19859
G1 X117.582 Y80.112 E3.59365
G1 X117.582 Y80.510 E3.59811
G1 X82.418 Y80.510 E3.99317
G1 X82.418 Y80.907 E3.99764
G1 X117.582 Y80.907 E4.39270
G1 X117.582 Y81.305 E4.39717
G1 X82.418 Y81.305 E4.79223
G1 X82.418 Y81.703 E4.79670
G1 X117.582 Y81.703 E5.19176
G1 X117.582 Y82.101 E5.19623
G1 X82.418 Y82.101 E5.59129
G1 X82.418 Y82.498 E5.59576
G1 X117.582 Y82.498 E5.99082
G1 X117.582 Y82.896 E5.99528
G1 X82.418 Y82.896 E6.39034
G1 X82.418 Y83.294 E6.39481
G1 X117.582 Y83.294 E6.78987
G1 X117.582 Y83.692 E6.79434
G1 X82.418 Y83.692 E7.18940
G1 X82.418 Y84.090 E7.19387
G1 X117.582 Y84.090 E7.58893
G1 X117.582 Y84.487 E7.59340
G1 X82.418 Y84.487 E7.98846
G1 X82.418 Y84.885 E7.99293
G1 X117.582 Y84.885 E8.38799
G1 X117.582 Y85.283 E8.39246
G1 X82.418 Y85.283 E8.78752
G1 X82.418 Y85.681 E8.79198
G1 X117.582 Y85.681 E9.18704
G1 X117.582 Y86.078 E9.19151
G1 X82.418 Y86.078 E9.58657
G1 X82.418 Y86.476 E9.59104
G1 X117.582 Y86.476 E9.98610
G1 X117.582 Y86.874 E9.99057
G1 X82.418 Y86.874 E10.38563
G1 X82.418 Y87.272 E10.39010
G1 X117.582 Y87.272 E10.78516
G1 X117.582 Y87.669 E10.78963
G1 X82.418 Y87.669 E11.18469
G1 X82.418 Y88.067 E11.18916
G1 X117.582 Y88.067 E11.58421
G1 X117.582 Y88.465 E11.58868
G1 X82.418 Y88.465 E11.98374
G1 X82.418 Y88.863 E11.98821
G1 X117.582 Y88.863 E12.38327
G1 X117.582 Y89.260 E12.38774
G1 X82.418 Y89.260 E12.78280
G1 X82.418 Y89.658 E12.78727
G1 X117.582 Y89.658 E13.18233
G1 X117.582 Y90.056 E13.18680
G1 X82.418 Y90.056 E13.58186
G1 X82.418 Y90.454 E13.58633
G1 X117.582 Y90.454 E13.98139
G1 X117.582 Y90.851 E13.98585
G1 X82.418 Y90.851 E14.38091
G1 X82.418 Y91.249 E14.38538
G1 X117.582 Y91.249 E14.78044
G1 X117.582 Y91.647 E14.78491
G1 X82.418 Y91.647 E15.17997
G1 X82.418 Y92.045 E15.18444
G1 X117.582 Y92.045 E15.57950
G1 X117.582 Y92.443 E15.58397
G1 X82.418 Y92.443 E15.97903
G1 X82.418 Y92.840 E15.98350
G1 X117.582 Y92.840 E16.37856
G1 X117.582 Y93.238 E16.38303
G1 X82.418 Y93.238 E16.77809
G1 X82.418 Y93.636 E16.78255
G1 X117.582 Y93.636 E17.17761
G1 X117.582 Y94.034 E17.18208
G1 X82.418 Y94.034 E17.57714
G1 X82.418 Y94.431 E17.58161
G1 X117.582 Y94.431 E17.97667
G1 X117.582 Y94.829 E17.98114
G1 X82.418 Y94.829 E18.37620
G1 X82.418 Y95.227 E18.38067
G1 X117.582 Y95.227 E18.77573
G1 X117.582 Y95.625 E18.78020
G1 X82.418 Y95.625 E19.17526
G1 X82.418 Y96.022 E19.17973
G1 X117.582 Y96.022 E19.57478
G1 X117.582 Y96.420 E19.57925
G1 X82.418 Y96.420 E19.97431
G1 X82.418 Y96.818 E19.97878
G1 X117.582 Y96.818 E20.37384
G1 X117.582 Y97.216 E20.37831
G1 X82.418 Y97.216 E20.77337
G1 X82.418 Y97.613 E20.77784
G1 X117.582 Y97.613 E21.17290
G1 X117.582 Y98.011 E21.17737
G1 X82.418 Y98.011 E21.57243
G1 X82.418 Y98.409 E21.57690
G1 X117.582 Y98.409 E21.97196
G1 X117.582 Y98.807 E21.97642
G1 X82.418 Y98.807 E22.37148
G1 X82.418 Y99.204 E22.37595
G1 X117.582 Y99.204 E22.77101
G1 X117.582 Y99.602 E22.77548
G1 X82.418 Y99.602 E23.17054
G1 X82.418 Y100.000 E23.17501
G1 X117.582 Y100.000 E23.57007
G1 X117.582 Y100.398 E23.57454
G1 X82.418 Y100.398 E23.96960
G1 X82.418 Y100.796 E23.97407
G1 X117.582 Y100.796 E24.36913
G1 X117.582 Y101.193 E24.37360
G1 X82.418 Y101.193 E24.76866
G1 X82.418 Y101.591 E24.77312
G1 X117.582 Y101.591 E25.16818
G1 X117.582 Y101.989 E25.17265
G1 X82.418 Y101.989 E25.56771
G1 X82.418 Y102.387 E25.57218
G1 X117.582 Y102.387 E25.96724
G1 X117.582 Y102.784 E25.97171
G1 X82.418 Y102.784 E26.36677
G1 X82.418 Y103.182 E26.37124
G1 X117.582 Y103.182 E26.76630
G1 X117.582 Y103.580 E26.77077
G1 X82.418 Y103.580 E27.16583
G1 X82.418 Y103.978 E27.17030
G1 X117.582 Y103.978 E27.56535
G1 X117.582 Y104.375 E27.56982
G1 X82.418 Y104.375 E27.96488
G1 X82.418 Y104.773 E27.96935
G1 X117.582 Y104.773 E28.36441
G1 X117.582 Y105.171 E28.36888
G1 X82.418 Y105.171 E28.76394
G1 X82.418 Y105.569 E28.76841
G1 X117.582 Y105.569 E29.16347
G1 X117.582 Y105.966 E29.16794
G1 X82.418 Y105.966 E29.56300
G1 X82.418 Y106.364 E29.56747
G1 X117.582 Y106.364 E29.96253
G1 X117.582 Y106.762 E29.96699
G1 X82.418 Y106.762 E30.36205
G1 X82.418 Y107.160 E30.36652
G1 X117.582 Y107.160 E30.76158
G1 X117.582 Y107.558 E30.76605
G1 X82.418 Y107.558 E31.16111
G1 X82.418 Y107.955 E31.16558
G1 X117.582 Y107.955 E31.56064
G1 X117.582 Y108.353 E31.56511
G1 X82.418 Y108.353 E31.96017
G1 X82.418 Y108.751 E31.96464
G1 X117.582 Y108.751 E32.35970
G1 X117.582 Y109.149 E32.36417
G1 X82.418 Y109.149 E32.75923
G1 X82.418 Y109.546 E32.76369
G1 X117.582 Y109.546 E33.15875
G1 X117.582 Y109.944 E33.16322
G1 X82.418 Y109.944 E33.55828
G1 X82.418 Y110.342 E33.56275
G1 X117.582 Y110.342 E33.95781
G1 X117.582 Y110.740 E33.96228
G1 X82.418 Y110.740 E34.35734
G1 X82.418 Y111.137 E34.36181
G1 X117.582 Y111.137 E34.75687
G1 X117.582 Y111.535 E34.76134
G1 X82.418 Y111.535 E35.15640
G1 X82.418 Y111.933 E35.16087
G1 X117.582 Y111.933 E35.55592
G1 X117.582 Y112.331 E35.56039
G1 X82.418 Y112.331 E35.95545
G1 X82.418 Y112.728 E35.95992
G1 X117.582 Y112.728 E36.35498
G1 X117.582 Y113.126 E36.35945
G1 X82.418 Y113.126 E36.75451
G1 X82.418 Y113.524 E36.75898
G1 X117.582 Y113.524 E37.15404
G1 X117.582 Y113.922 E37.15851
G1 X82.418 Y113.922 E37.55357
G1 X82.418 Y114.319 E37.55804
G1 X117.582 Y114.319 E37.95310
G1 X117.582 Y114.717 E37.95756
G1 X82.418 Y114.717 E38.35262
G1 X82.418 Y115.115 E38.35709
G1 X117.582 Y115.115 E38.75215
G1 X117.582 Y115.513 E38.75662
G1 X82.418 Y115.513 E39.15168
G1 X82.418 Y115.911 E39.15615
G1 X117.582 Y115.911 E39.55121
G1 X117.582 Y116.308 E39.55568
G1 X82.418 Y116.308 E39.95074
G1 X82.418 Y116.706 E39.95521
G1 X117.582 Y116.706 E40.35027
G1 X117.582 Y117.104 E40.35474
G1 X82.418 Y117.104 E40.74980
G1 X82.418 Y117.502 E40.75426
G1 X117.582 Y117.502 E41.14932
G1 X117.582 Y117.899 E41.15379
G1 X82.418 Y117.899 E41.54885
G1 X82.418 Y118.297 E41.55332
G1 X117.582 Y118.297 E41.94838
G1 X117.582 Y118.695 E41.95285
G1 X82.418 Y118.695 E42.34791
G1 X82.418 Y119.093 E42.35238
G1 X117.582 Y119.093 E42.74744
G1 X117.582 Y119.490 E42.75191
G1 X82.418 Y119.490 E43.14697
G1 X82.418 Y119.888 E43.15143
G1 X117.582 Y119.888 E43.54649
G1 X117.582 Y120.286 E43.55096
G1 X82.418 Y120.286 E43.94602
G1 X82.418 Y120.684 E43.95049
G1 X117.582 Y120.684 E44.34555
G1 X117.582 Y121.081 E44.35002
G1 X82.418 Y121.081 E44.74508
G1 Z0.500 F7800.000
G1 E42.74508 F2400.00000
G92 E0
G1 X117.592 Y121.092 F7800.000
G1 E2.00000 F2400.00000
G1 F3600
G1 X117.592 Y78.908 E2.67250
G1 X117.214 Y78.908 E2.67853
G1 X117.214 Y121.092 E3.35103
G1 X116.836 Y121.092 E3.35706
G1 X116.836 Y78.908 E4.02955
G1 X116.457 Y78.908 E4.03559
G1 X116.457 Y121.092 E4.70808
G1 X116.079 Y121.092 E4.71411
G1 X116.079 Y78.908 E5.38661
G1 X115.701 Y78.908 E5.39264
G1 X115.701 Y121.092 E6.06514
G1 X115.322 Y121.092 E6.07117
G1 X115.322 Y78.908 E6.74367
G1 X114.944 Y78.908 E6.74970
G1 X114.944 Y121.092 E7.42220
G1 X114.566 Y121.092 E7.42823
G1 X114.566 Y78.908 E8.10073
G1 X114.187 Y78.908 E8.10676
G1 X114.187 Y121.092 E8.77926
G1 X113.809 Y121.092 E8.78529
G1 X113.809 Y78.908 E9.45778
G1 X113.431 Y78.908 E9.46382
G1 X113.431 Y121.092 E10.13631
G1 X113.052 Y121.092 E10.14234
G1 X113.052 Y78.908 E10.81484
G1 X112.674 Y78.908 E10.82087
G1 X112.674 Y121.092 E11.49337
G1 X112.296 Y121.092 E11.49940
G1 X112.296 Y78.908 E12.17190
G1 X111.917 Y78.908 E12.17793
G1 X111.917 Y121.092 E12.85043
G1 X111.539 Y121.092 E12.85646
G1 X111.539 Y78.908 E13.52896
G1 X111.161 Y78.908 E13.53499
G1 X111.161 Y121.092 E14.20749
G1 X110.782 Y121.092 E14.21352
G1 X110.782 Y78.908 E14.88601
G1 X110.404 Y78.908 E14.89204
G1 X110.404 Y121.092 E15.56454
G1 X110.026 Y121.092 E15.57057
G1 X110.026 Y78.908 E16.24307
G1 X109.647 Y78.908 E16.24910
G1 X109.647 Y121.092 E16.92160
G1 X109.269 Y121.092 E16.92763
G1 X109.269 Y78.908 E17.60013
G1 X108.891 Y78.908 E17.60616
G1 X108.891 Y121.092 E18.27866
G1 X108.512 Y121.092 E18.28469
G1 X108.512 Y78.908 E18.95719
G1 X108.134 Y78.908 E18.96322
G1 X108.134 Y121.092 E19.63571
G1 X107.756 Y121.092 E19.64175
G1 X107.756 Y78.908 E20.31424
G1 X107.377 Y78.908 E20.32027
G1 X107.377 Y121.092 E20.99277
G1 X106.999 Y121.092 E20.99880
G1 X106.999 Y78.908 E21.67130
G1 X106.621 Y78.908 E21.67733
G1 X106.621 Y121.092 E22.34983
G1 X106.242 Y121.092 E22.35586
G1 X106.242 Y78.908 E23.02836
G1 X105.864 Y78.908 E23.03439
G1 X105.864 Y121.092 E23.70689
G1 X105.486 Y121.092 E23.71292
G1 X105.486 Y78.908 E24.38542
G1 X105.107 Y78.908 E24.39145
G1 X105.107 Y121.092 E25.06394
G1 X104.729 Y121.092 E25.06998
G1 X104.729 Y78.908 E25.74247
G1 X104.351 Y78.908 E25.74850
G1 X104.351 Y121.092 E26.42100
G1 X103.972 Y121.092 E26.42703
G1 X103.972 Y78.908 E27.09953
G1 X103.594 Y78.908 E27.10556
G1 X103.594 Y121.092 E27.77806
G1 X103.216 Y121.092 E27.78409
G1 X103.216 Y78.908 E28.45659
G1 X102.837 Y78.908 E28.46262
G1 X102.837 Y121.092 E29.13512
G1 X102.459 Y121.092 E29.14115
G1 X102.459 Y78.908 E29.81364
G1 X102.081 Y78.908 E29.81968
G1 X102.081 Y121.092 E30.49217
G1 X101.702 Y121.092 E30.49820
G1 X101.703 Y78.908 E31.17070
G1 X101.324 Y78.908 E31.17673
G1 X101.324 Y121.092 E31.84923
G1 X100.946 Y121.092 E31.85526
G1 X100.946 Y78.908 E32.52776
G1 X100.568 Y78.908 E32.53379
G1 X100.568 Y121.092 E33.20629
G1 X100.189 Y121.092 E33.21232
G1 X100.189 Y78.908 E33.88482
G1 X99.811 Y78.908 E33.89085
G1 X99.811 Y121.092 E34.56335
G1 X99.433 Y121.092 E34.56938
G1 X99.433 Y78.908 E35.24187
G1 X99.054 Y78.908 E35.24791
G1 X99.054 Y121.092 E35.92040
G1 X98.676 Y121.092 E35.92643
G1 X98.676 Y78.908 E36.59893
G1 X98.298 Y78.908 E36.60496
G1 X98.298 Y121.092 E37.27746
G1 X97.919 Y121.092 E37.28349
G1 X97.919 Y78.908 E37.95599
G1 X97.541 Y78.908 E37.96202
G1 X97.541 Y121.092 E38.63452
G1 X97.163 Y121.092 E38.64055
G1 X97.163 Y78.908 E39.31305
G1 X96.784 Y78.908 E39.31908
G1 X96.784 Y121.092 E39.99157
G1 X96.406 Y121.092 E39.99761
G1 X96.406 Y78.908 E40.67010
G1 X96.028 Y78.908 E40.67613
G1 X96.028 Y121.092 E41.34863
G1 X95.649 Y121.092 E41.35466
G1 X95.649 Y78.908 E42.02716
G1 X95.271 Y78.908 E42.03319
G1 X95.271 Y121.092 E42.70569
G1 X94.893 Y121.092 E42.71172
G1 X94.893 Y78.908 E43.38422
G1 X94.514 Y78.908 E43.39025
G1 X94.514 Y121.092 E44.06275
G1 X94.136 Y121.092 E44.06878
G1 X94.136 Y78.908 E44.74128
G1 X93.758 Y78.908 E44.74731
G1 X93.758 Y121.092 E45.41980
G1 X93.379 Y121.092 E45.42584
G1 X93.379 Y78.908 E46.09833
G1 X93.001 Y78.908 E46.10436
G1 X93.001 Y121.092 E46.77686
G1 X92.623 Y121.092 E46.78289
G1 X92.623 Y78.908 E47.45539
G1 X92.244 Y78.908 E47.46142
G1 X92.244 Y121.092 E48.13392
G1 X91.866 Y121.092 E48.13995
G1 X91.866 Y78.908 E48.81245
G1 X91.488 Y78.908 E48.81848
G1 X91.488 Y121.092 E49.49098
G1 X91.109 Y121.092 E49.49701
G1 X91.109 Y78.908 E50.16950
G1 X90.731 Y78.908 E50.17554
G1 X90.731 Y121.092 E50.84803
G1 X90.353 Y121.092 E50.85406
G1 X90.353 Y78.908 E51.52656
G1 X89.974 Y78.908 E51.53259
G1 X89.974 Y121.092 E52.20509
G1 X89.596 Y121.092 E52.21112
G1 X89.596 Y78.908 E52.88362
G1 X89.218 Y78.908 E52.88965
G1 X89.218 Y121.092 E53.56215
G1 X88.839 Y121.092 E53.56818
G1 X88.839 Y78.908 E54.24068
G1 X88.461 Y78.908 E54.24671
G1 X88.461 Y121.092 E54.91921
G1 X88.083 Y121.092 E54.92524
G1 X88.083 Y78.908 E55.59773
G1 X87.704 Y78.908 E55.60377
G1 X87.704 Y121.092 E56.27626
G1 X87.326 Y121.092 E56.28229
G1 X87.326 Y78.908 E56.95479
G1 X86.948 Y78.908 E56.96082
G1 X86.948 Y121.092 E57.63332
G1 X86.569 Y121.092 E57.63935
G1 X86.569 Y78.908 E58.31185
G1 X86.191 Y78.908 E58.31788
G1 X86.191 Y121.092 E58.99038
G1 X85.813 Y121.092 E58.99641
G1 X85.813 Y78.908 E59.66891
G1 X85.434 Y78.908 E59.67494
G1 X85.434 Y121.092 E60.34743
G1 X85.056 Y121.092 E60.35347
G1 X85.056 Y78.908 E61.02596
G1 X84.678 Y78.908 E61.03199
G1 X84.678 Y121.092 E61.70449
G1 X84.300 Y121.092 E61.71052
G1 X84.300 Y78.908 E62.38302
G1 X83.921 Y78.908 E62.38905
G1 X83.921 Y121.092 E63.06155
G1 X83.543 Y121.092 E63.06758
G1 X83.543 Y78.908 E63.74008
G1 X83.165 Y78.908 E63.74611
G1 X83.165 Y121.092 E64.41861
G1 X82.786 Y121.092 E64.42464
G1 X82.786 Y78.908 E65.09713
G1 X82.408 Y78.908 E65.10317
G1 X82.408 Y121.092 E65.77566
G1 X82.408 Y78.908 E66.44816
G1 Z0.800 F7800.000
G1 E64.44816 F2400.00000
G92 E0
G1 X117.592 Y78.908 F7800.000
G1 E2.00000 F2400.00000
G1 F3600
G1 X82.408 Y78.908 E2.56091
G1 X82.408 Y79.284 E2.56691
G1 X117.592 Y79.284 E3.12781
G1 X117.592 Y79.661 E3.13382
G1 X82.408 Y79.661 E3.69472
G1 X82.408 Y80.038 E3.70073
G1 X117.592 Y80.038 E4.26163
G1 X117.592 Y80.414 E4.26764
G1 X82.408 Y80.414 E4.82854
G1 X82.408 Y80.791 E4.83455
G1 X117.592 Y80.791 E5.39545
G1 X117.592 Y81.168 E5.40146
G1 X82.408 Y81.168 E5.96236
G1 X82.408 Y81.544 E5.96837
G1 X117.592 Y81.544 E6.52927
G1 X117.592 Y81.921 E6.53528
G1 X82.408 Y81.921 E7.09618
G1 X82.408 Y82.298 E7.10218
G1 X117.592 Y82.298 E7.66309
G1 X117.592 Y82.674 E7.66909
G1 X82.408 Y82.674 E8.23000
G1 X82.408 Y83.051 E8.23600
G1 X117.592 Y83.051 E8.79691
G1 X117.592 Y83.428 E8.80291
G1 X82.408 Y83.428 E9.36382
G1 X82.408 Y83.804 E9.36982
G1 X117.592 Y83.804 E9.93073
G1 X117.592 Y84.181 E9.93673
G1 X82.408 Y84.181 E10.49764
G1 X82.408 Y84.558 E10.50364
G1 X117.592 Y84.558 E11.06455
G1 X117.592 Y84.934 E11.07055
G1 X82.408 Y84.934 E11.63146
G1 X82.408 Y85.311 E11.63746
G1 X117.592 Y85.311 E12.19837
G1 X117.592 Y85.687 E12.20437
G1 X82.408 Y85.687 E12.76528
G1 X82.408 Y86.064 E12.77128
G1 X117.592 Y86.064 E13.33218
G1 X117.592 Y86.441 E13.33819
G1 X82.408 Y86.441 E13.89909
G1 X82.408 Y86.817 E13.90510
G1 X117.592 Y86.817 E14.46600
G1 X117.592 Y87.194 E14.47201
G1 X82.408 Y87.194 E15.03291
G1 X82.408 Y87.571 E15.03892
G1 X117.592 Y87.571 E15.59982
G1 X117.592 Y87.947 E15.60583
G1 X82.408 Y87.947 E16.16673
G1 X82.408 Y88.324 E16.17274
G1 X117.592 Y88.324 E16.73364
G1 X117.592 Y88.701 E16.73965
G1 X82.408 Y88.701 E17.30055
G1 X82.408 Y89.077 E17.30655
G1 X117.592 Y89.077 E17.86746
G1 X117.592 Y89.454 E17.87346
G1 X82.408 Y89.454 E18.43437
G1 X82.408 Y89.831 E18.44037
G1 X117.592 Y89.831 E19.00128
G1 X117.592 Y90.207 E19.00728
G1 X82.408 Y90.207 E19.56819
G1 X82.408 Y90.584 E19.57419
G1 X117.592 Y90.584 E20.13510
G1 X117.592 Y90.961 E20.14110
G1 X82.408 Y90.961 E20.70201
G1 X82.408 Y91.337 E20.70801
G1 X117.592 Y91.337 E21.26892
G1 X117.592 Y91.714 E21.27492
G1 X82.408 Y91.714 E21.83583
G1 X82.408 Y92.090 E21.84183
G1 X117.592 Y92.090 E22.40274
G1 X117.592 Y92.467 E22.40874
G1 X82.408 Y92.467 E22.96964
G1 X82.408 Y92.844 E22.97565
G1 X117.592 Y92.844 E23.53655
G1 X117.592 Y93.220 E23.54256
G1 X82.408 Y93.220 E24.10346
G1 X82.408 Y93.597 E24.10947
G1 X117.592 Y93.597 E24.67037
G1 X117.592 Y93.974 E24.67638
G1 X82.408 Y93.974 E25.23728
G1 X82.408 Y94.350 E25.24329
G1 X117.592 Y94.350 E25.80419
G1 X117.592 Y94.727 E25.81020
G1 X82.408 Y94.727 E26.37110
G1 X82.408 Y95.104 E26.37711
G1 X117.592 Y95.104 E26.93801
G1 X117.592 Y95.480 E26.94402
G1 X82.408 Y95.480 E27.50492
G1 X82.408 Y95.857 E27.51092
G1 X117.592 Y95.857 E28.07183
G1 X117.592 Y96.234 E28.07783
G1 X82.408 Y96.234 E28.63874
G1 X82.408 Y96.610 E28.64474
G1 X117.592 Y96.610 E29.20565
G1 X117.592 Y96.987 E29.21165
G1 X82.408 Y96.987 E29.77256
