; #disp params :
; Printmode:0
; Layer:414
; Zmax:125.069 mm
; Xmax:151.59 mm
; Ymax:42.5 mm
; Xmin:108.344 mm
; Ymin:0.3 mm
; E0diam:0.4 mm
; E0len:3.32042 m
; E0temp:215 C
; Bedtemp:215 C
; Time:100.482 min
; #params end
; GCode generated by CraftWare

G28 X Y ; home horizontally
G28 Z ; home vertically


M104 S215 ;set head temp (no wait)
M190 S60 ;set bed temp (wait)
M109 S215 ;set head temp (wait)

; ------------------------------------
; Raft Layer #0
; ------------------------------------
M106 S0 ;turn off fan
G21 ; mm
G90 ; abs
G92 E0 ;reset extr
G0 F600 Z0.300
;segType:Raft
G0 F3000 E-1.00000
G0 F600 Z2.300
G0 X108.409 Y122.313 F5400
G0 F600 Z0.300
G0 F3000 E0.00000
G1 X108.409 Y77.688 E2.22635 F600
G1 X111.034 Y75.063 E2.41156
G1 X111.494 Y74.997 E2.43472
G1 X148.769 Y74.997 E4.29438
G1 X151.394 Y77.622 E4.47959
G1 X151.460 Y78.081 E4.50275
G1 X151.460 Y122.181 E6.70291
G1 X151.263 Y122.510 E6.72202
G1 X148.769 Y125.003 E6.89797
G1 X111.100 Y125.003 E8.77727
G1 X110.903 Y124.806 E8.79118
G1 X108.409 Y122.313 E8.96713
G0 X111.137 Y124.413 F5400
G1 X111.137 Y75.719 E11.39647 F600
G0 X113.803 Y75.456 F5400
G1 X113.803 Y124.675 E13.85200 F600
G0 X116.470 Y124.675 F5400
G1 X116.470 Y75.456 E16.30754 F600
G0 X119.136 Y75.456 F5400
G1 X119.136 Y124.675 E18.76307 F600
G0 X121.803 Y124.675 F5400
G1 X121.803 Y75.456 E21.21860 F600
G0 X124.470 Y75.456 F5400
G1 X124.470 Y124.675 E23.67414 F600
G0 X127.136 Y124.675 F5400
G1 X127.136 Y75.456 E26.12967 F600
G0 X129.803 Y75.456 F5400
G1 X129.803 Y124.675 E28.58521 F600
G0 X132.470 Y124.675 F5400
G1 X132.470 Y75.456 E31.04074 F600
G0 X135.136 Y75.456 F5400
G1 X135.136 Y124.675 E33.49627 F600
G0 X137.803 Y124.675 F5400
G1 X137.803 Y75.456 E35.95181 F600
G0 X140.470 Y75.456 F5400
G1 X140.470 Y124.675 E38.40734 F600
G0 X143.136 Y124.675 F5400
G1 X143.136 Y75.456 E40.86288 F600
G0 X145.803 Y75.456 F5400
G1 X145.803 Y124.675 E43.31842 F600
G0 X148.470 Y124.675 F5400
G1 X148.470 Y75.456 E45.77395 F600



; ------------------------------------
; Raft Layer #1
; ------------------------------------
G92 E0 ;reset extr
G0 F600 Z0.600
;segType:Raft
G0 X149.096 Y75.312 F7200
G1 X108.540 Y115.868 E2.86144 F1800
G0 X108.540 Y113.983 F7200
G1 X147.521 Y75.001 E5.61176 F1800
G0 X145.552 Y75.084 F7200
G1 X108.540 Y112.097 E8.22317 F1800
G0 X108.540 Y110.211 F7200
G1 X143.715 Y75.036 E10.70494 F1800
G0 X141.746 Y75.119 F7200
G1 X108.540 Y108.326 E13.04780 F1800
G0 X108.540 Y106.440 F7200
G1 X139.909 Y75.071 E15.26102 F1800
G0 X138.071 Y75.023 F7200
G1 X108.540 Y104.554 E17.34459 F1800
G0 X108.540 Y102.669 F7200
G1 X136.103 Y75.106 E19.28926 F1800
G0 X134.265 Y75.058 F7200
G1 X108.540 Y100.783 E21.10429 F1800
G0 X108.540 Y98.898 F7200
G1 X132.428 Y75.010 E22.78966 F1800
G0 X130.459 Y75.093 F7200
G1 X108.540 Y97.012 E24.33614 F1800
G0 X108.540 Y95.126 F7200
G1 X128.621 Y75.045 E25.75297 F1800
G0 X126.784 Y74.997 F7200
G1 X108.540 Y93.241 E27.04015 F1800
G0 X108.540 Y91.355 F7200
G1 X124.815 Y75.080 E28.18844 F1800
G0 X122.978 Y75.032 F7200
G1 X108.540 Y89.470 E29.20707 F1800
G0 X108.540 Y87.584 F7200
G1 X121.009 Y75.115 E30.08680 F1800
G0 X119.172 Y75.067 F7200
G1 X108.540 Y85.698 E30.83689 F1800
G0 X108.540 Y83.813 F7200
G1 X117.334 Y75.019 E31.45733 F1800
G0 X115.365 Y75.102 F7200
G1 X108.540 Y81.927 E31.93887 F1800
G0 X108.540 Y80.041 F7200
G1 X113.528 Y75.054 E32.29076 F1800
G0 X111.690 Y75.006 F7200
G1 X108.540 Y78.156 E32.51301 F1800
G0 X108.540 Y117.754 F7200
G1 X150.015 Y76.279 E35.43927 F1800
G0 X151.065 Y77.114 F7200
G1 X108.540 Y119.639 E38.43962 F1800
G0 X108.540 Y121.525 F7200
G1 X151.590 Y78.475 E41.47701 F1800
G0 X151.590 Y80.361 F7200
G1 X109.065 Y122.886 E44.47735 F1800
G0 X109.949 Y123.888 F7200
G1 X151.555 Y82.281 E47.41288 F1800
G0 X151.472 Y84.250 F7200
G1 X110.916 Y124.806 E50.27432 F1800
G0 X112.474 Y125.003 F7200
G1 X151.455 Y86.022 E53.02466 F1800
G0 X151.372 Y87.991 F7200
G1 X114.491 Y124.872 E55.62681 F1800
G0 X116.376 Y124.872 F7200
G1 X151.420 Y89.829 E58.09932 F1800
G0 X151.337 Y91.797 F7200
G1 X118.131 Y125.003 E60.44220 F1800
G0 X120.082 Y125.069 F7200
G1 X151.581 Y93.569 E62.66468 F1800
G0 X151.498 Y95.538 F7200
G1 X121.967 Y125.069 E64.74826 F1800
G0 X123.853 Y125.069 F7200
G1 X151.546 Y97.375 E66.70218 F1800
G0 X151.463 Y99.344 F7200
G1 X125.739 Y125.069 E68.51721 F1800
G0 X127.624 Y125.069 F7200
G1 X151.511 Y101.181 E70.20259 F1800
G0 X151.559 Y103.019 F7200
G1 X129.510 Y125.069 E71.75832 F1800
G0 X131.395 Y125.069 F7200
G1 X151.476 Y104.988 E73.17515 F1800
G0 X151.459 Y106.759 F7200
G1 X133.216 Y125.003 E74.46234 F1800
G0 X135.232 Y124.872 F7200
G1 X151.376 Y108.729 E75.60137 F1800
G0 X151.490 Y110.631 F7200
G1 X137.052 Y125.069 E76.62001 F1800
G0 X138.938 Y125.069 F7200
G1 X151.538 Y112.469 E77.50900 F1800
G0 X151.586 Y114.306 F7200
G1 X140.824 Y125.069 E78.26834 F1800
G0 X142.644 Y125.003 F7200
G1 X151.437 Y116.209 E78.88879 F1800
G0 X151.551 Y118.113 F7200
G1 X144.595 Y125.069 E79.37959 F1800
G0 X146.480 Y125.069 F7200
G1 X151.468 Y120.081 E79.73148 F1800
G0 X151.516 Y121.919 F7200
G1 X148.366 Y125.069 E79.95372 F1800



; ------------------------------------
; Raft Layer #2
; ------------------------------------
G92 E0 ;reset extr
G0 F600 Z0.800
;segType:Raft
G0 X148.769 Y124.997 F7200
G1 X110.969 Y124.997 E1.25723 F2400
G1 X110.575 Y124.597 E1.27590
G1 X149.163 Y124.597 E2.55933
G1 X149.556 Y124.197 E2.57800
G1 X110.181 Y124.197 E3.88761
G1 X109.788 Y123.797 E3.90628
G1 X149.950 Y123.797 E5.24209
G1 X150.344 Y123.397 E5.26076
G1 X109.394 Y123.397 E6.62276
G1 X109.000 Y122.997 E6.64143
G1 X150.738 Y122.997 E8.02963
G1 X151.131 Y122.597 E8.04830
G1 X108.606 Y122.597 E9.46268
G1 X108.344 Y122.197 E9.47860
G1 X151.394 Y122.197 E10.91044
G1 X151.394 Y121.797 E10.92375
G1 X108.344 Y121.797 E12.35560
G1 X108.344 Y121.397 E12.36890
G1 X151.394 Y121.397 E13.80075
G1 X151.394 Y120.997 E13.81405
G1 X108.344 Y120.997 E15.24590
G1 X108.344 Y120.597 E15.25921
G1 X151.394 Y120.597 E16.69105
G1 X151.394 Y120.197 E16.70436
G1 X108.344 Y120.197 E18.13621
G1 X108.344 Y119.797 E18.14951
G1 X151.394 Y119.797 E19.58136
G1 X151.394 Y119.397 E19.59466
G1 X108.344 Y119.397 E21.02651
G1 X108.344 Y118.997 E21.03982
G1 X151.394 Y118.997 E22.47166
G1 X151.394 Y118.597 E22.48497
G1 X108.344 Y118.597 E23.91682
G1 X108.344 Y118.197 E23.93012
G1 X151.394 Y118.197 E25.36197
G1 X151.394 Y117.797 E25.37527
G1 X108.344 Y117.797 E26.80712
G1 X108.344 Y117.397 E26.82042
G1 X151.394 Y117.397 E28.25227
G1 X151.394 Y116.997 E28.26558
G1 X108.344 Y116.997 E29.69743
G1 X108.344 Y116.597 E29.71073
G1 X151.394 Y116.597 E31.14258
G1 X151.394 Y116.197 E31.15588
G1 X108.344 Y116.197 E32.58773
G1 X108.344 Y115.797 E32.60104
G1 X151.394 Y115.797 E34.03289
G1 X151.394 Y115.397 E34.04619
G1 X108.344 Y115.397 E35.47804
G1 X108.344 Y114.997 E35.49135
G1 X151.394 Y114.997 E36.92320
G1 X151.394 Y114.597 E36.93651
G1 X108.344 Y114.597 E38.36836
G1 X108.344 Y114.197 E38.38166
G1 X151.394 Y114.197 E39.81351
G1 X151.394 Y113.797 E39.82682
G1 X108.344 Y113.797 E41.25867
G1 X108.344 Y113.397 E41.27197
G1 X151.394 Y113.397 E42.70383
G1 X151.394 Y112.997 E42.71713
G1 X108.344 Y112.997 E44.14898
G1 X108.344 Y112.597 E44.16229
G1 X151.394 Y112.597 E45.59414
G1 X151.394 Y112.197 E45.60744
G1 X108.344 Y112.197 E47.03929
G1 X108.344 Y111.797 E47.05260
G1 X151.394 Y111.797 E48.48445
G1 X151.394 Y111.397 E48.49776
G1 X108.344 Y111.397 E49.92961
G1 X108.344 Y110.997 E49.94291
G1 X151.394 Y110.997 E51.37476
G1 X151.394 Y110.597 E51.38807
G1 X108.344 Y110.597 E52.81992
G1 X108.344 Y110.197 E52.83322
G1 X151.394 Y110.197 E54.26507
G1 X151.394 Y109.797 E54.27838
G1 X108.344 Y109.797 E55.71023
G1 X108.344 Y109.397 E55.72354
G1 X151.394 Y109.397 E57.15539
G1 X151.394 Y108.997 E57.16869
G1 X108.344 Y108.997 E58.60054
G1 X108.344 Y108.597 E58.61385
G1 X151.394 Y108.597 E60.04570
G1 X151.394 Y108.197 E60.05900
G1 X108.344 Y108.197 E61.49085
G1 X108.344 Y107.797 E61.50416
G1 X151.394 Y107.797 E62.93601
G1 X151.394 Y107.397 E62.94932
G1 X108.344 Y107.397 E64.38117
G1 X108.344 Y106.997 E64.39447
G1 X151.394 Y106.997 E65.82632
G1 X151.394 Y106.597 E65.83962
G1 X108.344 Y106.597 E67.27147
G1 X108.344 Y106.197 E67.28478
G1 X151.394 Y106.197 E68.71662
G1 X151.394 Y105.797 E68.72993
G1 X108.344 Y105.797 E70.16178
G1 X108.344 Y105.397 E70.17508
G1 X151.394 Y105.397 E71.60693
G1 X151.394 Y104.997 E71.62023
G1 X108.344 Y104.997 E73.05208
G1 X108.344 Y104.597 E73.06539
G1 X151.394 Y104.597 E74.49723
G1 X151.394 Y104.197 E74.51054
G1 X108.344 Y104.197 E75.94239
G1 X108.344 Y103.797 E75.95569
G1 X151.394 Y103.797 E77.38754
G1 X151.394 Y103.397 E77.40084
G1 X108.344 Y103.397 E78.83269
G1 X108.344 Y102.997 E78.84600
G1 X151.394 Y102.997 E80.27784
G1 X151.394 Y102.597 E80.29115
G1 X108.344 Y102.597 E81.72299
G1 X108.344 Y102.197 E81.73630
G1 X151.394 Y102.197 E83.16815
G1 X151.394 Y101.797 E83.18145
G1 X108.344 Y101.797 E84.61330
G1 X108.344 Y101.397 E84.62660
G1 X151.394 Y101.397 E86.05845
G1 X151.394 Y100.997 E86.07175
G1 X108.344 Y100.997 E87.50360
G1 X108.344 Y100.597 E87.51691
G1 X151.394 Y100.597 E88.94875
G1 X151.394 Y100.197 E88.96206
G1 X108.344 Y100.197 E90.39391
G1 X108.344 Y99.797 E90.40721
G1 X151.394 Y99.797 E91.83906
G1 X151.394 Y99.397 E91.85236
G1 X108.344 Y99.397 E93.28421
G1 X108.344 Y98.997 E93.29752
G1 X151.394 Y98.997 E94.72936
G1 X151.394 Y98.597 E94.74267
G1 X108.344 Y98.597 E96.17451
G1 X108.344 Y98.197 E96.18782
G1 X151.394 Y98.197 E97.61967
G1 X151.394 Y97.797 E97.63297
G1 X108.344 Y97.797 E99.06482
G1 X108.344 Y97.397 E99.07812
G1 X151.394 Y97.397 E100.50997
G1 X151.394 Y96.997 E100.52328
G1 X108.344 Y96.997 E101.95512
G1 X108.344 Y96.597 E101.96843
G1 X151.394 Y96.597 E103.40028
G1 X151.394 Y96.197 E103.41358
G1 X108.344 Y96.197 E104.84543
G1 X108.344 Y95.797 E104.85873
G1 X151.394 Y95.797 E106.29058
G1 X151.394 Y95.397 E106.30389
G1 X108.344 Y95.397 E107.73573
G1 X108.344 Y94.997 E107.74904
G1 X151.394 Y94.997 E109.18089
G1 X151.394 Y94.597 E109.19419
G1 X108.344 Y94.597 E110.62604
G1 X108.344 Y94.197 E110.63934
G1 X151.394 Y94.197 E112.07119
G1 X151.394 Y93.797 E112.08450
G1 X108.344 Y93.797 E113.51634
G1 X108.344 Y93.397 E113.52965
G1 X151.394 Y93.397 E114.96149
G1 X151.394 Y92.997 E114.97480
G1 X108.344 Y92.997 E116.40665
G1 X108.344 Y92.597 E116.41995
G1 X151.394 Y92.597 E117.85180
G1 X151.394 Y92.197 E117.86510
G1 X108.344 Y92.197 E119.29695
G1 X108.344 Y91.797 E119.31026
G1 X151.394 Y91.797 E120.74210
G1 X151.394 Y91.397 E120.75541
G1 X108.344 Y91.397 E122.18726
G1 X108.344 Y90.997 E122.20056
G1 X151.394 Y90.997 E123.63241
G1 X151.394 Y90.597 E123.64571
G1 X108.344 Y90.597 E125.07756
G1 X108.344 Y90.197 E125.09087
G1 X151.394 Y90.197 E126.52271
G1 X151.394 Y89.797 E126.53602
G1 X108.344 Y89.797 E127.96786
G1 X108.344 Y89.397 E127.98117
G1 X151.394 Y89.397 E129.41302
G1 X151.394 Y88.997 E129.42633
G1 X108.344 Y88.997 E130.85818
G1 X108.344 Y88.597 E130.87149
G1 X151.394 Y88.597 E132.30334
G1 X151.394 Y88.197 E132.31665
G1 X108.344 Y88.197 E133.74850
G1 X108.344 Y87.797 E133.76181
G1 X151.394 Y87.797 E135.19366
G1 X151.394 Y87.397 E135.20697
G1 X108.344 Y87.397 E136.63882
G1 X108.344 Y86.997 E136.65213
G1 X151.394 Y86.997 E138.08398
G1 X151.394 Y86.597 E138.09729
G1 X108.344 Y86.597 E139.52914
G1 X108.344 Y86.197 E139.54245
G1 X151.394 Y86.197 E140.97430
G1 X151.394 Y85.797 E140.98761
G1 X108.344 Y85.797 E142.41946
G1 X108.344 Y85.397 E142.43277
G1 X151.394 Y85.397 E143.86462
G1 X151.394 Y84.997 E143.87793
G1 X108.344 Y84.997 E145.30978
G1 X108.344 Y84.597 E145.32309
G1 X151.394 Y84.597 E146.75494
G1 X151.394 Y84.197 E146.76825
G1 X108.344 Y84.197 E148.20010
G1 X108.344 Y83.797 E148.21341
G1 X151.394 Y83.797 E149.64526
G1 X151.394 Y83.397 E149.65857
G1 X108.344 Y83.397 E151.09042
G1 X108.344 Y82.997 E151.10373
G1 X151.394 Y82.997 E152.53558
G1 X151.394 Y82.597 E152.54889
G1 X108.344 Y82.597 E153.98074
G1 X108.344 Y82.197 E153.99405
G1 X151.394 Y82.197 E155.42590
G1 X151.394 Y81.797 E155.43921
G1 X108.344 Y81.797 E156.87106
G1 X108.344 Y81.397 E156.88437
G1 X151.394 Y81.397 E158.31622
G1 X151.394 Y80.997 E158.32953
G1 X108.344 Y80.997 E159.76138
G1 X108.344 Y80.597 E159.77469
G1 X151.394 Y80.597 E161.20654
G1 X151.394 Y80.197 E161.21985
G1 X108.344 Y80.197 E162.65170
G1 X108.344 Y79.797 E162.66501
G1 X151.394 Y79.797 E164.09686
G1 X151.394 Y79.397 E164.11017
G1 X108.344 Y79.397 E165.54202
G1 X108.344 Y78.997 E165.55533
G1 X151.394 Y78.997 E166.98718
G1 X151.394 Y78.597 E167.00049
G1 X108.344 Y78.597 E168.43234
G1 X108.344 Y78.197 E168.44564
G1 X151.394 Y78.197 E169.87750
G1 X151.394 Y77.797 E169.89080
G1 X108.344 Y77.797 E171.32266
G1 X108.606 Y77.397 E171.33858
G1 X151.131 Y77.397 E172.75296
G1 X150.738 Y76.997 E172.77162
G1 X109.000 Y76.997 E174.15982
G1 X109.394 Y76.597 E174.17848
G1 X150.344 Y76.597 E175.54048
G1 X149.950 Y76.197 E175.55914
G1 X109.788 Y76.197 E176.89496
G1 X110.181 Y75.797 E176.91362
G1 X149.556 Y75.797 E178.22324
G1 X149.163 Y75.397 E178.24190
G1 X110.575 Y75.397 E179.52532
G1 X110.969 Y74.997 E179.54400
G1 X148.769 Y74.997 E180.80122



; ------------------------------------
; Raft Layer #3
; ------------------------------------
M106 S255 ;set fan speed
G92 E0 ;reset extr
G0 F600 Z1.000
;segType:Raft
G0 F3000 E-1.00000
G0 F600 Z3.000
G0 X151.403 Y122.444 F7200
G0 F600 Z1.000
G0 F3000 E0.00000
G1 X151.403 Y77.688 E1.48860 F2400
G1 X151.003 Y77.294 E1.50727
G1 X151.003 Y122.838 E3.02206
G1 X150.603 Y123.231 E3.04073
G1 X150.603 Y76.900 E4.58171
G1 X150.203 Y76.506 E4.60038
G1 X150.203 Y123.625 E6.16756
G1 X149.803 Y124.019 E6.18622
G1 X149.803 Y76.112 E7.77959
G1 X149.403 Y75.719 E7.79826
G1 X149.403 Y124.413 E9.41782
G1 X149.003 Y124.806 E9.43649
G1 X149.003 Y75.325 E11.08224
G1 X148.603 Y75.063 E11.09816
G1 X148.603 Y125.069 E12.76137
G1 X148.203 Y125.069 E12.77468
G1 X148.203 Y75.063 E14.43789
G1 X147.803 Y75.063 E14.45119
G1 X147.803 Y125.069 E16.11441
G1 X147.403 Y125.069 E16.12771
G1 X147.403 Y75.063 E17.79092
G1 X147.003 Y75.063 E17.80423
G1 X147.003 Y125.069 E19.46744
G1 X146.603 Y125.069 E19.48075
G1 X146.603 Y75.063 E21.14396
G1 X146.203 Y75.063 E21.15726
G1 X146.203 Y125.069 E22.82048
G1 X145.803 Y125.069 E22.83378
G1 X145.803 Y75.063 E24.49700
G1 X145.403 Y75.063 E24.51030
G1 X145.403 Y125.069 E26.17351
G1 X145.003 Y125.069 E26.18682
G1 X145.003 Y75.063 E27.85003
G1 X144.603 Y75.063 E27.86333
G1 X144.603 Y125.069 E29.52655
G1 X144.203 Y125.069 E29.53985
G1 X144.203 Y75.063 E31.20307
G1 X143.803 Y75.063 E31.21637
G1 X143.803 Y125.069 E32.87958
G1 X143.403 Y125.069 E32.89289
G1 X143.403 Y75.063 E34.55610
G1 X143.003 Y75.063 E34.56941
G1 X143.003 Y125.069 E36.23263
G1 X142.603 Y125.069 E36.24593
G1 X142.603 Y75.063 E37.90915
G1 X142.203 Y75.063 E37.92245
G1 X142.203 Y125.069 E39.58567
G1 X141.803 Y125.069 E39.59897
G1 X141.803 Y75.063 E41.26219
G1 X141.403 Y75.063 E41.27549
G1 X141.403 Y125.069 E42.93871
G1 X141.003 Y125.069 E42.95202
G1 X141.003 Y75.063 E44.61523
G1 X140.603 Y75.063 E44.62854
G1 X140.603 Y125.069 E46.29175
G1 X140.203 Y125.069 E46.30506
G1 X140.203 Y75.063 E47.96828
G1 X139.803 Y75.063 E47.98158
G1 X139.803 Y125.069 E49.64480
G1 X139.403 Y125.069 E49.65810
G1 X139.403 Y75.063 E51.32132
G1 X139.003 Y75.063 E51.33462
G1 X139.003 Y125.069 E52.99784
G1 X138.603 Y125.069 E53.01115
G1 X138.603 Y75.063 E54.67436
G1 X138.203 Y75.063 E54.68767
G1 X138.203 Y125.069 E56.35088
G1 X137.803 Y125.069 E56.36419
G1 X137.803 Y75.063 E58.02740
G1 X137.403 Y75.063 E58.04071
G1 X137.403 Y125.069 E59.70392
G1 X137.003 Y125.069 E59.71723
G1 X137.003 Y75.063 E61.38045
G1 X136.603 Y75.063 E61.39375
G1 X136.603 Y125.069 E63.05697
G1 X136.203 Y125.069 E63.07027
G1 X136.203 Y75.063 E64.73348
G1 X135.803 Y75.063 E64.74679
G1 X135.803 Y125.069 E66.41001
G1 X135.403 Y125.069 E66.42331
G1 X135.403 Y75.063 E68.08653
G1 X135.003 Y75.063 E68.09983
G1 X135.003 Y125.069 E69.76305
G1 X134.603 Y125.069 E69.77635
G1 X134.603 Y75.063 E71.43957
G1 X134.203 Y75.063 E71.45288
G1 X134.203 Y125.069 E73.11609
G1 X133.803 Y125.069 E73.12940
G1 X133.803 Y75.063 E74.79261
G1 X133.403 Y75.063 E74.80592
G1 X133.403 Y125.069 E76.46913
G1 X133.003 Y125.069 E76.48244
G1 X133.003 Y75.063 E78.14566
G1 X132.603 Y75.063 E78.15896
G1 X132.603 Y125.069 E79.82218
G1 X132.203 Y125.069 E79.83548
G1 X132.203 Y75.063 E81.49870
G1 X131.803 Y75.063 E81.51200
G1 X131.803 Y125.069 E83.17522
G1 X131.403 Y125.069 E83.18852
G1 X131.403 Y75.063 E84.85174
G1 X131.003 Y75.063 E84.86504
G1 X131.003 Y125.069 E86.52826
G1 X130.603 Y125.069 E86.54156
G1 X130.603 Y75.063 E88.20478
G1 X130.203 Y75.063 E88.21809
G1 X130.203 Y125.069 E89.88130
G1 X129.803 Y125.069 E89.89461
G1 X129.803 Y75.063 E91.55782
G1 X129.403 Y75.063 E91.57113
G1 X129.403 Y125.069 E93.23434
G1 X129.003 Y125.069 E93.24765
G1 X129.003 Y75.063 E94.91087
G1 X128.603 Y75.063 E94.92417
G1 X128.603 Y125.069 E96.58739
G1 X128.203 Y125.069 E96.60069
G1 X128.203 Y75.063 E98.26391
G1 X127.803 Y75.063 E98.27721
G1 X127.803 Y125.069 E99.94043
G1 X127.403 Y125.069 E99.95374
G1 X127.403 Y75.063 E101.61695
G1 X127.003 Y75.063 E101.63026
G1 X127.003 Y125.069 E103.29347
G1 X126.603 Y125.069 E103.30678
G1 X126.603 Y75.063 E104.96999
G1 X126.203 Y75.063 E104.98330
G1 X126.203 Y125.069 E106.64651
G1 X125.803 Y125.069 E106.65982
G1 X125.803 Y75.063 E108.32304
G1 X125.403 Y75.063 E108.33634
G1 X125.403 Y125.069 E109.99956
G1 X125.003 Y125.069 E110.01286
G1 X125.003 Y75.063 E111.67608
G1 X124.603 Y75.063 E111.68938
G1 X124.603 Y125.069 E113.35260
G1 X124.203 Y125.069 E113.36591
G1 X124.203 Y75.063 E115.02912
G1 X123.803 Y75.063 E115.04243
G1 X123.803 Y125.069 E116.70564
G1 X123.403 Y125.069 E116.71895
G1 X123.403 Y75.063 E118.38216
G1 X123.003 Y75.063 E118.39547
G1 X123.003 Y125.069 E120.05869
G1 X122.603 Y125.069 E120.07199
G1 X122.603 Y75.063 E121.73521
G1 X122.203 Y75.063 E121.74851
G1 X122.203 Y125.069 E123.41173
G1 X121.803 Y125.069 E123.42503
G1 X121.803 Y75.063 E125.08825
G1 X121.403 Y75.063 E125.10155
G1 X121.403 Y125.069 E126.76477
G1 X121.003 Y125.069 E126.77808
G1 X121.003 Y75.063 E128.44128
G1 X120.603 Y75.063 E128.45459
G1 X120.603 Y125.069 E130.11780
G1 X120.203 Y125.069 E130.13110
G1 X120.203 Y75.063 E131.79431
G1 X119.803 Y75.063 E131.80762
G1 X119.803 Y125.069 E133.47083
G1 X119.403 Y125.069 E133.48413
G1 X119.403 Y75.063 E135.14734
G1 X119.003 Y75.063 E135.16064
G1 X119.003 Y125.069 E136.82385
G1 X118.603 Y125.069 E136.83716
G1 X118.603 Y75.063 E138.50037
G1 X118.203 Y75.063 E138.51367
G1 X118.203 Y125.069 E140.17688
G1 X117.803 Y125.069 E140.19019
G1 X117.803 Y75.063 E141.85339
G1 X117.403 Y75.063 E141.86670
G1 X117.403 Y125.069 E143.52991
G1 X117.003 Y125.069 E143.54321
G1 X117.003 Y75.063 E145.20642
G1 X116.603 Y75.063 E145.21973
G1 X116.603 Y125.069 E146.88293
G1 X116.203 Y125.069 E146.89624
G1 X116.203 Y75.063 E148.55945
G1 X115.803 Y75.063 E148.57275
G1 X115.803 Y125.069 E150.23596
G1 X115.403 Y125.069 E150.24927
G1 X115.403 Y75.063 E151.91248
G1 X115.003 Y75.063 E151.92578
G1 X115.003 Y125.069 E153.58899
G1 X114.603 Y125.069 E153.60229
G1 X114.603 Y75.063 E155.26550
G1 X114.203 Y75.063 E155.27881
G1 X114.203 Y125.069 E156.94202
G1 X113.803 Y125.069 E156.95532
G1 X113.803 Y75.063 E158.61853
G1 X113.403 Y75.063 E158.63184
G1 X113.403 Y125.069 E160.29504
G1 X113.003 Y125.069 E160.30835
G1 X113.003 Y75.063 E161.97156
G1 X112.603 Y75.063 E161.98486
G1 X112.603 Y125.069 E163.64807
G1 X112.203 Y125.069 E163.66138
G1 X112.203 Y75.063 E165.32458
G1 X111.803 Y75.063 E165.33789
G1 X111.803 Y125.069 E167.00110
G1 X111.403 Y125.069 E167.01440
G1 X111.403 Y75.063 E168.67762
G1 X111.003 Y75.194 E168.69162
G1 X111.003 Y124.938 E170.34610
G1 X110.603 Y124.544 E170.36476
G1 X110.603 Y75.587 E171.99306
G1 X110.203 Y75.981 E172.01172
G1 X110.203 Y124.150 E173.61382
G1 X109.803 Y123.756 E173.63248
G1 X109.803 Y76.375 E175.20838
G1 X109.403 Y76.769 E175.22706
G1 X109.403 Y123.363 E176.77676
G1 X109.003 Y122.969 E176.79542
G1 X109.003 Y77.163 E178.31896
G1 X108.603 Y77.556 E178.33762
G1 X108.603 Y122.575 E179.83494


; ------------------------------------
; Layer #0
; ------------------------------------
G21 ; mm
G90 ; abs
G92 E0 ;reset extr
G0 F600 Z1.450
;segType:HShell
G0 F3000 E-1.00000
G0 X123.039 Y89.382 F5400
G0 F3000 E0.00000
G1 X114.618 Y80.961 E0.39610 F2400
G0 X113.916 Y80.780 F5400
;segType:Perimeter
G1 X113.760 Y80.200 E0.41606 F1200
G1 X146.300 Y80.200 E1.49832
G1 X146.300 Y119.800 E2.81540
G1 X113.700 Y119.800 E3.89966
G1 X113.700 Y80.260 E5.21473
G0 X113.760 Y80.200 F5400
G0 X115.360 Y80.200
G0 X114.800 Y80.600
;segType:Loop
G1 X145.900 Y80.600 E6.24910 F2400
G1 X145.900 Y119.400 E7.53957
G1 X114.100 Y119.400 E8.59722
G1 X114.100 Y80.600 E9.88769
G1 X114.600 Y80.600 E9.90432
G0 F3000 E8.90432
G0 X124.801 Y80.961 F5400
G0 F3000 E9.90432
;segType:HShell
G1 X125.587 Y81.747 E9.94132 F2400
G0 X125.314 Y82.039 F5400
G1 X124.235 Y80.961 E9.99205 F2400
G0 X123.669 Y80.961 F5400
G1 X125.109 Y82.401 E10.05979 F2400
G0 X124.936 Y82.793 F5400
G1 X123.104 Y80.961 E10.14597 F2400
G0 X122.538 Y80.961 F5400
G1 X124.820 Y83.243 E10.25333 F2400
G0 X125.420 Y83.402 F5400
;segType:Perimeter
G1 X125.714 Y82.879 E10.27329 F1200
G1 X125.921 Y82.503 E10.28757
G1 X126.256 Y82.146 E10.30384
G1 X126.669 Y81.884 E10.32012
G1 X127.134 Y81.733 E10.33639
G1 X127.622 Y81.702 E10.35266
G1 X128.103 Y81.794 E10.36894
G1 X128.546 Y82.002 E10.38521
G1 X128.923 Y82.314 E10.40149
G1 X129.211 Y82.710 E10.41776
G1 X129.391 Y83.165 E10.43404
G1 X129.452 Y83.650 E10.45031
G1 X129.391 Y84.135 E10.46658
G1 X129.211 Y84.590 E10.48286
G1 X128.923 Y84.986 E10.49914
G1 X128.546 Y85.298 E10.51540
G1 X128.103 Y85.506 E10.53168
G1 X127.622 Y85.598 E10.54796
G1 X127.134 Y85.567 E10.56424
G1 X126.669 Y85.416 E10.58051
G1 X126.256 Y85.154 E10.59678
G1 X125.921 Y84.797 E10.61305
G1 X125.685 Y84.368 E10.62933
G1 X125.563 Y83.895 E10.64560
G1 X125.563 Y83.405 E10.66187
G1 X125.670 Y82.989 E10.67615
G0 X125.714 Y82.879 F5400
G0 X125.921 Y82.503
G0 X126.256 Y82.146
G0 X126.669 Y81.884
G0 X126.852 Y81.824
G0 X126.497 Y81.519
G0 X126.083 Y81.782
;segType:Loop
G1 X126.497 Y81.519 E10.69247 F2400
G1 X127.059 Y81.337 E10.71210
G1 X127.648 Y81.299 E10.73174
G1 X128.228 Y81.410 E10.75137
G1 X128.762 Y81.661 E10.77101
G1 X129.217 Y82.038 E10.79065
G1 X129.564 Y82.516 E10.81029
G1 X129.781 Y83.064 E10.82992
G1 X129.855 Y83.650 E10.84955
G1 X129.781 Y84.236 E10.86919
G1 X129.564 Y84.785 E10.88882
G1 X129.217 Y85.262 E10.90846
G1 X128.762 Y85.638 E10.92809
G1 X128.645 Y85.694 E10.93240
G0 X128.601 Y85.812 F5400
G0 X128.469 Y85.841
G1 X128.129 Y85.904 E10.94365 F2400
G1 X128.014 Y85.915 E10.94718
G1 X127.900 Y85.926 E10.95049
G1 X127.786 Y85.937 E10.95361
G1 X127.671 Y85.947 E10.95651
G1 X127.557 Y85.947 E10.95941
G1 X127.443 Y85.944 E10.96237
G1 X127.329 Y85.940 E10.96541
G1 X127.214 Y85.936 E10.96851
G1 X127.100 Y85.933 E10.97168
G1 X126.986 Y85.919 E10.97514
G1 X126.871 Y85.901 E10.97896
G1 X126.757 Y85.883 E10.98313
G1 X126.643 Y85.865 E10.98764
G1 X126.363 Y85.696 E10.99852
G1 X125.999 Y85.465 E11.01286
G1 X125.595 Y85.034 E11.03250
G1 X125.310 Y84.517 E11.05214
G1 X125.163 Y83.945 E11.07177
G1 X125.163 Y83.355 E11.09140
G1 X125.310 Y82.783 E11.11104
G1 X125.595 Y82.266 E11.13068
G1 X125.930 Y81.908 E11.14698
G0 F3000 E10.14698
G0 X125.595 Y82.266 F5400
G0 X125.310 Y82.783
G0 X125.163 Y83.355
G0 X125.163 Y83.945
G0 X125.310 Y84.517
G0 X125.595 Y85.034
G0 X125.999 Y85.465
G0 X126.363 Y85.696
G0 X126.643 Y85.865
G0 X126.757 Y85.883
G0 X126.871 Y85.901
G0 X126.986 Y85.919
G0 X127.100 Y85.933
G0 X127.214 Y85.936
G0 X127.329 Y85.940
G0 X127.443 Y85.944
G0 X127.557 Y85.947
G0 X127.671 Y85.947
G0 X127.786 Y85.937
G0 X127.900 Y85.926
G0 X128.014 Y85.915
G0 X128.129 Y85.904
G0 X128.229 Y85.886
G0 X128.233 Y85.893
G0 X128.243 Y85.892
G0 X128.357 Y85.866
G0 X128.471 Y85.841
G0 X128.586 Y85.815
G0 X128.700 Y85.808
G0 X128.814 Y85.900
G0 X131.600 Y85.900
G0 X131.600 Y91.720
G0 X145.900 Y116.465
G0 X145.540 Y115.842
G0 F3000 E11.14698
;segType:HShell
G1 X131.961 Y102.263 E11.78570 F2400
G0 X131.940 Y101.700 F5400
;segType:Perimeter
G1 X131.140 Y101.700 E11.81231 F1200
G1 X123.800 Y101.700 E12.05646
G1 X123.800 Y86.300 E12.56869
G1 X131.200 Y86.300 E12.81485
G1 X131.200 Y101.640 E13.32508
G0 X131.140 Y101.700 F5400
G0 X129.540 Y101.700
G0 X130.100 Y102.100
;segType:Loop
G1 X128.814 Y102.100 E13.36786 F2400
G0 X128.700 Y102.192 F5400
G0 X128.586 Y102.185
G0 X128.471 Y102.159
G0 X128.357 Y102.134
G0 X128.243 Y102.108
G1 X128.129 Y102.096 E13.37160 F2400
G1 X128.014 Y102.085 E13.37513
G1 X127.900 Y102.074 E13.37845
G1 X127.786 Y102.063 E13.38156
G1 X127.671 Y102.053 E13.38447
G1 X127.557 Y102.053 E13.38736
G1 X127.443 Y102.056 E13.39033
G1 X127.329 Y102.060 E13.39337
G1 X127.214 Y102.064 E13.39647
G1 X127.100 Y102.067 E13.39964
G1 X126.986 Y102.081 E13.40310
G1 X126.871 Y102.099 E13.40692
G1 X126.757 Y102.117 E13.41108
G1 X126.643 Y102.135 E13.41560
G1 X126.529 Y102.145 E13.42028
G1 X126.414 Y102.179 E13.42579
G1 X126.300 Y102.100 E13.43040
G1 X123.400 Y102.100 E13.52687
G1 X123.400 Y85.900 E14.06571
G1 X126.300 Y85.900 E14.16218
G1 X126.414 Y85.821 E14.16860
G1 X126.529 Y85.854 E14.17345
G0 X126.643 Y85.865 F5400
G0 X126.986 Y85.919
G0 X127.100 Y85.933
G0 X127.557 Y85.947
G0 X127.671 Y85.947
G0 X128.129 Y85.904
G1 X128.243 Y85.892 E14.17743 F2400
G1 X128.357 Y85.866 E14.18198
G1 X128.471 Y85.841 E14.18702
G1 X128.586 Y85.815 E14.19256
G1 X128.700 Y85.808 E14.19811
G1 X128.814 Y85.900 E14.20297
G1 X131.600 Y85.900 E14.29564
G1 X131.600 Y102.100 E14.83448
G1 X130.300 Y102.100 E14.87772
G0 F3000 E13.87772
G0 X130.300 Y102.100 F5400
G0 X128.814 Y102.100
G0 X128.700 Y102.192
G0 X128.586 Y102.185
G0 X128.471 Y102.159
G0 X128.357 Y102.134
G0 X128.243 Y102.108
G0 X128.129 Y102.096
G0 X128.014 Y102.085
G0 X127.900 Y102.074
G0 X127.786 Y102.063
G0 X127.671 Y102.053
G0 X127.557 Y102.053
G0 X127.443 Y102.056
G0 X127.329 Y102.060
G0 X127.214 Y102.064
G0 X127.100 Y102.067
G0 X126.986 Y102.081
G0 X126.871 Y102.099
G0 X126.757 Y102.117
G0 X126.643 Y102.135
G0 X126.529 Y102.145
G0 X126.414 Y102.179
G0 X126.300 Y102.100
G0 X123.400 Y102.100
G0 X123.400 Y98.490
G0 X114.100 Y93.625
G0 X114.460 Y93.813
G0 F3000 E14.87772
;segType:HShell
G1 X123.039 Y102.392 E15.28124 F2400
G0 X123.107 Y102.460 F5400
G1 X124.803 Y104.156 E15.36101 F2400
G0 X125.420 Y104.102 F5400
;segType:Perimeter
G1 X125.714 Y103.579 E15.38097 F1200
G1 X125.921 Y103.203 E15.39525
G1 X126.256 Y102.846 E15.41152
G1 X126.669 Y102.584 E15.42780
G1 X127.134 Y102.432 E15.44407
G1 X127.623 Y102.402 E15.46035
G1 X128.103 Y102.494 E15.47662
G1 X128.546 Y102.702 E15.49289
G1 X128.923 Y103.014 E15.50917
G1 X129.211 Y103.409 E15.52544
G1 X129.391 Y103.864 E15.54171
G1 X129.452 Y104.350 E15.55799
G1 X129.391 Y104.835 E15.57427
G1 X129.211 Y105.290 E15.59054
G1 X128.923 Y105.686 E15.60681
G1 X128.546 Y105.998 E15.62308
G1 X128.103 Y106.207 E15.63937
G1 X127.622 Y106.298 E15.65564
G1 X127.134 Y106.267 E15.67191
G1 X126.669 Y106.116 E15.68819
G1 X126.256 Y105.854 E15.70446
G1 X125.921 Y105.497 E15.72073
G1 X125.685 Y105.069 E15.73701
G1 X125.563 Y104.595 E15.75328
G1 X125.563 Y104.106 E15.76955
G1 X125.670 Y103.690 E15.78383
G0 X125.714 Y103.579 F5400
G0 X125.921 Y103.203
G0 X126.256 Y102.846
G0 X126.669 Y102.584
G0 X126.852 Y102.524
G0 X126.643 Y102.135
G0 X126.352 Y102.311
G0 X126.083 Y102.482
;segType:Loop
G1 X126.352 Y102.311 E15.79443 F2400
G0 X126.643 Y102.135 F5400
G0 X126.986 Y102.081
G0 X127.100 Y102.067
G0 X127.557 Y102.053
G0 X127.671 Y102.053
G0 X128.129 Y102.096
G1 X128.351 Y102.133 E15.80315 F2400
G1 X128.483 Y102.162 E15.80904
G1 X128.615 Y102.192 E15.81560
G1 X128.657 Y102.312 E15.81983
G1 X128.762 Y102.361 E15.82370
G1 X129.217 Y102.738 E15.84334
G1 X129.564 Y103.215 E15.86297
G1 X129.781 Y103.764 E15.88261
G1 X129.855 Y104.350 E15.90224
G1 X129.781 Y104.936 E15.92188
G1 X129.564 Y105.485 E15.94152
G1 X129.217 Y105.962 E15.96115
G1 X128.762 Y106.338 E15.98078
G1 X128.228 Y106.590 E16.00043
G1 X127.648 Y106.700 E16.02006
G1 X127.059 Y106.664 E16.03969
G1 X126.497 Y106.481 E16.05933
G1 X125.999 Y106.165 E16.07896
G1 X125.595 Y105.734 E16.09859
G1 X125.310 Y105.217 E16.11824
G1 X125.163 Y104.645 E16.13787
G1 X125.163 Y104.055 E16.15750
G1 X125.310 Y103.483 E16.17714
G1 X125.595 Y102.966 E16.19677
G1 X125.930 Y102.608 E16.21308
G0 F3000 E15.21308
G0 X125.595 Y102.966 F5400
G0 X125.310 Y103.483
G0 X125.163 Y104.055
G0 X125.163 Y104.645
G0 X125.310 Y105.217
G0 X125.595 Y105.734
G0 X125.999 Y106.165
G0 X126.497 Y106.481
G0 X127.059 Y106.664
G0 X127.517 Y106.692
G0 X128.181 Y108.400
G0 X124.150 Y108.400
G0 X124.150 Y113.100
G0 X130.008 Y113.100
G0 X130.148 Y113.461
G0 F3000 E16.21308
;segType:HShell
G1 X135.727 Y119.039 E16.47550 F2400
G0 X135.161 Y119.039 F5400
G1 X129.582 Y113.461 E16.73791 F2400
G0 F3000 E15.73791
G0 X130.390 Y112.700 F5400
G0 F3000 E16.73791
;segType:Perimeter
G1 X124.550 Y112.700 E16.93217 F1200
G1 X124.550 Y108.800 E17.06191
G1 X130.450 Y108.800 E17.25817
G1 X130.450 Y112.640 E17.38591
G0 X130.390 Y112.700 F5400
G0 X128.790 Y112.700
G0 X129.350 Y113.100
;segType:Loop
G1 X124.150 Y113.100 E17.55889 F2400
G1 X124.150 Y108.400 E17.71524
G1 X130.850 Y108.400 E17.93811
G1 X130.850 Y113.100 E18.09445
G1 X129.550 Y113.100 E18.13769
G0 X129.016 Y113.461 F5400
;segType:HShell
G1 X134.595 Y119.039 E18.40011 F2400
G0 X134.030 Y119.039 F5400
G1 X128.451 Y113.461 E18.66252 F2400
G0 X127.885 Y113.461 F5400
G1 X133.464 Y119.039 E18.92494 F2400
G0 X132.898 Y119.039 F5400
G1 X127.319 Y113.461 E19.18735 F2400
G0 X126.754 Y113.461 F5400
G1 X132.333 Y119.039 E19.44976 F2400
G0 X131.767 Y119.039 F5400
G1 X126.188 Y113.461 E19.71218 F2400
G0 X125.622 Y113.461 F5400
G1 X131.201 Y119.039 E19.97459 F2400
G0 X130.636 Y119.039 F5400
G1 X125.057 Y113.461 E20.23701 F2400
G0 X124.491 Y113.461 F5400
G1 X130.070 Y119.039 E20.49942 F2400
G0 X129.504 Y119.039 F5400
G1 X123.925 Y113.461 E20.76184 F2400
G0 X114.460 Y118.704 F5400
G1 X114.796 Y119.039 E20.77764 F2400
G0 X115.362 Y119.039 F5400
G1 X114.460 Y118.138 E20.82004 F2400
G0 X114.460 Y117.572 F5400
G1 X115.928 Y119.039 E20.88906 F2400
G0 X116.493 Y119.039 F5400
G1 X114.460 Y117.007 E20.98468 F2400
G0 X114.460 Y116.441 F5400
G1 X117.059 Y119.039 E21.10691 F2400
G0 X117.625 Y119.039 F5400
G1 X114.460 Y115.875 E21.25575 F2400
G0 X114.460 Y115.309 F5400
G1 X118.190 Y119.039 E21.43119 F2400
G0 X118.756 Y119.039 F5400
G1 X114.460 Y114.744 E21.63325 F2400
G0 X114.460 Y114.178 F5400
G1 X119.322 Y119.039 E21.86191 F2400
G0 X119.887 Y119.039 F5400
G1 X114.460 Y113.612 E22.11718 F2400
G0 X114.460 Y113.047 F5400
G1 X120.453 Y119.039 E22.39906 F2400
G0 X121.019 Y119.039 F5400
G1 X114.460 Y112.481 E22.70755 F2400
G0 X114.460 Y111.915 F5400
G1 X121.585 Y119.039 E23.04264 F2400
G0 X122.150 Y119.039 F5400
G1 X114.460 Y111.350 E23.40434 F2400
G0 X114.460 Y110.784 F5400
G1 X122.716 Y119.039 E23.79266 F2400
G0 X123.282 Y119.039 F5400
G1 X114.460 Y110.218 E24.20757 F2400
G0 X114.460 Y109.653 F5400
G1 X123.847 Y119.039 E24.64910 F2400
G0 X124.413 Y119.039 F5400
G1 X114.460 Y109.087 E25.11724 F2400
G0 X114.460 Y108.521 F5400
G1 X124.979 Y119.039 E25.61198 F2400
G0 X125.544 Y119.039 F5400
G1 X114.460 Y107.956 E26.13333 F2400
G0 X114.460 Y107.390 F5400
G1 X126.110 Y119.039 E26.68129 F2400
G0 X126.676 Y119.039 F5400
G1 X114.460 Y106.824 E27.25586 F2400
G0 X114.460 Y106.259 F5400
G1 X127.241 Y119.039 E27.85703 F2400
G0 X127.807 Y119.039 F5400
G1 X114.460 Y105.693 E28.48482 F2400
G0 X114.460 Y105.127 F5400
G1 X128.373 Y119.039 E29.13921 F2400
G0 X128.938 Y119.039 F5400
G1 X114.460 Y104.561 E29.82021 F2400
G0 X114.460 Y103.996 F5400
G1 X123.789 Y113.325 E30.25902 F2400
G0 X123.789 Y112.759 F5400
G1 X114.460 Y103.430 E30.69783 F2400
G0 X114.460 Y102.864 F5400
G1 X123.789 Y112.193 E31.13664 F2400
G0 X123.789 Y111.628 F5400
G1 X114.460 Y102.299 E31.57544 F2400
G0 X114.460 Y101.733 F5400
G1 X123.789 Y111.062 E32.01425 F2400
G0 X123.789 Y110.496 F5400
G1 X114.460 Y101.167 E32.45306 F2400
G0 X114.460 Y100.602 F5400
G1 X123.789 Y109.931 E32.89187 F2400
G0 X123.789 Y109.365 F5400
G1 X114.460 Y100.036 E33.33068 F2400
G0 X114.460 Y99.470 F5400
G1 X123.789 Y108.799 E33.76949 F2400
G0 X123.789 Y108.234 F5400
G1 X114.460 Y98.905 E34.20830 F2400
G0 X114.460 Y98.339 F5400
G1 X124.161 Y108.040 E34.66458 F2400
G0 X124.727 Y108.040 F5400
G1 X114.460 Y97.773 E35.14748 F2400
G0 X114.460 Y97.208 F5400
G1 X125.292 Y108.040 E35.65698 F2400
G0 X125.858 Y108.040 F5400
G1 X114.460 Y96.642 E36.19310 F2400
G0 X114.460 Y96.076 F5400
G1 X126.424 Y108.040 E36.75582 F2400
G0 X126.990 Y108.040 F5400
G1 X114.460 Y95.511 E37.34515 F2400
G0 X114.460 Y94.945 F5400
G1 X125.103 Y105.587 E37.84572 F2400
G0 X124.814 Y104.733 F5400
G1 X114.460 Y94.379 E38.33273 F2400
G0 F3000 E37.33273
G0 X115.184 Y80.961 F5400
G0 F3000 E38.33273
G1 X123.039 Y88.816 E38.70223 F2400
G0 X123.039 Y88.250 F5400
G1 X115.750 Y80.961 E39.04511 F2400
G0 X116.315 Y80.961 F5400
G1 X123.039 Y87.685 E39.36139 F2400
G0 X123.039 Y87.119 F5400
G1 X116.881 Y80.961 E39.65106 F2400
G0 X117.447 Y80.961 F5400
G1 X123.039 Y86.553 E39.91412 F2400
G0 X123.039 Y85.988 F5400
G1 X118.012 Y80.961 E40.15057 F2400
G0 X118.578 Y80.961 F5400
G1 X123.157 Y85.539 E40.36595 F2400
G0 X123.723 Y85.539 F5400
G1 X119.144 Y80.961 E40.58133 F2400
G0 X119.709 Y80.961 F5400
G1 X124.288 Y85.539 E40.79670 F2400
G0 X124.854 Y85.539 F5400
G1 X120.275 Y80.961 E41.01208 F2400
G0 X120.841 Y80.961 F5400
G1 X125.335 Y85.455 E41.22347 F2400
G0 X124.930 Y84.484 F5400
G1 X121.407 Y80.961 E41.38919 F2400
G0 X121.972 Y80.961 F5400
G1 X124.803 Y83.792 E41.52236 F2400
G0 X125.366 Y80.961 F5400
G0 X125.398 Y81.275
G1 X126.082 Y81.111 E41.58085 F2400
G1 X126.513 Y80.976 E41.61613
G0 X126.643 Y81.025 F5400
;segType:InnerHair
G1 X126.757 Y81.007 E41.62010 F2400
G1 X126.871 Y80.989 E41.62373
G1 X126.986 Y80.971 E41.62701
G1 X127.100 Y80.967 E41.63018
G1 X127.214 Y80.963 E41.63328
G1 X127.329 Y80.960 E41.63630
G1 X127.443 Y80.956 E41.63926
G1 X127.557 Y80.952 E41.64216
G1 X127.671 Y80.949 E41.64498
G1 X127.786 Y80.960 E41.64803
G1 X127.900 Y80.971 E41.65128
G1 X128.014 Y80.981 E41.65473
G1 X128.129 Y80.992 E41.65840
G1 X128.243 Y81.003 E41.66226
G1 X128.357 Y81.014 E41.66634
G1 X128.471 Y81.040 E41.67100
G0 F3000 E40.67100
G0 X128.776 Y80.600 F5400
G0 X128.216 Y81.408
G0 X127.648 Y81.299
G0 X127.059 Y81.337
G0 X126.497 Y81.519
G0 X125.999 Y81.835
G0 X125.595 Y82.266
G0 X125.310 Y82.783
G0 X125.163 Y83.355
G0 X125.163 Y83.945
G0 X125.310 Y84.517
G0 X125.595 Y85.034
G0 X125.658 Y85.102
G0 X125.105 Y85.900
G0 X125.386 Y85.495
G0 F3000 E41.67100
G1 X125.500 Y85.507 E41.67468 F2400
G1 X125.614 Y85.556 E41.67764
G1 X125.729 Y85.606 E41.67959
G1 X125.670 Y85.581 E41.68085
G1 X125.557 Y85.532 E41.68428
G1 X125.444 Y85.483 E41.68871
G1 X125.386 Y85.495 E41.69075
G0 F3000 E40.69075
G0 X126.052 Y85.499 F5400
G0 X126.363 Y85.696
G0 X126.643 Y85.865
G0 X126.757 Y85.883
G0 X126.871 Y85.901
G0 X126.986 Y85.919
G0 X127.100 Y85.933
G0 X127.214 Y85.936
G0 X127.329 Y85.940
G0 X127.443 Y85.944
G0 X127.557 Y85.947
G0 X127.671 Y85.947
G0 X127.786 Y85.937
G0 X127.900 Y85.926
G0 X128.014 Y85.915
G0 X128.129 Y85.904
G0 X128.469 Y85.841
G0 X128.601 Y85.812
G0 X128.645 Y85.694
G0 X128.762 Y85.638
G0 X128.910 Y85.516
G0 X129.500 Y85.519
G0 F3000 E41.69075
G1 X129.386 Y85.578 E41.69335 F2400
G1 X129.271 Y85.603 E41.69524
G1 X129.338 Y85.579 E41.69666
G1 X129.457 Y85.536 E41.70010
G1 X129.568 Y85.485 E41.70445
G1 X129.500 Y85.519 E41.70672
G0 X129.665 Y85.259 F5400
;segType:HShell
G1 X129.945 Y85.539 E41.71992 F2400
G0 X130.511 Y85.539 F5400
G1 X129.896 Y84.924 E41.74885 F2400
G0 X130.056 Y84.519 F5400
G1 X131.077 Y85.539 E41.79684 F2400
G0 X131.642 Y85.539 F5400
G1 X130.166 Y84.063 E41.86628 F2400
G0 X130.204 Y83.535 F5400
G1 X145.540 Y98.871 E42.58764 F2400
G0 X145.540 Y98.305 F5400
G1 X130.083 Y82.849 E43.31465 F2400
G0 X128.760 Y80.961 F5400
G1 X145.540 Y97.740 E44.10389 F2400
G0 X145.540 Y97.174 F5400
G1 X129.326 Y80.961 E44.86652 F2400
G0 X129.892 Y80.961 F5400
G1 X145.540 Y96.608 E45.60254 F2400
G0 X145.540 Y96.043 F5400
G1 X130.458 Y80.961 E46.31195 F2400
G0 X131.023 Y80.961 F5400
G1 X145.540 Y95.477 E46.99475 F2400
G0 X145.540 Y94.911 F5400
G1 X131.589 Y80.961 E47.65095 F2400
G0 X132.155 Y80.961 F5400
G1 X145.540 Y94.346 E48.28054 F2400
G0 X145.540 Y93.780 F5400
G1 X132.720 Y80.961 E48.88352 F2400
G0 X133.286 Y80.961 F5400
G1 X145.540 Y93.214 E49.45989 F2400
G0 X145.540 Y92.648 F5400
G1 X133.852 Y80.961 E50.00966 F2400
G0 X134.417 Y80.961 F5400
G1 X145.540 Y92.083 E50.53281 F2400
G0 X145.540 Y91.517 F5400
G1 X134.983 Y80.961 E51.02936 F2400
G0 X135.549 Y80.961 F5400
G1 X145.540 Y90.951 E51.49930 F2400
G0 X145.540 Y90.386 F5400
G1 X136.114 Y80.961 E51.94263 F2400
G0 X136.680 Y80.961 F5400
G1 X145.540 Y89.820 E52.35936 F2400
G0 X145.540 Y89.254 F5400
G1 X137.246 Y80.961 E52.74947 F2400
G0 X137.811 Y80.961 F5400
G1 X145.540 Y88.689 E53.11298 F2400
G0 X145.540 Y88.123 F5400
G1 X138.377 Y80.961 E53.44988 F2400
G0 X138.943 Y80.961 F5400
G1 X145.540 Y87.557 E53.76017 F2400
G0 X145.540 Y86.992 F5400
G1 X139.508 Y80.961 E54.04385 F2400
G0 X140.074 Y80.961 F5400
G1 X145.540 Y86.426 E54.30093 F2400
G0 X145.540 Y85.860 F5400
G1 X140.640 Y80.961 E54.53140 F2400
G0 X141.206 Y80.961 F5400
G1 X145.540 Y85.295 E54.73525 F2400
G0 X145.540 Y84.729 F5400
G1 X141.771 Y80.961 E54.91250 F2400
G0 X142.337 Y80.961 F5400
G1 X145.540 Y84.163 E55.06315 F2400
G0 X145.540 Y83.597 F5400
G1 X142.903 Y80.961 E55.18718 F2400
G0 X143.468 Y80.961 F5400
G1 X145.540 Y83.032 E55.28461 F2400
G0 X145.540 Y82.466 F5400
G1 X144.034 Y80.961 E55.35543 F2400
G0 X144.600 Y80.961 F5400
G1 X145.540 Y81.900 E55.39964 F2400
G0 X145.540 Y81.335 F5400
G1 X145.165 Y80.961 E55.41724 F2400
G0 X131.961 Y85.858 F5400
G1 X145.540 Y99.437 E56.05595 F2400
G0 X145.540 Y100.002 F5400
G1 X131.961 Y86.423 E56.69467 F2400
G0 X131.961 Y86.989 F5400
G1 X145.540 Y100.568 E57.33338 F2400
G0 X145.540 Y101.134 F5400
G1 X131.961 Y87.555 E57.97209 F2400
G0 X131.961 Y88.120 F5400
G1 X145.540 Y101.699 E58.61081 F2400
G0 X145.540 Y102.265 F5400
G1 X131.961 Y88.686 E59.24952 F2400
G0 X131.961 Y89.252 F5400
G1 X145.540 Y102.831 E59.88824 F2400
G0 X145.540 Y103.396 F5400
G1 X131.961 Y89.817 E60.52695 F2400
G0 X131.961 Y90.383 F5400
G1 X145.540 Y103.962 E61.16566 F2400
G0 X145.540 Y104.528 F5400
G1 X131.961 Y90.949 E61.80438 F2400
G0 X131.961 Y91.515 F5400
G1 X145.540 Y105.094 E62.44309 F2400
G0 X145.540 Y105.659 F5400
G1 X131.961 Y92.080 E63.08180 F2400
G0 X131.961 Y92.646 F5400
G1 X145.540 Y106.225 E63.72052 F2400
G0 X145.540 Y106.791 F5400
G1 X131.961 Y93.212 E64.35923 F2400
G0 X131.961 Y93.777 F5400
G1 X145.540 Y107.356 E64.99795 F2400
G0 X145.540 Y107.922 F5400
G1 X131.961 Y94.343 E65.63667 F2400
G0 X131.961 Y94.909 F5400
G1 X145.540 Y108.488 E66.27539 F2400
G0 X145.540 Y109.053 F5400
G1 X131.961 Y95.474 E66.91410 F2400
G0 X131.961 Y96.040 F5400
G1 X145.540 Y109.619 E67.55282 F2400
G0 X145.540 Y110.185 F5400
G1 X131.961 Y96.606 E68.19154 F2400
G0 X131.961 Y97.171 F5400
G1 X145.540 Y110.750 E68.83026 F2400
G0 X145.540 Y111.316 F5400
G1 X131.961 Y97.737 E69.46897 F2400
G0 X131.961 Y98.303 F5400
G1 X145.540 Y111.882 E70.10769 F2400
G0 X145.540 Y112.447 F5400
G1 X131.961 Y98.868 E70.74641 F2400
G0 X131.961 Y99.434 F5400
G1 X145.540 Y113.013 E71.38513 F2400
G0 X145.540 Y113.579 F5400
G1 X131.961 Y100.000 E72.02384 F2400
G0 X131.961 Y100.566 F5400
G1 X145.540 Y114.145 E72.66256 F2400
G0 X145.540 Y114.710 F5400
G1 X131.961 Y101.131 E73.30128 F2400
G0 X131.961 Y101.697 F5400
G1 X145.540 Y115.276 E73.94000 F2400
G0 X130.949 Y108.040 F5400
G1 X129.284 Y106.374 E74.01834 F2400
G0 X128.974 Y106.630 F5400
G1 X130.384 Y108.040 E74.08462 F2400
G0 X129.818 Y108.040 F5400
G1 X128.594 Y106.816 E74.14219 F2400
G0 X128.179 Y106.966 F5400
G1 X129.252 Y108.040 E74.19269 F2400
G0 X128.687 Y108.040 F5400
G1 X127.703 Y107.056 E74.23893 F2400
G0 X127.109 Y107.027 F5400
G1 X128.121 Y108.040 E74.28654 F2400
G0 X127.555 Y108.040 F5400
G1 X126.295 Y106.779 E74.34584 F2400
G0 X124.889 Y103.676 F5400
G1 X123.673 Y102.460 E74.40302 F2400
G0 X124.239 Y102.460 F5400
G1 X125.028 Y103.249 E74.44012 F2400
G0 X125.228 Y102.884 F5400
G1 X124.804 Y102.460 E74.46006 F2400
G0 X123.039 Y101.827 F5400
G1 X114.460 Y93.248 E74.86359 F2400
G0 X114.460 Y92.682 F5400
G1 X123.039 Y101.261 E75.26712 F2400
G0 X123.039 Y100.695 F5400
G1 X114.460 Y92.116 E75.67064 F2400
G0 X114.460 Y91.551 F5400
G1 X123.039 Y100.130 E76.07417 F2400
G0 X123.039 Y99.564 F5400
G1 X114.460 Y90.985 E76.47769 F2400
G0 X114.460 Y90.419 F5400
G1 X123.039 Y98.998 E76.88122 F2400
G0 X123.039 Y98.433 F5400
G1 X114.460 Y89.854 E77.28475 F2400
G0 X114.460 Y89.288 F5400
G1 X123.039 Y97.867 E77.68827 F2400
G0 X123.039 Y97.301 F5400
G1 X114.460 Y88.722 E78.09180 F2400
G0 X114.460 Y88.157 F5400
G1 X123.039 Y96.736 E78.49533 F2400
G0 X123.039 Y96.170 F5400
G1 X114.460 Y87.591 E78.89885 F2400
G0 X114.460 Y87.025 F5400
G1 X123.039 Y95.604 E79.30238 F2400
G0 X123.039 Y95.038 F5400
G1 X114.460 Y86.460 E79.70590 F2400
G0 X114.460 Y85.894 F5400
G1 X123.039 Y94.473 E80.10943 F2400
G0 X123.039 Y93.907 F5400
G1 X114.460 Y85.328 E80.51296 F2400
G0 X114.460 Y84.762 F5400
G1 X123.039 Y93.341 E80.91648 F2400
G0 X123.039 Y92.776 F5400
G1 X114.460 Y84.197 E81.32001 F2400
G0 X114.460 Y83.631 F5400
G1 X123.039 Y92.210 E81.72354 F2400
G0 X123.039 Y91.644 F5400
G1 X114.460 Y83.065 E82.12706 F2400
G0 X114.460 Y82.500 F5400
G1 X123.039 Y91.079 E82.53059 F2400
G0 X123.039 Y90.513 F5400
G1 X114.460 Y81.934 E82.93412 F2400
G0 X114.460 Y81.368 F5400
G1 X123.039 Y89.947 E83.33764 F2400
G0 F3000 E82.33764
G0 X123.400 Y91.875 F5400
G0 X123.400 Y102.100
G0 X125.310 Y102.100
G0 X125.503 Y103.133
G0 X125.595 Y102.966
G0 X125.386 Y102.505
G0 F3000 E83.33764
;segType:InnerHair
G1 X125.500 Y102.493 E83.34133 F2400
G1 X125.614 Y102.443 E83.34429
G1 X125.729 Y102.394 E83.34623
G1 X125.658 Y102.425 E83.34783
G1 X125.545 Y102.473 E83.35137
G1 X125.432 Y102.522 E83.35591
G1 X125.386 Y102.505 E83.35759
G0 F3000 E82.35759
G0 X126.052 Y102.501 F5400
G0 X126.352 Y102.311
G0 X126.643 Y102.135
G0 X126.986 Y102.081
G0 X127.100 Y102.067
G0 X127.557 Y102.053
G0 X127.671 Y102.053
G0 X128.129 Y102.096
G0 X128.351 Y102.133
G0 X128.483 Y102.162
G0 X128.615 Y102.192
G0 X128.657 Y102.312
G0 X128.762 Y102.361
G0 X128.910 Y102.484
G0 X129.500 Y102.481
G0 F3000 E83.35759
G1 X129.386 Y102.422 E83.36019 F2400
G1 X129.271 Y102.397 E83.36209
G1 X129.232 Y102.383 E83.36267
G1 X129.351 Y102.426 E83.36531
G1 X129.470 Y102.469 E83.36885
G1 X129.579 Y102.521 E83.37329
G1 X129.500 Y102.481 E83.37596
G0 X131.593 Y102.460 F5400
;segType:HShell
G1 X145.540 Y116.407 E84.03197 F2400
G0 X145.540 Y116.973 F5400
G1 X131.027 Y102.460 E84.71459 F2400
G0 X130.461 Y102.460 F5400
G1 X145.540 Y117.539 E85.42383 F2400
G0 X145.540 Y118.104 F5400
G1 X129.896 Y102.460 E86.15967 F2400
G0 X129.808 Y102.938 F5400
G1 X145.540 Y118.670 E86.89965 F2400
G0 X145.343 Y119.039 F5400
G1 X130.155 Y103.851 E87.61405 F2400
G0 X130.204 Y104.465 F5400
G1 X144.778 Y119.039 E88.29958 F2400
G0 X144.212 Y119.039 F5400
G1 X130.140 Y104.968 E88.96147 F2400
G0 X129.991 Y105.384 F5400
G1 X143.646 Y119.039 E89.60378 F2400
G0 X143.081 Y119.039 F5400
G1 X129.806 Y105.765 E90.22819 F2400
G0 X129.568 Y106.092 F5400
G1 X142.515 Y119.039 E90.83719 F2400
G0 X141.949 Y119.039 F5400
G1 X131.210 Y108.301 E91.34231 F2400
G0 X131.210 Y108.866 F5400
G1 X141.384 Y119.039 E91.82082 F2400
G0 X140.818 Y119.039 F5400
G1 X131.210 Y109.432 E92.27272 F2400
G0 X131.210 Y109.998 F5400
G1 X140.252 Y119.039 E92.69801 F2400
G0 X139.686 Y119.039 F5400
G1 X131.210 Y110.563 E93.09670 F2400
G0 X131.210 Y111.129 F5400
G1 X139.121 Y119.039 E93.46878 F2400
G0 X138.555 Y119.039 F5400
G1 X131.210 Y111.695 E93.81425 F2400
G0 X131.210 Y112.261 F5400
G1 X137.989 Y119.039 E94.13311 F2400
G0 X137.424 Y119.039 F5400
G1 X131.210 Y112.826 E94.42536 F2400
G0 X131.210 Y113.392 F5400
G1 X136.858 Y119.039 E94.69101 F2400
G0 X136.292 Y119.039 F5400
G1 X130.713 Y113.461 E94.95342 F2400
G0 F3000 E93.95342
G0 X130.707 Y113.100 F5400
G0 X124.150 Y113.100
G0 X124.150 Y108.400
G0 X130.626 Y108.400
G0 X130.517 Y102.100
G0 X130.477 Y99.771
G0 F3000 E94.95342
;segType:Support
G1 X124.851 Y99.772 E95.11246 F2400
; ------------------------------------
; Layer #1
; ------------------------------------
G92 E0 ;reset extr
G0 F3000 E-1.00000
G0 F600 Z1.300
G0 X124.851 Y99.772 F7200
G0 F3000 E0.00000
;segType:Support
G1 X130.477 Y99.771 E0.07952 F1200
G0 F3000 E-0.92048
G0 X131.200 Y101.700 F7200
G0 X123.800 Y101.700
G0 X117.198 Y80.961
G0 F3000 E0.07952
;segType:HShell
G1 X114.460 Y83.698 E0.14391 F2880
G0 X114.460 Y83.133 F7200
G1 X116.633 Y80.961 E0.19500 F2880
G0 X116.067 Y80.961 F7200
G1 X114.460 Y82.567 E0.23278 F2880
G0 X114.460 Y82.001 F7200
G1 X115.501 Y80.961 E0.25726 F2880
G0 X114.936 Y80.961 F7200
G1 X114.460 Y81.436 E0.26843 F2880
G0 X114.100 Y80.600 F7200
G0 X113.916 Y80.780
;segType:Perimeter
G1 X113.760 Y80.200 E0.27841 F1440
G1 X146.300 Y80.200 E0.81954
G1 X146.300 Y119.800 E1.47808
G1 X113.700 Y119.800 E2.02021
G1 X113.700 Y80.260 E2.67775
G0 X113.760 Y80.200 F7200
G0 X115.360 Y80.200
G0 X114.800 Y80.600
;segType:Loop
G1 X145.900 Y80.600 E3.19493 F2880
G1 X145.900 Y119.400 E3.84017
G1 X114.100 Y119.400 E4.36899
G1 X114.100 Y80.600 E5.01422
G1 X114.600 Y80.600 E5.02254
G0 F3000 E4.02254
G0 X114.460 Y93.881 F7200
G0 F3000 E5.02254
;segType:HShell
G1 X124.803 Y83.538 E5.26579 F2880
G0 X125.163 Y83.355 F7200
G0 X125.420 Y83.402
;segType:Perimeter
G1 X125.714 Y82.879 E5.27577 F1440
G1 X125.921 Y82.503 E5.28290
G1 X126.256 Y82.146 E5.29104
G1 X126.669 Y81.884 E5.29918
G1 X127.134 Y81.733 E5.30731
G1 X127.622 Y81.702 E5.31545
G1 X128.103 Y81.794 E5.32359
G1 X128.546 Y82.002 E5.33173
G1 X128.923 Y82.314 E5.33987
G1 X129.211 Y82.710 E5.34800
G1 X129.391 Y83.165 E5.35614
G1 X129.452 Y83.650 E5.36428
G1 X129.391 Y84.135 E5.37241
G1 X129.211 Y84.590 E5.38055
G1 X128.923 Y84.986 E5.38869
G1 X128.546 Y85.298 E5.39682
G1 X128.103 Y85.506 E5.40496
G1 X127.622 Y85.598 E5.41310
G1 X127.134 Y85.567 E5.42124
G1 X126.669 Y85.416 E5.42937
G1 X126.256 Y85.154 E5.43751
G1 X125.921 Y84.797 E5.44565
G1 X125.685 Y84.368 E5.45379
G1 X125.563 Y83.895 E5.46192
G1 X125.563 Y83.405 E5.47006
G1 X125.670 Y82.989 E5.47720
G0 X125.714 Y82.879 F7200
G0 X125.921 Y82.503
G0 X126.256 Y82.146
G0 X126.669 Y81.884
G0 X126.852 Y81.824
G0 X126.497 Y81.519
G0 X126.083 Y81.782
;segType:Loop
G1 X126.497 Y81.519 E5.48536 F2880
G1 X127.059 Y81.337 E5.49517
G1 X127.648 Y81.299 E5.50499
G1 X128.228 Y81.410 E5.51481
G1 X128.762 Y81.661 E5.52463
G1 X129.217 Y82.038 E5.53445
G1 X129.564 Y82.516 E5.54427
G1 X129.781 Y83.064 E5.55408
G1 X129.855 Y83.650 E5.56390
G1 X129.781 Y84.236 E5.57371
G1 X129.564 Y84.785 E5.58353
G1 X129.217 Y85.262 E5.59335
G1 X128.762 Y85.638 E5.60317
G1 X128.645 Y85.694 E5.60532
G0 X128.601 Y85.812 F7200
G0 X128.469 Y85.841
G1 X128.129 Y85.904 E5.61095 F2880
G1 X128.014 Y85.915 E5.61271
G1 X127.900 Y85.926 E5.61437
G1 X127.786 Y85.937 E5.61592
G1 X127.671 Y85.947 E5.61738
G1 X127.557 Y85.947 E5.61882
G1 X127.443 Y85.944 E5.62031
G1 X127.329 Y85.940 E5.62183
G1 X127.214 Y85.936 E5.62338
G1 X127.100 Y85.933 E5.62496
G1 X126.986 Y85.919 E5.62669
G1 X126.871 Y85.901 E5.62860
G1 X126.757 Y85.883 E5.63068
G1 X126.643 Y85.865 E5.63294
G1 X126.363 Y85.696 E5.63838
G1 X125.999 Y85.465 E5.64555
G1 X125.595 Y85.034 E5.65537
G1 X125.310 Y84.517 E5.66519
G1 X125.163 Y83.945 E5.67501
G1 X125.163 Y83.355 E5.68482
G1 X125.310 Y82.783 E5.69464
G1 X125.595 Y82.266 E5.70446
G1 X125.930 Y81.908 E5.71261
G0 F3000 E4.71261
G0 X125.999 Y81.835 F7200
G0 X126.497 Y81.519
G0 X127.059 Y81.337
G0 X127.648 Y81.299
G0 X128.228 Y81.410
G0 X128.762 Y81.661
G0 X129.217 Y82.038
G0 X129.564 Y82.516
G0 X129.772 Y83.041
G0 X145.900 Y87.798
G0 X145.540 Y87.692
G0 F3000 E5.71261
;segType:HShell
G1 X131.961 Y101.271 E6.03197 F2880
G0 X131.940 Y101.700 F7200
;segType:Perimeter
G1 X131.140 Y101.700 E6.04527 F1440
G1 X123.800 Y101.700 E6.16735
G1 X123.800 Y86.300 E6.42347
G1 X131.200 Y86.300 E6.54655
G1 X131.200 Y101.640 E6.80166
G0 X131.140 Y101.700 F7200
G0 X129.540 Y101.700
G0 X130.100 Y102.100
;segType:Loop
G1 X128.814 Y102.100 E6.82305 F2880
G0 X128.700 Y102.192 F7200
G0 X128.586 Y102.185
G0 X128.471 Y102.159
G0 X128.357 Y102.134
G0 X128.243 Y102.108
G1 X128.129 Y102.096 E6.82492 F2880
G1 X128.014 Y102.085 E6.82668
G1 X127.900 Y102.074 E6.82834
G1 X127.786 Y102.063 E6.82990
G1 X127.671 Y102.053 E6.83135
G1 X127.557 Y102.053 E6.83280
G1 X127.443 Y102.056 E6.83429
G1 X127.329 Y102.060 E6.83581
G1 X127.214 Y102.064 E6.83736
G1 X127.100 Y102.067 E6.83894
G1 X126.986 Y102.081 E6.84067
G1 X126.871 Y102.099 E6.84258
G1 X126.757 Y102.117 E6.84466
G1 X126.643 Y102.135 E6.84692
G1 X126.529 Y102.145 E6.84926
G1 X126.414 Y102.179 E6.85202
G1 X126.300 Y102.100 E6.85432
G1 X123.400 Y102.100 E6.90256
G1 X123.400 Y85.900 E7.17198
G1 X126.300 Y85.900 E7.22021
G1 X126.414 Y85.821 E7.22342
G1 X126.529 Y85.854 E7.22585
G0 X126.643 Y85.865 F7200
G0 X126.986 Y85.919
G0 X127.100 Y85.933
G0 X127.557 Y85.947
G0 X127.671 Y85.947
G0 X128.129 Y85.904
G1 X128.243 Y85.892 E7.22784 F2880
G1 X128.357 Y85.866 E7.23011
G1 X128.471 Y85.841 E7.23263
G1 X128.586 Y85.815 E7.23540
G1 X128.700 Y85.808 E7.23818
G1 X128.814 Y85.900 E7.24061
G1 X131.600 Y85.900 E7.28694
G1 X131.600 Y102.100 E7.55636
G1 X130.300 Y102.100 E7.57798
G0 F3000 E6.57798
G0 X130.300 Y102.100 F7200
G0 X129.307 Y102.862
G0 X129.217 Y102.738
G0 X128.762 Y102.361
G0 X128.657 Y102.312
G0 X128.615 Y102.192
G0 X128.483 Y102.162
G0 X128.351 Y102.133
G0 X128.129 Y102.096
G0 X127.671 Y102.053
G0 X127.557 Y102.053
G0 X127.100 Y102.067
G0 X126.986 Y102.081
G0 X126.643 Y102.135
G0 X126.352 Y102.311
G0 X125.999 Y102.535
G0 X125.595 Y102.966
G0 X125.310 Y103.483
G0 X125.163 Y104.055
G0 X125.163 Y104.645
G0 X125.310 Y105.217
G0 X125.585 Y105.716
G0 X114.100 Y114.522
G0 X114.460 Y114.245
G0 F3000 E7.57798
;segType:HShell
G1 X124.840 Y103.866 E7.82210 F2880
G0 X125.163 Y104.055 F7200
G0 X125.420 Y104.102
;segType:Perimeter
G1 X125.714 Y103.579 E7.83208 F1440
G1 X125.921 Y103.203 E7.83921
G1 X126.256 Y102.846 E7.84735
G1 X126.669 Y102.584 E7.85549
G1 X127.134 Y102.432 E7.86363
G1 X127.623 Y102.402 E7.87176
G1 X128.103 Y102.494 E7.87990
G1 X128.546 Y102.702 E7.88804
G1 X128.923 Y103.014 E7.89617
G1 X129.211 Y103.409 E7.90431
G1 X129.391 Y103.864 E7.91245
G1 X129.452 Y104.350 E7.92059
G1 X129.391 Y104.835 E7.92872
G1 X129.211 Y105.290 E7.93686
G1 X128.923 Y105.686 E7.94500
G1 X128.546 Y105.998 E7.95313
G1 X128.103 Y106.207 E7.96127
G1 X127.622 Y106.298 E7.96941
G1 X127.134 Y106.267 E7.97755
G1 X126.669 Y106.116 E7.98568
G1 X126.256 Y105.854 E7.99382
G1 X125.921 Y105.497 E8.00196
G1 X125.685 Y105.069 E8.01010
G1 X125.563 Y104.595 E8.01823
G1 X125.563 Y104.106 E8.02637
G1 X125.670 Y103.690 E8.03351
G0 X125.714 Y103.579 F7200
G0 X125.921 Y103.203
G0 X126.256 Y102.846
G0 X126.669 Y102.584
G0 X126.852 Y102.524
G0 X126.643 Y102.135
G0 X126.352 Y102.311
G0 X126.083 Y102.482
;segType:Loop
G1 X126.352 Y102.311 E8.03881 F2880
G0 X126.643 Y102.135 F7200
G0 X126.986 Y102.081
G0 X127.100 Y102.067
G0 X127.557 Y102.053
G0 X127.671 Y102.053
G0 X128.129 Y102.096
G1 X128.351 Y102.133 E8.04316 F2880
G1 X128.483 Y102.162 E8.04611
G1 X128.615 Y102.192 E8.04939
G1 X128.657 Y102.312 E8.05151
G1 X128.762 Y102.361 E8.05344
G1 X129.217 Y102.738 E8.06326
G1 X129.564 Y103.215 E8.07307
G1 X129.781 Y103.764 E8.08289
G1 X129.855 Y104.350 E8.09271
G1 X129.781 Y104.936 E8.10253
G1 X129.564 Y105.485 E8.11235
G1 X129.217 Y105.962 E8.12217
G1 X128.762 Y106.338 E8.13198
G1 X128.228 Y106.590 E8.14181
G1 X127.648 Y106.700 E8.15162
G1 X127.059 Y106.664 E8.16144
G1 X126.497 Y106.481 E8.17126
G1 X125.999 Y106.165 E8.18107
G1 X125.595 Y105.734 E8.19089
G1 X125.310 Y105.217 E8.20071
G1 X125.163 Y104.645 E8.21053
G1 X125.163 Y104.055 E8.22034
G1 X125.310 Y103.483 E8.23016
G1 X125.595 Y102.966 E8.23998
G1 X125.930 Y102.608 E8.24813
G0 F3000 E7.24813
G0 X125.595 Y102.966 F7200
G0 X125.310 Y103.483
G0 X125.163 Y104.055
G0 X125.163 Y104.645
G0 X125.310 Y105.217
G0 X125.595 Y105.734
G0 X125.999 Y106.165
G0 X126.497 Y106.481
G0 X127.059 Y106.664
G0 X127.648 Y106.700
G0 X127.660 Y106.698
G0 X128.379 Y108.400
G0 X124.150 Y108.400
G0 X124.150 Y113.100
G0 X130.367 Y113.100
G0 X130.519 Y113.461
G0 F3000 E8.24813
;segType:HShell
G1 X124.940 Y119.039 E8.37934 F2880
G0 X124.374 Y119.039 F7200
G1 X129.953 Y113.461 E8.51055 F2880
G0 X130.390 Y112.700 F7200
;segType:Perimeter
G1 X124.550 Y112.700 E8.60768 F1440
G1 X124.550 Y108.800 E8.67255
G1 X130.450 Y108.800 E8.77068
G1 X130.450 Y112.640 E8.83455
G0 X130.390 Y112.700 F7200
G0 X128.790 Y112.700
G0 X129.350 Y113.100
;segType:Loop
G1 X124.150 Y113.100 E8.92104 F2880
G1 X124.150 Y108.400 E8.99921
G1 X130.850 Y108.400 E9.11064
G1 X130.850 Y113.100 E9.18882
G1 X129.550 Y113.100 E9.21044
G0 X129.387 Y113.461 F7200
;segType:HShell
G1 X123.809 Y119.039 E9.34164 F2880
G0 X123.243 Y119.039 F7200
G1 X128.822 Y113.461 E9.47285 F2880
G0 X128.256 Y113.461 F7200
G1 X122.677 Y119.039 E9.60406 F2880
G0 X122.112 Y119.039 F7200
G1 X127.690 Y113.461 E9.73527 F2880
G0 X127.125 Y113.461 F7200
G1 X121.546 Y119.039 E9.86647 F2880
G0 X120.980 Y119.039 F7200
G1 X126.559 Y113.461 E9.99768 F2880
G0 X125.993 Y113.461 F7200
G1 X120.414 Y119.039 E10.12889 F2880
G0 X119.849 Y119.039 F7200
G1 X125.428 Y113.461 E10.26010 F2880
G0 X124.862 Y113.461 F7200
G1 X119.283 Y119.039 E10.39130 F2880
G0 X118.717 Y119.039 F7200
G1 X124.296 Y113.461 E10.52251 F2880
G0 X123.789 Y113.402 F7200
G1 X118.152 Y119.039 E10.65510 F2880
G0 X117.586 Y119.039 F7200
G1 X123.789 Y112.836 E10.80100 F2880
G0 X123.789 Y112.270 F7200
G1 X117.020 Y119.039 E10.96020 F2880
G0 X116.455 Y119.039 F7200
G1 X123.789 Y111.705 E11.13270 F2880
G0 X123.789 Y111.139 F7200
G1 X115.889 Y119.039 E11.31851 F2880
G0 X115.323 Y119.039 F7200
G1 X123.789 Y110.573 E11.51762 F2880
G0 X123.789 Y110.008 F7200
G1 X114.758 Y119.039 E11.73004 F2880
G0 X114.460 Y118.771 F7200
G1 X123.789 Y109.442 E11.94944 F2880
G0 X123.789 Y108.876 F7200
G1 X114.460 Y118.205 E12.16884 F2880
G0 X114.460 Y117.640 F7200
G1 X123.789 Y108.311 E12.38825 F2880
G0 F3000 E11.38825
G0 X125.386 Y102.505 F7200
G0 F3000 E12.38825
;segType:InnerHair
G1 X125.500 Y102.493 E12.39009 F2880
G1 X125.614 Y102.443 E12.39157
G1 X125.729 Y102.394 E12.39254
G1 X125.658 Y102.425 E12.39334
G1 X125.545 Y102.473 E12.39511
G1 X125.432 Y102.522 E12.39738
G1 X125.386 Y102.505 E12.39822
G0 X125.195 Y102.945 F7200
;segType:HShell
G1 X114.460 Y113.680 E12.65068 F2880
G0 X114.460 Y113.114 F7200
G1 X125.114 Y102.460 E12.90124 F2880
G0 X124.548 Y102.460 F7200
G1 X114.460 Y112.548 E13.13849 F2880
G0 X114.460 Y111.983 F7200
G1 X123.983 Y102.460 E13.36244 F2880
G0 X123.417 Y102.460 F7200
G1 X114.460 Y111.417 E13.57309 F2880
G0 X114.460 Y110.851 F7200
G1 X123.039 Y102.272 E13.77485 F2880
G0 X123.039 Y101.707 F7200
G1 X114.460 Y110.286 E13.97662 F2880
G0 X114.460 Y109.720 F7200
G1 X123.039 Y101.141 E14.17838 F2880
G0 X123.039 Y100.575 F7200
G1 X114.460 Y109.154 E14.38014 F2880
G0 X114.460 Y108.589 F7200
G1 X123.039 Y100.010 E14.58191 F2880
G0 X123.039 Y99.444 F7200
G1 X114.460 Y108.023 E14.78367 F2880
G0 X114.460 Y107.457 F7200
G1 X123.039 Y98.878 E14.98543 F2880
G0 X123.039 Y98.313 F7200
G1 X114.460 Y106.892 E15.18719 F2880
G0 X114.460 Y106.326 F7200
G1 X123.039 Y97.747 E15.38896 F2880
G0 X123.039 Y97.181 F7200
G1 X114.460 Y105.760 E15.59072 F2880
G0 X114.460 Y105.194 F7200
G1 X123.039 Y96.616 E15.79248 F2880
G0 X123.039 Y96.050 F7200
G1 X114.460 Y104.629 E15.99425 F2880
G0 X114.460 Y104.063 F7200
G1 X123.039 Y95.484 E16.19601 F2880
G0 X123.039 Y94.918 F7200
G1 X114.460 Y103.497 E16.39777 F2880
G0 X114.460 Y102.932 F7200
G1 X123.039 Y94.353 E16.59954 F2880
G0 X123.039 Y93.787 F7200
G1 X114.460 Y102.366 E16.80130 F2880
G0 X114.460 Y101.800 F7200
G1 X123.039 Y93.221 E17.00306 F2880
G0 X123.039 Y92.656 F7200
G1 X114.460 Y101.235 E17.20483 F2880
G0 X114.460 Y100.669 F7200
G1 X123.039 Y92.090 E17.40659 F2880
G0 X123.039 Y91.524 F7200
G1 X114.460 Y100.103 E17.60835 F2880
G0 X114.460 Y99.538 F7200
G1 X123.039 Y90.959 E17.81012 F2880
G0 X123.039 Y90.393 F7200
G1 X114.460 Y98.972 E18.01188 F2880
G0 X114.460 Y98.406 F7200
G1 X123.039 Y89.827 E18.21364 F2880
G0 X123.039 Y89.262 F7200
G1 X114.460 Y97.841 E18.41541 F2880
G0 X114.460 Y97.275 F7200
G1 X123.039 Y88.696 E18.61717 F2880
G0 X123.039 Y88.130 F7200
G1 X114.460 Y96.709 E18.81893 F2880
G0 X114.460 Y96.144 F7200
G1 X123.039 Y87.565 E19.02070 F2880
G0 X123.039 Y86.999 F7200
G1 X114.460 Y95.578 E19.22246 F2880
G0 X114.460 Y95.012 F7200
G1 X123.039 Y86.433 E19.42422 F2880
G0 X123.039 Y85.868 F7200
G1 X114.460 Y94.446 E19.62598 F2880
G0 X114.460 Y84.264 F7200
G1 X117.764 Y80.961 E19.70368 F2880
G0 X118.330 Y80.961 F7200
G1 X114.460 Y84.830 E19.79468 F2880
G0 X114.460 Y85.395 F7200
G1 X118.895 Y80.961 E19.89898 F2880
G0 X119.461 Y80.961 F7200
G1 X114.460 Y85.961 E20.01659 F2880
G0 X114.460 Y86.527 F7200
G1 X120.027 Y80.961 E20.14750 F2880
G0 X120.592 Y80.961 F7200
G1 X114.460 Y87.093 E20.29171 F2880
G0 X114.460 Y87.658 F7200
G1 X121.158 Y80.961 E20.44923 F2880
G0 X121.724 Y80.961 F7200
G1 X114.460 Y88.224 E20.62006 F2880
G0 X114.460 Y88.790 F7200
G1 X122.290 Y80.961 E20.80418 F2880
G0 X122.855 Y80.961 F7200
G1 X114.460 Y89.355 E21.00162 F2880
G0 X114.460 Y89.921 F7200
G1 X123.421 Y80.961 E21.21235 F2880
G0 X123.987 Y80.961 F7200
G1 X114.460 Y90.487 E21.43639 F2880
G0 X114.460 Y91.052 F7200
G1 X124.552 Y80.961 E21.67373 F2880
G0 X125.118 Y80.961 F7200
G1 X114.460 Y91.618 E21.92438 F2880
G0 X114.460 Y92.184 F7200
G1 X125.684 Y80.961 E22.18833 F2880
G0 X126.249 Y80.961 F7200
G1 X114.460 Y92.749 E22.46559 F2880
G0 X114.460 Y93.315 F7200
G1 X124.920 Y82.856 E22.71157 F2880
G0 X124.826 Y84.081 F7200
G1 X123.367 Y85.539 E22.74588 F2880
G0 X123.933 Y85.539 F7200
G1 X124.942 Y84.531 E22.76961 F2880
G0 X125.120 Y84.918 F7200
G1 X124.499 Y85.539 E22.78421 F2880
G0 X125.065 Y85.539 F7200
G1 X125.328 Y85.276 E22.79040 F2880
G0 X125.386 Y85.495 F7200
;segType:InnerHair
G1 X125.500 Y85.507 E22.79225 F2880
G1 X125.614 Y85.556 E22.79373
G1 X125.729 Y85.606 E22.79470
G1 X125.670 Y85.581 E22.79533
G1 X125.557 Y85.532 E22.79705
G1 X125.444 Y85.483 E22.79926
G1 X125.386 Y85.495 E22.80028
G0 F3000 E21.80028
G0 X126.939 Y85.504 F7200
G0 X127.134 Y85.567
G0 X127.622 Y85.598
G0 X128.080 Y85.511
G0 X129.500 Y85.519
G0 F3000 E22.80028
G1 X129.386 Y85.578 E22.80158 F2880
G1 X129.271 Y85.603 E22.80252
G1 X129.338 Y85.579 E22.80324
G1 X129.457 Y85.536 E22.80495
G1 X129.568 Y85.485 E22.80713
G1 X129.500 Y85.519 E22.80826
G0 F3000 E21.80826
G0 X129.050 Y84.811 F7200
G0 X129.211 Y84.590
G0 X129.391 Y84.135
G0 X129.452 Y83.650
G0 X129.391 Y83.165
G0 X129.211 Y82.710
G0 X128.923 Y82.314
G0 X128.546 Y82.002
G0 X128.103 Y81.794
G0 X127.622 Y81.702
G0 X127.134 Y81.733
G0 X127.100 Y81.744
G0 X126.643 Y81.025
G0 F3000 E22.80826
G1 X126.757 Y81.007 E22.81025 F2880
G1 X126.871 Y80.989 E22.81206
G1 X126.986 Y80.971 E22.81370
G1 X127.100 Y80.967 E22.81529
G1 X127.214 Y80.963 E22.81684
G1 X127.329 Y80.960 E22.81835
G1 X127.443 Y80.956 E22.81983
G1 X127.557 Y80.952 E22.82128
G1 X127.671 Y80.949 E22.82269
G1 X127.786 Y80.960 E22.82421
G1 X127.900 Y80.971 E22.82584
G1 X128.014 Y80.981 E22.82757
G1 X128.129 Y80.992 E22.82940
G1 X128.243 Y81.003 E22.83133
G1 X128.357 Y81.014 E22.83337
G1 X128.471 Y81.040 E22.83570
G0 X129.078 Y80.961 F7200
;segType:HShell
G0 X128.696 Y81.059
G1 X129.380 Y81.224 E22.86277 F2880
G0 X130.209 Y80.961 F7200
G1 X129.426 Y81.743 E22.88118 F2880
G0 X129.677 Y82.058 F7200
G1 X130.775 Y80.961 E22.90700 F2880
G0 X131.340 Y80.961 F7200
G1 X129.904 Y82.397 E22.94078 F2880
G0 X130.065 Y82.802 F7200
G1 X131.906 Y80.961 E22.98409 F2880
G0 X132.472 Y80.961 F7200
G1 X130.169 Y83.263 E23.03824 F2880
G0 X130.199 Y83.799 F7200
G1 X133.038 Y80.961 E23.10499 F2880
G0 X133.603 Y80.961 F7200
G1 X130.064 Y84.500 E23.18823 F2880
G0 X129.612 Y85.517 F7200
G1 X134.169 Y80.961 E23.29539 F2880
G0 X134.735 Y80.961 F7200
G1 X130.156 Y85.539 E23.40308 F2880
G0 X130.721 Y85.539 F7200
G1 X135.300 Y80.961 E23.51077 F2880
G0 X135.866 Y80.961 F7200
G1 X131.287 Y85.539 E23.61846 F2880
G0 X131.853 Y85.539 F7200
G1 X136.432 Y80.961 E23.72615 F2880
G0 X136.997 Y80.961 F7200
G1 X131.961 Y85.997 E23.84460 F2880
G0 X131.961 Y86.563 F7200
G1 X137.563 Y80.961 E23.97636 F2880
G0 X138.129 Y80.961 F7200
G1 X131.961 Y87.129 E24.12143 F2880
G0 X131.961 Y87.694 F7200
G1 X138.694 Y80.961 E24.27980 F2880
G0 X139.260 Y80.961 F7200
G1 X131.961 Y88.260 E24.45147 F2880
G0 X131.961 Y88.826 F7200
G1 X139.826 Y80.961 E24.63645 F2880
G0 X140.391 Y80.961 F7200
G1 X131.961 Y89.391 E24.83473 F2880
G0 X131.961 Y89.957 F7200
G1 X140.957 Y80.961 E25.04631 F2880
G0 X141.523 Y80.961 F7200
G1 X131.961 Y90.523 E25.27120 F2880
G0 X131.961 Y91.088 F7200
G1 X142.088 Y80.961 E25.50940 F2880
G0 X142.654 Y80.961 F7200
G1 X131.961 Y91.654 E25.76089 F2880
G0 X131.961 Y92.220 F7200
G1 X143.220 Y80.961 E26.02570 F2880
G0 X143.786 Y80.961 F7200
G1 X131.961 Y92.786 E26.30380 F2880
G0 X131.961 Y93.351 F7200
G1 X144.351 Y80.961 E26.59521 F2880
G0 X144.917 Y80.961 F7200
G1 X131.961 Y93.917 E26.89992 F2880
G0 X131.961 Y94.483 F7200
G1 X145.483 Y80.961 E27.21794 F2880
G0 X145.540 Y81.469 F7200
G1 X131.961 Y95.048 E27.53730 F2880
G0 X131.961 Y95.614 F7200
G1 X145.540 Y82.035 E27.85665 F2880
G0 X145.540 Y82.601 F7200
G1 X131.961 Y96.180 E28.17601 F2880
G0 X131.961 Y96.745 F7200
G1 X145.540 Y83.166 E28.49537 F2880
G0 X145.540 Y83.732 F7200
G1 X131.961 Y97.311 E28.81472 F2880
G0 X131.961 Y97.877 F7200
G1 X145.540 Y84.298 E29.13408 F2880
G0 X145.540 Y84.863 F7200
G1 X131.961 Y98.442 E29.45344 F2880
G0 X131.961 Y99.008 F7200
G1 X145.540 Y85.429 E29.77279 F2880
G0 X145.540 Y85.995 F7200
G1 X131.961 Y99.574 E30.09215 F2880
G0 X131.961 Y100.139 F7200
G1 X145.540 Y86.560 E30.41151 F2880
G0 X145.540 Y87.126 F7200
G1 X131.961 Y100.705 E30.73086 F2880
G0 X130.195 Y104.168 F7200
G1 X131.902 Y102.460 E30.77102 F2880
G0 X131.337 Y102.460 F7200
G1 X130.130 Y103.667 E30.79939 F2880
G0 X129.970 Y103.262 F7200
G1 X130.771 Y102.460 E30.81824 F2880
G0 X130.171 Y102.777 F7200
G1 X129.626 Y102.474 E30.84417 F2880
G0 X129.579 Y102.521 F7200
;segType:InnerHair
G1 X129.470 Y102.469 E30.84587 F2880
G1 X129.351 Y102.426 E30.84719
G1 X129.232 Y102.383 E30.84806
G1 X129.271 Y102.397 E30.84840
G1 X129.386 Y102.422 E30.84959
G1 X129.500 Y102.481 E30.85151
G1 X129.579 Y102.521 E30.85314
G0 F3000 E29.85314
G0 X130.497 Y101.700 F7200
G0 X131.200 Y101.700
G0 X131.200 Y101.072
G0 X145.540 Y88.257
G0 F3000 E30.85314
;segType:HShell
G1 X131.961 Y101.837 E31.17250 F2880
G0 X131.961 Y102.402 F7200
G1 X145.540 Y88.823 E31.49185 F2880
G0 X145.540 Y89.389 F7200
G1 X130.166 Y104.762 E31.85342 F2880
G0 X129.913 Y105.581 F7200
G1 X145.540 Y89.955 E32.22093 F2880
G0 X145.540 Y118.804 F7200
G1 X145.305 Y119.039 E32.22646 F2880
G0 X144.739 Y119.039 F7200
G1 X145.540 Y118.239 E32.24529 F2880
G0 X145.540 Y117.673 F7200
G1 X144.173 Y119.039 E32.27742 F2880
G0 X143.608 Y119.039 F7200
G1 X145.540 Y117.107 E32.32286 F2880
G0 X145.540 Y116.542 F7200
G1 X143.042 Y119.039 E32.38160 F2880
G0 X142.476 Y119.039 F7200
G1 X145.540 Y115.976 E32.45365 F2880
G0 X145.540 Y115.410 F7200
G1 X141.910 Y119.039 E32.53900 F2880
G0 X141.345 Y119.039 F7200
G1 X145.540 Y114.845 E32.63765 F2880
G0 X145.540 Y114.279 F7200
G1 X140.779 Y119.039 E32.74961 F2880
G0 X140.213 Y119.039 F7200
G1 X145.540 Y113.713 E32.87488 F2880
G0 X145.540 Y113.148 F7200
G1 X139.648 Y119.039 E33.01344 F2880
G0 X139.082 Y119.039 F7200
G1 X145.540 Y112.582 E33.16531 F2880
G0 X145.540 Y112.016 F7200
G1 X138.516 Y119.039 E33.33049 F2880
G0 X137.951 Y119.039 F7200
G1 X145.540 Y111.451 E33.50897 F2880
G0 X145.540 Y110.885 F7200
G1 X137.385 Y119.039 E33.70075 F2880
G0 X136.819 Y119.039 F7200
G1 X145.540 Y110.319 E33.90584 F2880
G0 X145.540 Y109.754 F7200
G1 X136.254 Y119.039 E34.12423 F2880
G0 X135.688 Y119.039 F7200
G1 X145.540 Y109.188 E34.35593 F2880
G0 X145.540 Y108.622 F7200
G1 X135.122 Y119.039 E34.60093 F2880
G0 X134.557 Y119.039 F7200
G1 X145.540 Y108.056 E34.85923 F2880
G0 X145.540 Y107.491 F7200
G1 X133.991 Y119.039 E35.13084 F2880
G0 X133.425 Y119.039 F7200
G1 X145.540 Y106.925 E35.41575 F2880
G0 X145.540 Y106.359 F7200
G1 X132.860 Y119.039 E35.71396 F2880
G0 X132.294 Y119.039 F7200
G1 X145.540 Y105.794 E36.02548 F2880
G0 X145.540 Y105.228 F7200
G1 X131.728 Y119.039 E36.35031 F2880
G0 X131.162 Y119.039 F7200
G1 X145.540 Y104.662 E36.68844 F2880
G0 X145.540 Y104.097 F7200
G1 X130.597 Y119.039 E37.03987 F2880
G0 X130.031 Y119.039 F7200
G1 X145.540 Y103.531 E37.40460 F2880
G0 X145.540 Y102.965 F7200
G1 X129.465 Y119.039 E37.78264 F2880
G0 X128.900 Y119.039 F7200
G1 X145.540 Y102.400 E38.17399 F2880
G0 X145.540 Y101.834 F7200
G1 X128.334 Y119.039 E38.57863 F2880
G0 X127.768 Y119.039 F7200
G1 X145.540 Y101.268 E38.99659 F2880
G0 X145.540 Y100.703 F7200
G1 X127.203 Y119.039 E39.42784 F2880
G0 X126.637 Y119.039 F7200
G1 X145.540 Y100.137 E39.87240 F2880
G0 X145.540 Y99.571 F7200
G1 X126.071 Y119.039 E40.33027 F2880
G0 X125.506 Y119.039 F7200
G1 X131.085 Y113.461 E40.46147 F2880
G0 X131.210 Y113.335 F7200
G1 X145.540 Y99.006 E40.79847 F2880
G0 X145.540 Y98.440 F7200
G1 X131.210 Y112.769 E41.13547 F2880
G0 X131.210 Y112.203 F7200
G1 X145.540 Y97.874 E41.47247 F2880
G0 X145.540 Y97.308 F7200
G1 X131.210 Y111.638 E41.80946 F2880
G0 X131.210 Y111.072 F7200
G1 X145.540 Y96.743 E42.14646 F2880
G0 X145.540 Y96.177 F7200
G1 X131.210 Y110.506 E42.48346 F2880
G0 X131.210 Y109.941 F7200
G1 X145.540 Y95.611 E42.82046 F2880
G0 X145.540 Y95.046 F7200
G1 X131.210 Y109.375 E43.15746 F2880
G0 X131.210 Y108.809 F7200
G1 X145.540 Y94.480 E43.49446 F2880
G0 X145.540 Y93.914 F7200
G1 X131.210 Y108.243 E43.83145 F2880
G0 X130.849 Y108.040 F7200
G1 X145.540 Y93.349 E44.17696 F2880
G0 X145.540 Y92.783 F7200
G1 X130.283 Y108.040 E44.53577 F2880
G0 X129.717 Y108.040 F7200
G1 X145.540 Y92.217 E44.90789 F2880
G0 X145.540 Y91.652 F7200
G1 X129.152 Y108.040 E45.29331 F2880
G0 X128.586 Y108.040 F7200
G1 X145.540 Y91.086 E45.69203 F2880
G0 X145.540 Y90.520 F7200
G1 X128.020 Y108.040 E46.10406 F2880
G0 X127.455 Y108.040 F7200
G1 X128.754 Y106.741 E46.13462 F2880
G0 X127.912 Y107.017 F7200
G1 X126.889 Y108.040 E46.15867 F2880
G0 X126.323 Y108.040 F7200
G1 X127.322 Y107.041 E46.18216 F2880
G0 X126.829 Y106.968 F7200
G1 X125.757 Y108.040 E46.20737 F2880
G0 X125.192 Y108.040 F7200
G1 X126.403 Y106.829 E46.23584 F2880
G0 X126.045 Y106.621 F7200
G1 X124.626 Y108.040 E46.26921 F2880
G0 X124.060 Y108.040 F7200
G1 X125.713 Y106.387 E46.30809 F2880
G0 X125.439 Y106.095 F7200
G1 X114.460 Y117.074 E46.56629 F2880
G0 X114.460 Y116.508 F7200
G1 X125.202 Y105.767 E46.81891 F2880
G0 X125.001 Y105.402 F7200
G1 X114.460 Y115.942 E47.06680 F2880
G0 X114.460 Y115.377 F7200
G1 X124.873 Y104.964 E47.31170 F2880
G0 X124.803 Y104.468 F7200
G1 X114.460 Y114.811 E47.55495 F2880
; ------------------------------------
; Layer #2
; ------------------------------------
G92 E0 ;reset extr
G0 F3000 E-1.00000
G0 F600 Z1.400
G0 X123.039 Y89.382 F7200
G0 F3000 E0.00000
;segType:HShell
G1 X114.618 Y80.961 E0.19805 F2880
G0 X113.916 Y80.780 F7200
;segType:Perimeter
G1 X113.760 Y80.200 E0.20803 F1440
G1 X146.300 Y80.200 E0.74916
G1 X146.300 Y119.800 E1.40770
G1 X113.700 Y119.800 E1.94983
G1 X113.700 Y80.260 E2.60737
G0 X113.760 Y80.200 F7200
G0 X115.360 Y80.200
G0 X114.800 Y80.600
;segType:Loop
G1 X145.900 Y80.600 E3.12455 F2880
G1 X145.900 Y119.400 E3.76978
G1 X114.100 Y119.400 E4.29861
G1 X114.100 Y80.600 E4.94384
G1 X114.600 Y80.600 E4.95216
G0 F3000 E3.95216
G0 X124.801 Y80.961 F7200
G0 F3000 E4.95216
;segType:HShell
G1 X125.587 Y81.747 E4.97066 F2880
G0 X125.314 Y82.039 F7200
G1 X124.235 Y80.961 E4.99603 F2880
G0 X123.669 Y80.961 F7200
G1 X125.109 Y82.401 E5.02990 F2880
G0 X124.936 Y82.793 F7200
G1 X123.104 Y80.961 E5.07299 F2880
G0 X122.538 Y80.961 F7200
G1 X124.820 Y83.243 E5.12667 F2880
G0 X125.420 Y83.402 F7200
;segType:Perimeter
G1 X125.714 Y82.879 E5.13664 F1440
G1 X125.921 Y82.503 E5.14378
G1 X126.256 Y82.146 E5.15192
G1 X126.669 Y81.884 E5.16006
G1 X127.134 Y81.733 E5.16819
G1 X127.622 Y81.702 E5.17633
G1 X128.103 Y81.794 E5.18447
G1 X128.546 Y82.002 E5.19261
G1 X128.923 Y82.314 E5.20074
G1 X129.211 Y82.710 E5.20888
G1 X129.391 Y83.165 E5.21702
G1 X129.452 Y83.650 E5.22515
G1 X129.391 Y84.135 E5.23329
G1 X129.211 Y84.590 E5.24143
G1 X128.923 Y84.986 E5.24957
G1 X128.546 Y85.298 E5.25770
G1 X128.103 Y85.506 E5.26584
G1 X127.622 Y85.598 E5.27398
G1 X127.134 Y85.567 E5.28212
G1 X126.669 Y85.416 E5.29025
G1 X126.256 Y85.154 E5.29839
G1 X125.921 Y84.797 E5.30653
G1 X125.685 Y84.368 E5.31467
G1 X125.563 Y83.895 E5.32280
G1 X125.563 Y83.405 E5.33094
G1 X125.670 Y82.989 E5.33808
G0 X125.714 Y82.879 F7200
G0 X125.921 Y82.503
G0 X126.256 Y82.146
G0 X126.669 Y81.884
G0 X126.852 Y81.824
G0 X126.497 Y81.519
G0 X126.083 Y81.782
;segType:Loop
G1 X126.497 Y81.519 E5.34624 F2880
G1 X127.059 Y81.337 E5.35605
G1 X127.648 Y81.299 E5.36587
G1 X128.228 Y81.410 E5.37569
G1 X128.762 Y81.661 E5.38551
G1 X129.217 Y82.038 E5.39533
G1 X129.564 Y82.516 E5.40514
G1 X129.781 Y83.064 E5.41496
G1 X129.855 Y83.650 E5.42478
G1 X129.781 Y84.236 E5.43459
G1 X129.564 Y84.785 E5.44441
G1 X129.217 Y85.262 E5.45423
G1 X128.762 Y85.638 E5.46405
G1 X128.645 Y85.694 E5.46620
G0 X128.601 Y85.812 F7200
G0 X128.469 Y85.841
G1 X128.129 Y85.904 E5.47183 F2880
G1 X128.014 Y85.915 E5.47359
G1 X127.900 Y85.926 E5.47525
G1 X127.786 Y85.937 E5.47680
G1 X127.671 Y85.947 E5.47826
G1 X127.557 Y85.947 E5.47970
G1 X127.443 Y85.944 E5.48119
G1 X127.329 Y85.940 E5.48270
G1 X127.214 Y85.936 E5.48426
G1 X127.100 Y85.933 E5.48584
G1 X126.986 Y85.919 E5.48757
G1 X126.871 Y85.901 E5.48948
G1 X126.757 Y85.883 E5.49156
G1 X126.643 Y85.865 E5.49382
G1 X126.363 Y85.696 E5.49926
G1 X125.999 Y85.465 E5.50643
G1 X125.595 Y85.034 E5.51625
G1 X125.310 Y84.517 E5.52607
G1 X125.163 Y83.945 E5.53589
G1 X125.163 Y83.355 E5.54570
G1 X125.310 Y82.783 E5.55552
G1 X125.595 Y82.266 E5.56534
G1 X125.930 Y81.908 E5.57349
G0 F3000 E4.57349
G0 X125.930 Y81.908 F7200
G0 X125.595 Y82.266
G0 X125.310 Y82.783
G0 X125.163 Y83.355
G0 X125.163 Y83.945
G0 X125.310 Y84.517
G0 X125.595 Y85.034
G0 X125.999 Y85.465
G0 X126.363 Y85.696
G0 X126.643 Y85.865
G0 X126.757 Y85.883
G0 X126.871 Y85.901
G0 X126.986 Y85.919
G0 X127.100 Y85.933
G0 X127.214 Y85.936
G0 X127.329 Y85.940
G0 X127.443 Y85.944
G0 X127.557 Y85.947
G0 X127.671 Y85.947
G0 X127.786 Y85.937
G0 X127.900 Y85.926
G0 X128.014 Y85.915
G0 X128.129 Y85.904
G0 X128.300 Y85.872
G0 X128.303 Y85.878
G0 X128.357 Y85.866
G0 X128.471 Y85.841
G0 X128.586 Y85.815
G0 X128.700 Y85.808
G0 X128.814 Y85.900
G0 X131.600 Y85.900
G0 X131.600 Y91.393
G0 X145.900 Y115.313
G0 X145.540 Y114.710
G0 F3000 E5.57349
;segType:HShell
G1 X131.961 Y101.131 E5.89285 F2880
G0 X131.940 Y101.700 F7200
;segType:Perimeter
G1 X131.140 Y101.700 E5.90615 F1440
G1 X123.800 Y101.700 E6.02823
G1 X123.800 Y86.300 E6.28435
G1 X131.200 Y86.300 E6.40742
G1 X131.200 Y101.640 E6.66254
G0 X131.140 Y101.700 F7200
G0 X129.540 Y101.700
G0 X130.100 Y102.100
;segType:Loop
G1 X128.814 Y102.100 E6.68393 F2880
G0 X128.700 Y102.192 F7200
G0 X128.586 Y102.185
G0 X128.471 Y102.159
G0 X128.357 Y102.134
G0 X128.243 Y102.108
G1 X128.129 Y102.096 E6.68580 F2880
G1 X128.014 Y102.085 E6.68756
G1 X127.900 Y102.074 E6.68922
G1 X127.786 Y102.063 E6.69078
G1 X127.671 Y102.053 E6.69223
G1 X127.557 Y102.053 E6.69368
G1 X127.443 Y102.056 E6.69517
G1 X127.329 Y102.060 E6.69668
G1 X127.214 Y102.064 E6.69824
G1 X127.100 Y102.067 E6.69982
G1 X126.986 Y102.081 E6.70155
G1 X126.871 Y102.099 E6.70346
G1 X126.757 Y102.117 E6.70554
G1 X126.643 Y102.135 E6.70780
G1 X126.529 Y102.145 E6.71014
G1 X126.414 Y102.179 E6.71290
G1 X126.300 Y102.100 E6.71520
G1 X123.400 Y102.100 E6.76344
G1 X123.400 Y85.900 E7.03286
G1 X126.300 Y85.900 E7.08109
G1 X126.414 Y85.821 E7.08430
G1 X126.529 Y85.854 E7.08673
G0 X126.643 Y85.865 F7200
G0 X126.986 Y85.919
G0 X127.100 Y85.933
G0 X127.557 Y85.947
G0 X127.671 Y85.947
G0 X128.129 Y85.904
G1 X128.243 Y85.892 E7.08871 F2880
G1 X128.357 Y85.866 E7.09099
G1 X128.471 Y85.841 E7.09351
G1 X128.586 Y85.815 E7.09628
G1 X128.700 Y85.808 E7.09906
G1 X128.814 Y85.900 E7.10149
G1 X131.600 Y85.900 E7.14782
G1 X131.600 Y102.100 E7.41724
G1 X130.300 Y102.100 E7.43886
G0 F3000 E6.43886
G0 X128.814 Y102.100 F7200
G0 X128.700 Y102.192
G0 X128.586 Y102.185
G0 X128.471 Y102.159
G0 X128.357 Y102.134
G0 X128.243 Y102.108
G0 X128.129 Y102.096
G0 X128.014 Y102.085
G0 X127.900 Y102.074
G0 X127.786 Y102.063
G0 X127.671 Y102.053
G0 X127.557 Y102.053
G0 X127.443 Y102.056
G0 X127.329 Y102.060
G0 X127.214 Y102.064
G0 X127.100 Y102.067
G0 X126.986 Y102.081
G0 X126.871 Y102.099
G0 X126.757 Y102.117
G0 X126.643 Y102.135
G0 X126.529 Y102.145
G0 X126.414 Y102.179
G0 X126.300 Y102.100
G0 X123.400 Y102.100
G0 X123.400 Y98.736
G0 X114.100 Y94.204
G0 X114.460 Y94.379
G0 F3000 E7.43886
;segType:HShell
G1 X124.814 Y104.733 E7.68236 F2880
G0 X125.228 Y102.884 F7200
G1 X124.804 Y102.460 E7.69233 F2880
G0 X124.239 Y102.460 F7200
G1 X125.028 Y103.249 E7.71089 F2880
G0 X124.889 Y103.676 F7200
G1 X123.673 Y102.460 E7.73948 F2880
G0 X123.107 Y102.460 F7200
G1 X124.803 Y104.156 E7.77936 F2880
G0 X125.420 Y104.102 F7200
;segType:Perimeter
G1 X125.714 Y103.579 E7.78934 F1440
G1 X125.921 Y103.203 E7.79648
G1 X126.256 Y102.846 E7.80461
G1 X126.669 Y102.584 E7.81275
G1 X127.134 Y102.432 E7.82089
G1 X127.623 Y102.402 E7.82903
G1 X128.103 Y102.494 E7.83716
G1 X128.546 Y102.702 E7.84530
G1 X128.923 Y103.014 E7.85344
G1 X129.211 Y103.409 E7.86157
G1 X129.391 Y103.864 E7.86971
G1 X129.452 Y104.350 E7.87785
G1 X129.391 Y104.835 E7.88599
G1 X129.211 Y105.290 E7.89412
G1 X128.923 Y105.686 E7.90226
G1 X128.546 Y105.998 E7.91040
G1 X128.103 Y106.207 E7.91854
G1 X127.622 Y106.298 E7.92667
G1 X127.134 Y106.267 E7.93481
G1 X126.669 Y106.116 E7.94295
G1 X126.256 Y105.854 E7.95108
G1 X125.921 Y105.497 E7.95922
G1 X125.685 Y105.069 E7.96736
G1 X125.563 Y104.595 E7.97549
G1 X125.563 Y104.106 E7.98363
G1 X125.670 Y103.690 E7.99077
G0 X125.714 Y103.579 F7200
G0 X125.921 Y103.203
G0 X126.256 Y102.846
G0 X126.669 Y102.584
G0 X126.852 Y102.524
G0 X126.643 Y102.135
G0 X126.352 Y102.311
G0 X126.083 Y102.482
;segType:Loop
G1 X126.352 Y102.311 E7.99607 F2880
G0 X126.643 Y102.135 F7200
G0 X126.986 Y102.081
G0 X127.100 Y102.067
G0 X127.557 Y102.053
G0 X127.671 Y102.053
G0 X128.129 Y102.096
G1 X128.351 Y102.133 E8.00043 F2880
G1 X128.483 Y102.162 E8.00338
G1 X128.615 Y102.192 E8.00665
G1 X128.657 Y102.312 E8.00877
G1 X128.762 Y102.361 E8.01070
G1 X129.217 Y102.738 E8.02052
G1 X129.564 Y103.215 E8.03034
G1 X129.781 Y103.764 E8.04016
G1 X129.855 Y104.350 E8.04998
G1 X129.781 Y104.936 E8.05979
G1 X129.564 Y105.485 E8.06961
G1 X129.217 Y105.962 E8.07943
G1 X128.762 Y106.338 E8.08924
G1 X128.228 Y106.590 E8.09907
G1 X127.648 Y106.700 E8.10889
G1 X127.059 Y106.664 E8.11870
G1 X126.497 Y106.481 E8.12852
G1 X125.999 Y106.165 E8.13834
G1 X125.595 Y105.734 E8.14815
G1 X125.310 Y105.217 E8.15797
G1 X125.163 Y104.645 E8.16779
G1 X125.163 Y104.055 E8.17760
G1 X125.310 Y103.483 E8.18743
G1 X125.595 Y102.966 E8.19724
G1 X125.930 Y102.608 E8.20540
G0 F3000 E7.20540
G0 X125.595 Y102.966 F7200
G0 X125.310 Y103.483
G0 X125.163 Y104.055
G0 X125.163 Y104.645
G0 X125.310 Y105.217
G0 X125.595 Y105.734
G0 X125.999 Y106.165
G0 X126.497 Y106.481
G0 X127.059 Y106.664
G0 X127.517 Y106.692
G0 X128.181 Y108.400
G0 X124.150 Y108.400
G0 X124.150 Y113.100
G0 X130.008 Y113.100
G0 X130.148 Y113.461
G0 F3000 E8.20540
;segType:HShell
G1 X135.727 Y119.039 E8.33660 F2880
G0 X135.161 Y119.039 F7200
G1 X129.582 Y113.461 E8.46781 F2880
G0 F3000 E7.46781
G0 X130.390 Y112.700 F7200
G0 F3000 E8.46781
;segType:Perimeter
G1 X124.550 Y112.700 E8.56494 F1440
G1 X124.550 Y108.800 E8.62981
G1 X130.450 Y108.800 E8.72794
G1 X130.450 Y112.640 E8.79181
G0 X130.390 Y112.700 F7200
G0 X128.790 Y112.700
G0 X129.350 Y113.100
;segType:Loop
G1 X124.150 Y113.100 E8.87830 F2880
G1 X124.150 Y108.400 E8.95647
G1 X130.850 Y108.400 E9.06791
G1 X130.850 Y113.100 E9.14608
G1 X129.550 Y113.100 E9.16770
G0 X130.713 Y113.461 F7200
;segType:HShell
G1 X136.292 Y119.039 E9.29891 F2880
G0 X136.858 Y119.039 F7200
G1 X131.210 Y113.392 E9.43173 F2880
G0 X131.210 Y112.826 F7200
G1 X137.424 Y119.039 E9.57786 F2880
G0 X137.989 Y119.039 F7200
G1 X131.210 Y112.261 E9.73729 F2880
G0 X131.210 Y111.695 F7200
G1 X138.555 Y119.039 E9.91002 F2880
G0 X139.121 Y119.039 F7200
G1 X131.210 Y111.129 E10.09606 F2880
G0 X131.210 Y110.563 F7200
G1 X139.686 Y119.039 E10.29540 F2880
G0 X140.252 Y119.039 F7200
G1 X131.210 Y109.998 E10.50805 F2880
G0 X131.210 Y109.432 F7200
G1 X140.818 Y119.039 E10.73400 F2880
G0 X141.384 Y119.039 F7200
G1 X131.210 Y108.866 E10.97325 F2880
G0 X131.210 Y108.301 F7200
G1 X141.949 Y119.039 E11.22581 F2880
G0 X145.540 Y115.276 F7200
G1 X131.961 Y101.697 E11.54517 F2880
G0 X131.961 Y102.263 F7200
G1 X145.540 Y115.842 E11.86453 F2880
G0 X145.540 Y116.407 F7200
G1 X131.593 Y102.460 E12.19254 F2880
G0 X131.027 Y102.460 F7200
G1 X145.540 Y116.973 E12.53385 F2880
G0 X145.540 Y117.539 F7200
G1 X130.461 Y102.460 E12.88846 F2880
G0 X129.896 Y102.460 F7200
G1 X145.540 Y118.104 E13.25638 F2880
G0 X145.540 Y118.670 F7200
G1 X129.808 Y102.938 E13.62637 F2880
G0 X130.155 Y103.851 F7200
G1 X145.343 Y119.039 E13.98357 F2880
G0 X144.778 Y119.039 F7200
G1 X130.204 Y104.465 E14.32634 F2880
G0 X130.140 Y104.968 F7200
G1 X144.212 Y119.039 E14.65728 F2880
G0 X143.646 Y119.039 F7200
G1 X129.991 Y105.384 E14.97843 F2880
G0 X129.806 Y105.765 F7200
G1 X143.081 Y119.039 E15.29064 F2880
G0 X142.515 Y119.039 F7200
G1 X129.568 Y106.092 E15.59514 F2880
G0 X129.284 Y106.374 F7200
G1 X130.949 Y108.040 E15.63431 F2880
G0 X130.384 Y108.040 F7200
G1 X128.974 Y106.630 E15.66745 F2880
G0 X128.594 Y106.816 F7200
G1 X129.818 Y108.040 E15.69624 F2880
G0 X129.252 Y108.040 F7200
G1 X128.179 Y106.966 E15.72149 F2880
G0 X127.703 Y107.056 F7200
G1 X128.687 Y108.040 E15.74461 F2880
G0 X128.121 Y108.040 F7200
G1 X127.109 Y107.027 E15.76841 F2880
G0 X126.295 Y106.779 F7200
G1 X127.555 Y108.040 E15.79806 F2880
G0 X126.990 Y108.040 F7200
G1 X114.460 Y95.511 E16.09273 F2880
G0 X114.460 Y96.076 F7200
G1 X126.424 Y108.040 E16.37409 F2880
G0 X125.858 Y108.040 F7200
G1 X114.460 Y96.642 E16.64215 F2880
G0 X114.460 Y97.208 F7200
G1 X125.292 Y108.040 E16.89690 F2880
G0 X124.727 Y108.040 F7200
G1 X114.460 Y97.773 E17.13835 F2880
G0 X114.460 Y98.339 F7200
G1 X124.161 Y108.040 E17.36649 F2880
G0 X123.789 Y108.234 F7200
G1 X114.460 Y98.905 E17.58589 F2880
G0 X114.460 Y99.470 F7200
G1 X123.789 Y108.799 E17.80530 F2880
G0 X123.789 Y109.365 F7200
G1 X114.460 Y100.036 E18.02470 F2880
G0 X114.460 Y100.602 F7200
G1 X123.789 Y109.931 E18.24411 F2880
G0 X123.789 Y110.496 F7200
G1 X114.460 Y101.167 E18.46351 F2880
G0 X114.460 Y101.733 F7200
G1 X123.789 Y111.062 E18.68292 F2880
G0 X123.789 Y111.628 F7200
G1 X114.460 Y102.299 E18.90232 F2880
G0 X114.460 Y102.864 F7200
G1 X123.789 Y112.193 E19.12172 F2880
G0 X123.789 Y112.759 F7200
G1 X114.460 Y103.430 E19.34113 F2880
G0 X114.460 Y103.996 F7200
G1 X123.789 Y113.325 E19.56053 F2880
G0 X123.925 Y113.461 F7200
G1 X129.504 Y119.039 E19.69174 F2880
G0 X130.070 Y119.039 F7200
G1 X124.491 Y113.461 E19.82295 F2880
G0 X125.057 Y113.461 F7200
G1 X130.636 Y119.039 E19.95415 F2880
G0 X131.201 Y119.039 F7200
G1 X125.622 Y113.461 E20.08536 F2880
G0 X126.188 Y113.461 F7200
G1 X131.767 Y119.039 E20.21656 F2880
G0 X132.333 Y119.039 F7200
G1 X126.754 Y113.461 E20.34777 F2880
G0 X127.319 Y113.461 F7200
G1 X132.898 Y119.039 E20.47898 F2880
G0 X133.464 Y119.039 F7200
G1 X127.885 Y113.461 E20.61018 F2880
G0 X128.451 Y113.461 F7200
G1 X134.030 Y119.039 E20.74139 F2880
G0 X134.595 Y119.039 F7200
G1 X129.016 Y113.461 E20.87260 F2880
G0 F3000 E19.87260
G0 X129.021 Y113.100 F7200
G0 X128.933 Y119.400
G0 X128.938 Y119.039
G0 F3000 E20.87260
G1 X114.460 Y104.561 E21.21310 F2880
G0 X114.460 Y105.127 F7200
G1 X128.373 Y119.039 E21.54029 F2880
G0 X127.807 Y119.039 F7200
G1 X114.460 Y105.693 E21.85419 F2880
G0 X114.460 Y106.259 F7200
G1 X127.241 Y119.039 E22.15477 F2880
G0 X126.676 Y119.039 F7200
G1 X114.460 Y106.824 E22.44206 F2880
G0 X114.460 Y107.390 F7200
G1 X126.110 Y119.039 E22.71604 F2880
G0 X125.544 Y119.039 F7200
G1 X114.460 Y107.956 E22.97671 F2880
G0 X114.460 Y108.521 F7200
G1 X124.979 Y119.039 E23.22408 F2880
G0 X124.413 Y119.039 F7200
G1 X114.460 Y109.087 E23.45815 F2880
G0 X114.460 Y109.653 F7200
G1 X123.847 Y119.039 E23.67891 F2880
G0 X123.282 Y119.039 F7200
G1 X114.460 Y110.218 E23.88637 F2880
G0 X114.460 Y110.784 F7200
G1 X122.716 Y119.039 E24.08053 F2880
G0 X122.150 Y119.039 F7200
G1 X114.460 Y111.350 E24.26138 F2880
G0 X114.460 Y111.915 F7200
G1 X121.585 Y119.039 E24.42893 F2880
G0 X121.019 Y119.039 F7200
G1 X114.460 Y112.481 E24.58317 F2880
G0 X114.460 Y113.047 F7200
G1 X120.453 Y119.039 E24.72411 F2880
G0 X119.887 Y119.039 F7200
G1 X114.460 Y113.612 E24.85174 F2880
G0 X114.460 Y114.178 F7200
G1 X119.322 Y119.039 E24.96607 F2880
G0 X118.756 Y119.039 F7200
G1 X114.460 Y114.744 E25.06710 F2880
G0 X114.460 Y115.309 F7200
G1 X118.190 Y119.039 E25.15482 F2880
G0 X117.625 Y119.039 F7200
G1 X114.460 Y115.875 E25.22924 F2880
G0 X114.460 Y116.441 F7200
G1 X117.059 Y119.039 E25.29036 F2880
G0 X116.493 Y119.039 F7200
G1 X114.460 Y117.007 E25.33817 F2880
G0 X114.460 Y117.572 F7200
G1 X115.928 Y119.039 E25.37267 F2880
G0 X115.362 Y119.039 F7200
G1 X114.460 Y118.138 E25.39387 F2880
G0 X114.460 Y118.704 F7200
G1 X114.796 Y119.039 E25.40177 F2880
G0 X125.103 Y105.587 F7200
G1 X114.460 Y94.945 E25.65206 F2880
G0 X114.460 Y93.813 F7200
G1 X123.039 Y102.392 E25.85382 F2880
G0 X123.039 Y101.827 F7200
G1 X114.460 Y93.248 E26.05559 F2880
G0 X114.460 Y92.682 F7200
G1 X123.039 Y101.261 E26.25735 F2880
G0 X123.039 Y100.695 F7200
G1 X114.460 Y92.116 E26.45911 F2880
G0 X114.460 Y91.551 F7200
G1 X123.039 Y100.130 E26.66088 F2880
G0 X123.039 Y99.564 F7200
G1 X114.460 Y90.985 E26.86264 F2880
G0 X114.460 Y90.419 F7200
G1 X123.039 Y98.998 E27.06440 F2880
G0 X123.039 Y98.433 F7200
G1 X114.460 Y89.854 E27.26617 F2880
G0 X114.460 Y89.288 F7200
G1 X123.039 Y97.867 E27.46793 F2880
G0 X123.039 Y97.301 F7200
G1 X114.460 Y88.722 E27.66969 F2880
G0 X114.460 Y88.157 F7200
G1 X123.039 Y96.736 E27.87146 F2880
G0 X123.039 Y96.170 F7200
G1 X114.460 Y87.591 E28.07322 F2880
G0 X114.460 Y87.025 F7200
G1 X123.039 Y95.604 E28.27498 F2880
G0 X123.039 Y95.038 F7200
G1 X114.460 Y86.460 E28.47674 F2880
G0 X114.460 Y85.894 F7200
G1 X123.039 Y94.473 E28.67851 F2880
G0 X123.039 Y93.907 F7200
G1 X114.460 Y85.328 E28.88027 F2880
G0 X114.460 Y84.762 F7200
G1 X123.039 Y93.341 E29.08203 F2880
G0 X123.039 Y92.776 F7200
G1 X114.460 Y84.197 E29.28380 F2880
G0 X114.460 Y83.631 F7200
G1 X123.039 Y92.210 E29.48556 F2880
G0 X123.039 Y91.644 F7200
G1 X114.460 Y83.065 E29.68732 F2880
G0 X114.460 Y82.500 F7200
G1 X123.039 Y91.079 E29.88909 F2880
G0 X123.039 Y90.513 F7200
G1 X114.460 Y81.934 E30.09085 F2880
G0 X114.460 Y81.368 F7200
G1 X123.039 Y89.947 E30.29261 F2880
G0 F3000 E29.29261
G0 X123.400 Y89.264 F7200
G0 X123.400 Y85.900
G0 X125.172 Y85.900
G0 X125.616 Y85.057
G0 X125.386 Y85.495
G0 F3000 E30.29261
;segType:InnerHair
G1 X125.500 Y85.507 E30.29445 F2880
G1 X125.614 Y85.556 E30.29594
G1 X125.729 Y85.606 E30.29691
G1 X125.670 Y85.581 E30.29754
G1 X125.557 Y85.532 E30.29925
G1 X125.444 Y85.483 E30.30147
G1 X125.386 Y85.495 E30.30249
G0 X124.803 Y83.792 F7200
;segType:HShell
G1 X121.972 Y80.961 E30.36907 F2880
G0 X121.407 Y80.961 F7200
G1 X124.930 Y84.484 E30.45193 F2880
G0 X125.335 Y85.455 F7200
G1 X120.841 Y80.961 E30.55763 F2880
G0 X120.275 Y80.961 F7200
G1 X124.854 Y85.539 E30.66531 F2880
G0 X124.288 Y85.539 F7200
G1 X119.709 Y80.961 E30.77300 F2880
G0 X119.144 Y80.961 F7200
G1 X123.723 Y85.539 E30.88069 F2880
G0 X123.157 Y85.539 F7200
G1 X118.578 Y80.961 E30.98838 F2880
G0 X118.012 Y80.961 F7200
G1 X123.039 Y85.988 E31.10661 F2880
G0 X123.039 Y86.553 F7200
G1 X117.447 Y80.961 E31.23814 F2880
G0 X116.881 Y80.961 F7200
G1 X123.039 Y87.119 E31.38297 F2880
G0 X123.039 Y87.685 F7200
G1 X116.315 Y80.961 E31.54111 F2880
G0 X115.750 Y80.961 F7200
G1 X123.039 Y88.250 E31.71255 F2880
G0 X123.039 Y88.816 F7200
G1 X115.184 Y80.961 E31.89730 F2880
G0 X125.366 Y80.961 F7200
G0 X125.398 Y81.275
G1 X126.082 Y81.111 E31.92655 F2880
G1 X126.513 Y80.976 E31.94419
G0 X126.643 Y81.025 F7200
;segType:InnerHair
G1 X126.757 Y81.007 E31.94617 F2880
G1 X126.871 Y80.989 E31.94799
G1 X126.986 Y80.971 E31.94963
G1 X127.100 Y80.967 E31.95121
G1 X127.214 Y80.963 E31.95276
G1 X127.329 Y80.960 E31.95427
G1 X127.443 Y80.956 E31.95575
G1 X127.557 Y80.952 E31.95720
G1 X127.671 Y80.949 E31.95861
G1 X127.786 Y80.960 E31.96014
G1 X127.900 Y80.971 E31.96176
G1 X128.014 Y80.981 E31.96349
G1 X128.129 Y80.992 E31.96532
G1 X128.243 Y81.003 E31.96725
G1 X128.357 Y81.014 E31.96929
G1 X128.471 Y81.040 E31.97162
G0 F3000 E30.97162
G0 X128.371 Y80.600 F7200
G0 X128.596 Y81.583
G0 X128.762 Y81.661
G0 X129.217 Y82.038
G0 X129.564 Y82.516
G0 X129.781 Y83.064
G0 X129.855 Y83.650
G0 X129.781 Y84.236
G0 X129.564 Y84.785
G0 X129.387 Y85.028
G0 X129.587 Y85.900
G0 X129.500 Y85.519
G0 F3000 E31.97162
G1 X129.386 Y85.578 E31.97292 F2880
G1 X129.271 Y85.603 E31.97387
G1 X129.338 Y85.579 E31.97458
G1 X129.457 Y85.536 E31.97630
G1 X129.568 Y85.485 E31.97847
G1 X129.500 Y85.519 E31.97961
G0 X129.945 Y85.539 F7200
;segType:HShell
G1 X129.665 Y85.259 E31.98621 F2880
G0 X129.896 Y84.924 F7200
G1 X130.511 Y85.539 E32.00067 F2880
G0 X131.077 Y85.539 F7200
G1 X130.056 Y84.519 E32.02467 F2880
G0 X130.166 Y84.063 F7200
G1 X131.642 Y85.539 E32.05939 F2880
G0 F3000 E31.05939
G0 X145.540 Y81.335 F7200
G0 F3000 E32.05939
G1 X145.165 Y80.961 E32.06819 F2880
G0 X144.600 Y80.961 F7200
G1 X145.540 Y81.900 E32.09030 F2880
G0 X145.540 Y82.466 F7200
G1 X144.034 Y80.961 E32.12570 F2880
G0 X143.468 Y80.961 F7200
G1 X145.540 Y83.032 E32.17442 F2880
G0 X145.540 Y83.597 F7200
G1 X142.903 Y80.961 E32.23643 F2880
G0 X142.337 Y80.961 F7200
G1 X145.540 Y84.163 E32.31175 F2880
G0 X145.540 Y84.729 F7200
G1 X141.771 Y80.961 E32.40038 F2880
G0 X141.206 Y80.961 F7200
G1 X145.540 Y85.295 E32.50231 F2880
G0 X145.540 Y85.860 F7200
G1 X140.640 Y80.961 E32.61754 F2880
G0 X140.074 Y80.961 F7200
G1 X145.540 Y86.426 E32.74608 F2880
G0 X145.540 Y86.992 F7200
G1 X139.508 Y80.961 E32.88792 F2880
G0 X138.943 Y80.961 F7200
G1 X145.540 Y87.557 E33.04307 F2880
G0 X145.540 Y88.123 F7200
G1 X138.377 Y80.961 E33.21152 F2880
G0 X137.811 Y80.961 F7200
G1 X145.540 Y88.689 E33.39327 F2880
G0 X145.540 Y89.254 F7200
G1 X137.246 Y80.961 E33.58833 F2880
G0 X136.680 Y80.961 F7200
G1 X145.540 Y89.820 E33.79669 F2880
G0 X145.540 Y90.386 F7200
G1 X136.114 Y80.961 E34.01836 F2880
G0 X135.549 Y80.961 F7200
G1 X145.540 Y90.951 E34.25333 F2880
G0 X145.540 Y91.517 F7200
G1 X134.983 Y80.961 E34.50160 F2880
G0 X134.417 Y80.961 F7200
G1 X145.540 Y92.083 E34.76318 F2880
G0 X145.540 Y92.648 F7200
G1 X133.852 Y80.961 E35.03806 F2880
G0 X133.286 Y80.961 F7200
G1 X145.540 Y93.214 E35.32625 F2880
G0 X145.540 Y93.780 F7200
G1 X132.720 Y80.961 E35.62774 F2880
G0 X132.155 Y80.961 F7200
G1 X145.540 Y94.346 E35.94253 F2880
G0 X145.540 Y94.911 F7200
G1 X131.589 Y80.961 E36.27063 F2880
G0 X131.023 Y80.961 F7200
G1 X145.540 Y95.477 E36.61204 F2880
G0 X145.540 Y96.043 F7200
G1 X130.458 Y80.961 E36.96674 F2880
G0 X129.892 Y80.961 F7200
G1 X145.540 Y96.608 E37.33475 F2880
G0 X145.540 Y97.174 F7200
G1 X129.326 Y80.961 E37.71607 F2880
G0 X128.760 Y80.961 F7200
G1 X145.540 Y97.740 E38.11068 F2880
G0 X145.540 Y98.305 F7200
G1 X130.083 Y82.849 E38.47419 F2880
G0 X130.204 Y83.535 F7200
G1 X145.540 Y98.871 E38.83487 F2880
G0 X145.540 Y99.437 F7200
G1 X131.961 Y85.858 E39.15423 F2880
G0 X131.961 Y86.423 F7200
G1 X145.540 Y100.002 E39.47359 F2880
G0 X145.540 Y100.568 F7200
G1 X131.961 Y86.989 E39.79295 F2880
G0 X131.961 Y87.555 F7200
G1 X145.540 Y101.134 E40.11231 F2880
G0 X145.540 Y101.699 F7200
G1 X131.961 Y88.120 E40.43166 F2880
G0 X131.961 Y88.686 F7200
G1 X145.540 Y102.265 E40.75102 F2880
G0 X145.540 Y102.831 F7200
G1 X131.961 Y89.252 E41.07038 F2880
G0 X131.961 Y89.817 F7200
G1 X145.540 Y103.396 E41.38974 F2880
G0 X145.540 Y103.962 F7200
G1 X131.961 Y90.383 E41.70910 F2880
G0 X131.961 Y90.949 F7200
G1 X145.540 Y104.528 E42.02846 F2880
G0 X145.540 Y105.094 F7200
G1 X131.961 Y91.515 E42.34782 F2880
G0 X131.961 Y92.080 F7200
G1 X145.540 Y105.659 E42.66718 F2880
G0 X145.540 Y106.225 F7200
G1 X131.961 Y92.646 E42.98654 F2880
G0 X131.961 Y93.212 F7200
G1 X145.540 Y106.791 E43.30590 F2880
G0 X145.540 Y107.356 F7200
G1 X131.961 Y93.777 E43.62525 F2880
G0 X131.961 Y94.343 F7200
G1 X145.540 Y107.922 E43.94461 F2880
G0 X145.540 Y108.488 F7200
G1 X131.961 Y94.909 E44.26397 F2880
G0 X131.961 Y95.474 F7200
G1 X145.540 Y109.053 E44.58333 F2880
G0 X145.540 Y109.619 F7200
G1 X131.961 Y96.040 E44.90269 F2880
G0 X131.961 Y96.606 F7200
G1 X145.540 Y110.185 E45.22205 F2880
G0 X145.540 Y110.750 F7200
G1 X131.961 Y97.171 E45.54141 F2880
G0 X131.961 Y97.737 F7200
G1 X145.540 Y111.316 E45.86077 F2880
G0 X145.540 Y111.882 F7200
G1 X131.961 Y98.303 E46.18012 F2880
G0 X131.961 Y98.868 F7200
G1 X145.540 Y112.447 E46.49948 F2880
G0 X145.540 Y113.013 F7200
G1 X131.961 Y99.434 E46.81884 F2880
G0 X131.961 Y100.000 F7200
G1 X145.540 Y113.579 E47.13820 F2880
G0 X145.540 Y114.145 F7200
G1 X131.961 Y100.566 E47.45756 F2880
G0 F3000 E46.45756
G0 X131.600 Y100.672 F7200
G0 X131.600 Y102.100
G0 X128.814 Y102.100
G0 X128.700 Y102.192
G0 X128.586 Y102.185
G0 X128.471 Y102.159
G0 X128.357 Y102.134
G0 X128.243 Y102.108
G0 X128.129 Y102.096
G0 X128.014 Y102.085
G0 X127.900 Y102.074
G0 X127.786 Y102.063
G0 X127.671 Y102.053
G0 X127.557 Y102.053
G0 X127.443 Y102.056
G0 X127.329 Y102.060
G0 X127.214 Y102.064
G0 X127.100 Y102.067
G0 X126.986 Y102.081
G0 X126.871 Y102.099
G0 X126.757 Y102.117
G0 X126.643 Y102.135
G0 X126.640 Y102.135
G0 X125.386 Y102.505
G0 F3000 E47.45756
;segType:InnerHair
G1 X125.500 Y102.493 E47.45940 F2880
G1 X125.614 Y102.443 E47.46089
G1 X125.729 Y102.394 E47.46186
G1 X125.658 Y102.425 E47.46265
G1 X125.545 Y102.473 E47.46442
G1 X125.432 Y102.522 E47.46669
G1 X125.386 Y102.505 E47.46754
G0 F3000 E46.46754
G0 X126.052 Y102.501 F7200
G0 X126.352 Y102.311
G0 X126.643 Y102.135
G0 X126.986 Y102.081
G0 X127.100 Y102.067
G0 X127.557 Y102.053
G0 X127.671 Y102.053
G0 X128.129 Y102.096
G0 X128.351 Y102.133
G0 X128.483 Y102.162
G0 X128.615 Y102.192
G0 X128.657 Y102.312
G0 X128.762 Y102.361
G0 X128.910 Y102.484
G0 X129.500 Y102.481
G0 F3000 E47.46754
G1 X129.386 Y102.422 E47.46884 F2880
G1 X129.271 Y102.397 E47.46978
G1 X129.232 Y102.383 E47.47007
G1 X129.351 Y102.426 E47.47139
G1 X129.470 Y102.469 E47.47316
G1 X129.579 Y102.521 E47.47539
G1 X129.500 Y102.481 E47.47672
G0 F3000 E46.47672
G0 X129.344 Y102.913 F7200
G0 X129.637 Y102.100
G0 X130.477 Y99.771
G0 F3000 E47.47672
;segType:Support
G1 X124.851 Y99.772 E47.55623 F1200
; ------------------------------------
; Layer #3
; ------------------------------------
G92 E0 ;reset extr
G0 F3000 E-1.00000
G0 F600 Z1.500
G0 X123.800 Y101.700 F7200
G0 X117.198 Y80.961
G0 F3000 E0.00000
;segType:HShell
G1 X114.460 Y83.698 E0.06439 F2880
G0 X114.460 Y83.133 F7200
G1 X116.633 Y80.961 E0.11548 F2880
G0 X116.067 Y80.961 F7200
G1 X114.460 Y82.567 E0.15326 F2880
G0 X114.460 Y82.001 F7200
G1 X115.501 Y80.961 E0.17774 F2880
G0 X114.936 Y80.961 F7200
G1 X114.460 Y81.436 E0.18891 F2880
G0 X114.100 Y80.600 F7200
G0 X113.916 Y80.780
;segType:Perimeter
G1 X113.760 Y80.200 E0.19889 F1440
G1 X146.300 Y80.200 E0.74002
G1 X146.300 Y119.800 E1.39856
G1 X113.700 Y119.800 E1.94069
G1 X113.700 Y80.260 E2.59823
G0 X113.760 Y80.200 F7200
G0 X115.360 Y80.200
G0 X114.800 Y80.600
;segType:Loop
G1 X145.900 Y80.600 E3.11541 F2880
G1 X145.900 Y119.400 E3.76065
G1 X114.100 Y119.400 E4.28947
G1 X114.100 Y80.600 E4.93470
G1 X114.600 Y80.600 E4.94302
G0 F3000 E3.94302
G0 X114.460 Y93.881 F7200
G0 F3000 E4.94302
;segType:HShell
G1 X124.803 Y83.538 E5.18627 F2880
G0 X125.163 Y83.355 F7200
G0 X125.420 Y83.402
;segType:Perimeter
G1 X125.714 Y82.879 E5.19625 F1440
G1 X125.921 Y82.503 E5.20338
G1 X126.256 Y82.146 E5.21152
G1 X126.669 Y81.884 E5.21966
G1 X127.134 Y81.733 E5.22779
G1 X127.622 Y81.702 E5.23593
G1 X128.103 Y81.794 E5.24407
G1 X128.546 Y82.002 E5.25221
G1 X128.923 Y82.314 E5.26034
G1 X129.211 Y82.710 E5.26848
G1 X129.391 Y83.165 E5.27662
G1 X129.452 Y83.650 E5.28475
G1 X129.391 Y84.135 E5.29289
G1 X129.211 Y84.590 E5.30103
G1 X128.923 Y84.986 E5.30917
G1 X128.546 Y85.298 E5.31730
G1 X128.103 Y85.506 E5.32544
G1 X127.622 Y85.598 E5.33358
G1 X127.134 Y85.567 E5.34172
G1 X126.669 Y85.416 E5.34985
G1 X126.256 Y85.154 E5.35799
G1 X125.921 Y84.797 E5.36613
G1 X125.685 Y84.368 E5.37427
G1 X125.563 Y83.895 E5.38240
G1 X125.563 Y83.405 E5.39054
G1 X125.670 Y82.989 E5.39768
G0 X125.714 Y82.879 F7200
G0 X125.921 Y82.503
G0 X126.256 Y82.146
G0 X126.669 Y81.884
G0 X126.852 Y81.824
G0 X126.497 Y81.519
G0 X126.083 Y81.782
;segType:Loop
G1 X126.497 Y81.519 E5.40584 F2880
G1 X127.059 Y81.337 E5.41565
G1 X127.648 Y81.299 E5.42547
G1 X128.228 Y81.410 E5.43529
G1 X128.762 Y81.661 E5.44511
G1 X129.217 Y82.038 E5.45493
G1 X129.564 Y82.516 E5.46474
G1 X129.781 Y83.064 E5.47456
G1 X129.855 Y83.650 E5.48438
G1 X129.781 Y84.236 E5.49419
G1 X129.564 Y84.785 E5.50401
G1 X129.217 Y85.262 E5.51383
G1 X128.762 Y85.638 E5.52365
G1 X128.645 Y85.694 E5.52580
G0 X128.601 Y85.812 F7200
G0 X128.469 Y85.841
G1 X128.129 Y85.904 E5.53143 F2880
G1 X128.014 Y85.915 E5.53319
G1 X127.900 Y85.926 E5.53485
G1 X127.786 Y85.937 E5.53640
G1 X127.671 Y85.947 E5.53786
G1 X127.557 Y85.947 E5.53930
G1 X127.443 Y85.944 E5.54079
G1 X127.329 Y85.940 E5.54230
G1 X127.214 Y85.936 E5.54386
G1 X127.100 Y85.933 E5.54544
G1 X126.986 Y85.919 E5.54717
G1 X126.871 Y85.901 E5.54908
G1 X126.757 Y85.883 E5.55116
G1 X126.643 Y85.865 E5.55342
G1 X126.363 Y85.696 E5.55886
G1 X125.999 Y85.465 E5.56603
G1 X125.595 Y85.034 E5.57585
G1 X125.310 Y84.517 E5.58567
G1 X125.163 Y83.945 E5.59549
G1 X125.163 Y83.355 E5.60530
G1 X125.310 Y82.783 E5.61512
G1 X125.595 Y82.266 E5.62494
G1 X125.930 Y81.908 E5.63309
G0 F3000 E4.63309
G0 X125.930 Y81.908 F7200
G0 X125.999 Y81.835
G0 X126.497 Y81.519
G0 X127.059 Y81.337
G0 X127.648 Y81.299
G0 X128.228 Y81.410
G0 X128.762 Y81.661
G0 X129.217 Y82.038
G0 X129.564 Y82.516
G0 X129.781 Y83.064
G0 X129.793 Y83.159
G0 X145.900 Y88.374
G0 X145.540 Y88.258
G0 F3000 E5.63309
;segType:HShell
G1 X131.961 Y101.837 E5.95245 F2880
G0 X131.940 Y101.700 F7200
;segType:Perimeter
G1 X131.140 Y101.700 E5.96575 F1440
G1 X123.800 Y101.700 E6.08783
G1 X123.800 Y86.300 E6.34395
G1 X131.200 Y86.300 E6.46702
G1 X131.200 Y101.640 E6.72214
G0 X131.140 Y101.700 F7200
G0 X129.540 Y101.700
G0 X130.100 Y102.100
;segType:Loop
G1 X128.814 Y102.100 E6.74353 F2880
G0 X128.700 Y102.192 F7200
G0 X128.586 Y102.185
G0 X128.471 Y102.159
G0 X128.357 Y102.134
G0 X128.243 Y102.108
G1 X128.129 Y102.096 E6.74540 F2880
G1 X128.014 Y102.085 E6.74716
G1 X127.900 Y102.074 E6.74882
G1 X127.786 Y102.063 E6.75038
G1 X127.671 Y102.053 E6.75183
G1 X127.557 Y102.053 E6.75328
G1 X127.443 Y102.056 E6.75477
G1 X127.329 Y102.060 E6.75628
G1 X127.214 Y102.064 E6.75784
G1 X127.100 Y102.067 E6.75942
G1 X126.986 Y102.081 E6.76115
G1 X126.871 Y102.099 E6.76306
G1 X126.757 Y102.117 E6.76514
G1 X126.643 Y102.135 E6.76740
G1 X126.529 Y102.145 E6.76974
G1 X126.414 Y102.179 E6.77250
G1 X126.300 Y102.100 E6.77480
G1 X123.400 Y102.100 E6.82304
G1 X123.400 Y85.900 E7.09246
G1 X126.300 Y85.900 E7.14069
G1 X126.414 Y85.821 E7.14390
G1 X126.529 Y85.854 E7.14633
G0 X126.643 Y85.865 F7200
G0 X126.986 Y85.919
G0 X127.100 Y85.933
G0 X127.557 Y85.947
G0 X127.671 Y85.947
G0 X128.129 Y85.904
G1 X128.243 Y85.892 E7.14831 F2880
G1 X128.357 Y85.866 E7.15059
G1 X128.471 Y85.841 E7.15311
G1 X128.586 Y85.815 E7.15588
G1 X128.700 Y85.808 E7.15866
G1 X128.814 Y85.900 E7.16109
G1 X131.600 Y85.900 E7.20742
G1 X131.600 Y102.100 E7.47684
G1 X130.300 Y102.100 E7.49846
G0 F3000 E6.49846
G0 X130.300 Y102.100 F7200
G0 X129.307 Y102.862
G0 X129.217 Y102.738
G0 X128.762 Y102.361
G0 X128.657 Y102.312
G0 X128.615 Y102.192
G0 X128.483 Y102.162
G0 X128.351 Y102.133
G0 X128.129 Y102.096
G0 X127.671 Y102.053
G0 X127.557 Y102.053
G0 X127.100 Y102.067
G0 X126.986 Y102.081
G0 X126.643 Y102.135
G0 X126.352 Y102.311
G0 X125.999 Y102.535
G0 X125.595 Y102.966
G0 X125.310 Y103.483
G0 X125.163 Y104.055
G0 X125.163 Y104.645
G0 X125.310 Y105.217
G0 X125.585 Y105.716
G0 X114.100 Y114.522
G0 X114.460 Y114.245
G0 F3000 E7.49846
;segType:HShell
G1 X124.840 Y103.866 E7.74258 F2880
G0 X125.163 Y104.055 F7200
G0 X125.420 Y104.102
;segType:Perimeter
G1 X125.714 Y103.579 E7.75255 F1440
G1 X125.921 Y103.203 E7.75969
G1 X126.256 Y102.846 E7.76783
G1 X126.669 Y102.584 E7.77597
G1 X127.134 Y102.432 E7.78410
G1 X127.623 Y102.402 E7.79224
G1 X128.103 Y102.494 E7.80038
G1 X128.546 Y102.702 E7.80852
G1 X128.923 Y103.014 E7.81665
G1 X129.211 Y103.409 E7.82479
G1 X129.391 Y103.864 E7.83293
G1 X129.452 Y104.350 E7.84106
G1 X129.391 Y104.835 E7.84920
G1 X129.211 Y105.290 E7.85734
G1 X128.923 Y105.686 E7.86548
G1 X128.546 Y105.998 E7.87361
G1 X128.103 Y106.207 E7.88175
G1 X127.622 Y106.298 E7.88989
G1 X127.134 Y106.267 E7.89803
G1 X126.669 Y106.116 E7.90616
G1 X126.256 Y105.854 E7.91430
G1 X125.921 Y105.497 E7.92243
G1 X125.685 Y105.069 E7.93057
G1 X125.563 Y104.595 E7.93871
G1 X125.563 Y104.106 E7.94684
G1 X125.670 Y103.690 E7.95399
G0 X125.714 Y103.579 F7200
G0 X125.921 Y103.203
G0 X126.256 Y102.846
G0 X126.669 Y102.584
G0 X126.852 Y102.524
G0 X126.643 Y102.135
G0 X126.352 Y102.311
G0 X126.083 Y102.482
;segType:Loop
G1 X126.352 Y102.311 E7.95929 F2880
G0 X126.643 Y102.135 F7200
G0 X126.986 Y102.081
G0 X127.100 Y102.067
G0 X127.557 Y102.053
G0 X127.671 Y102.053
G0 X128.129 Y102.096
G1 X128.351 Y102.133 E7.96364 F2880
G1 X128.483 Y102.162 E7.96659
G1 X128.615 Y102.192 E7.96987
G1 X128.657 Y102.312 E7.97198
G1 X128.762 Y102.361 E7.97392
G1 X129.217 Y102.738 E7.98374
G1 X129.564 Y103.215 E7.99355
G1 X129.781 Y103.764 E8.00337
G1 X129.855 Y104.350 E8.01319
G1 X129.781 Y104.936 E8.02301
G1 X129.564 Y105.485 E8.03283
G1 X129.217 Y105.962 E8.04264
G1 X128.762 Y106.338 E8.05246
G1 X128.228 Y106.590 E8.06228
G1 X127.648 Y106.700 E8.07210
G1 X127.059 Y106.664 E8.08192
G1 X126.497 Y106.481 E8.09174
G1 X125.999 Y106.165 E8.10155
G1 X125.595 Y105.734 E8.11137
G1 X125.310 Y105.217 E8.12119
G1 X125.163 Y104.645 E8.13100
G1 X125.163 Y104.055 E8.14082
G1 X125.310 Y103.483 E8.15064
G1 X125.595 Y102.966 E8.16046
G1 X125.930 Y102.608 E8.16861
G0 F3000 E7.16861
G0 X125.595 Y102.966 F7200
G0 X125.310 Y103.483
G0 X125.163 Y104.055
G0 X125.163 Y104.645
G0 X125.310 Y105.217
G0 X125.595 Y105.734
G0 X125.999 Y106.165
G0 X126.497 Y106.481
G0 X127.059 Y106.664
G0 X127.648 Y106.700
G0 X127.660 Y106.698
G0 X128.379 Y108.400
G0 X124.150 Y108.400
G0 X124.150 Y113.100
G0 X130.367 Y113.100
G0 X130.519 Y113.461
G0 F3000 E8.16861
;segType:HShell
G1 X124.940 Y119.039 E8.29982 F2880
G0 X124.374 Y119.039 F7200
G1 X129.953 Y113.461 E8.43102 F2880
G0 X130.390 Y112.700 F7200
;segType:Perimeter
G1 X124.550 Y112.700 E8.52816 F1440
G1 X124.550 Y108.800 E8.59303
G1 X130.450 Y108.800 E8.69115
G1 X130.450 Y112.640 E8.75503
G0 X130.390 Y112.700 F7200
G0 X128.790 Y112.700
G0 X129.350 Y113.100
;segType:Loop
G1 X124.150 Y113.100 E8.84151 F2880
G1 X124.150 Y108.400 E8.91969
G1 X130.850 Y108.400 E9.03112
G1 X130.850 Y113.100 E9.10930
G1 X129.550 Y113.100 E9.13092
G0 X129.387 Y113.461 F7200
;segType:HShell
G1 X123.809 Y119.039 E9.26212 F2880
G0 X123.243 Y119.039 F7200
G1 X128.822 Y113.461 E9.39333 F2880
G0 X128.256 Y113.461 F7200
G1 X122.677 Y119.039 E9.52454 F2880
G0 X122.111 Y119.039 F7200
G1 X127.690 Y113.461 E9.65574 F2880
G0 X127.125 Y113.461 F7200
G1 X121.546 Y119.039 E9.78695 F2880
G0 X120.980 Y119.039 F7200
G1 X126.559 Y113.461 E9.91816 F2880
G0 X125.993 Y113.461 F7200
G1 X120.414 Y119.039 E10.04937 F2880
G0 X119.849 Y119.039 F7200
G1 X125.428 Y113.461 E10.18057 F2880
G0 X124.862 Y113.461 F7200
G1 X119.283 Y119.039 E10.31178 F2880
G0 X118.717 Y119.039 F7200
G1 X124.296 Y113.461 E10.44299 F2880
G0 X123.789 Y113.402 F7200
G1 X118.152 Y119.039 E10.57558 F2880
G0 X117.586 Y119.039 F7200
G1 X123.789 Y112.836 E10.72148 F2880
G0 X123.789 Y112.270 F7200
G1 X117.020 Y119.039 E10.88068 F2880
G0 X116.455 Y119.039 F7200
G1 X123.789 Y111.705 E11.05318 F2880
G0 X123.789 Y111.139 F7200
G1 X115.889 Y119.039 E11.23899 F2880
G0 X115.323 Y119.039 F7200
G1 X123.789 Y110.573 E11.43810 F2880
