; #disp params :
; Printmode:0
; Layer:414
; Zmax:125.069 mm
; Xmax:151.59 mm
; Ymax:42.5 mm
; Xmin:108.344 mm
; Ymin:0.3 mm
; E0diam:0.4 mm
; E0len:3.28344 m
; E0temp:215 C
; Bedtemp:215 C
; Time:99.93 min
; #params end
; GCode generated by CraftWare

G28 X Y ; home horizontally
G28 Z ; home vertically


M104 S215 ;set head temp (no wait)
M190 S60 ;set bed temp (wait)
M109 S215 ;set head temp (wait)

; ------------------------------------
; Raft Layer #0
; ------------------------------------
M106 S0 ;turn off fan
G21 ; mm
G90 ; abs
G92 E0 ;reset extr
G0 F600 Z0.300
;segType:Raft
G0 F3000 E-1.00000
G0 F600 Z2.300
G0 X108.409 Y122.313 F5400
G0 F600 Z0.300
G0 F3000 E0.00000
G1 X108.409 Y77.688 E2.22635 F600
G1 X111.034 Y75.063 E2.41156
G1 X111.494 Y74.997 E2.43472
G1 X148.769 Y74.997 E4.29438
G1 X151.394 Y77.622 E4.47959
G1 X151.460 Y78.081 E4.50275
G1 X151.460 Y122.181 E6.70291
G1 X151.263 Y122.510 E6.72202
G1 X148.769 Y125.003 E6.89797
G1 X111.100 Y125.003 E8.77727
G1 X110.903 Y124.806 E8.79118
G1 X108.409 Y122.313 E8.96713
G0 X111.137 Y124.413 F5400
G1 X111.137 Y75.719 E11.39647 F600
G0 X113.803 Y75.456 F5400
G1 X113.803 Y124.675 E13.85200 F600
G0 X116.470 Y124.675 F5400
G1 X116.470 Y75.456 E16.30754 F600
G0 X119.136 Y75.456 F5400
G1 X119.136 Y124.675 E18.76307 F600
G0 X121.803 Y124.675 F5400
G1 X121.803 Y75.456 E21.21860 F600
G0 X124.470 Y75.456 F5400
G1 X124.470 Y124.675 E23.67414 F600
G0 X127.136 Y124.675 F5400
G1 X127.136 Y75.456 E26.12967 F600
G0 X129.803 Y75.456 F5400
G1 X129.803 Y124.675 E28.58521 F600
G0 X132.470 Y124.675 F5400
G1 X132.470 Y75.456 E31.04074 F600
G0 X135.136 Y75.456 F5400
G1 X135.136 Y124.675 E33.49627 F600
G0 X137.803 Y124.675 F5400
G1 X137.803 Y75.456 E35.95181 F600
G0 X140.470 Y75.456 F5400
G1 X140.470 Y124.675 E38.40734 F600
G0 X143.136 Y124.675 F5400
G1 X143.136 Y75.456 E40.86288 F600
G0 X145.803 Y75.456 F5400
G1 X145.803 Y124.675 E43.31842 F600
G0 X148.470 Y124.675 F5400
G1 X148.470 Y75.456 E45.77395 F600



; ------------------------------------
; Raft Layer #1
; ------------------------------------
G92 E0 ;reset extr
G0 F600 Z0.600
;segType:Raft
G0 X149.096 Y75.312 F7200
G1 X108.540 Y115.868 E2.86144 F1800
G0 X108.540 Y113.983 F7200
G1 X147.521 Y75.001 E5.61176 F1800
G0 X145.552 Y75.084 F7200
G1 X108.540 Y112.097 E8.22317 F1800
G0 X108.540 Y110.211 F7200
G1 X143.715 Y75.036 E10.70494 F1800
G0 X141.746 Y75.119 F7200
G1 X108.540 Y108.326 E13.04780 F1800
G0 X108.540 Y106.440 F7200
G1 X139.909 Y75.071 E15.26102 F1800
G0 X138.071 Y75.023 F7200
G1 X108.540 Y104.554 E17.34459 F1800
G0 X108.540 Y102.669 F7200
G1 X136.103 Y75.106 E19.28926 F1800
G0 X134.265 Y75.058 F7200
G1 X108.540 Y100.783 E21.10429 F1800
G0 X108.540 Y98.898 F7200
G1 X132.428 Y75.010 E22.78966 F1800
G0 X130.459 Y75.093 F7200
G1 X108.540 Y97.012 E24.33614 F1800
G0 X108.540 Y95.126 F7200
G1 X128.621 Y75.045 E25.75297 F1800
G0 X126.784 Y74.997 F7200
G1 X108.540 Y93.241 E27.04015 F1800
G0 X108.540 Y91.355 F7200
G1 X124.815 Y75.080 E28.18844 F1800
G0 X122.978 Y75.032 F7200
G1 X108.540 Y89.470 E29.20707 F1800
G0 X108.540 Y87.584 F7200
G1 X121.009 Y75.115 E30.08680 F1800
G0 X119.172 Y75.067 F7200
G1 X108.540 Y85.698 E30.83689 F1800
G0 X108.540 Y83.813 F7200
G1 X117.334 Y75.019 E31.45733 F1800
G0 X115.365 Y75.102 F7200
G1 X108.540 Y81.927 E31.93887 F1800
G0 X108.540 Y80.041 F7200
G1 X113.528 Y75.054 E32.29076 F1800
G0 X111.690 Y75.006 F7200
G1 X108.540 Y78.156 E32.51301 F1800
G0 X108.540 Y117.754 F7200
G1 X150.015 Y76.279 E35.43927 F1800
G0 X151.065 Y77.114 F7200
G1 X108.540 Y119.639 E38.43962 F1800
G0 X108.540 Y121.525 F7200
G1 X151.590 Y78.475 E41.47701 F1800
G0 X151.590 Y80.361 F7200
G1 X109.065 Y122.886 E44.47735 F1800
G0 X109.949 Y123.888 F7200
G1 X151.555 Y82.281 E47.41288 F1800
G0 X151.472 Y84.250 F7200
G1 X110.916 Y124.806 E50.27432 F1800
G0 X112.474 Y125.003 F7200
G1 X151.455 Y86.022 E53.02466 F1800
G0 X151.372 Y87.991 F7200
G1 X114.491 Y124.872 E55.62681 F1800
G0 X116.376 Y124.872 F7200
G1 X151.420 Y89.829 E58.09932 F1800
G0 X151.337 Y91.797 F7200
G1 X118.131 Y125.003 E60.44220 F1800
G0 X120.082 Y125.069 F7200
G1 X151.581 Y93.569 E62.66468 F1800
G0 X151.498 Y95.538 F7200
G1 X121.967 Y125.069 E64.74826 F1800
G0 X123.853 Y125.069 F7200
G1 X151.546 Y97.375 E66.70218 F1800
G0 X151.463 Y99.344 F7200
G1 X125.739 Y125.069 E68.51721 F1800
G0 X127.624 Y125.069 F7200
G1 X151.511 Y101.181 E70.20259 F1800
G0 X151.559 Y103.019 F7200
G1 X129.510 Y125.069 E71.75832 F1800
G0 X131.395 Y125.069 F7200
G1 X151.476 Y104.988 E73.17515 F1800
G0 X151.459 Y106.759 F7200
G1 X133.216 Y125.003 E74.46234 F1800
G0 X135.232 Y124.872 F7200
G1 X151.376 Y108.729 E75.60137 F1800
G0 X151.490 Y110.631 F7200
G1 X137.052 Y125.069 E76.62001 F1800
G0 X138.938 Y125.069 F7200
G1 X151.538 Y112.469 E77.50900 F1800
G0 X151.586 Y114.306 F7200
G1 X140.824 Y125.069 E78.26834 F1800
G0 X142.644 Y125.003 F7200
G1 X151.437 Y116.209 E78.88879 F1800
G0 X151.551 Y118.113 F7200
G1 X144.595 Y125.069 E79.37959 F1800
G0 X146.480 Y125.069 F7200
G1 X151.468 Y120.081 E79.73148 F1800
G0 X151.516 Y121.919 F7200
G1 X148.366 Y125.069 E79.95372 F1800



; ------------------------------------
; Raft Layer #2
; ------------------------------------
G92 E0 ;reset extr
G0 F600 Z0.800
;segType:Raft
G0 X148.769 Y124.997 F7200
G1 X110.969 Y124.997 E1.25723 F2400
G1 X110.575 Y124.597 E1.27590
G1 X149.163 Y124.597 E2.55933
G1 X149.556 Y124.197 E2.57800
G1 X110.181 Y124.197 E3.88761
G1 X109.788 Y123.797 E3.90628
G1 X149.950 Y123.797 E5.24209
G1 X150.344 Y123.397 E5.26076
G1 X109.394 Y123.397 E6.62276
G1 X109.000 Y122.997 E6.64143
G1 X150.738 Y122.997 E8.02963
G1 X151.131 Y122.597 E8.04830
G1 X108.606 Y122.597 E9.46268
G1 X108.344 Y122.197 E9.47860
G1 X151.394 Y122.197 E10.91044
G1 X151.394 Y121.797 E10.92375
G1 X108.344 Y121.797 E12.35560
G1 X108.344 Y121.397 E12.36890
G1 X151.394 Y121.397 E13.80075
G1 X151.394 Y120.997 E13.81405
G1 X108.344 Y120.997 E15.24590
G1 X108.344 Y120.597 E15.25921
G1 X151.394 Y120.597 E16.69105
G1 X151.394 Y120.197 E16.70436
G1 X108.344 Y120.197 E18.13621
G1 X108.344 Y119.797 E18.14951
G1 X151.394 Y119.797 E19.58136
G1 X151.394 Y119.397 E19.59466
G1 X108.344 Y119.397 E21.02651
G1 X108.344 Y118.997 E21.03982
G1 X151.394 Y118.997 E22.47166
G1 X151.394 Y118.597 E22.48497
G1 X108.344 Y118.597 E23.91682
G1 X108.344 Y118.197 E23.93012
G1 X151.394 Y118.197 E25.36197
G1 X151.394 Y117.797 E25.37527
G1 X108.344 Y117.797 E26.80712
G1 X108.344 Y117.397 E26.82042
G1 X151.394 Y117.397 E28.25227
G1 X151.394 Y116.997 E28.26558
G1 X108.344 Y116.997 E29.69743
G1 X108.344 Y116.597 E29.71073
G1 X151.394 Y116.597 E31.14258
G1 X151.394 Y116.197 E31.15588
G1 X108.344 Y116.197 E32.58773
G1 X108.344 Y115.797 E32.60104
G1 X151.394 Y115.797 E34.03289
G1 X151.394 Y115.397 E34.04619
G1 X108.344 Y115.397 E35.47804
G1 X108.344 Y114.997 E35.49135
G1 X151.394 Y114.997 E36.92320
G1 X151.394 Y114.597 E36.93651
G1 X108.344 Y114.597 E38.36836
G1 X108.344 Y114.197 E38.38166
G1 X151.394 Y114.197 E39.81351
G1 X151.394 Y113.797 E39.82682
G1 X108.344 Y113.797 E41.25867
G1 X108.344 Y113.397 E41.27197
G1 X151.394 Y113.397 E42.70383
G1 X151.394 Y112.997 E42.71713
G1 X108.344 Y112.997 E44.14898
G1 X108.344 Y112.597 E44.16229
G1 X151.394 Y112.597 E45.59414
G1 X151.394 Y112.197 E45.60744
G1 X108.344 Y112.197 E47.03929
G1 X108.344 Y111.797 E47.05260
G1 X151.394 Y111.797 E48.48445
G1 X151.394 Y111.397 E48.49776
G1 X108.344 Y111.397 E49.92961
G1 X108.344 Y110.997 E49.94291
G1 X151.394 Y110.997 E51.37476
G1 X151.394 Y110.597 E51.38807
G1 X108.344 Y110.597 E52.81992
G1 X108.344 Y110.197 E52.83322
G1 X151.394 Y110.197 E54.26507
G1 X151.394 Y109.797 E54.27838
G1 X108.344 Y109.797 E55.71023
G1 X108.344 Y109.397 E55.72354
G1 X151.394 Y109.397 E57.15539
G1 X151.394 Y108.997 E57.16869
G1 X108.344 Y108.997 E58.60054
G1 X108.344 Y108.597 E58.61385
G1 X151.394 Y108.597 E60.04570
G1 X151.394 Y108.197 E60.05900
G1 X108.344 Y108.197 E61.49085
G1 X108.344 Y107.797 E61.50416
G1 X151.394 Y107.797 E62.93601
G1 X151.394 Y107.397 E62.94932
G1 X108.344 Y107.397 E64.38117
G1 X108.344 Y106.997 E64.39447
G1 X151.394 Y106.997 E65.82632
G1 X151.394 Y106.597 E65.83962
G1 X108.344 Y106.597 E67.27147
G1 X108.344 Y106.197 E67.28478
G1 X151.394 Y106.197 E68.71662
G1 X151.394 Y105.797 E68.72993
G1 X108.344 Y105.797 E70.16178
G1 X108.344 Y105.397 E70.17508
G1 X151.394 Y105.397 E71.60693
G1 X151.394 Y104.997 E71.62023
G1 X108.344 Y104.997 E73.05208
G1 X108.344 Y104.597 E73.06539
G1 X151.394 Y104.597 E74.49723
G1 X151.394 Y104.197 E74.51054
G1 X108.344 Y104.197 E75.94239
G1 X108.344 Y103.797 E75.95569
G1 X151.394 Y103.797 E77.38754
G1 X151.394 Y103.397 E77.40084
G1 X108.344 Y103.397 E78.83269
G1 X108.344 Y102.997 E78.84600
G1 X151.394 Y102.997 E80.27784
G1 X151.394 Y102.597 E80.29115
G1 X108.344 Y102.597 E81.72299
G1 X108.344 Y102.197 E81.73630
G1 X151.394 Y102.197 E83.16815
G1 X151.394 Y101.797 E83.18145
G1 X108.344 Y101.797 E84.61330
G1 X108.344 Y101.397 E84.62660
G1 X151.394 Y101.397 E86.05845
G1 X151.394 Y100.997 E86.07175
G1 X108.344 Y100.997 E87.50360
G1 X108.344 Y100.597 E87.51691
G1 X151.394 Y100.597 E88.94875
G1 X151.394 Y100.197 E88.96206
G1 X108.344 Y100.197 E90.39391
G1 X108.344 Y99.797 E90.40721
G1 X151.394 Y99.797 E91.83906
G1 X151.394 Y99.397 E91.85236
G1 X108.344 Y99.397 E93.28421
G1 X108.344 Y98.997 E93.29752
G1 X151.394 Y98.997 E94.72936
G1 X151.394 Y98.597 E94.74267
G1 X108.344 Y98.597 E96.17451
G1 X108.344 Y98.197 E96.18782
G1 X151.394 Y98.197 E97.61967
G1 X151.394 Y97.797 E97.63297
G1 X108.344 Y97.797 E99.06482
G1 X108.344 Y97.397 E99.07812
G1 X151.394 Y97.397 E100.50997
G1 X151.394 Y96.997 E100.52328
G1 X108.344 Y96.997 E101.95512
G1 X108.344 Y96.597 E101.96843
G1 X151.394 Y96.597 E103.40028
G1 X151.394 Y96.197 E103.41358
G1 X108.344 Y96.197 E104.84543
G1 X108.344 Y95.797 E104.85873
G1 X151.394 Y95.797 E106.29058
G1 X151.394 Y95.397 E106.30389
G1 X108.344 Y95.397 E107.73573
G1 X108.344 Y94.997 E107.74904
G1 X151.394 Y94.997 E109.18089
G1 X151.394 Y94.597 E109.19419
G1 X108.344 Y94.597 E110.62604
G1 X108.344 Y94.197 E110.63934
G1 X151.394 Y94.197 E112.07119
G1 X151.394 Y93.797 E112.08450
G1 X108.344 Y93.797 E113.51634
G1 X108.344 Y93.397 E113.52965
G1 X151.394 Y93.397 E114.96149
G1 X151.394 Y92.997 E114.97480
G1 X108.344 Y92.997 E116.40665
G1 X108.344 Y92.597 E116.41995
G1 X151.394 Y92.597 E117.85180
G1 X151.394 Y92.197 E117.86510
G1 X108.344 Y92.197 E119.29695
G1 X108.344 Y91.797 E119.31026
G1 X151.394 Y91.797 E120.74210
G1 X151.394 Y91.397 E120.75541
G1 X108.344 Y91.397 E122.18726
G1 X108.344 Y90.997 E122.20056
G1 X151.394 Y90.997 E123.63241
G1 X151.394 Y90.597 E123.64571
G1 X108.344 Y90.597 E125.07756
G1 X108.344 Y90.197 E125.09087
G1 X151.394 Y90.197 E126.52271
G1 X151.394 Y89.797 E126.53602
G1 X108.344 Y89.797 E127.96786
G1 X108.344 Y89.397 E127.98117
G1 X151.394 Y89.397 E129.41302
G1 X151.394 Y88.997 E129.42633
G1 X108.344 Y88.997 E130.85818
G1 X108.344 Y88.597 E130.87149
G1 X151.394 Y88.597 E132.30334
G1 X151.394 Y88.197 E132.31665
G1 X108.344 Y88.197 E133.74850
G1 X108.344 Y87.797 E133.76181
G1 X151.394 Y87.797 E135.19366
G1 X151.394 Y87.397 E135.20697
G1 X108.344 Y87.397 E136.63882
G1 X108.344 Y86.997 E136.65213
G1 X151.394 Y86.997 E138.08398
G1 X151.394 Y86.597 E138.09729
G1 X108.344 Y86.597 E139.52914
G1 X108.344 Y86.197 E139.54245
G1 X151.394 Y86.197 E140.97430
G1 X151.394 Y85.797 E140.98761
G1 X108.344 Y85.797 E142.41946
G1 X108.344 Y85.397 E142.43277
G1 X151.394 Y85.397 E143.86462
G1 X151.394 Y84.997 E143.87793
G1 X108.344 Y84.997 E145.30978
G1 X108.344 Y84.597 E145.32309
G1 X151.394 Y84.597 E146.75494
G1 X151.394 Y84.197 E146.76825
G1 X108.344 Y84.197 E148.20010
G1 X108.344 Y83.797 E148.21341
G1 X151.394 Y83.797 E149.64526
G1 X151.394 Y83.397 E149.65857
G1 X108.344 Y83.397 E151.09042
G1 X108.344 Y82.997 E151.10373
G1 X151.394 Y82.997 E152.53558
G1 X151.394 Y82.597 E152.54889
G1 X108.344 Y82.597 E153.98074
G1 X108.344 Y82.197 E153.99405
G1 X151.394 Y82.197 E155.42590
G1 X151.394 Y81.797 E155.43921
G1 X108.344 Y81.797 E156.87106
G1 X108.344 Y81.397 E156.88437
G1 X151.394 Y81.397 E158.31622
G1 X151.394 Y80.997 E158.32953
G1 X108.344 Y80.997 E159.76138
G1 X108.344 Y80.597 E159.77469
G1 X151.394 Y80.597 E161.20654
G1 X151.394 Y80.197 E161.21985
G1 X108.344 Y80.197 E162.65170
G1 X108.344 Y79.797 E162.66501
G1 X151.394 Y79.797 E164.09686
G1 X151.394 Y79.397 E164.11017
G1 X108.344 Y79.397 E165.54202
G1 X108.344 Y78.997 E165.55533
G1 X151.394 Y78.997 E166.98718
G1 X151.394 Y78.597 E167.00049
G1 X108.344 Y78.597 E168.43234
G1 X108.344 Y78.197 E168.44564
G1 X151.394 Y78.197 E169.87750
G1 X151.394 Y77.797 E169.89080
G1 X108.344 Y77.797 E171.32266
G1 X108.606 Y77.397 E171.33858
G1 X151.131 Y77.397 E172.75296
G1 X150.738 Y76.997 E172.77162
G1 X109.000 Y76.997 E174.15982
G1 X109.394 Y76.597 E174.17848
G1 X150.344 Y76.597 E175.54048
G1 X149.950 Y76.197 E175.55914
G1 X109.788 Y76.197 E176.89496
G1 X110.181 Y75.797 E176.91362
G1 X149.556 Y75.797 E178.22324
G1 X149.163 Y75.397 E178.24190
G1 X110.575 Y75.397 E179.52532
G1 X110.969 Y74.997 E179.54400
G1 X148.769 Y74.997 E180.80122



; ------------------------------------
; Raft Layer #3
; ------------------------------------
M106 S255 ;set fan speed
G92 E0 ;reset extr
G0 F600 Z1.000
;segType:Raft
G0 F3000 E-1.00000
G0 F600 Z3.000
G0 X151.403 Y122.444 F7200
G0 F600 Z1.000
G0 F3000 E0.00000
G1 X151.403 Y77.688 E1.48860 F2400
G1 X151.003 Y77.294 E1.50727
G1 X151.003 Y122.838 E3.02206
G1 X150.603 Y123.231 E3.04073
G1 X150.603 Y76.900 E4.58171
G1 X150.203 Y76.506 E4.60038
G1 X150.203 Y123.625 E6.16756
G1 X149.803 Y124.019 E6.18622
G1 X149.803 Y76.112 E7.77959
G1 X149.403 Y75.719 E7.79826
G1 X149.403 Y124.413 E9.41782
G1 X149.003 Y124.806 E9.43649
G1 X149.003 Y75.325 E11.08224
G1 X148.603 Y75.063 E11.09816
G1 X148.603 Y125.069 E12.76137
G1 X148.203 Y125.069 E12.77468
G1 X148.203 Y75.063 E14.43789
G1 X147.803 Y75.063 E14.45119
G1 X147.803 Y125.069 E16.11441
G1 X147.403 Y125.069 E16.12771
G1 X147.403 Y75.063 E17.79092
G1 X147.003 Y75.063 E17.80423
G1 X147.003 Y125.069 E19.46744
G1 X146.603 Y125.069 E19.48075
G1 X146.603 Y75.063 E21.14396
G1 X146.203 Y75.063 E21.15726
G1 X146.203 Y125.069 E22.82048
G1 X145.803 Y125.069 E22.83378
G1 X145.803 Y75.063 E24.49700
G1 X145.403 Y75.063 E24.51030
G1 X145.403 Y125.069 E26.17351
G1 X145.003 Y125.069 E26.18682
G1 X145.003 Y75.063 E27.85003
G1 X144.603 Y75.063 E27.86333
G1 X144.603 Y125.069 E29.52655
G1 X144.203 Y125.069 E29.53985
G1 X144.203 Y75.063 E31.20307
G1 X143.803 Y75.063 E31.21637
G1 X143.803 Y125.069 E32.87958
G1 X143.403 Y125.069 E32.89289
G1 X143.403 Y75.063 E34.55610
G1 X143.003 Y75.063 E34.56941
G1 X143.003 Y125.069 E36.23263
G1 X142.603 Y125.069 E36.24593
G1 X142.603 Y75.063 E37.90915
G1 X142.203 Y75.063 E37.92245
G1 X142.203 Y125.069 E39.58567
G1 X141.803 Y125.069 E39.59897
G1 X141.803 Y75.063 E41.26219
G1 X141.403 Y75.063 E41.27549
G1 X141.403 Y125.069 E42.93871
G1 X141.003 Y125.069 E42.95202
G1 X141.003 Y75.063 E44.61523
G1 X140.603 Y75.063 E44.62854
G1 X140.603 Y125.069 E46.29175
G1 X140.203 Y125.069 E46.30506
G1 X140.203 Y75.063 E47.96828
G1 X139.803 Y75.063 E47.98158
G1 X139.803 Y125.069 E49.64480
G1 X139.403 Y125.069 E49.65810
G1 X139.403 Y75.063 E51.32132
G1 X139.003 Y75.063 E51.33462
G1 X139.003 Y125.069 E52.99784
G1 X138.603 Y125.069 E53.01115
G1 X138.603 Y75.063 E54.67436
G1 X138.203 Y75.063 E54.68767
G1 X138.203 Y125.069 E56.35088
G1 X137.803 Y125.069 E56.36419
G1 X137.803 Y75.063 E58.02740
G1 X137.403 Y75.063 E58.04071
G1 X137.403 Y125.069 E59.70392
G1 X137.003 Y125.069 E59.71723
G1 X137.003 Y75.063 E61.38045
G1 X136.603 Y75.063 E61.39375
G1 X136.603 Y125.069 E63.05697
G1 X136.203 Y125.069 E63.07027
G1 X136.203 Y75.063 E64.73348
G1 X135.803 Y75.063 E64.74679
G1 X135.803 Y125.069 E66.41001
G1 X135.403 Y125.069 E66.42331
G1 X135.403 Y75.063 E68.08653
G1 X135.003 Y75.063 E68.09983
G1 X135.003 Y125.069 E69.76305
G1 X134.603 Y125.069 E69.77635
G1 X134.603 Y75.063 E71.43957
G1 X134.203 Y75.063 E71.45288
G1 X134.203 Y125.069 E73.11609
G1 X133.803 Y125.069 E73.12940
G1 X133.803 Y75.063 E74.79261
G1 X133.403 Y75.063 E74.80592
G1 X133.403 Y125.069 E76.46913
G1 X133.003 Y125.069 E76.48244
G1 X133.003 Y75.063 E78.14566
G1 X132.603 Y75.063 E78.15896
G1 X132.603 Y125.069 E79.82218
G1 X132.203 Y125.069 E79.83548
G1 X132.203 Y75.063 E81.49870
G1 X131.803 Y75.063 E81.51200
G1 X131.803 Y125.069 E83.17522
G1 X131.403 Y125.069 E83.18852
G1 X131.403 Y75.063 E84.85174
G1 X131.003 Y75.063 E84.86504
G1 X131.003 Y125.069 E86.52826
G1 X130.603 Y125.069 E86.54156
G1 X130.603 Y75.063 E88.20478
G1 X130.203 Y75.063 E88.21809
G1 X130.203 Y125.069 E89.88130
G1 X129.803 Y125.069 E89.89461
G1 X129.803 Y75.063 E91.55782
G1 X129.403 Y75.063 E91.57113
G1 X129.403 Y125.069 E93.23434
G1 X129.003 Y125.069 E93.24765
G1 X129.003 Y75.063 E94.91087
G1 X128.603 Y75.063 E94.92417
G1 X128.603 Y125.069 E96.58739
G1 X128.203 Y125.069 E96.60069
G1 X128.203 Y75.063 E98.26391
G1 X127.803 Y75.063 E98.27721
G1 X127.803 Y125.069 E99.94043
G1 X127.403 Y125.069 E99.95374
G1 X127.403 Y75.063 E101.61695
G1 X127.003 Y75.063 E101.63026
G1 X127.003 Y125.069 E103.29347
G1 X126.603 Y125.069 E103.30678
G1 X126.603 Y75.063 E104.96999
G1 X126.203 Y75.063 E104.98330
G1 X126.203 Y125.069 E106.64651
G1 X125.803 Y125.069 E106.65982
G1 X125.803 Y75.063 E108.32304
G1 X125.403 Y75.063 E108.33634
G1 X125.403 Y125.069 E109.99956
G1 X125.003 Y125.069 E110.01286
G1 X125.003 Y75.063 E111.67608
G1 X124.603 Y75.063 E111.68938
G1 X124.603 Y125.069 E113.35260
G1 X124.203 Y125.069 E113.36591
G1 X124.203 Y75.063 E115.02912
G1 X123.803 Y75.063 E115.04243
G1 X123.803 Y125.069 E116.70564
G1 X123.403 Y125.069 E116.71895
G1 X123.403 Y75.063 E118.38216
G1 X123.003 Y75.063 E118.39547
G1 X123.003 Y125.069 E120.05869
G1 X122.603 Y125.069 E120.07199
G1 X122.603 Y75.063 E121.73521
G1 X122.203 Y75.063 E121.74851
G1 X122.203 Y125.069 E123.41173
G1 X121.803 Y125.069 E123.42503
G1 X121.803 Y75.063 E125.08825
G1 X121.403 Y75.063 E125.10155
G1 X121.403 Y125.069 E126.76477
G1 X121.003 Y125.069 E126.77808
G1 X121.003 Y75.063 E128.44128
G1 X120.603 Y75.063 E128.45459
G1 X120.603 Y125.069 E130.11780
G1 X120.203 Y125.069 E130.13110
G1 X120.203 Y75.063 E131.79431
G1 X119.803 Y75.063 E131.80762
G1 X119.803 Y125.069 E133.47083
G1 X119.403 Y125.069 E133.48413
G1 X119.403 Y75.063 E135.14734
G1 X119.003 Y75.063 E135.16064
G1 X119.003 Y125.069 E136.82385
G1 X118.603 Y125.069 E136.83716
G1 X118.603 Y75.063 E138.50037
G1 X118.203 Y75.063 E138.51367
G1 X118.203 Y125.069 E140.17688
G1 X117.803 Y125.069 E140.19019
G1 X117.803 Y75.063 E141.85339
G1 X117.403 Y75.063 E141.86670
G1 X117.403 Y125.069 E143.52991
G1 X117.003 Y125.069 E143.54321
G1 X117.003 Y75.063 E145.20642
G1 X116.603 Y75.063 E145.21973
G1 X116.603 Y125.069 E146.88293
G1 X116.203 Y125.069 E146.89624
G1 X116.203 Y75.063 E148.55945
G1 X115.803 Y75.063 E148.57275
G1 X115.803 Y125.069 E150.23596
G1 X115.403 Y125.069 E150.24927
G1 X115.403 Y75.063 E151.91248
G1 X115.003 Y75.063 E151.92578
G1 X115.003 Y125.069 E153.58899
G1 X114.603 Y125.069 E153.60229
G1 X114.603 Y75.063 E155.26550
G1 X114.203 Y75.063 E155.27881
G1 X114.203 Y125.069 E156.94202
G1 X113.803 Y125.069 E156.95532
G1 X113.803 Y75.063 E158.61853
G1 X113.403 Y75.063 E158.63184
G1 X113.403 Y125.069 E160.29504
G1 X113.003 Y125.069 E160.30835
G1 X113.003 Y75.063 E161.97156
G1 X112.603 Y75.063 E161.98486
G1 X112.603 Y125.069 E163.64807
G1 X112.203 Y125.069 E163.66138
G1 X112.203 Y75.063 E165.32458
G1 X111.803 Y75.063 E165.33789
G1 X111.803 Y125.069 E167.00110
G1 X111.403 Y125.069 E167.01440
G1 X111.403 Y75.063 E168.67762
G1 X111.003 Y75.194 E168.69162
G1 X111.003 Y124.938 E170.34610
G1 X110.603 Y124.544 E170.36476
G1 X110.603 Y75.587 E171.99306
G1 X110.203 Y75.981 E172.01172
G1 X110.203 Y124.150 E173.61382
G1 X109.803 Y123.756 E173.63248
G1 X109.803 Y76.375 E175.20838
G1 X109.403 Y76.769 E175.22706
G1 X109.403 Y123.363 E176.77676
G1 X109.003 Y122.969 E176.79542
G1 X109.003 Y77.163 E178.31896
G1 X108.603 Y77.556 E178.33762
G1 X108.603 Y122.575 E179.83494


; ------------------------------------
; Layer #0
; ------------------------------------
G21 ; mm
G90 ; abs
G92 E0 ;reset extr
G0 F600 Z1.450
;segType:Support
G0 F3000 E-1.00000
G0 X129.498 Y100.206 F5400
G0 F3000 E0.00000
G1 X126.439 Y100.208 E0.08649 F2400
G1 X126.550 Y100.200 E0.08963
G1 X124.950 Y100.200 E0.13487
G0 F3000 E-0.86513
G0 X123.789 Y90.132 F5400
G0 F3000 E0.13487
;segType:HShell
G1 X114.618 Y80.961 E0.56625 F2400
G0 X113.916 Y80.780 F5400
;segType:Perimeter
G1 X113.760 Y80.200 E0.58621 F1200
G1 X146.300 Y80.200 E1.66847
G1 X146.300 Y119.800 E2.98554
G1 X113.700 Y119.800 E4.06980
G1 X113.700 Y80.260 E5.38488
G0 X113.760 Y80.200 F5400
G0 X115.360 Y80.200
G0 X114.800 Y80.600
;segType:Loop
G1 X145.900 Y80.600 E6.41925 F2400
G1 X145.900 Y119.400 E7.70972
G1 X114.100 Y119.400 E8.76737
G1 X114.100 Y80.600 E10.05783
G1 X114.600 Y80.600 E10.07446
G0 F3000 E9.07446
G0 X114.106 Y80.200 F5400
G0 X124.550 Y88.659
G0 X124.550 Y91.200
G0 X127.688 Y91.200
G0 X145.540 Y105.659
G0 F3000 E10.07446
;segType:HShell
G1 X131.210 Y91.330 E10.74846 F2400
G0 X131.190 Y91.200 F5400
;segType:Perimeter
G1 X130.390 Y91.200 E10.77507 F1200
G1 X124.550 Y91.200 E10.96933
G1 X124.550 Y87.300 E11.09907
G1 X130.450 Y87.300 E11.29533
G1 X130.450 Y91.140 E11.42307
G0 X130.390 Y91.200 F5400
G0 X128.790 Y91.200
G0 X129.350 Y91.600
;segType:Loop
G1 X124.150 Y91.600 E11.59605 F2400
G1 X124.150 Y86.900 E11.75240
G1 X130.850 Y86.900 E11.97526
G1 X130.850 Y91.600 E12.13161
G1 X129.550 Y91.600 E12.17485
G0 F3000 E11.17485
G0 X128.376 Y91.200 F5400
G0 X124.550 Y91.200
G0 X124.550 Y89.897
G0 X114.460 Y86.460
G0 F3000 E12.17485
;segType:HShell
G1 X125.296 Y97.295 E12.68453 F2400
G0 X125.861 Y97.087 F5400
;segType:Perimeter
G1 X125.670 Y96.310 E12.71114 F1200
G1 X125.563 Y95.894 E12.72542
G1 X125.563 Y95.405 E12.74169
G1 X125.685 Y94.931 E12.75796
G1 X125.921 Y94.503 E12.77424
G1 X126.256 Y94.146 E12.79051
G1 X126.669 Y93.884 E12.80679
G1 X127.134 Y93.733 E12.82306
G1 X127.622 Y93.702 E12.83933
G1 X128.103 Y93.793 E12.85561
G1 X128.546 Y94.002 E12.87189
G1 X128.923 Y94.314 E12.88816
G1 X129.211 Y94.710 E12.90443
G1 X129.391 Y95.165 E12.92071
G1 X129.452 Y95.650 E12.93698
G1 X129.391 Y96.136 E12.95326
G1 X129.211 Y96.590 E12.96953
G1 X128.923 Y96.986 E12.98580
G1 X128.546 Y97.298 E13.00208
G1 X128.103 Y97.506 E13.01835
G1 X127.623 Y97.598 E13.03463
G1 X127.134 Y97.568 E13.05090
G1 X126.669 Y97.416 E13.06718
G1 X126.256 Y97.154 E13.08345
G1 X125.921 Y96.797 E13.09973
G1 X125.714 Y96.421 E13.11400
G0 X125.670 Y96.310 F5400
G0 X125.563 Y95.894
G0 X125.563 Y95.405
G0 X125.685 Y94.931
G0 X125.778 Y94.763
G0 X125.188 Y95.258
;segType:Loop
G1 X125.310 Y94.783 E13.13031 F2400
G1 X125.595 Y94.266 E13.14995
G1 X125.999 Y93.835 E13.16958
G1 X126.497 Y93.519 E13.18922
G1 X127.059 Y93.336 E13.20885
G1 X127.648 Y93.300 E13.22849
G1 X128.228 Y93.410 E13.24812
G1 X128.762 Y93.662 E13.26777
G1 X129.217 Y94.038 E13.28740
G1 X129.564 Y94.515 E13.30703
G1 X129.781 Y95.064 E13.32667
G1 X129.855 Y95.650 E13.34631
G1 X129.781 Y96.236 E13.36594
G1 X129.564 Y96.785 E13.38558
G1 X129.217 Y97.262 E13.40521
G1 X128.762 Y97.639 E13.42485
G1 X128.672 Y97.681 E13.42816
G0 X128.634 Y97.804 F5400
G0 X128.502 Y97.834
G0 X128.369 Y97.863
G1 X128.129 Y97.904 E13.43610 F2400
G1 X128.014 Y97.915 E13.43963
G1 X127.900 Y97.926 E13.44295
G1 X127.786 Y97.937 E13.44606
G1 X127.671 Y97.947 E13.44897
G1 X127.557 Y97.947 E13.45187
G1 X127.443 Y97.944 E13.45484
G1 X127.329 Y97.940 E13.45787
G1 X127.214 Y97.936 E13.46097
G1 X127.100 Y97.933 E13.46415
G1 X126.986 Y97.919 E13.46760
G1 X126.871 Y97.901 E13.47142
G1 X126.757 Y97.883 E13.47559
G1 X126.643 Y97.865 E13.48011
G0 X126.372 Y97.809 F5400
G1 X126.338 Y97.680 E13.48452 F2400
G1 X125.999 Y97.465 E13.49791
G1 X125.595 Y97.034 E13.51754
G1 X125.310 Y96.517 E13.53717
G1 X125.163 Y95.945 E13.55682
G1 X125.163 Y95.455 E13.57312
G0 F3000 E12.57312
G0 X126.059 Y98.300 F5400
G0 X123.800 Y98.300
G0 X123.800 Y113.700
G0 X130.908 Y113.700
G0 X131.148 Y114.461
G0 F3000 E13.57312
;segType:HShell
G1 X135.727 Y119.039 E13.78850 F2400
G0 X136.292 Y119.039 F5400
G1 X131.713 Y114.461 E14.00387 F2400
G0 X131.140 Y113.700 F5400
;segType:Perimeter
G1 X123.800 Y113.700 E14.24803 F1200
G1 X123.800 Y98.300 E14.76026
G1 X131.200 Y98.300 E15.00642
G1 X131.200 Y113.640 E15.51665
G0 X131.140 Y113.700 F5400
G0 X129.540 Y113.700
G0 X130.100 Y114.100
;segType:Loop
G1 X128.814 Y114.100 E15.55943 F2400
G0 X128.700 Y114.192 F5400
G0 X128.586 Y114.185
G0 X128.471 Y114.160
G0 X128.357 Y114.134
G0 X128.243 Y114.108
G1 X128.129 Y114.096 E15.56316 F2400
G1 X128.014 Y114.085 E15.56669
G1 X127.900 Y114.074 E15.57001
G1 X127.786 Y114.063 E15.57312
G1 X127.671 Y114.053 E15.57602
G1 X127.557 Y114.053 E15.57892
G1 X127.443 Y114.056 E15.58188
G1 X127.329 Y114.060 E15.58492
G1 X127.214 Y114.064 E15.58802
G1 X127.100 Y114.067 E15.59119
G1 X126.986 Y114.081 E15.59465
G1 X126.871 Y114.099 E15.59847
G1 X126.757 Y114.117 E15.60264
G1 X126.643 Y114.135 E15.60715
G1 X126.529 Y114.146 E15.61183
G1 X126.414 Y114.179 E15.61734
G1 X126.300 Y114.100 E15.62195
G1 X123.400 Y114.100 E15.71842
G1 X123.400 Y97.900 E16.25726
G1 X126.300 Y97.900 E16.35373
G1 X126.414 Y97.821 E16.36015
G1 X126.529 Y97.855 E16.36500
G0 X126.643 Y97.865 F5400
G0 X126.986 Y97.919
G0 X127.100 Y97.933
G0 X127.557 Y97.947
G0 X127.671 Y97.947
G0 X128.129 Y97.904
G1 X128.243 Y97.892 E16.36898 F2400
G1 X128.357 Y97.866 E16.37353
G1 X128.471 Y97.841 E16.37857
G1 X128.586 Y97.815 E16.38412
G1 X128.700 Y97.808 E16.38966
G1 X128.814 Y97.900 E16.39453
G1 X131.600 Y97.900 E16.48719
G1 X131.600 Y114.100 E17.02603
G1 X130.300 Y114.100 E17.06927
G0 F3000 E16.06927
G0 X129.430 Y113.700 F5400
G0 X123.800 Y113.700
G0 X123.800 Y111.114
G0 X114.460 Y106.824
G0 F3000 E17.06927
;segType:HShell
G1 X124.968 Y117.331 E17.56349 F2400
G0 X125.861 Y117.787 F5400
;segType:Perimeter
G1 X125.670 Y117.011 E17.59010 F1200
G1 X125.563 Y116.595 E17.60438
G1 X125.563 Y116.105 E17.62065
G1 X125.685 Y115.632 E17.63692
G1 X125.921 Y115.203 E17.65320
G1 X126.256 Y114.846 E17.66947
G1 X126.669 Y114.584 E17.68575
G1 X127.134 Y114.433 E17.70202
G1 X127.622 Y114.402 E17.71829
G1 X128.103 Y114.494 E17.73457
G1 X128.546 Y114.702 E17.75085
G1 X128.923 Y115.014 E17.76712
G1 X129.211 Y115.410 E17.78340
G1 X129.391 Y115.865 E17.79967
G1 X129.452 Y116.350 E17.81595
G1 X129.391 Y116.835 E17.83221
G1 X129.211 Y117.290 E17.84849
G1 X128.923 Y117.686 E17.86477
G1 X128.546 Y117.998 E17.88104
G1 X128.103 Y118.206 E17.89732
G1 X127.622 Y118.298 E17.91359
G1 X127.134 Y118.267 E17.92987
G1 X126.669 Y118.116 E17.94614
G1 X126.256 Y117.854 E17.96241
G1 X125.921 Y117.497 E17.97869
G1 X125.714 Y117.121 E17.99296
G0 X125.670 Y117.011 F5400
G0 X125.563 Y116.595
G0 X125.563 Y116.105
G0 X125.685 Y115.632
G0 X125.778 Y115.463
G0 X125.188 Y115.958
;segType:Loop
G1 X125.310 Y115.483 E18.00927 F2400
G1 X125.595 Y114.966 E18.02891
G1 X125.999 Y114.535 E18.04854
G1 X126.377 Y114.296 E18.06343
G0 X126.643 Y114.135 F5400
G0 X126.986 Y114.081
G0 X127.100 Y114.067
G0 X127.557 Y114.053
G0 X127.671 Y114.053
G0 X128.129 Y114.096
G1 X128.451 Y114.155 E18.07728 F2400
G1 X128.583 Y114.184 E18.08367
G1 X128.630 Y114.299 E18.08780
G1 X128.762 Y114.362 E18.09267
G1 X129.217 Y114.738 E18.11230
G1 X129.564 Y115.215 E18.13194
G1 X129.781 Y115.764 E18.15157
G1 X129.855 Y116.350 E18.17121
G1 X129.781 Y116.936 E18.19083
G1 X129.564 Y117.485 E18.21047
G1 X129.217 Y117.962 E18.23011
G1 X128.762 Y118.339 E18.24975
G1 X128.228 Y118.590 E18.26939
G1 X127.648 Y118.701 E18.28902
G1 X127.059 Y118.663 E18.30866
G1 X126.497 Y118.481 E18.32829
G1 X125.999 Y118.165 E18.34793
G1 X125.595 Y117.734 E18.36756
G1 X125.310 Y117.217 E18.38720
G1 X125.163 Y116.645 E18.40684
G1 X125.163 Y116.155 E18.42314
G0 X124.803 Y116.601 F5400
;segType:HShell
G1 X114.460 Y106.259 E18.90964 F2400
G0 X114.460 Y105.693 F5400
G1 X123.039 Y114.272 E19.31316 F2400
G0 X123.039 Y113.706 F5400
G1 X114.460 Y105.127 E19.71669 F2400
G0 X114.460 Y104.561 F5400
G1 X123.039 Y113.140 E20.12022 F2400
G0 X123.039 Y112.575 F5400
G1 X114.460 Y103.996 E20.52374 F2400
G0 X114.460 Y103.430 F5400
G1 X123.039 Y112.009 E20.92727 F2400
G0 X123.039 Y111.443 F5400
G1 X114.460 Y102.864 E21.33079 F2400
G0 X114.460 Y102.299 F5400
G1 X123.039 Y110.878 E21.73432 F2400
G0 X123.039 Y110.312 F5400
G1 X114.460 Y101.733 E22.13785 F2400
G0 X114.460 Y101.167 F5400
G1 X123.039 Y109.746 E22.54137 F2400
G0 X123.039 Y109.181 F5400
G1 X114.460 Y100.602 E22.94490 F2400
G0 X114.460 Y100.036 F5400
G1 X123.039 Y108.615 E23.34843 F2400
G0 X123.039 Y108.049 F5400
G1 X114.460 Y99.470 E23.75195 F2400
G0 X114.460 Y98.905 F5400
G1 X123.039 Y107.484 E24.15548 F2400
G0 X123.039 Y106.918 F5400
G1 X114.460 Y98.339 E24.55901 F2400
G0 X114.460 Y97.773 F5400
G1 X123.039 Y106.352 E24.96253 F2400
G0 X123.039 Y105.787 F5400
G1 X114.460 Y97.208 E25.36606 F2400
G0 X114.460 Y96.642 F5400
G1 X123.039 Y105.221 E25.76958 F2400
G0 X123.039 Y104.655 F5400
G1 X114.460 Y96.076 E26.17311 F2400
G0 X114.460 Y95.511 F5400
G1 X123.039 Y104.089 E26.57664 F2400
G0 X123.039 Y103.524 F5400
G1 X114.460 Y94.945 E26.98016 F2400
G0 X114.460 Y94.379 F5400
G1 X123.039 Y102.958 E27.38369 F2400
G0 X123.039 Y102.392 F5400
G1 X114.460 Y93.813 E27.78722 F2400
G0 X114.460 Y93.248 F5400
G1 X123.039 Y101.827 E28.19074 F2400
G0 X123.039 Y101.261 F5400
G1 X114.460 Y92.682 E28.59427 F2400
G0 X114.460 Y92.116 F5400
G1 X123.039 Y100.695 E28.99779 F2400
G0 X123.039 Y100.130 F5400
G1 X114.460 Y91.551 E29.40132 F2400
G0 X114.460 Y90.985 F5400
G1 X123.039 Y99.564 E29.80485 F2400
G0 X123.039 Y98.998 F5400
G1 X114.460 Y90.419 E30.20837 F2400
G0 X114.460 Y89.854 F5400
G1 X123.039 Y98.433 E30.61190 F2400
G0 X123.039 Y97.867 F5400
G1 X114.460 Y89.288 E31.01543 F2400
G0 X114.460 Y88.722 F5400
G1 X123.278 Y97.540 E31.43016 F2400
G0 X123.843 Y97.540 F5400
G1 X114.460 Y88.157 E31.87151 F2400
G0 X114.460 Y87.591 F5400
G1 X124.409 Y97.540 E32.33947 F2400
G0 X124.975 Y97.540 F5400
G1 X114.460 Y87.025 E32.83403 F2400
G0 X123.789 Y90.697 F5400
G1 X114.460 Y81.368 E33.27284 F2400
G0 X114.460 Y81.934 F5400
G1 X123.789 Y91.263 E33.71165 F2400
G0 X123.789 Y91.829 F5400
G1 X114.460 Y82.500 E34.15046 F2400
G0 X115.184 Y80.961 F5400
G1 X123.789 Y89.566 E34.55523 F2400
G0 X123.789 Y89.000 F5400
G1 X115.750 Y80.961 E34.93340 F2400
G0 X116.315 Y80.961 F5400
G1 X123.789 Y88.435 E35.28496 F2400
G0 X123.789 Y87.869 F5400
G1 X116.881 Y80.961 E35.60991 F2400
G0 X117.447 Y80.961 F5400
G1 X123.789 Y87.303 E35.90825 F2400
G0 X123.789 Y86.738 F5400
G1 X118.012 Y80.961 E36.17998 F2400
G0 X118.578 Y80.961 F5400
G1 X124.157 Y86.539 E36.44240 F2400
G0 X124.723 Y86.539 F5400
G1 X119.144 Y80.961 E36.70481 F2400
G0 X119.709 Y80.961 F5400
G1 X125.288 Y86.539 E36.96722 F2400
G0 X125.854 Y86.539 F5400
G1 X120.275 Y80.961 E37.22963 F2400
G0 X120.841 Y80.961 F5400
G1 X126.420 Y86.539 E37.49205 F2400
G0 X126.985 Y86.539 F5400
G1 X121.407 Y80.961 E37.75446 F2400
G0 X121.972 Y80.961 F5400
G1 X127.551 Y86.539 E38.01687 F2400
G0 X128.117 Y86.539 F5400
G1 X122.538 Y80.961 E38.27929 F2400
G0 X123.104 Y80.961 F5400
G1 X128.682 Y86.539 E38.54170 F2400
G0 X129.248 Y86.539 F5400
G1 X123.669 Y80.961 E38.80411 F2400
G0 X124.235 Y80.961 F5400
G1 X129.814 Y86.539 E39.06653 F2400
G0 X130.380 Y86.539 F5400
G1 X124.801 Y80.961 E39.32894 F2400
G0 X125.366 Y80.961 F5400
G1 X130.945 Y86.539 E39.59135 F2400
G0 X131.210 Y86.805 F5400
G1 X145.540 Y101.134 E40.26535 F2400
G0 X145.540 Y101.699 F5400
G1 X131.210 Y87.370 E40.93934 F2400
G0 X131.210 Y87.936 F5400
G1 X145.540 Y102.265 E41.61334 F2400
G0 X145.540 Y102.831 F5400
G1 X131.210 Y88.502 E42.28734 F2400
G0 X131.210 Y89.067 F5400
G1 X145.540 Y103.396 E42.96133 F2400
G0 X145.540 Y103.962 F5400
G1 X131.210 Y89.633 E43.63533 F2400
G0 X131.210 Y90.199 F5400
G1 X145.540 Y104.528 E44.30932 F2400
G0 X145.540 Y105.094 F5400
G1 X131.210 Y90.764 E44.98332 F2400
G0 F3000 E43.98332
G0 X130.450 Y89.353 F5400
G0 X130.450 Y87.300
G0 X129.345 Y87.300
G0 X125.932 Y80.961
G0 F3000 E44.98332
G1 X145.540 Y100.568 E45.90560 F2400
G0 X145.540 Y100.002 F5400
G1 X126.498 Y80.961 E46.80127 F2400
G0 X127.063 Y80.961 F5400
G1 X145.540 Y99.437 E47.67033 F2400
G0 X145.540 Y98.871 F5400
G1 X127.629 Y80.961 E48.51278 F2400
G0 X128.195 Y80.961 F5400
G1 X145.540 Y98.305 E49.32863 F2400
G0 X145.540 Y97.740 F5400
G1 X128.760 Y80.961 E50.11787 F2400
G0 X129.326 Y80.961 F5400
G1 X145.540 Y97.174 E50.88050 F2400
G0 X145.540 Y96.608 F5400
G1 X129.892 Y80.961 E51.61651 F2400
G0 X130.458 Y80.961 F5400
G1 X145.540 Y96.043 E52.32593 F2400
G0 X145.540 Y95.477 F5400
G1 X131.023 Y80.961 E53.00873 F2400
G0 X131.589 Y80.961 F5400
G1 X145.540 Y94.911 E53.66493 F2400
G0 X145.540 Y94.346 F5400
G1 X132.155 Y80.961 E54.29452 F2400
G0 X132.720 Y80.961 F5400
G1 X145.540 Y93.780 E54.89750 F2400
G0 X145.540 Y93.214 F5400
G1 X133.286 Y80.961 E55.47387 F2400
G0 X133.852 Y80.961 F5400
G1 X145.540 Y92.648 E56.02363 F2400
G0 X145.540 Y92.083 F5400
G1 X134.417 Y80.961 E56.54679 F2400
G0 X134.983 Y80.961 F5400
G1 X145.540 Y91.517 E57.04334 F2400
G0 X145.540 Y90.951 F5400
G1 X135.549 Y80.961 E57.51328 F2400
G0 X136.114 Y80.961 F5400
G1 X145.540 Y90.386 E57.95661 F2400
G0 X145.540 Y89.820 F5400
G1 X136.680 Y80.961 E58.37334 F2400
G0 X137.246 Y80.961 F5400
G1 X145.540 Y89.254 E58.76345 F2400
G0 X145.540 Y88.689 F5400
G1 X137.811 Y80.961 E59.12696 F2400
G0 X138.377 Y80.961 F5400
G1 X145.540 Y88.123 E59.46385 F2400
G0 X145.540 Y87.557 F5400
G1 X138.943 Y80.961 E59.77415 F2400
G0 X139.508 Y80.961 F5400
G1 X145.540 Y86.992 E60.05783 F2400
G0 X145.540 Y86.426 F5400
G1 X140.074 Y80.961 E60.31491 F2400
G0 X140.640 Y80.961 F5400
G1 X145.540 Y85.860 E60.54537 F2400
G0 X145.540 Y85.295 F5400
G1 X141.206 Y80.961 E60.74923 F2400
G0 X141.771 Y80.961 F5400
G1 X145.540 Y84.729 E60.92648 F2400
G0 X145.540 Y84.163 F5400
G1 X142.337 Y80.961 E61.07712 F2400
G0 X142.903 Y80.961 F5400
G1 X145.540 Y83.597 E61.20116 F2400
G0 X145.540 Y83.032 F5400
G1 X143.468 Y80.961 E61.29859 F2400
G0 X144.034 Y80.961 F5400
G1 X145.540 Y82.466 E61.36941 F2400
G0 X145.540 Y81.900 F5400
G1 X144.600 Y80.961 E61.41361 F2400
G0 X145.165 Y80.961 F5400
G1 X145.540 Y81.335 E61.43122 F2400
G0 X145.540 Y106.225 F5400
G1 X131.210 Y91.896 E62.10521 F2400
G0 X130.709 Y91.960 F5400
G1 X145.540 Y106.791 E62.80278 F2400
G0 X145.540 Y107.356 F5400
G1 X130.144 Y91.960 E63.52695 F2400
G0 X129.578 Y91.960 F5400
G1 X145.540 Y107.922 E64.27774 F2400
G0 X145.540 Y108.488 F5400
G1 X129.012 Y91.960 E65.05512 F2400
G0 X128.447 Y91.960 F5400
G1 X145.540 Y109.053 E65.85913 F2400
G0 X145.540 Y109.619 F5400
G1 X127.881 Y91.960 E66.68973 F2400
G0 X127.315 Y91.960 F5400
G1 X128.490 Y93.136 E66.74501 F2400
G0 X127.740 Y92.950 F5400
G1 X126.750 Y91.960 E66.79158 F2400
G0 X126.184 Y91.960 F5400
G1 X127.191 Y92.967 E66.83895 F2400
G0 X126.724 Y93.067 F5400
G1 X125.618 Y91.960 E66.89097 F2400
G0 X125.053 Y91.960 F5400
G1 X126.306 Y93.214 E66.94993 F2400
G0 X125.960 Y93.433 F5400
G1 X124.487 Y91.960 E67.01922 F2400
G0 X123.921 Y91.960 F5400
G1 X125.646 Y93.685 E67.10034 F2400
G0 X125.372 Y93.977 F5400
G1 X114.460 Y83.065 E67.61358 F2400
G0 X114.460 Y83.631 F5400
G1 X125.152 Y94.323 E68.11649 F2400
G0 X124.960 Y94.697 F5400
G1 X114.460 Y84.197 E68.61038 F2400
G0 X114.460 Y84.762 F5400
G1 X124.845 Y95.147 E69.09883 F2400
G0 X124.803 Y95.671 F5400
G1 X114.460 Y85.328 E69.58533 F2400
G0 X114.460 Y85.894 F5400
G1 X124.888 Y96.322 E70.07582 F2400
G0 X125.386 Y97.495 F5400
;segType:InnerHair
G1 X125.500 Y97.507 E70.07951 F2400
G1 X125.614 Y97.557 E70.08248
G1 X125.729 Y97.606 E70.08441
G1 X125.755 Y97.617 E70.08480
G1 X125.642 Y97.569 E70.08748
G1 X125.529 Y97.520 E70.09116
G1 X125.416 Y97.471 E70.09584
G1 X125.386 Y97.495 E70.09716
G0 F3000 E69.09716
G0 X126.939 Y97.504 F5400
G0 X127.134 Y97.568
G0 X127.623 Y97.598
G0 X128.080 Y97.511
G0 X129.500 Y97.519
G0 F3000 E70.09716
G1 X129.386 Y97.578 E70.09976 F2400
G1 X129.271 Y97.603 E70.10166
G1 X129.248 Y97.611 E70.10202
G1 X129.367 Y97.568 E70.10478
G1 X129.486 Y97.525 E70.10844
G1 X129.594 Y97.472 E70.11301
G1 X129.500 Y97.519 E70.11617
G0 X129.715 Y97.189 F5400
;segType:HShell
G1 X130.066 Y97.540 E70.13266 F2400
G0 X130.632 Y97.540 F5400
G1 X129.930 Y96.838 E70.16566 F2400
G0 X130.091 Y96.433 F5400
G1 X131.197 Y97.540 E70.21772 F2400
G0 X131.763 Y97.540 F5400
G1 X130.179 Y95.956 E70.29221 F2400
G0 X130.186 Y95.397 F5400
G1 X145.540 Y110.750 E71.01438 F2400
G0 X145.540 Y110.185 F5400
G1 X130.004 Y94.650 E71.74511 F2400
G0 X131.961 Y97.737 F5400
G1 X145.540 Y111.316 E72.38383 F2400
G0 X145.540 Y111.882 F5400
G1 X131.961 Y98.303 E73.02255 F2400
G0 X131.961 Y98.868 F5400
G1 X145.540 Y112.447 E73.66127 F2400
G0 X145.540 Y113.013 F5400
G1 X131.961 Y99.434 E74.29998 F2400
G0 X131.961 Y100.000 F5400
G1 X145.540 Y113.579 E74.93870 F2400
G0 X145.540 Y114.145 F5400
G1 X131.961 Y100.566 E75.57742 F2400
G0 X131.961 Y101.131 F5400
G1 X145.540 Y114.710 E76.21614 F2400
G0 X145.540 Y115.276 F5400
G1 X131.961 Y101.697 E76.85485 F2400
G0 X131.961 Y102.263 F5400
G1 X145.540 Y115.842 E77.49357 F2400
G0 X145.540 Y116.407 F5400
G1 X131.961 Y102.828 E78.13229 F2400
G0 X131.961 Y103.394 F5400
G1 X145.540 Y116.973 E78.77101 F2400
G0 X145.540 Y117.539 F5400
G1 X131.961 Y103.960 E79.40972 F2400
G0 X131.961 Y104.525 F5400
G1 X145.540 Y118.104 E80.04844 F2400
G0 X145.540 Y118.670 F5400
G1 X131.961 Y105.091 E80.68716 F2400
G0 X131.961 Y105.657 F5400
G1 X145.343 Y119.039 E81.31665 F2400
G0 X144.778 Y119.039 F5400
G1 X131.961 Y106.222 E81.91952 F2400
G0 X131.961 Y106.788 F5400
G1 X144.212 Y119.039 E82.49579 F2400
G0 X143.646 Y119.039 F5400
G1 X131.961 Y107.354 E83.04545 F2400
G0 X131.961 Y107.919 F5400
G1 X143.081 Y119.039 E83.56851 F2400
G0 X142.515 Y119.039 F5400
G1 X131.961 Y108.485 E84.06495 F2400
G0 X131.961 Y109.051 F5400
G1 X141.949 Y119.039 E84.53478 F2400
G0 X141.384 Y119.039 F5400
G1 X131.961 Y109.616 E84.97801 F2400
G0 X131.961 Y110.182 F5400
G1 X140.818 Y119.039 E85.39463 F2400
G0 X140.252 Y119.039 F5400
G1 X131.961 Y110.748 E85.78465 F2400
G0 X131.961 Y111.314 F5400
G1 X139.686 Y119.039 E86.14805 F2400
G0 X139.121 Y119.039 F5400
G1 X131.961 Y111.879 E86.48485 F2400
G0 X131.961 Y112.445 F5400
G1 X138.555 Y119.039 E86.79504 F2400
G0 X137.989 Y119.039 F5400
G1 X131.961 Y113.011 E87.07861 F2400
G0 X131.961 Y113.576 F5400
G1 X137.424 Y119.039 E87.33559 F2400
G0 X136.858 Y119.039 F5400
G1 X131.961 Y114.142 E87.56595 F2400
G0 X130.582 Y114.461 F5400
G1 X135.161 Y119.039 E87.78133 F2400
G0 X134.595 Y119.039 F5400
G1 X130.016 Y114.461 E87.99670 F2400
G0 X129.592 Y114.602 F5400
G1 X134.030 Y119.039 E88.20542 F2400
G0 X133.464 Y119.039 F5400
G1 X130.138 Y115.713 E88.36187 F2400
G0 X130.217 Y116.358 F5400
G1 X132.898 Y119.039 E88.48798 F2400
G0 X132.333 Y119.039 F5400
G1 X130.154 Y116.861 E88.59047 F2400
G0 X130.025 Y117.298 F5400
G1 X131.767 Y119.039 E88.67239 F2400
G0 X131.201 Y119.039 F5400
G1 X129.856 Y117.695 E88.73565 F2400
G0 X129.618 Y118.022 F5400
G1 X130.636 Y119.039 E88.78349 F2400
G0 X130.070 Y119.039 F5400
G1 X129.350 Y118.320 E88.81735 F2400
G0 X129.505 Y118.757 F5400
G1 X128.807 Y118.908 E88.87669 F2400
G0 X128.471 Y118.960 F5400
;segType:InnerHair
G1 X128.357 Y118.986 E88.88085 F2400
G1 X128.243 Y118.997 E88.88472
G1 X128.129 Y119.008 E88.88838
G1 X128.014 Y119.019 E88.89184
G1 X127.900 Y119.029 E88.89509
G1 X127.786 Y119.040 E88.89813
G1 X127.671 Y119.051 E88.90097
G1 X127.557 Y119.048 E88.90386
G1 X127.443 Y119.044 E88.90682
G1 X127.329 Y119.040 E88.90985
G1 X127.214 Y119.037 E88.91295
G1 X127.100 Y119.033 E88.91611
G1 X126.986 Y119.029 E88.91936
G1 X126.871 Y119.011 E88.92298
G1 X126.757 Y118.993 E88.92696
G1 X126.643 Y118.975 E88.93128
G0 X126.495 Y118.859 F5400
;segType:HShell
G1 X126.528 Y118.892 E88.93283 F2400
G0 X126.110 Y119.039 F5400
G1 X114.460 Y107.390 E89.48079 F2400
G0 X114.460 Y107.956 F5400
G1 X125.544 Y119.039 E90.00214 F2400
G0 X124.979 Y119.039 F5400
G1 X114.460 Y108.521 E90.49689 F2400
G0 X114.460 Y109.087 F5400
G1 X124.413 Y119.039 E90.96502 F2400
G0 X123.847 Y119.039 F5400
G1 X114.460 Y109.653 E91.40655 F2400
G0 X114.460 Y110.218 F5400
G1 X123.282 Y119.039 E91.82146 F2400
G0 X122.716 Y119.039 F5400
G1 X114.460 Y110.784 E92.20978 F2400
G0 X114.460 Y111.350 F5400
G1 X122.150 Y119.039 E92.57148 F2400
G0 X121.585 Y119.039 F5400
G1 X114.460 Y111.915 E92.90658 F2400
G0 X114.460 Y112.481 F5400
G1 X121.019 Y119.039 E93.21507 F2400
G0 X120.453 Y119.039 F5400
G1 X114.460 Y113.047 E93.49694 F2400
G0 X114.460 Y113.612 F5400
G1 X119.887 Y119.039 E93.75221 F2400
G0 X119.322 Y119.039 F5400
G1 X114.460 Y114.178 E93.98087 F2400
G0 X114.460 Y114.744 F5400
G1 X118.756 Y119.039 E94.18293 F2400
G0 X118.190 Y119.039 F5400
G1 X114.460 Y115.309 E94.35838 F2400
G0 X114.460 Y115.875 F5400
G1 X117.625 Y119.039 E94.50721 F2400
G0 X117.059 Y119.039 F5400
G1 X114.460 Y116.441 E94.62944 F2400
G0 X114.460 Y117.007 F5400
G1 X116.493 Y119.039 E94.72506 F2400
G0 X115.928 Y119.039 F5400
G1 X114.460 Y117.572 E94.79408 F2400
G0 X114.460 Y118.138 F5400
G1 X115.362 Y119.039 E94.83648 F2400
G0 X114.796 Y119.039 F5400
G1 X114.460 Y118.704 E94.85228 F2400
G0 X123.228 Y114.461 F5400
G1 X124.803 Y116.036 E94.92637 F2400
G0 X124.913 Y115.580 F5400
G1 X123.794 Y114.461 E94.97903 F2400
G0 X124.360 Y114.461 F5400
G1 X125.070 Y115.172 E95.01247 F2400
G0 X125.271 Y114.807 F5400
G1 X124.925 Y114.461 E95.02874 F2400
G0 X125.386 Y114.505 F5400
;segType:InnerHair
G1 X125.500 Y114.493 E95.03242 F2400
G1 X125.614 Y114.444 E95.03539
G1 X125.729 Y114.394 E95.03733
G1 X125.686 Y114.413 E95.03821
G1 X125.573 Y114.462 E95.04150
G1 X125.460 Y114.510 E95.04579
G1 X125.386 Y114.505 E95.04832
G0 F3000 E94.04832
G0 X126.939 Y114.496 F5400
G0 X127.134 Y114.433
G0 X127.622 Y114.402
G0 X128.080 Y114.489
G0 X129.500 Y114.481
G0 F3000 E95.04832
G1 X129.386 Y114.422 E95.05093 F2400
G1 X129.271 Y114.397 E95.05281
G1 X129.322 Y114.415 E95.05383
G1 X129.440 Y114.458 E95.05714
G1 X129.553 Y114.507 E95.06136
G1 X129.500 Y114.481 E95.06313
; ------------------------------------
; Layer #1
; ------------------------------------
G92 E0 ;reset extr
G0 F3000 E-1.00000
G0 F600 Z1.300
G0 X131.200 Y113.700 F7200
G0 X131.200 Y98.300
G0 X129.498 Y100.206
G0 F3000 E0.00000
;segType:Support
G1 X126.439 Y100.208 E0.04325 F1200
G1 X126.550 Y100.200 E0.04482
G1 X124.950 Y100.200 E0.06743
G0 F3000 E-0.93257
G0 X117.198 Y80.961 F7200
G0 F3000 E0.06743
;segType:HShell
G1 X114.460 Y83.698 E0.13182 F2880
G0 X114.460 Y83.133 F7200
G1 X116.633 Y80.961 E0.18291 F2880
G0 X116.067 Y80.961 F7200
G1 X114.460 Y82.567 E0.22069 F2880
G0 X114.460 Y82.001 F7200
G1 X115.501 Y80.961 E0.24517 F2880
G0 X114.936 Y80.961 F7200
G1 X114.460 Y81.436 E0.25635 F2880
G0 X113.916 Y80.780 F7200
;segType:Perimeter
G1 X113.760 Y80.200 E0.26632 F1440
G1 X146.300 Y80.200 E0.80746
G1 X146.300 Y119.800 E1.46599
G1 X113.700 Y119.800 E2.00812
G1 X113.700 Y80.260 E2.66566
G0 X113.760 Y80.200 F7200
G0 X115.360 Y80.200
G0 X114.800 Y80.600
;segType:Loop
G1 X145.900 Y80.600 E3.18285 F2880
G1 X145.900 Y119.400 E3.82808
G1 X114.100 Y119.400 E4.35691
G1 X114.100 Y80.600 E5.00214
G1 X114.600 Y80.600 E5.01045
G0 F3000 E4.01045
G0 X140.957 Y80.961 F7200
G0 F3000 E5.01045
;segType:HShell
G1 X131.210 Y90.707 E5.23968 F2880
G0 X131.190 Y91.200 F7200
;segType:Perimeter
G1 X130.390 Y91.200 E5.25298 F1440
G1 X124.550 Y91.200 E5.35011
G1 X124.550 Y87.300 E5.41498
G1 X130.450 Y87.300 E5.51311
G1 X130.450 Y91.140 E5.57698
G0 X130.390 Y91.200 F7200
G0 X128.790 Y91.200
G0 X129.350 Y91.600
;segType:Loop
G1 X124.150 Y91.600 E5.66347 F2880
G1 X124.150 Y86.900 E5.74165
G1 X130.850 Y86.900 E5.85308
G1 X130.850 Y91.600 E5.93125
G1 X129.550 Y91.600 E5.95287
G0 F3000 E4.95287
G0 X129.977 Y91.200 F7200
G0 X127.288 Y93.723
G0 X127.134 Y93.733
G0 X126.669 Y93.884
G0 X126.256 Y94.146
G0 X125.921 Y94.503
G0 X125.685 Y94.931
G0 X125.585 Y95.321
G0 X114.460 Y105.760
G0 F3000 E5.95287
;segType:HShell
G1 X124.803 Y95.417 E6.19612 F2880
G0 X124.803 Y95.983 F7200
G1 X123.247 Y97.540 E6.23273 F2880
G0 X123.812 Y97.540 F7200
G1 X124.917 Y96.435 E6.25871 F2880
G0 X125.077 Y96.841 F7200
G1 X124.378 Y97.540 E6.27515 F2880
G0 X124.944 Y97.540 F7200
G1 X125.278 Y97.205 E6.28301 F2880
G0 X125.861 Y97.087 F7200
;segType:Perimeter
G1 X125.670 Y96.310 E6.29632 F1440
G1 X125.563 Y95.894 E6.30346
G1 X125.563 Y95.405 E6.31159
G1 X125.685 Y94.931 E6.31973
G1 X125.921 Y94.503 E6.32787
G1 X126.256 Y94.146 E6.33600
G1 X126.669 Y93.884 E6.34414
G1 X127.134 Y93.733 E6.35228
G1 X127.622 Y93.702 E6.36041
G1 X128.103 Y93.793 E6.36855
G1 X128.546 Y94.002 E6.37669
G1 X128.923 Y94.314 E6.38483
G1 X129.211 Y94.710 E6.39296
G1 X129.391 Y95.165 E6.40110
G1 X129.452 Y95.650 E6.40924
G1 X129.391 Y96.136 E6.41738
G1 X129.211 Y96.590 E6.42551
G1 X128.923 Y96.986 E6.43365
G1 X128.546 Y97.298 E6.44179
G1 X128.103 Y97.506 E6.44992
G1 X127.623 Y97.598 E6.45806
G1 X127.134 Y97.568 E6.46620
G1 X126.669 Y97.416 E6.47434
G1 X126.256 Y97.154 E6.48247
G1 X125.921 Y96.797 E6.49061
G1 X125.714 Y96.421 E6.49775
G0 X125.670 Y96.310 F7200
G0 X125.563 Y95.894
G0 X125.563 Y95.405
G0 X125.685 Y94.931
G0 X125.778 Y94.763
G0 X125.188 Y95.258
;segType:Loop
G1 X125.310 Y94.783 E6.50590 F2880
G1 X125.595 Y94.266 E6.51572
G1 X125.999 Y93.835 E6.52554
G1 X126.497 Y93.519 E6.53536
G1 X127.059 Y93.336 E6.54517
G1 X127.648 Y93.300 E6.55499
G1 X128.228 Y93.410 E6.56481
G1 X128.762 Y93.662 E6.57463
G1 X129.217 Y94.038 E6.58445
G1 X129.564 Y94.515 E6.59426
G1 X129.781 Y95.064 E6.60408
G1 X129.855 Y95.650 E6.61390
G1 X129.781 Y96.236 E6.62372
G1 X129.564 Y96.785 E6.63354
G1 X129.217 Y97.262 E6.64335
G1 X128.762 Y97.639 E6.65317
G1 X128.672 Y97.681 E6.65483
G0 X128.634 Y97.804 F7200
G0 X128.502 Y97.834
G0 X128.369 Y97.863
G1 X128.129 Y97.904 E6.65880 F2880
G1 X128.014 Y97.915 E6.66056
G1 X127.900 Y97.926 E6.66222
G1 X127.786 Y97.937 E6.66378
G1 X127.671 Y97.947 E6.66523
G1 X127.557 Y97.947 E6.66668
G1 X127.443 Y97.944 E6.66817
G1 X127.329 Y97.940 E6.66968
G1 X127.214 Y97.936 E6.67123
G1 X127.100 Y97.933 E6.67282
G1 X126.986 Y97.919 E6.67455
G1 X126.871 Y97.901 E6.67646
G1 X126.757 Y97.883 E6.67854
G1 X126.643 Y97.865 E6.68080
G0 X126.372 Y97.809 F7200
G1 X126.338 Y97.680 E6.68301 F2880
G1 X125.999 Y97.465 E6.68970
G1 X125.595 Y97.034 E6.69952
G1 X125.310 Y96.517 E6.70934
G1 X125.163 Y95.945 E6.71916
G1 X125.163 Y95.455 E6.72731
G0 F3000 E5.72731
G0 X125.563 Y95.558 F7200
G0 X125.563 Y95.894
G0 X125.685 Y96.369
G0 X125.921 Y96.797
G0 X126.256 Y97.154
G0 X126.669 Y97.416
G0 X127.134 Y97.568
G0 X127.623 Y97.598
G0 X128.103 Y97.506
G0 X128.546 Y97.298
G0 X128.923 Y96.986
G0 X129.211 Y96.590
G0 X129.244 Y96.506
G0 X146.300 Y100.898
G0 X145.540 Y100.703
G0 F3000 E6.72731
;segType:HShell
G1 X131.961 Y114.282 E7.04667 F2880
G0 X131.216 Y114.461 F7200
G1 X130.096 Y115.581 E7.07301 F2880
G0 X130.182 Y116.061 F7200
G1 X131.782 Y114.461 E7.11064 F2880
G0 X131.140 Y113.700 F7200
;segType:Perimeter
G1 X123.800 Y113.700 E7.23272 F1440
G1 X123.800 Y98.300 E7.48883
G1 X131.200 Y98.300 E7.61191
G1 X131.200 Y113.640 E7.86703
G0 X131.140 Y113.700 F7200
G0 X129.540 Y113.700
G0 X130.100 Y114.100
;segType:Loop
G1 X128.814 Y114.100 E7.88841 F2880
G0 X128.700 Y114.192 F7200
G0 X128.586 Y114.185
G0 X128.471 Y114.160
G0 X128.357 Y114.134
G0 X128.243 Y114.108
G1 X128.129 Y114.096 E7.89028 F2880
G1 X128.014 Y114.085 E7.89204
G1 X127.900 Y114.074 E7.89370
G1 X127.786 Y114.063 E7.89526
G1 X127.671 Y114.053 E7.89671
G1 X127.557 Y114.053 E7.89816
G1 X127.443 Y114.056 E7.89964
G1 X127.329 Y114.060 E7.90116
G1 X127.214 Y114.064 E7.90271
G1 X127.100 Y114.067 E7.90430
G1 X126.986 Y114.081 E7.90602
G1 X126.871 Y114.099 E7.90793
G1 X126.757 Y114.117 E7.91002
G1 X126.643 Y114.135 E7.91228
G1 X126.529 Y114.146 E7.91462
G1 X126.414 Y114.179 E7.91737
G1 X126.300 Y114.100 E7.91968
G1 X123.400 Y114.100 E7.96791
G1 X123.400 Y97.900 E8.23733
G1 X126.300 Y97.900 E8.28557
G1 X126.414 Y97.821 E8.28877
G1 X126.529 Y97.855 E8.29120
G0 X126.643 Y97.865 F7200
G0 X126.986 Y97.919
G0 X127.100 Y97.933
G0 X127.557 Y97.947
G0 X127.671 Y97.947
G0 X128.129 Y97.904
G1 X128.243 Y97.892 E8.29319 F2880
G1 X128.357 Y97.866 E8.29546
G1 X128.471 Y97.841 E8.29799
G1 X128.586 Y97.815 E8.30076
G1 X128.700 Y97.808 E8.30353
G1 X128.814 Y97.900 E8.30596
G1 X131.600 Y97.900 E8.35230
G1 X131.600 Y114.100 E8.62172
G1 X130.300 Y114.100 E8.64333
G0 F3000 E7.64333
G0 X130.821 Y113.700 F7200
G0 X131.200 Y113.700
G0 X131.200 Y113.409
G0 X145.540 Y102.400
G0 F3000 E8.64333
;segType:HShell
G1 X128.900 Y119.039 E9.03468 F2880
G0 X128.526 Y118.848 F7200
G1 X128.513 Y118.860 E9.03497 F2880
G0 X128.471 Y118.960 F7200
;segType:InnerHair
G1 X128.357 Y118.986 E9.03705 F2880
G1 X128.243 Y118.997 E9.03899
G1 X128.129 Y119.008 E9.04082
G1 X128.014 Y119.019 E9.04255
G1 X127.900 Y119.029 E9.04417
G1 X127.786 Y119.040 E9.04569
G1 X127.671 Y119.051 E9.04711
G1 X127.557 Y119.048 E9.04856
G1 X127.443 Y119.044 E9.05003
G1 X127.329 Y119.040 E9.05155
G1 X127.214 Y119.037 E9.05310
G1 X127.100 Y119.033 E9.05468
G1 X126.986 Y119.029 E9.05630
G1 X126.871 Y119.011 E9.05811
G1 X126.757 Y118.993 E9.06010
G1 X126.643 Y118.975 E9.06226
G0 X126.317 Y118.793 F7200
;segType:HShell
G0 X126.422 Y118.971
G1 X125.738 Y118.807 E9.08396 F2880
G0 X125.655 Y118.325 F7200
G1 X124.940 Y119.039 E9.10077 F2880
G0 X124.374 Y119.039 F7200
G1 X125.381 Y118.033 E9.12444 F2880
G0 X125.861 Y117.787 F7200
;segType:Perimeter
G1 X125.670 Y117.011 E9.13775 F1440
G1 X125.563 Y116.595 E9.14489
G1 X125.563 Y116.105 E9.15302
G1 X125.685 Y115.632 E9.16116
G1 X125.921 Y115.203 E9.16930
G1 X126.256 Y114.846 E9.17743
G1 X126.669 Y114.584 E9.18557
G1 X127.134 Y114.433 E9.19371
G1 X127.622 Y114.402 E9.20185
G1 X128.103 Y114.494 E9.20998
G1 X128.546 Y114.702 E9.21812
G1 X128.923 Y115.014 E9.22626
G1 X129.211 Y115.410 E9.23440
G1 X129.391 Y115.865 E9.24253
G1 X129.452 Y116.350 E9.25067
G1 X129.391 Y116.835 E9.25880
G1 X129.211 Y117.290 E9.26694
G1 X128.923 Y117.686 E9.27508
G1 X128.546 Y117.998 E9.28322
G1 X128.103 Y118.206 E9.29136
G1 X127.622 Y118.298 E9.29949
G1 X127.134 Y118.267 E9.30763
G1 X126.669 Y118.116 E9.31577
G1 X126.256 Y117.854 E9.32390
G1 X125.921 Y117.497 E9.33204
G1 X125.714 Y117.121 E9.33918
G0 X125.670 Y117.011 F7200
G0 X125.563 Y116.595
G0 X125.563 Y116.105
G0 X125.685 Y115.632
G0 X125.778 Y115.463
G0 X125.188 Y115.958
;segType:Loop
G1 X125.310 Y115.483 E9.34733 F2880
G1 X125.595 Y114.966 E9.35715
G1 X125.999 Y114.535 E9.36697
G1 X126.377 Y114.296 E9.37441
G0 X126.643 Y114.135 F7200
G0 X126.986 Y114.081
G0 X127.100 Y114.067
G0 X127.557 Y114.053
G0 X127.671 Y114.053
G0 X128.129 Y114.096
G1 X128.451 Y114.155 E9.38134 F2880
G1 X128.583 Y114.184 E9.38454
G1 X128.630 Y114.299 E9.38660
G1 X128.762 Y114.362 E9.38903
G1 X129.217 Y114.738 E9.39885
G1 X129.564 Y115.215 E9.40867
G1 X129.781 Y115.764 E9.41848
G1 X129.855 Y116.350 E9.42830
G1 X129.781 Y116.936 E9.43812
G1 X129.564 Y117.485 E9.44793
G1 X129.217 Y117.962 E9.45775
G1 X128.762 Y118.339 E9.46757
G1 X128.228 Y118.590 E9.47739
G1 X127.648 Y118.701 E9.48721
G1 X127.059 Y118.663 E9.49703
G1 X126.497 Y118.481 E9.50684
G1 X125.999 Y118.165 E9.51666
G1 X125.595 Y117.734 E9.52648
G1 X125.310 Y117.217 E9.53630
G1 X125.163 Y116.645 E9.54612
G1 X125.163 Y116.155 E9.55427
G0 X125.159 Y117.689 F7200
;segType:HShell
G1 X123.809 Y119.039 E9.58602 F2880
G0 X123.243 Y119.039 F7200
G1 X124.964 Y117.318 E9.62651 F2880
G0 X124.849 Y116.868 F7200
G1 X122.677 Y119.039 E9.67758 F2880
G0 X122.112 Y119.039 F7200
G1 X124.803 Y116.348 E9.74089 F2880
G0 X124.882 Y115.703 F7200
G1 X121.546 Y119.039 E9.81935 F2880
G0 X120.980 Y119.039 F7200
G1 X125.405 Y114.615 E9.92340 F2880
G0 X124.993 Y114.461 F7200
G1 X120.414 Y119.039 E10.03109 F2880
G0 X119.849 Y119.039 F7200
G1 X124.428 Y114.461 E10.13878 F2880
G0 X123.862 Y114.461 F7200
G1 X119.283 Y119.039 E10.24647 F2880
G0 X118.717 Y119.039 F7200
G1 X123.296 Y114.461 E10.35416 F2880
G0 X123.039 Y114.152 F7200
G1 X118.152 Y119.039 E10.46911 F2880
G0 X117.586 Y119.039 F7200
G1 X123.039 Y113.586 E10.59737 F2880
G0 X123.039 Y113.020 F7200
G1 X117.020 Y119.039 E10.73892 F2880
G0 X116.455 Y119.039 F7200
G1 X123.039 Y112.455 E10.89379 F2880
G0 X123.039 Y111.889 F7200
G1 X115.889 Y119.039 E11.06195 F2880
G0 X115.323 Y119.039 F7200
G1 X123.039 Y111.323 E11.24343 F2880
G0 X123.039 Y110.758 F7200
G1 X114.758 Y119.039 E11.43820 F2880
G0 X114.460 Y118.771 F7200
G1 X123.039 Y110.192 E11.63996 F2880
G0 X123.039 Y109.626 F7200
G1 X114.460 Y118.205 E11.84173 F2880
G0 X114.460 Y117.640 F7200
G1 X123.039 Y109.061 E12.04349 F2880
G0 X123.039 Y108.495 F7200
G1 X114.460 Y117.074 E12.24525 F2880
G0 X114.460 Y116.508 F7200
G1 X123.039 Y107.929 E12.44702 F2880
G0 X123.039 Y107.364 F7200
G1 X114.460 Y115.942 E12.64878 F2880
G0 X114.460 Y115.377 F7200
G1 X123.039 Y106.798 E12.85054 F2880
G0 X123.039 Y106.232 F7200
G1 X114.460 Y114.811 E13.05230 F2880
G0 X114.460 Y114.245 F7200
G1 X123.039 Y105.667 E13.25407 F2880
G0 X123.039 Y105.101 F7200
G1 X114.460 Y113.680 E13.45583 F2880
G0 X114.460 Y113.114 F7200
G1 X123.039 Y104.535 E13.65759 F2880
G0 X123.039 Y103.969 F7200
G1 X114.460 Y112.548 E13.85936 F2880
G0 X114.460 Y111.983 F7200
G1 X123.039 Y103.404 E14.06112 F2880
G0 X123.039 Y102.838 F7200
G1 X114.460 Y111.417 E14.26288 F2880
G0 X114.460 Y110.851 F7200
G1 X123.039 Y102.272 E14.46465 F2880
G0 X123.039 Y101.707 F7200
G1 X114.460 Y110.286 E14.66641 F2880
G0 X114.460 Y109.720 F7200
G1 X123.039 Y101.141 E14.86817 F2880
G0 X123.039 Y100.575 F7200
G1 X114.460 Y109.154 E15.06994 F2880
G0 X114.460 Y108.589 F7200
G1 X123.039 Y100.010 E15.27170 F2880
G0 X123.039 Y99.444 F7200
G1 X114.460 Y108.023 E15.47346 F2880
G0 X114.460 Y107.457 F7200
G1 X123.039 Y98.878 E15.67523 F2880
G0 X123.039 Y98.313 F7200
G1 X114.460 Y106.892 E15.87699 F2880
G0 X114.460 Y106.326 F7200
G1 X123.039 Y97.747 E16.07876 F2880
G0 X125.386 Y97.495 F7200
;segType:InnerHair
G1 X125.500 Y97.507 E16.08060 F2880
G1 X125.614 Y97.557 E16.08208
G1 X125.729 Y97.606 E16.08305
G1 X125.755 Y97.617 E16.08324
G1 X125.642 Y97.569 E16.08459
G1 X125.529 Y97.520 E16.08642
G1 X125.416 Y97.471 E16.08876
G1 X125.386 Y97.495 E16.08942
G0 F3000 E15.08942
G0 X126.939 Y97.504 F7200
G0 X127.134 Y97.568
G0 X127.623 Y97.598
G0 X128.080 Y97.511
G0 X129.500 Y97.519
G0 F3000 E16.08942
G1 X129.386 Y97.578 E16.09073 F2880
G1 X129.271 Y97.603 E16.09167
G1 X129.248 Y97.611 E16.09185
G1 X129.367 Y97.568 E16.09324
G1 X129.486 Y97.525 E16.09507
G1 X129.594 Y97.472 E16.09735
G1 X129.500 Y97.519 E16.09893
G0 F3000 E15.09893
G0 X131.210 Y91.839 F7200
G0 F3000 E16.09893
;segType:HShell
G1 X142.088 Y80.961 E16.35477 F2880
G0 X141.523 Y80.961 F7200
G1 X131.210 Y91.273 E16.59729 F2880
G0 X124.961 Y94.694 F7200
G1 X114.460 Y105.194 E16.84426 F2880
G0 F3000 E15.84426
G0 X123.800 Y113.154 F7200
G0 X123.800 Y113.700
G0 X124.441 Y113.700
G0 X125.386 Y114.505
G0 F3000 E16.84426
;segType:InnerHair
G1 X125.500 Y114.493 E16.84610 F2880
G1 X125.614 Y114.444 E16.84758
G1 X125.729 Y114.394 E16.84855
G1 X125.686 Y114.413 E16.84899
G1 X125.573 Y114.462 E16.85064
G1 X125.460 Y114.510 E16.85278
G1 X125.386 Y114.505 E16.85405
G0 F3000 E15.85405
G0 X126.939 Y114.496 F7200
G0 X127.134 Y114.433
G0 X127.622 Y114.402
G0 X128.080 Y114.489
G0 X129.500 Y114.481
G0 F3000 E16.85405
G1 X129.386 Y114.422 E16.85535 F2880
G1 X129.271 Y114.397 E16.85629
G1 X129.322 Y114.415 E16.85680
G1 X129.440 Y114.458 E16.85846
G1 X129.553 Y114.507 E16.86057
G1 X129.500 Y114.481 E16.86146
G0 X130.650 Y114.461 F7200
;segType:HShell
G1 X129.935 Y115.175 E16.87827 F2880
G0 X129.723 Y114.822 F7200
G1 X130.085 Y114.461 E16.88677 F2880
G0 X131.961 Y113.716 F7200
G1 X145.540 Y100.137 E17.20613 F2880
G0 X145.540 Y99.571 F7200
G1 X131.961 Y113.150 E17.52549 F2880
G0 X131.961 Y112.585 F7200
G1 X145.540 Y99.006 E17.84485 F2880
G0 X145.540 Y98.440 F7200
G1 X131.961 Y112.019 E18.16420 F2880
G0 X131.961 Y111.453 F7200
G1 X145.540 Y97.874 E18.48356 F2880
G0 X145.540 Y97.308 F7200
G1 X131.961 Y110.887 E18.80292 F2880
G0 X131.961 Y110.322 F7200
G1 X145.540 Y96.743 E19.12228 F2880
G0 X145.540 Y96.177 F7200
G1 X131.961 Y109.756 E19.44164 F2880
G0 X131.961 Y109.190 F7200
G1 X145.540 Y95.611 E19.76100 F2880
G0 X145.540 Y95.046 F7200
G1 X131.961 Y108.625 E20.08036 F2880
G0 X131.961 Y108.059 F7200
G1 X145.540 Y94.480 E20.39972 F2880
G0 X145.540 Y93.914 F7200
G1 X131.961 Y107.493 E20.71907 F2880
G0 X131.961 Y106.928 F7200
G1 X145.540 Y93.349 E21.03843 F2880
G0 X145.540 Y92.783 F7200
G1 X131.961 Y106.362 E21.35779 F2880
G0 X131.961 Y105.796 F7200
G1 X145.540 Y92.217 E21.67715 F2880
G0 X145.540 Y91.652 F7200
G1 X131.961 Y105.231 E21.99651 F2880
G0 X131.961 Y104.665 F7200
G1 X145.540 Y91.086 E22.31587 F2880
G0 X145.540 Y90.520 F7200
G1 X131.961 Y104.099 E22.63523 F2880
G0 X131.961 Y103.534 F7200
G1 X145.540 Y89.955 E22.95459 F2880
G0 X145.540 Y89.389 F7200
G1 X131.961 Y102.968 E23.27394 F2880
G0 X131.961 Y102.402 F7200
G1 X145.540 Y88.823 E23.59330 F2880
G0 X145.540 Y88.257 F7200
G1 X131.961 Y101.837 E23.91266 F2880
G0 X131.961 Y101.271 F7200
G1 X145.540 Y87.692 E24.23201 F2880
G0 X145.540 Y87.126 F7200
G1 X131.961 Y100.705 E24.55137 F2880
G0 X131.961 Y100.139 F7200
G1 X145.540 Y86.560 E24.87073 F2880
G0 X145.540 Y85.995 F7200
G1 X131.961 Y99.574 E25.19009 F2880
G0 X131.961 Y99.008 F7200
G1 X145.540 Y85.429 E25.50944 F2880
G0 X145.540 Y84.863 F7200
G1 X131.961 Y98.442 E25.82880 F2880
G0 X131.961 Y97.877 F7200
G1 X145.540 Y84.298 E26.14816 F2880
G0 X145.540 Y83.732 F7200
G1 X131.732 Y97.540 E26.47289 F2880
G0 X131.166 Y97.540 F7200
G1 X145.540 Y83.166 E26.81093 F2880
G0 X145.540 Y82.601 F7200
G1 X130.601 Y97.540 E27.16227 F2880
G0 X130.035 Y97.540 F7200
G1 X145.540 Y82.035 E27.52691 F2880
G0 X145.540 Y81.469 F7200
G1 X129.614 Y97.395 E27.90146 F2880
G0 X130.135 Y96.308 F7200
G1 X145.483 Y80.961 E28.26241 F2880
G0 X144.917 Y80.961 F7200
G1 X130.217 Y95.661 E28.60814 F2880
G0 X130.156 Y95.156 F7200
G1 X144.351 Y80.961 E28.94199 F2880
G0 X143.786 Y80.961 F7200
G1 X130.031 Y94.716 E29.26549 F2880
G0 X129.864 Y94.316 F7200
G1 X143.220 Y80.961 E29.57959 F2880
G0 X142.654 Y80.961 F7200
G1 X129.626 Y93.989 E29.88599 F2880
G0 X129.360 Y93.689 F7200
G1 X131.089 Y91.960 E29.92664 F2880
G0 X130.523 Y91.960 F7200
G1 X129.051 Y93.433 E29.96127 F2880
G0 X128.689 Y93.229 F7200
G1 X129.957 Y91.960 E29.99110 F2880
G0 X129.392 Y91.960 F7200
G1 X128.296 Y93.056 E30.01688 F2880
G0 X127.820 Y92.966 F7200
G1 X128.826 Y91.960 E30.04052 F2880
G0 X128.260 Y91.960 F7200
G1 X127.257 Y92.963 E30.06411 F2880
G0 X126.523 Y93.132 F7200
G1 X127.695 Y91.960 E30.09166 F2880
G0 X127.129 Y91.960 F7200
G1 X114.460 Y104.629 E30.38960 F2880
G0 X114.460 Y104.063 F7200
G1 X126.563 Y91.960 E30.67424 F2880
G0 X125.997 Y91.960 F7200
G1 X114.460 Y103.497 E30.94557 F2880
G0 X114.460 Y102.932 F7200
G1 X125.432 Y91.960 E31.20360 F2880
G0 X124.866 Y91.960 F7200
G1 X114.460 Y102.366 E31.44832 F2880
G0 X114.460 Y101.800 F7200
G1 X124.300 Y91.960 E31.67974 F2880
G0 X123.789 Y91.906 F7200
G1 X114.460 Y101.235 E31.89915 F2880
G0 X114.460 Y100.669 F7200
G1 X123.789 Y91.340 E32.11855 F2880
G0 X123.789 Y90.774 F7200
G1 X114.460 Y100.103 E32.33796 F2880
G0 X114.460 Y99.538 F7200
G1 X123.789 Y90.209 E32.55736 F2880
G0 X123.789 Y89.643 F7200
G1 X114.460 Y98.972 E32.77677 F2880
G0 X114.460 Y98.406 F7200
G1 X123.789 Y89.077 E32.99618 F2880
G0 X123.789 Y88.512 F7200
G1 X114.460 Y97.841 E33.21558 F2880
G0 X114.460 Y97.275 F7200
G1 X123.789 Y87.946 E33.43499 F2880
G0 X123.789 Y87.380 F7200
G1 X114.460 Y96.709 E33.65439 F2880
G0 X114.460 Y96.144 F7200
G1 X123.789 Y86.814 E33.87380 F2880
G0 F3000 E32.87380
G0 X114.460 Y84.264 F7200
G0 F3000 E33.87380
G1 X117.764 Y80.961 E33.95149 F2880
G0 X118.330 Y80.961 F7200
G1 X114.460 Y84.830 E34.04249 F2880
G0 X114.460 Y85.395 F7200
G1 X118.895 Y80.961 E34.14679 F2880
G0 X119.461 Y80.961 F7200
G1 X114.460 Y85.961 E34.26440 F2880
G0 X114.460 Y86.527 F7200
G1 X120.027 Y80.961 E34.39531 F2880
G0 X120.592 Y80.961 F7200
G1 X114.460 Y87.093 E34.53953 F2880
G0 X114.460 Y87.658 F7200
G1 X121.158 Y80.961 E34.69705 F2880
G0 X121.724 Y80.961 F7200
G1 X114.460 Y88.224 E34.86787 F2880
G0 X114.460 Y88.790 F7200
G1 X122.290 Y80.961 E35.05200 F2880
G0 X122.855 Y80.961 F7200
G1 X114.460 Y89.355 E35.24943 F2880
G0 X114.460 Y89.921 F7200
G1 X123.421 Y80.961 E35.46016 F2880
G0 X123.987 Y80.961 F7200
G1 X114.460 Y90.487 E35.68421 F2880
G0 X114.460 Y91.052 F7200
G1 X124.552 Y80.961 E35.92155 F2880
G0 X125.118 Y80.961 F7200
G1 X114.460 Y91.618 E36.17220 F2880
G0 X114.460 Y92.184 F7200
G1 X125.684 Y80.961 E36.43615 F2880
G0 X126.249 Y80.961 F7200
G1 X114.460 Y92.749 E36.71340 F2880
G0 X114.460 Y93.315 F7200
G1 X126.815 Y80.961 E37.00396 F2880
G0 X127.381 Y80.961 F7200
G1 X114.460 Y93.881 E37.30782 F2880
G0 X114.460 Y94.446 F7200
G1 X127.946 Y80.961 E37.62499 F2880
G0 X128.512 Y80.961 F7200
G1 X114.460 Y95.012 E37.95546 F2880
G0 X114.460 Y95.578 F7200
G1 X129.078 Y80.961 E38.29924 F2880
G0 X129.643 Y80.961 F7200
G1 X124.065 Y86.539 E38.43045 F2880
G0 X124.630 Y86.539 F7200
G1 X130.209 Y80.961 E38.56165 F2880
G0 X130.775 Y80.961 F7200
G1 X125.196 Y86.539 E38.69286 F2880
G0 X125.762 Y86.539 F7200
G1 X131.340 Y80.961 E38.82407 F2880
G0 X131.906 Y80.961 F7200
G1 X126.327 Y86.539 E38.95527 F2880
G0 X126.893 Y86.539 F7200
G1 X132.472 Y80.961 E39.08648 F2880
G0 X133.038 Y80.961 F7200
G1 X127.459 Y86.539 E39.21769 F2880
G0 X128.024 Y86.539 F7200
G1 X133.603 Y80.961 E39.34889 F2880
G0 X134.169 Y80.961 F7200
G1 X128.590 Y86.539 E39.48010 F2880
G0 X129.156 Y86.539 F7200
G1 X134.735 Y80.961 E39.61131 F2880
G0 X135.300 Y80.961 F7200
G1 X129.721 Y86.539 E39.74251 F2880
G0 X130.287 Y86.539 F7200
G1 X135.866 Y80.961 E39.87372 F2880
G0 X136.432 Y80.961 F7200
G1 X130.853 Y86.539 E40.00493 F2880
G0 X131.210 Y86.747 F7200
G1 X136.997 Y80.961 E40.14102 F2880
G0 X137.563 Y80.961 F7200
G1 X131.210 Y87.313 E40.29043 F2880
G0 X131.210 Y87.879 F7200
G1 X138.129 Y80.961 E40.45313 F2880
G0 X138.694 Y80.961 F7200
G1 X131.210 Y88.444 E40.62914 F2880
G0 X131.210 Y89.010 F7200
G1 X139.260 Y80.961 E40.81845 F2880
G0 X139.826 Y80.961 F7200
G1 X131.210 Y89.576 E41.02107 F2880
G0 X131.210 Y90.142 F7200
G1 X140.391 Y80.961 E41.23699 F2880
G0 F3000 E40.23699
G0 X145.540 Y101.268 F7200
G0 F3000 E41.23699
G1 X130.183 Y116.624 E41.59814 F2880
G0 X129.992 Y117.381 F7200
G1 X145.540 Y101.834 E41.96380 F2880
G0 X145.540 Y118.804 F7200
G1 X145.305 Y119.039 E41.96932 F2880
G0 X144.739 Y119.039 F7200
G1 X145.540 Y118.239 E41.98815 F2880
G0 X145.540 Y117.673 F7200
G1 X144.173 Y119.039 E42.02029 F2880
G0 X143.608 Y119.039 F7200
G1 X145.540 Y117.107 E42.06573 F2880
G0 X145.540 Y116.542 F7200
G1 X143.042 Y119.039 E42.12447 F2880
G0 X142.476 Y119.039 F7200
G1 X145.540 Y115.976 E42.19652 F2880
G0 X145.540 Y115.410 F7200
G1 X141.911 Y119.039 E42.28187 F2880
G0 X141.345 Y119.039 F7200
G1 X145.540 Y114.845 E42.38052 F2880
G0 X145.540 Y114.279 F7200
G1 X140.779 Y119.039 E42.49248 F2880
G0 X140.213 Y119.039 F7200
G1 X145.540 Y113.713 E42.61774 F2880
G0 X145.540 Y113.148 F7200
G1 X139.648 Y119.039 E42.75631 F2880
G0 X139.082 Y119.039 F7200
G1 X145.540 Y112.582 E42.90818 F2880
G0 X145.540 Y112.016 F7200
G1 X138.516 Y119.039 E43.07336 F2880
G0 X137.951 Y119.039 F7200
G1 X145.540 Y111.451 E43.25184 F2880
G0 X145.540 Y110.885 F7200
G1 X137.385 Y119.039 E43.44362 F2880
G0 X136.819 Y119.039 F7200
G1 X145.540 Y110.319 E43.64871 F2880
G0 X145.540 Y109.754 F7200
G1 X136.254 Y119.039 E43.86710 F2880
G0 X135.688 Y119.039 F7200
G1 X145.540 Y109.188 E44.09880 F2880
G0 X145.540 Y108.622 F7200
G1 X135.122 Y119.039 E44.34379 F2880
G0 X134.557 Y119.039 F7200
G1 X145.540 Y108.056 E44.60210 F2880
G0 X145.540 Y107.491 F7200
G1 X133.991 Y119.039 E44.87371 F2880
G0 X133.425 Y119.039 F7200
G1 X145.540 Y106.925 E45.15862 F2880
G0 X145.540 Y106.359 F7200
G1 X132.860 Y119.039 E45.45683 F2880
G0 X132.294 Y119.039 F7200
G1 X145.540 Y105.794 E45.76835 F2880
G0 X145.540 Y105.228 F7200
G1 X131.728 Y119.039 E46.09318 F2880
G0 X131.162 Y119.039 F7200
G1 X145.540 Y104.662 E46.43130 F2880
G0 X145.540 Y104.097 F7200
G1 X130.597 Y119.039 E46.78274 F2880
G0 X130.031 Y119.039 F7200
G1 X145.540 Y103.531 E47.14747 F2880
G0 X145.540 Y102.965 F7200
G1 X129.465 Y119.039 E47.52551 F2880
; ------------------------------------
; Layer #2
; ------------------------------------
G92 E0 ;reset extr
G0 F3000 E-1.00000
G0 F600 Z1.400
G0 X129.464 Y119.800 F7200
G0 X129.475 Y113.700
G0 X131.200 Y113.700
G0 X131.200 Y98.300
G0 X129.498 Y100.206
G0 F3000 E0.00000
;segType:Support
G1 X126.439 Y100.208 E0.04325 F1200
G1 X126.550 Y100.200 E0.04482
G1 X124.950 Y100.200 E0.06743
G0 F3000 E-0.93257
G0 X123.789 Y90.132 F7200
G0 F3000 E0.06743
;segType:HShell
G1 X114.618 Y80.961 E0.28313 F2880
G0 X113.916 Y80.780 F7200
;segType:Perimeter
G1 X113.760 Y80.200 E0.29310 F1440
G1 X146.300 Y80.200 E0.83423
G1 X146.300 Y119.800 E1.49277
G1 X113.700 Y119.800 E2.03490
G1 X113.700 Y80.260 E2.69244
G0 X113.760 Y80.200 F7200
G0 X115.360 Y80.200
G0 X114.800 Y80.600
;segType:Loop
G1 X145.900 Y80.600 E3.20962 F2880
G1 X145.900 Y119.400 E3.85486
G1 X114.100 Y119.400 E4.38368
G1 X114.100 Y80.600 E5.02892
G1 X114.600 Y80.600 E5.03723
G0 F3000 E4.03723
G0 X114.095 Y80.200 F7200
G0 X124.550 Y88.477
G0 X124.550 Y91.200
G0 X127.990 Y91.200
G0 X145.540 Y105.094
G0 F3000 E5.03723
;segType:HShell
G1 X131.210 Y90.764 E5.37423 F2880
G0 X131.190 Y91.200 F7200
;segType:Perimeter
G1 X130.390 Y91.200 E5.38753 F1440
G1 X124.550 Y91.200 E5.48467
G1 X124.550 Y87.300 E5.54953
G1 X130.450 Y87.300 E5.64766
G1 X130.450 Y91.140 E5.71154
G0 X130.390 Y91.200 F7200
G0 X128.790 Y91.200
G0 X129.350 Y91.600
;segType:Loop
G1 X124.150 Y91.600 E5.79802 F2880
G1 X124.150 Y86.900 E5.87620
G1 X130.850 Y86.900 E5.98763
G1 X130.850 Y91.600 E6.06580
G1 X129.550 Y91.600 E6.08742
G0 F3000 E5.08742
G0 X128.376 Y91.200 F7200
G0 X124.550 Y91.200
G0 X124.550 Y89.897
G0 X114.460 Y86.460
G0 F3000 E6.08742
;segType:HShell
G1 X125.296 Y97.295 E6.34226 F2880
G0 X125.861 Y97.087 F7200
;segType:Perimeter
G1 X125.670 Y96.310 E6.35557 F1440
G1 X125.563 Y95.894 E6.36271
G1 X125.563 Y95.405 E6.37085
G1 X125.685 Y94.931 E6.37898
G1 X125.921 Y94.503 E6.38712
G1 X126.256 Y94.146 E6.39525
G1 X126.669 Y93.884 E6.40339
G1 X127.134 Y93.733 E6.41153
G1 X127.622 Y93.702 E6.41967
G1 X128.103 Y93.793 E6.42780
G1 X128.546 Y94.002 E6.43594
G1 X128.923 Y94.314 E6.44408
G1 X129.211 Y94.710 E6.45222
G1 X129.391 Y95.165 E6.46035
G1 X129.452 Y95.650 E6.46849
G1 X129.391 Y96.136 E6.47663
G1 X129.211 Y96.590 E6.48477
G1 X128.923 Y96.986 E6.49290
G1 X128.546 Y97.298 E6.50104
G1 X128.103 Y97.506 E6.50918
G1 X127.623 Y97.598 E6.51731
G1 X127.134 Y97.568 E6.52545
G1 X126.669 Y97.416 E6.53359
G1 X126.256 Y97.154 E6.54173
G1 X125.921 Y96.797 E6.54986
G1 X125.714 Y96.421 E6.55700
G0 X125.670 Y96.310 F7200
G0 X125.563 Y95.894
G0 X125.563 Y95.405
G0 X125.685 Y94.931
G0 X125.778 Y94.763
G0 X125.188 Y95.258
;segType:Loop
G1 X125.310 Y94.783 E6.56515 F2880
G1 X125.595 Y94.266 E6.57498
G1 X125.999 Y93.835 E6.58479
G1 X126.497 Y93.519 E6.59461
G1 X127.059 Y93.336 E6.60443
G1 X127.648 Y93.300 E6.61424
G1 X128.228 Y93.410 E6.62406
G1 X128.762 Y93.662 E6.63388
G1 X129.217 Y94.038 E6.64370
G1 X129.564 Y94.515 E6.65351
G1 X129.781 Y95.064 E6.66333
G1 X129.855 Y95.650 E6.67315
G1 X129.781 Y96.236 E6.68297
G1 X129.564 Y96.785 E6.69279
G1 X129.217 Y97.262 E6.70260
G1 X128.762 Y97.639 E6.71242
G1 X128.672 Y97.681 E6.71408
G0 X128.634 Y97.804 F7200
G0 X128.502 Y97.834
G0 X128.369 Y97.863
G1 X128.129 Y97.904 E6.71805 F2880
G1 X128.014 Y97.915 E6.71981
G1 X127.900 Y97.926 E6.72147
G1 X127.786 Y97.937 E6.72303
G1 X127.671 Y97.947 E6.72448
G1 X127.557 Y97.947 E6.72593
G1 X127.443 Y97.944 E6.72742
G1 X127.329 Y97.940 E6.72893
G1 X127.214 Y97.936 E6.73049
G1 X127.100 Y97.933 E6.73207
G1 X126.986 Y97.919 E6.73380
G1 X126.871 Y97.901 E6.73571
G1 X126.757 Y97.883 E6.73779
G1 X126.643 Y97.865 E6.74005
G0 X126.372 Y97.809 F7200
G1 X126.338 Y97.680 E6.74226 F2880
G1 X125.999 Y97.465 E6.74895
G1 X125.595 Y97.034 E6.75877
G1 X125.310 Y96.517 E6.76859
G1 X125.163 Y95.945 E6.77841
G1 X125.163 Y95.455 E6.78656
G0 F3000 E5.78656
G0 X126.059 Y98.300 F7200
G0 X123.800 Y98.300
G0 X123.800 Y113.700
G0 X130.908 Y113.700
G0 X131.148 Y114.461
G0 F3000 E6.78656
;segType:HShell
G1 X135.727 Y119.039 E6.89425 F2880
G0 X135.161 Y119.039 F7200
G1 X130.582 Y114.461 E7.00194 F2880
G0 X131.140 Y113.700 F7200
;segType:Perimeter
G1 X123.800 Y113.700 E7.12402 F1440
G1 X123.800 Y98.300 E7.38013
G1 X131.200 Y98.300 E7.50321
G1 X131.200 Y113.640 E7.75832
G0 X131.140 Y113.700 F7200
G0 X129.540 Y113.700
G0 X130.100 Y114.100
;segType:Loop
G1 X128.814 Y114.100 E7.77971 F2880
G0 X128.700 Y114.192 F7200
G0 X128.586 Y114.185
G0 X128.471 Y114.160
G0 X128.357 Y114.134
G0 X128.243 Y114.108
G1 X128.129 Y114.096 E7.78158 F2880
G1 X128.014 Y114.085 E7.78334
G1 X127.900 Y114.074 E7.78500
G1 X127.786 Y114.063 E7.78656
G1 X127.671 Y114.053 E7.78801
G1 X127.557 Y114.053 E7.78946
G1 X127.443 Y114.056 E7.79094
G1 X127.329 Y114.060 E7.79246
G1 X127.214 Y114.064 E7.79401
G1 X127.100 Y114.067 E7.79560
G1 X126.986 Y114.081 E7.79732
G1 X126.871 Y114.099 E7.79923
G1 X126.757 Y114.117 E7.80132
G1 X126.643 Y114.135 E7.80358
G1 X126.529 Y114.146 E7.80592
G1 X126.414 Y114.179 E7.80867
G1 X126.300 Y114.100 E7.81098
G1 X123.400 Y114.100 E7.85921
G1 X123.400 Y97.900 E8.12863
G1 X126.300 Y97.900 E8.17686
G1 X126.414 Y97.821 E8.18007
G1 X126.529 Y97.855 E8.18250
G0 X126.643 Y97.865 F7200
G0 X126.986 Y97.919
G0 X127.100 Y97.933
G0 X127.557 Y97.947
G0 X127.671 Y97.947
G0 X128.129 Y97.904
G1 X128.243 Y97.892 E8.18449 F2880
G1 X128.357 Y97.866 E8.18676
G1 X128.471 Y97.841 E8.18929
G1 X128.586 Y97.815 E8.19206
G1 X128.700 Y97.808 E8.19483
G1 X128.814 Y97.900 E8.19726
G1 X131.600 Y97.900 E8.24360
G1 X131.600 Y114.100 E8.51301
G1 X130.300 Y114.100 E8.53463
G0 F3000 E7.53463
G0 X129.430 Y113.700 F7200
G0 X123.800 Y113.700
G0 X123.800 Y111.114
G0 X114.460 Y106.824
G0 F3000 E8.53463
;segType:HShell
G1 X124.968 Y117.331 E8.78175 F2880
G0 X125.861 Y117.787 F7200
;segType:Perimeter
G1 X125.670 Y117.011 E8.79505 F1440
G1 X125.563 Y116.595 E8.80219
G1 X125.563 Y116.105 E8.81033
G1 X125.685 Y115.632 E8.81846
G1 X125.921 Y115.203 E8.82660
G1 X126.256 Y114.846 E8.83474
G1 X126.669 Y114.584 E8.84287
G1 X127.134 Y114.433 E8.85101
G1 X127.622 Y114.402 E8.85915
G1 X128.103 Y114.494 E8.86729
G1 X128.546 Y114.702 E8.87542
G1 X128.923 Y115.014 E8.88356
G1 X129.211 Y115.410 E8.89170
G1 X129.391 Y115.865 E8.89983
G1 X129.452 Y116.350 E8.90797
G1 X129.391 Y116.835 E8.91611
G1 X129.211 Y117.290 E8.92424
G1 X128.923 Y117.686 E8.93238
G1 X128.546 Y117.998 E8.94052
G1 X128.103 Y118.206 E8.94866
G1 X127.622 Y118.298 E8.95680
G1 X127.134 Y118.267 E8.96493
G1 X126.669 Y118.116 E8.97307
G1 X126.256 Y117.854 E8.98121
G1 X125.921 Y117.497 E8.98934
G1 X125.714 Y117.121 E8.99648
G0 X125.670 Y117.011 F7200
G0 X125.563 Y116.595
G0 X125.563 Y116.105
G0 X125.685 Y115.632
G0 X125.778 Y115.463
G0 X125.188 Y115.958
;segType:Loop
G1 X125.310 Y115.483 E9.00463 F2880
G1 X125.595 Y114.966 E9.01446
G1 X125.999 Y114.535 E9.02427
G1 X126.377 Y114.296 E9.03171
G0 X126.643 Y114.135 F7200
G0 X126.986 Y114.081
G0 X127.100 Y114.067
G0 X127.557 Y114.053
G0 X127.671 Y114.053
G0 X128.129 Y114.096
G1 X128.451 Y114.155 E9.03864 F2880
G1 X128.583 Y114.184 E9.04184
G1 X128.630 Y114.299 E9.04390
G1 X128.762 Y114.362 E9.04633
G1 X129.217 Y114.738 E9.05615
G1 X129.564 Y115.215 E9.06597
G1 X129.781 Y115.764 E9.07578
G1 X129.855 Y116.350 E9.08560
G1 X129.781 Y116.936 E9.09542
G1 X129.564 Y117.485 E9.10523
G1 X129.217 Y117.962 E9.11505
G1 X128.762 Y118.339 E9.12487
G1 X128.228 Y118.590 E9.13469
G1 X127.648 Y118.701 E9.14451
G1 X127.059 Y118.663 E9.15433
G1 X126.497 Y118.481 E9.16414
G1 X125.999 Y118.165 E9.17396
G1 X125.595 Y117.734 E9.18378
G1 X125.310 Y117.217 E9.19360
G1 X125.163 Y116.645 E9.20342
G1 X125.163 Y116.155 E9.21157
G0 X125.386 Y114.505 F7200
;segType:InnerHair
G1 X125.500 Y114.493 E9.21341 F2880
G1 X125.614 Y114.444 E9.21489
G1 X125.729 Y114.394 E9.21586
G1 X125.686 Y114.413 E9.21630
G1 X125.573 Y114.462 E9.21795
G1 X125.460 Y114.510 E9.22009
G1 X125.386 Y114.505 E9.22136
G0 X125.271 Y114.807 F7200
;segType:HShell
G1 X124.925 Y114.461 E9.22950 F2880
G0 X124.360 Y114.461 F7200
G1 X125.070 Y115.172 E9.24622 F2880
G0 X124.913 Y115.580 F7200
G1 X123.794 Y114.461 E9.27255 F2880
G0 X123.228 Y114.461 F7200
G1 X124.803 Y116.036 E9.30959 F2880
G0 X114.460 Y107.390 F7200
G1 X126.110 Y119.039 E9.58357 F2880
G0 X125.544 Y119.039 F7200
G1 X114.460 Y107.956 E9.84425 F2880
G0 X114.460 Y108.521 F7200
G1 X124.979 Y119.039 E10.09162 F2880
G0 X124.413 Y119.039 F7200
G1 X114.460 Y109.087 E10.32569 F2880
G0 X114.460 Y109.653 F7200
G1 X123.847 Y119.039 E10.54645 F2880
G0 X123.282 Y119.039 F7200
G1 X114.460 Y110.218 E10.75391 F2880
G0 X114.460 Y110.784 F7200
G1 X122.716 Y119.039 E10.94807 F2880
G0 X122.150 Y119.039 F7200
G1 X114.460 Y111.350 E11.12892 F2880
G0 X114.460 Y111.915 F7200
G1 X121.585 Y119.039 E11.29646 F2880
G0 X121.019 Y119.039 F7200
G1 X114.460 Y112.481 E11.45071 F2880
G0 X114.460 Y113.047 F7200
G1 X120.453 Y119.039 E11.59165 F2880
G0 X119.887 Y119.039 F7200
G1 X114.460 Y113.612 E11.71928 F2880
G0 X114.460 Y114.178 F7200
G1 X119.322 Y119.039 E11.83361 F2880
G0 X118.756 Y119.039 F7200
G1 X114.460 Y114.744 E11.93464 F2880
G0 X114.460 Y115.309 F7200
G1 X118.190 Y119.039 E12.02236 F2880
G0 X117.625 Y119.039 F7200
G1 X114.460 Y115.875 E12.09678 F2880
G0 X114.460 Y116.441 F7200
G1 X117.059 Y119.039 E12.15790 F2880
G0 X116.493 Y119.039 F7200
G1 X114.460 Y117.007 E12.20571 F2880
G0 X114.460 Y117.572 F7200
G1 X115.928 Y119.039 E12.24021 F2880
G0 X115.362 Y119.039 F7200
G1 X114.460 Y118.138 E12.26142 F2880
G0 X114.460 Y118.704 F7200
G1 X114.796 Y119.039 E12.26932 F2880
G0 F3000 E11.26932
G0 X125.563 Y116.595 F7200
G0 X124.803 Y116.601
G0 F3000 E12.26932
G1 X114.460 Y106.259 E12.51256 F2880
G0 X114.460 Y105.693 F7200
G1 X123.039 Y114.272 E12.71433 F2880
G0 X123.039 Y113.706 F7200
G1 X114.460 Y105.127 E12.91609 F2880
G0 X114.460 Y104.561 F7200
G1 X123.039 Y113.140 E13.11785 F2880
G0 X123.039 Y112.575 F7200
G1 X114.460 Y103.996 E13.31962 F2880
G0 X114.460 Y103.430 F7200
G1 X123.039 Y112.009 E13.52138 F2880
G0 X123.039 Y111.443 F7200
G1 X114.460 Y102.864 E13.72314 F2880
G0 X114.460 Y102.299 F7200
G1 X123.039 Y110.878 E13.92491 F2880
G0 X123.039 Y110.312 F7200
G1 X114.460 Y101.733 E14.12667 F2880
G0 X114.460 Y101.167 F7200
G1 X123.039 Y109.746 E14.32843 F2880
G0 X123.039 Y109.181 F7200
G1 X114.460 Y100.602 E14.53020 F2880
G0 X114.460 Y100.036 F7200
G1 X123.039 Y108.615 E14.73196 F2880
G0 X123.039 Y108.049 F7200
G1 X114.460 Y99.470 E14.93372 F2880
G0 X114.460 Y98.905 F7200
G1 X123.039 Y107.484 E15.13549 F2880
G0 X123.039 Y106.918 F7200
G1 X114.460 Y98.339 E15.33725 F2880
G0 X114.460 Y97.773 F7200
G1 X123.039 Y106.352 E15.53901 F2880
G0 X123.039 Y105.787 F7200
G1 X114.460 Y97.208 E15.74077 F2880
G0 X114.460 Y96.642 F7200
G1 X123.039 Y105.221 E15.94254 F2880
G0 X123.039 Y104.655 F7200
G1 X114.460 Y96.076 E16.14430 F2880
G0 X114.460 Y95.511 F7200
G1 X123.039 Y104.089 E16.34606 F2880
G0 X123.039 Y103.524 F7200
G1 X114.460 Y94.945 E16.54783 F2880
G0 X114.460 Y94.379 F7200
G1 X123.039 Y102.958 E16.74959 F2880
G0 X123.039 Y102.392 F7200
G1 X114.460 Y93.813 E16.95135 F2880
G0 X114.460 Y93.248 F7200
G1 X123.039 Y101.827 E17.15312 F2880
G0 X123.039 Y101.261 F7200
G1 X114.460 Y92.682 E17.35488 F2880
G0 X114.460 Y92.116 F7200
G1 X123.039 Y100.695 E17.55664 F2880
G0 X123.039 Y100.130 F7200
G1 X114.460 Y91.551 E17.75841 F2880
G0 X114.460 Y90.985 F7200
G1 X123.039 Y99.564 E17.96017 F2880
G0 X123.039 Y98.998 F7200
G1 X114.460 Y90.419 E18.16193 F2880
G0 X114.460 Y89.854 F7200
G1 X123.039 Y98.433 E18.36370 F2880
G0 X123.039 Y97.867 F7200
G1 X114.460 Y89.288 E18.56546 F2880
G0 X114.460 Y88.722 F7200
G1 X123.278 Y97.540 E18.77283 F2880
G0 X123.843 Y97.540 F7200
G1 X114.460 Y88.157 E18.99350 F2880
G0 X114.460 Y87.591 F7200
G1 X124.409 Y97.540 E19.22748 F2880
G0 X124.975 Y97.540 F7200
G1 X114.460 Y87.025 E19.47476 F2880
G0 X114.460 Y81.368 F7200
G1 X123.789 Y90.697 E19.69416 F2880
G0 X123.789 Y91.263 F7200
G1 X114.460 Y81.934 E19.91357 F2880
G0 X114.460 Y82.500 F7200
G1 X123.789 Y91.829 E20.13297 F2880
G0 X123.921 Y91.960 F7200
G1 X125.646 Y93.685 E20.17354 F2880
G0 X125.960 Y93.433 F7200
G1 X124.487 Y91.960 E20.20818 F2880
G0 X125.053 Y91.960 F7200
G1 X126.306 Y93.214 E20.23766 F2880
G0 X126.724 Y93.067 F7200
G1 X125.618 Y91.960 E20.26367 F2880
G0 X126.184 Y91.960 F7200
G1 X127.191 Y92.967 E20.28735 F2880
G0 X127.740 Y92.950 F7200
G1 X126.750 Y91.960 E20.31064 F2880
G0 X127.315 Y91.960 F7200
G1 X128.490 Y93.136 E20.33828 F2880
G0 F3000 E19.33828
G0 X128.033 Y93.780 F7200
G0 X127.622 Y93.702
G0 X127.134 Y93.733
G0 X126.669 Y93.884
G0 X126.256 Y94.146
G0 X125.921 Y94.503
G0 X125.685 Y94.931
G0 X125.563 Y95.405
G0 X125.563 Y95.894
G0 X125.685 Y96.369
G0 X125.909 Y96.776
G0 X125.416 Y97.471
G0 F3000 E20.33828
;segType:InnerHair
G1 X125.529 Y97.520 E20.34012 F2880
G1 X125.642 Y97.569 E20.34146
G1 X125.755 Y97.617 E20.34230
G1 X125.729 Y97.606 E20.34252
G1 X125.614 Y97.557 E20.34400
G1 X125.500 Y97.507 E20.34600
G1 X125.386 Y97.495 E20.34796
G1 X125.416 Y97.471 E20.34870
G0 X124.888 Y96.322 F7200
;segType:HShell
G1 X114.460 Y85.894 E20.59394 F2880
G0 X114.460 Y85.328 F7200
G1 X124.803 Y95.671 E20.83719 F2880
G0 X124.845 Y95.147 F7200
G1 X114.460 Y84.762 E21.08142 F2880
G0 X114.460 Y84.197 F7200
G1 X124.960 Y94.697 E21.32836 F2880
G0 X125.152 Y94.323 F7200
G1 X114.460 Y83.631 E21.57982 F2880
G0 X114.460 Y83.065 F7200
G1 X125.372 Y93.977 E21.83643 F2880
G0 X123.789 Y89.566 F7200
G1 X115.184 Y80.961 E22.03882 F2880
G0 X115.750 Y80.961 F7200
G1 X123.789 Y89.000 E22.22790 F2880
G0 X123.789 Y88.435 F7200
G1 X116.315 Y80.961 E22.40368 F2880
G0 X116.881 Y80.961 F7200
G1 X123.789 Y87.869 E22.56616 F2880
G0 X123.789 Y87.303 F7200
G1 X117.447 Y80.961 E22.71533 F2880
G0 X118.012 Y80.961 F7200
G1 X123.789 Y86.738 E22.85120 F2880
G0 X124.157 Y86.539 F7200
G1 X118.578 Y80.961 E22.98241 F2880
G0 X119.144 Y80.961 F7200
G1 X124.723 Y86.539 E23.11362 F2880
G0 X125.288 Y86.539 F7200
G1 X119.709 Y80.961 E23.24482 F2880
G0 X120.275 Y80.961 F7200
G1 X125.854 Y86.539 E23.37603 F2880
G0 X126.420 Y86.539 F7200
G1 X120.841 Y80.961 E23.50724 F2880
G0 X121.407 Y80.961 F7200
G1 X126.985 Y86.539 E23.63845 F2880
G0 X127.551 Y86.539 F7200
G1 X121.972 Y80.961 E23.76966 F2880
G0 X122.538 Y80.961 F7200
G1 X128.117 Y86.539 E23.90086 F2880
G0 X128.682 Y86.539 F7200
G1 X123.104 Y80.961 E24.03207 F2880
G0 X123.669 Y80.961 F7200
G1 X129.248 Y86.539 E24.16328 F2880
G0 X129.814 Y86.539 F7200
G1 X124.235 Y80.961 E24.29449 F2880
G0 X124.801 Y80.961 F7200
G1 X130.380 Y86.539 E24.42569 F2880
G0 X130.945 Y86.539 F7200
G1 X125.366 Y80.961 E24.55690 F2880
G0 X125.932 Y80.961 F7200
G1 X145.540 Y100.568 E25.01804 F2880
G0 X145.540 Y100.002 F7200
G1 X126.498 Y80.961 E25.46587 F2880
G0 X127.063 Y80.961 F7200
G1 X145.540 Y99.437 E25.90041 F2880
G0 X145.540 Y98.871 F7200
G1 X127.629 Y80.961 E26.32163 F2880
G0 X128.195 Y80.961 F7200
G1 X145.540 Y98.305 E26.72955 F2880
G0 X145.540 Y97.740 F7200
G1 X128.760 Y80.961 E27.12417 F2880
G0 X129.326 Y80.961 F7200
G1 X145.540 Y97.174 E27.50549 F2880
G0 X145.540 Y96.608 F7200
G1 X129.892 Y80.961 E27.87350 F2880
G0 X130.458 Y80.961 F7200
G1 X145.540 Y96.043 E28.22821 F2880
G0 X145.540 Y95.477 F7200
G1 X131.023 Y80.961 E28.56961 F2880
G0 X131.589 Y80.961 F7200
G1 X145.540 Y94.911 E28.89771 F2880
G0 X145.540 Y94.346 F7200
G1 X132.155 Y80.961 E29.21250 F2880
G0 X132.720 Y80.961 F7200
G1 X145.540 Y93.780 E29.51399 F2880
G0 X145.540 Y93.214 F7200
G1 X133.286 Y80.961 E29.80218 F2880
G0 X133.852 Y80.961 F7200
G1 X145.540 Y92.648 E30.07706 F2880
G0 X145.540 Y92.083 F7200
G1 X134.417 Y80.961 E30.33864 F2880
G0 X134.983 Y80.961 F7200
G1 X145.540 Y91.517 E30.58691 F2880
G0 X145.540 Y90.951 F7200
G1 X135.549 Y80.961 E30.82188 F2880
G0 X136.114 Y80.961 F7200
G1 X145.540 Y90.386 E31.04355 F2880
G0 X145.540 Y89.820 F7200
G1 X136.680 Y80.961 E31.25191 F2880
G0 X137.246 Y80.961 F7200
G1 X145.540 Y89.254 E31.44697 F2880
G0 X145.540 Y88.689 F7200
G1 X137.811 Y80.961 E31.62872 F2880
G0 X138.377 Y80.961 F7200
G1 X145.540 Y88.123 E31.79717 F2880
G0 X145.540 Y87.557 F7200
G1 X138.943 Y80.961 E31.95232 F2880
G0 X139.508 Y80.961 F7200
G1 X145.540 Y86.992 E32.09416 F2880
G0 X145.540 Y86.426 F7200
G1 X140.074 Y80.961 E32.22269 F2880
G0 X140.640 Y80.961 F7200
G1 X145.540 Y85.860 E32.33793 F2880
G0 X145.540 Y85.295 F7200
G1 X141.206 Y80.961 E32.43985 F2880
G0 X141.771 Y80.961 F7200
G1 X145.540 Y84.729 E32.52848 F2880
G0 X145.540 Y84.163 F7200
G1 X142.337 Y80.961 E32.60380 F2880
G0 X142.903 Y80.961 F7200
G1 X145.540 Y83.597 E32.66582 F2880
G0 X145.540 Y83.032 F7200
G1 X143.468 Y80.961 E32.71453 F2880
G0 X144.034 Y80.961 F7200
G1 X145.540 Y82.466 E32.74994 F2880
G0 X145.540 Y81.900 F7200
G1 X144.600 Y80.961 E32.77205 F2880
G0 X145.165 Y80.961 F7200
G1 X145.540 Y81.335 E32.78085 F2880
G0 X131.763 Y97.540 F7200
G1 X130.179 Y95.956 E32.81809 F2880
G0 X130.091 Y96.433 F7200
G1 X131.197 Y97.540 E32.84412 F2880
G0 X130.632 Y97.540 F7200
G1 X129.930 Y96.838 E32.86062 F2880
G0 X129.715 Y97.189 F7200
G1 X130.066 Y97.540 E32.86887 F2880
G0 X129.594 Y97.472 F7200
;segType:InnerHair
G1 X129.486 Y97.525 E32.87061 F2880
G1 X129.367 Y97.568 E32.87200
G1 X129.248 Y97.611 E32.87293
G1 X129.271 Y97.603 E32.87312
G1 X129.386 Y97.578 E32.87431
G1 X129.500 Y97.519 E32.87623
G1 X129.594 Y97.472 E32.87823
G0 F3000 E31.87823
G0 X131.210 Y90.199 F7200
G0 F3000 E32.87823
;segType:HShell
G1 X145.540 Y104.528 E33.21523 F2880
G0 X145.540 Y103.962 F7200
G1 X131.210 Y89.633 E33.55223 F2880
G0 X131.210 Y89.067 F7200
G1 X145.540 Y103.396 E33.88923 F2880
G0 X145.540 Y102.831 F7200
G1 X131.210 Y88.502 E34.22622 F2880
G0 X131.210 Y87.936 F7200
G1 X145.540 Y102.265 E34.56322 F2880
G0 X145.540 Y101.699 F7200
G1 X131.210 Y87.370 E34.90022 F2880
G0 X131.210 Y86.805 F7200
G1 X145.540 Y101.134 E35.23722 F2880
G0 X145.540 Y105.659 F7200
G1 X131.210 Y91.330 E35.57422 F2880
G0 X131.210 Y91.896 F7200
G1 X145.540 Y106.225 E35.91121 F2880
G0 X145.540 Y106.791 F7200
G1 X130.709 Y91.960 E36.26000 F2880
G0 X130.144 Y91.960 F7200
G1 X145.540 Y107.356 E36.62208 F2880
G0 X145.540 Y107.922 F7200
G1 X129.578 Y91.960 E36.99748 F2880
G0 X129.012 Y91.960 F7200
G1 X145.540 Y108.488 E37.38617 F2880
G0 X145.540 Y109.053 F7200
G1 X128.447 Y91.960 E37.78817 F2880
G0 X127.881 Y91.960 F7200
G1 X145.540 Y109.619 E38.20347 F2880
G0 X145.540 Y110.185 F7200
G1 X130.004 Y94.650 E38.56884 F2880
G0 X130.186 Y95.397 F7200
G1 X145.540 Y110.750 E38.92993 F2880
G0 X145.540 Y111.316 F7200
G1 X131.961 Y97.737 E39.24928 F2880
G0 X131.961 Y98.303 F7200
G1 X145.540 Y111.882 E39.56864 F2880
G0 X145.540 Y112.447 F7200
G1 X131.961 Y98.868 E39.88800 F2880
G0 X131.961 Y99.434 F7200
G1 X145.540 Y113.013 E40.20736 F2880
G0 X145.540 Y113.579 F7200
G1 X131.961 Y100.000 E40.52672 F2880
G0 X131.961 Y100.566 F7200
G1 X145.540 Y114.145 E40.84608 F2880
G0 X145.540 Y114.710 F7200
G1 X131.961 Y101.131 E41.16544 F2880
G0 X131.961 Y101.697 F7200
G1 X145.540 Y115.276 E41.48480 F2880
G0 X145.540 Y115.842 F7200
G1 X131.961 Y102.263 E41.80415 F2880
G0 X131.961 Y102.828 F7200
G1 X145.540 Y116.407 E42.12351 F2880
G0 X145.540 Y116.973 F7200
G1 X131.961 Y103.394 E42.44287 F2880
G0 X131.961 Y103.960 F7200
G1 X145.540 Y117.539 E42.76223 F2880
G0 X145.540 Y118.104 F7200
G1 X131.961 Y104.525 E43.08159 F2880
G0 X131.961 Y105.091 F7200
G1 X145.540 Y118.670 E43.40095 F2880
G0 X145.343 Y119.039 F7200
G1 X131.961 Y105.657 E43.71569 F2880
G0 X131.961 Y106.222 F7200
G1 X144.778 Y119.039 E44.01713 F2880
G0 X144.212 Y119.039 F7200
G1 X131.961 Y106.788 E44.30527 F2880
G0 X131.961 Y107.354 F7200
G1 X143.646 Y119.039 E44.58010 F2880
G0 X143.081 Y119.039 F7200
G1 X131.961 Y107.919 E44.84162 F2880
G0 X131.961 Y108.485 F7200
G1 X142.515 Y119.039 E45.08985 F2880
G0 X141.949 Y119.039 F7200
G1 X131.961 Y109.051 E45.32476 F2880
G0 X131.961 Y109.616 F7200
G1 X141.384 Y119.039 E45.54638 F2880
G0 X140.818 Y119.039 F7200
G1 X131.961 Y110.182 E45.75469 F2880
G0 X131.961 Y110.748 F7200
G1 X140.252 Y119.039 E45.94969 F2880
G0 X139.686 Y119.039 F7200
G1 X131.961 Y111.314 E46.13140 F2880
G0 X131.961 Y111.879 F7200
G1 X139.121 Y119.039 E46.29979 F2880
G0 X138.555 Y119.039 F7200
G1 X131.961 Y112.445 E46.45489 F2880
G0 X131.961 Y113.011 F7200
G1 X137.989 Y119.039 E46.59667 F2880
G0 X137.424 Y119.039 F7200
G1 X131.961 Y113.576 E46.72516 F2880
G0 X131.961 Y114.142 F7200
G1 X136.858 Y119.039 E46.84034 F2880
G0 X136.292 Y119.039 F7200
G1 X131.713 Y114.461 E46.94803 F2880
G0 X129.553 Y114.507 F7200
;segType:InnerHair
G1 X129.440 Y114.458 E46.94964 F2880
G1 X129.322 Y114.415 E46.95085
G1 X129.271 Y114.397 E46.95128
G1 X129.386 Y114.422 E46.95247
G1 X129.500 Y114.481 E46.95439
G1 X129.553 Y114.507 E46.95541
G0 X130.016 Y114.461 F7200
;segType:HShell
G1 X134.595 Y119.039 E47.06310 F2880
G0 X134.030 Y119.039 F7200
G1 X129.592 Y114.602 E47.16746 F2880
G0 X130.138 Y115.713 F7200
G1 X133.464 Y119.039 E47.24568 F2880
G0 X132.898 Y119.039 F7200
G1 X130.217 Y116.358 E47.30874 F2880
G0 X130.154 Y116.861 F7200
G1 X132.333 Y119.039 E47.35998 F2880
G0 X131.767 Y119.039 F7200
G1 X130.025 Y117.298 E47.40094 F2880
G0 X129.856 Y117.695 F7200
G1 X131.201 Y119.039 E47.43257 F2880
G0 X130.636 Y119.039 F7200
G1 X129.618 Y118.022 E47.45649 F2880
G0 X129.350 Y118.320 F7200
G1 X130.070 Y119.039 E47.47342 F2880
G0 X129.505 Y118.757 F7200
G1 X128.807 Y118.908 E47.50310 F2880
G0 X126.495 Y118.859 F7200
G1 X126.528 Y118.892 E47.50387 F2880
G0 X126.643 Y118.975 F7200
;segType:InnerHair
G1 X126.757 Y118.993 E47.50586 F2880
G1 X126.871 Y119.011 E47.50767
G1 X126.986 Y119.029 E47.50931
G1 X127.100 Y119.033 E47.51089
G1 X127.214 Y119.037 E47.51244
G1 X127.329 Y119.040 E47.51396
G1 X127.443 Y119.044 E47.51544
G1 X127.557 Y119.048 E47.51688
G1 X127.671 Y119.051 E47.51829
G1 X127.786 Y119.040 E47.51982
G1 X127.900 Y119.029 E47.52144
G1 X128.014 Y119.019 E47.52317
G1 X128.129 Y119.008 E47.52500
G1 X128.243 Y118.997 E47.52693
G1 X128.357 Y118.986 E47.52898
G1 X128.471 Y118.960 E47.53130
; ------------------------------------
; Layer #3
; ------------------------------------
G92 E0 ;reset extr
G0 F3000 E-1.00000
G0 F600 Z1.500
G0 X128.230 Y118.147 F7200
G0 X128.546 Y117.998
G0 X128.923 Y117.686
G0 X129.211 Y117.290
G0 X129.391 Y116.835
G0 X129.452 Y116.350
G0 X129.391 Y115.865
G0 X129.211 Y115.410
G0 X128.923 Y115.014
G0 X128.546 Y114.702
G0 X128.103 Y114.494
G0 X127.622 Y114.402
G0 X127.134 Y114.433
G0 X127.129 Y114.434
G0 X126.911 Y113.700
G0 X123.800 Y113.700
G0 X123.800 Y103.212
G0 X116.973 Y80.200
G0 X117.198 Y80.960
G0 F3000 E0.00000
;segType:HShell
G1 X114.460 Y83.698 E0.06439 F2880
G0 X114.460 Y83.133 F7200
G1 X116.633 Y80.960 E0.11548 F2880
G0 X116.067 Y80.960 F7200
G1 X114.460 Y82.567 E0.15326 F2880
G0 X114.460 Y82.001 F7200
G1 X115.501 Y80.960 E0.17774 F2880
G0 X114.936 Y80.960 F7200
G1 X114.460 Y81.436 E0.18892 F2880
G0 X113.916 Y80.780 F7200
;segType:Perimeter
G1 X113.760 Y80.200 E0.19889 F1440
G1 X146.300 Y80.200 E0.74003
G1 X146.300 Y119.800 E1.39856
G1 X113.700 Y119.800 E1.94069
G1 X113.700 Y80.260 E2.59823
G0 X113.760 Y80.200 F7200
G0 X115.360 Y80.200
G0 X114.800 Y80.600
;segType:Loop
G1 X145.900 Y80.600 E3.11542 F2880
G1 X145.900 Y119.400 E3.76065
G1 X114.100 Y119.400 E4.28947
G1 X114.100 Y80.600 E4.93471
G1 X114.600 Y80.600 E4.94302
G0 F3000 E3.94302
G0 X141.523 Y80.961 F7200
G0 F3000 E4.94302
;segType:HShell
G1 X131.210 Y91.273 E5.18555 F2880
G0 X131.190 Y91.200 F7200
;segType:Perimeter
G1 X130.390 Y91.200 E5.19886 F1440
G1 X124.550 Y91.200 E5.29599
G1 X124.550 Y87.300 E5.36086
G1 X130.450 Y87.300 E5.45899
G1 X130.450 Y91.140 E5.52286
G0 X130.390 Y91.200 F7200
G0 X128.790 Y91.200
G0 X129.350 Y91.600
;segType:Loop
G1 X124.150 Y91.600 E5.60935 F2880
G1 X124.150 Y86.900 E5.68752
G1 X130.850 Y86.900 E5.79895
G1 X130.850 Y91.600 E5.87713
G1 X129.550 Y91.600 E5.89875
G0 F3000 E4.89875
G0 X129.977 Y91.200 F7200
G0 X127.288 Y93.723
G0 X127.134 Y93.733
G0 X126.669 Y93.884
G0 X126.256 Y94.146
G0 X125.921 Y94.503
G0 X125.685 Y94.931
G0 X125.585 Y95.321
G0 X114.460 Y105.760
G0 F3000 E5.89875
;segType:HShell
G1 X124.803 Y95.417 E6.14200 F2880
G0 X124.803 Y95.983 F7200
G1 X123.247 Y97.540 E6.17860 F2880
G0 X123.812 Y97.540 F7200
G1 X124.917 Y96.435 E6.20459 F2880
G0 X125.077 Y96.841 F7200
G1 X124.378 Y97.540 E6.22103 F2880
G0 X125.278 Y97.205 F7200
G1 X124.944 Y97.540 E6.22889 F2880
G0 X125.861 Y97.087 F7200
;segType:Perimeter
G1 X125.670 Y96.310 E6.24219 F1440
G1 X125.563 Y95.894 E6.24933
G1 X125.563 Y95.405 E6.25747
G1 X125.685 Y94.931 E6.26560
G1 X125.921 Y94.503 E6.27374
G1 X126.256 Y94.146 E6.28188
G1 X126.669 Y93.884 E6.29002
G1 X127.134 Y93.733 E6.29815
G1 X127.622 Y93.702 E6.30629
G1 X128.103 Y93.793 E6.31443
G1 X128.546 Y94.002 E6.32257
G1 X128.923 Y94.314 E6.33070
G1 X129.211 Y94.710 E6.33884
G1 X129.391 Y95.165 E6.34698
G1 X129.452 Y95.650 E6.35511
G1 X129.391 Y96.136 E6.36325
G1 X129.211 Y96.590 E6.37139
G1 X128.923 Y96.986 E6.37952
G1 X128.546 Y97.298 E6.38766
G1 X128.103 Y97.506 E6.39580
G1 X127.623 Y97.598 E6.40394
G1 X127.134 Y97.568 E6.41207
G1 X126.669 Y97.416 E6.42021
G1 X126.256 Y97.154 E6.42835
G1 X125.921 Y96.797 E6.43649
G1 X125.714 Y96.421 E6.44362
G0 X125.670 Y96.310 F7200
G0 X125.563 Y95.894
G0 X125.563 Y95.405
G0 X125.685 Y94.931
G0 X125.778 Y94.763
G0 X125.188 Y95.258
;segType:Loop
G1 X125.310 Y94.783 E6.45178 F2880
G1 X125.595 Y94.266 E6.46160
G1 X125.999 Y93.835 E6.47141
G1 X126.497 Y93.519 E6.48123
G1 X127.059 Y93.336 E6.49105
G1 X127.648 Y93.300 E6.50087
G1 X128.228 Y93.410 E6.51068
G1 X128.762 Y93.662 E6.52051
G1 X129.217 Y94.038 E6.53032
G1 X129.564 Y94.515 E6.54014
G1 X129.781 Y95.064 E6.54996
G1 X129.855 Y95.650 E6.55978
G1 X129.781 Y96.236 E6.56959
G1 X129.564 Y96.785 E6.57941
G1 X129.217 Y97.262 E6.58923
G1 X128.762 Y97.639 E6.59905
G1 X128.672 Y97.681 E6.60070
G0 X128.634 Y97.804 F7200
G0 X128.502 Y97.834
G0 X128.369 Y97.863
G1 X128.129 Y97.904 E6.60467 F2880
G1 X128.014 Y97.915 E6.60644
G1 X127.900 Y97.926 E6.60810
G1 X127.786 Y97.937 E6.60965
G1 X127.671 Y97.947 E6.61111
G1 X127.557 Y97.947 E6.61256
G1 X127.443 Y97.944 E6.61404
G1 X127.329 Y97.940 E6.61556
G1 X127.214 Y97.936 E6.61711
G1 X127.100 Y97.933 E6.61870
G1 X126.986 Y97.919 E6.62042
G1 X126.871 Y97.901 E6.62233
G1 X126.757 Y97.883 E6.62442
G1 X126.643 Y97.865 E6.62668
G0 X126.372 Y97.809 F7200
G1 X126.338 Y97.680 E6.62888 F2880
G1 X125.999 Y97.465 E6.63558
G1 X125.595 Y97.034 E6.64539
G1 X125.310 Y96.517 E6.65521
G1 X125.163 Y95.945 E6.66503
G1 X125.163 Y95.455 E6.67318
G0 F3000 E5.67318
G0 X125.563 Y95.558 F7200
G0 X125.563 Y95.894
G0 X125.685 Y96.369
G0 X125.921 Y96.797
G0 X126.256 Y97.154
G0 X126.669 Y97.416
G0 X127.134 Y97.568
G0 X127.623 Y97.598
G0 X128.103 Y97.506
G0 X128.546 Y97.298
G0 X128.923 Y96.986
G0 X129.211 Y96.590
G0 X129.244 Y96.506
G0 X146.300 Y100.898
G0 X145.540 Y100.703
G0 F3000 E6.67318
;segType:HShell
G1 X131.961 Y114.282 E6.99254 F2880
G0 X131.782 Y114.461 F7200
G1 X130.182 Y116.061 E7.03017 F2880
G0 X129.723 Y114.822 F7200
G1 X130.085 Y114.461 E7.03867 F2880
G0 X130.650 Y114.461 F7200
G1 X129.935 Y115.175 E7.05548 F2880
G0 X130.096 Y115.581 F7200
G1 X131.216 Y114.461 E7.08182 F2880
G0 X131.140 Y113.700 F7200
;segType:Perimeter
G1 X123.800 Y113.700 E7.20390 F1440
G1 X123.800 Y98.300 E7.46002
G1 X131.200 Y98.300 E7.58309
G1 X131.200 Y113.640 E7.83821
G0 X131.140 Y113.700 F7200
G0 X129.540 Y113.700
G0 X130.100 Y114.100
;segType:Loop
G1 X128.814 Y114.100 E7.85960 F2880
G0 X128.700 Y114.192 F7200
G0 X128.586 Y114.185
G0 X128.471 Y114.160
G0 X128.357 Y114.134
G0 X128.243 Y114.108
G1 X128.129 Y114.096 E7.86147 F2880
G1 X128.014 Y114.085 E7.86323
G1 X127.900 Y114.074 E7.86489
G1 X127.786 Y114.063 E7.86644
G1 X127.671 Y114.053 E7.86789
G1 X127.557 Y114.053 E7.86934
G1 X127.443 Y114.056 E7.87083
G1 X127.329 Y114.060 E7.87234
G1 X127.214 Y114.064 E7.87390
G1 X127.100 Y114.067 E7.87548
G1 X126.986 Y114.081 E7.87721
G1 X126.871 Y114.099 E7.87912
G1 X126.757 Y114.117 E7.88120
G1 X126.643 Y114.135 E7.88346
G1 X126.529 Y114.146 E7.88580
G1 X126.414 Y114.179 E7.88856
G1 X126.300 Y114.100 E7.89086
G1 X123.400 Y114.100 E7.93910
G1 X123.400 Y97.900 E8.20851
G1 X126.300 Y97.900 E8.25675
G1 X126.414 Y97.821 E8.25996
G1 X126.529 Y97.855 E8.26238
G0 X126.643 Y97.865 F7200
G0 X126.986 Y97.919
G0 X127.100 Y97.933
G0 X127.557 Y97.947
G0 X127.671 Y97.947
G0 X128.129 Y97.904
G1 X128.243 Y97.892 E8.26437 F2880
G1 X128.357 Y97.866 E8.26665
G1 X128.471 Y97.841 E8.26917
G1 X128.586 Y97.815 E8.27194
G1 X128.700 Y97.808 E8.27471
G1 X128.814 Y97.900 E8.27715
G1 X131.600 Y97.900 E8.32348
G1 X131.600 Y114.100 E8.59290
G1 X130.300 Y114.100 E8.61452
G0 F3000 E7.61452
G0 X130.821 Y113.700 F7200
G0 X131.200 Y113.700
G0 X131.200 Y113.409
G0 X145.540 Y102.400
G0 F3000 E8.61452
;segType:HShell
G1 X128.900 Y119.039 E9.00586 F2880
G0 X128.471 Y118.960 F7200
;segType:InnerHair
G1 X128.357 Y118.986 E9.00794 F2880
G1 X128.243 Y118.997 E9.00988
G1 X128.129 Y119.008 E9.01171
G1 X128.014 Y119.019 E9.01343
G1 X127.900 Y119.029 E9.01506
G1 X127.786 Y119.040 E9.01658
G1 X127.671 Y119.051 E9.01800
G1 X127.557 Y119.048 E9.01944
G1 X127.443 Y119.044 E9.02092
G1 X127.329 Y119.040 E9.02244
G1 X127.214 Y119.037 E9.02399
G1 X127.100 Y119.033 E9.02557
G1 X126.986 Y119.029 E9.02719
G1 X126.871 Y119.011 E9.02900
G1 X126.757 Y118.993 E9.03099
G1 X126.643 Y118.975 E9.03315
G0 X126.071 Y119.039 F7200
;segType:HShell
G0 X126.422 Y118.971
G1 X125.738 Y118.807 E9.05484 F2880
G0 X124.940 Y119.039 F7200
G1 X125.655 Y118.325 E9.07166 F2880
G0 X125.861 Y117.787 F7200
;segType:Perimeter
G1 X125.670 Y117.011 E9.08496 F1440
G1 X125.563 Y116.595 E9.09210
G1 X125.563 Y116.105 E9.10024
G1 X125.685 Y115.632 E9.10837
G1 X125.921 Y115.203 E9.11651
G1 X126.256 Y114.846 E9.12465
G1 X126.669 Y114.584 E9.13278
G1 X127.134 Y114.433 E9.14092
G1 X127.622 Y114.402 E9.14906
G1 X128.103 Y114.494 E9.15720
G1 X128.546 Y114.702 E9.16534
G1 X128.923 Y115.014 E9.17347
G1 X129.211 Y115.410 E9.18161
G1 X129.391 Y115.865 E9.18975
G1 X129.452 Y116.350 E9.19788
G1 X129.391 Y116.835 E9.20602
G1 X129.211 Y117.290 E9.21415
G1 X128.923 Y117.686 E9.22229
G1 X128.546 Y117.998 E9.23043
G1 X128.103 Y118.206 E9.23857
G1 X127.622 Y118.298 E9.24671
G1 X127.134 Y118.267 E9.25484
G1 X126.669 Y118.116 E9.26298
G1 X126.256 Y117.854 E9.27112
G1 X125.921 Y117.497 E9.27925
G1 X125.714 Y117.121 E9.28639
G0 X125.670 Y117.011 F7200
G0 X125.563 Y116.595
G0 X125.563 Y116.105
G0 X125.685 Y115.632
G0 X125.778 Y115.463
G0 X125.188 Y115.958
;segType:Loop
G1 X125.310 Y115.483 E9.29454 F2880
G1 X125.595 Y114.966 E9.30437
G1 X125.999 Y114.535 E9.31418
G1 X126.377 Y114.296 E9.32162
G0 X126.643 Y114.135 F7200
G0 X126.986 Y114.081
G0 X127.100 Y114.067
G0 X127.557 Y114.053
G0 X127.671 Y114.053
G0 X128.129 Y114.096
G1 X128.451 Y114.155 E9.32855 F2880
G1 X128.583 Y114.184 E9.33175
G1 X128.630 Y114.299 E9.33381
G1 X128.762 Y114.362 E9.33624
G1 X129.217 Y114.738 E9.34606
G1 X129.564 Y115.215 E9.35588
G1 X129.781 Y115.764 E9.36570
G1 X129.855 Y116.350 E9.37551
G1 X129.781 Y116.936 E9.38533
G1 X129.564 Y117.485 E9.39515
G1 X129.217 Y117.962 E9.40496
G1 X128.762 Y118.339 E9.41478
G1 X128.228 Y118.590 E9.42460
G1 X127.648 Y118.701 E9.43442
G1 X127.059 Y118.663 E9.44424
G1 X126.497 Y118.481 E9.45405
G1 X125.999 Y118.165 E9.46388
G1 X125.595 Y117.734 E9.47369
G1 X125.310 Y117.217 E9.48351
G1 X125.163 Y116.645 E9.49333
G1 X125.163 Y116.155 E9.50148
G0 X125.386 Y114.505 F7200
;segType:InnerHair
G1 X125.500 Y114.493 E9.50332 F2880
G1 X125.614 Y114.444 E9.50480
G1 X125.729 Y114.394 E9.50577
G1 X125.686 Y114.413 E9.50621
G1 X125.573 Y114.462 E9.50786
G1 X125.460 Y114.510 E9.51000
G1 X125.386 Y114.505 E9.51127
G0 F3000 E8.51127
G0 X125.585 Y113.700 F7200
G0 X123.800 Y113.700
G0 X123.800 Y98.300
G0 X129.389 Y98.300
G0 X129.594 Y97.472
G0 F3000 E9.51127
G1 X129.486 Y97.525 E9.51302 F2880
G1 X129.367 Y97.568 E9.51440
G1 X129.248 Y97.611 E9.51533
G1 X129.271 Y97.603 E9.51553
G1 X129.386 Y97.578 E9.51672
G1 X129.500 Y97.519 E9.51864
G1 X129.594 Y97.472 E9.52064
G0 F3000 E8.52064
G0 X128.178 Y97.471 F7200
G0 X128.103 Y97.506
G0 X127.623 Y97.598
G0 X127.134 Y97.568
G0 X126.838 Y97.471
G0 X125.416 Y97.471
G0 F3000 E9.52064
G1 X125.529 Y97.520 E9.52248 F2880
G1 X125.642 Y97.569 E9.52382
G1 X125.755 Y97.617 E9.52466
G1 X125.729 Y97.606 E9.52488
G1 X125.614 Y97.557 E9.52636
G1 X125.500 Y97.507 E9.52836
G1 X125.386 Y97.495 E9.53032
G1 X125.416 Y97.471 E9.53106
G0 X124.961 Y94.694 F7200
;segType:HShell
G1 X114.460 Y105.194 E9.77802 F2880
G0 X114.460 Y104.629 F7200
G1 X127.129 Y91.960 E10.07596 F2880
G0 X126.563 Y91.960 F7200
G1 X114.460 Y104.063 E10.36060 F2880
G0 X114.460 Y103.497 F7200
G1 X125.997 Y91.960 E10.63193 F2880
G0 X125.432 Y91.960 F7200
G1 X114.460 Y102.932 E10.88996 F2880
G0 X114.460 Y102.366 F7200
G1 X124.866 Y91.960 E11.13468 F2880
G0 X124.300 Y91.960 F7200
G1 X114.460 Y101.800 E11.36610 F2880
G0 X114.460 Y101.235 F7200
G1 X123.789 Y91.906 E11.58551 F2880
G0 X123.789 Y91.340 F7200
G1 X114.460 Y100.669 E11.80491 F2880
G0 X114.460 Y100.103 F7200
G1 X123.789 Y90.774 E12.02432 F2880
G0 X123.789 Y90.209 F7200
G1 X114.460 Y99.538 E12.24372 F2880
G0 X114.460 Y98.972 F7200
G1 X123.789 Y89.643 E12.46312 F2880
G0 X123.789 Y89.077 F7200
G1 X114.460 Y98.406 E12.68253 F2880
G0 X114.460 Y97.841 F7200
G1 X123.789 Y88.512 E12.90193 F2880
G0 X123.789 Y87.946 F7200
G1 X114.460 Y97.275 E13.12134 F2880
G0 X114.460 Y96.709 F7200
G1 X123.789 Y87.380 E13.34074 F2880
G0 X123.789 Y86.814 F7200
G1 X114.460 Y96.143 E13.56015 F2880
G0 X114.460 Y95.578 F7200
G1 X129.078 Y80.961 E13.90392 F2880
G0 X128.512 Y80.961 F7200
G1 X114.460 Y95.012 E14.23439 F2880
G0 X114.460 Y94.446 F7200
G1 X127.946 Y80.961 E14.55156 F2880
G0 X127.381 Y80.961 F7200
G1 X114.460 Y93.881 E14.85543 F2880
G0 X114.460 Y93.315 F7200
G1 X126.815 Y80.961 E15.14599 F2880
G0 X126.249 Y80.961 F7200
G1 X114.460 Y92.749 E15.42324 F2880
G0 X114.460 Y92.184 F7200
G1 X125.684 Y80.961 E15.68719 F2880
G0 X125.118 Y80.961 F7200
G1 X114.460 Y91.618 E15.93784 F2880
G0 X114.460 Y91.052 F7200
G1 X124.552 Y80.961 E16.17518 F2880
G0 X123.987 Y80.961 F7200
G1 X114.460 Y90.487 E16.39922 F2880
G0 X114.460 Y89.921 F7200
G1 X123.421 Y80.961 E16.60996 F2880
G0 X122.855 Y80.960 F7200
G1 X114.460 Y89.355 E16.80739 F2880
G0 X114.460 Y88.790 F7200
G1 X122.290 Y80.960 E16.99152 F2880
G0 X121.724 Y80.960 F7200
G1 X114.460 Y88.224 E17.16234 F2880
G0 X114.460 Y87.658 F7200
G1 X121.158 Y80.960 E17.31986 F2880
G0 X120.592 Y80.960 F7200
G1 X114.460 Y87.093 E17.46408 F2880
G0 X114.460 Y86.527 F7200
G1 X120.027 Y80.960 E17.59499 F2880
G0 X119.461 Y80.960 F7200
G1 X114.460 Y85.961 E17.71260 F2880
G0 X114.460 Y85.395 F7200
G1 X118.895 Y80.960 E17.81690 F2880
G0 X118.330 Y80.960 F7200
G1 X114.460 Y84.830 E17.90790 F2880
G0 X114.460 Y84.264 F7200
G1 X117.764 Y80.960 E17.98559 F2880
G0 X124.065 Y86.539 F7200
G1 X129.643 Y80.961 E18.11680 F2880
G0 X130.209 Y80.961 F7200
G1 X124.630 Y86.539 E18.24801 F2880
G0 X125.196 Y86.539 F7200
G1 X130.775 Y80.961 E18.37922 F2880
G0 X131.340 Y80.961 F7200
G1 X125.762 Y86.539 E18.51043 F2880
G0 X126.327 Y86.539 F7200
G1 X131.906 Y80.961 E18.64164 F2880
G0 X132.472 Y80.961 F7200
G1 X126.893 Y86.539 E18.77284 F2880
G0 X127.459 Y86.539 F7200
G1 X133.038 Y80.961 E18.90405 F2880
G0 X133.603 Y80.961 F7200
G1 X128.024 Y86.539 E19.03526 F2880
G0 X128.590 Y86.539 F7200
G1 X134.169 Y80.961 E19.16647 F2880
G0 X134.735 Y80.961 F7200
G1 X129.156 Y86.539 E19.29768 F2880
G0 X129.721 Y86.539 F7200
G1 X135.300 Y80.961 E19.42889 F2880
G0 X135.866 Y80.961 F7200
G1 X130.287 Y86.539 E19.56009 F2880
G0 X130.853 Y86.539 F7200
G1 X136.432 Y80.961 E19.69130 F2880
G0 X136.997 Y80.961 F7200
G1 X131.210 Y86.747 E19.82740 F2880
G0 X131.210 Y87.313 F7200
G1 X137.563 Y80.961 E19.97680 F2880
G0 X138.129 Y80.961 F7200
G1 X131.210 Y87.879 E20.13951 F2880
G0 X131.210 Y88.444 F7200
G1 X138.694 Y80.961 E20.31552 F2880
G0 X139.260 Y80.961 F7200
G1 X131.210 Y89.010 E20.50483 F2880
G0 X131.210 Y89.576 F7200
G1 X139.826 Y80.961 E20.70745 F2880
G0 X140.391 Y80.961 F7200
G1 X131.210 Y90.142 E20.92337 F2880
G0 X131.210 Y90.707 F7200
G1 X140.957 Y80.961 E21.15260 F2880
G0 F3000 E20.15260
G0 X130.450 Y89.675 F7200
G0 X130.450 Y91.200
G0 X128.611 Y91.200
G0 X127.694 Y91.960
G0 F3000 E21.15260
G1 X126.523 Y93.132 E21.18016 F2880
G0 X127.257 Y92.963 F7200
G1 X128.260 Y91.960 E21.20374 F2880
G0 X128.826 Y91.960 F7200
G1 X127.820 Y92.966 E21.22739 F2880
G0 X128.296 Y93.056 F7200
G1 X129.392 Y91.960 E21.25316 F2880
G0 X129.957 Y91.960 F7200
G1 X128.689 Y93.229 E21.28299 F2880
