;FLAVOR:RepRap
;TIME:7537
;Filament used: 3.93926m
;Layer height: 0.1
;MINX:94.876
;MINY:65.678
;MINZ:0.36
;MAXX:164.477
;MAXY:128.278
;MAXZ:42.36
;Generated with Cura_SteamEngine 4.8.0
T0
M190 S60
M104 S215
M109 S215
M82 ;absolute extrusion mode
;Craftbot Start Script
G28 X0Y0 ;home xy
G28 Z0 ;home z
G91 ;relative movements
G0 F100 ;speed 100mm/sec
G0 X15 Y15 Z0.4 E12 ;purge nozzle - move to xy15
G90 ;Absolute movements
M83 ;relative extrusion mode
G1 F1500 E-6.5
;LAYER_COUNT:413
;LAYER:-9
M107
G0 F7200 X98.069 Y71.746 Z0.36
;TYPE:SUPPORT-INTERFACE
G1 F1500 E6.5
G1 F1350 X98.177 Y71.605 E0.02127
G1 X98.754 Y70.913 E0.10788
G1 X98.85 Y70.805 E0.0173
G1 X99.332 Y70.293 E0.0842
G1 X99.489 Y70.137 E0.0265
G1 X100.185 Y69.491 E0.1137
G1 X100.324 Y69.372 E0.02191
G1 X101.015 Y68.818 E0.10605
G1 X101.154 Y68.714 E0.02079
G1 X101.869 Y68.222 E0.10392
G1 X102.053 Y68.105 E0.02611
G1 X102.809 Y67.662 E0.10492
G1 X102.951 Y67.585 E0.01934
G1 X103.783 Y67.176 E0.11101
G1 X103.896 Y67.126 E0.0148
G1 X104.746 Y66.783 E0.10975
G1 X104.919 Y66.721 E0.022
G1 X105.757 Y66.452 E0.10538
G1 X105.921 Y66.406 E0.02039
G1 X106.793 Y66.194 E0.10745
G1 X106.955 Y66.161 E0.0198
G1 X107.848 Y66.013 E0.10838
G1 X108.025 Y65.99 E0.02137
G1 X108.919 Y65.907 E0.1075
G1 X109.061 Y65.9 E0.01702
G1 X109.802 Y65.879 E0.08876
G1 X149.563 Y65.88 E4.76084
G1 X150.564 Y65.916 E0.11993
G1 X150.687 Y65.925 E0.01477
G1 X151.604 Y66.027 E0.11048
G1 X151.779 Y66.052 E0.02117
G1 X152.668 Y66.216 E0.10824
G1 X152.791 Y66.244 E0.0151
G1 X153.685 Y66.478 E0.11065
G1 X153.848 Y66.527 E0.02038
G1 X154.69 Y66.813 E0.10648
G1 X154.856 Y66.877 E0.0213
G1 X155.659 Y67.218 E0.10446
G1 X155.848 Y67.306 E0.02496
G1 X156.642 Y67.714 E0.10689
G1 X156.759 Y67.781 E0.01614
G1 X157.538 Y68.255 E0.10918
G1 X157.689 Y68.355 E0.02169
G1 X158.403 Y68.866 E0.10513
G1 X158.551 Y68.979 E0.0223
G1 X159.243 Y69.556 E0.10788
G1 X159.351 Y69.652 E0.0173
G1 X159.863 Y70.134 E0.0842
G1 X159.982 Y70.253 E0.02015
G1 X160.665 Y70.987 E0.12005
G1 X160.784 Y71.126 E0.02191
G1 X161.338 Y71.817 E0.10605
G1 X161.442 Y71.956 E0.02079
G1 X161.934 Y72.671 E0.10392
G1 X162.051 Y72.855 E0.02611
G1 X162.491 Y73.604 E0.10401
G1 X162.564 Y73.738 E0.01827
G1 X162.969 Y74.561 E0.10983
G1 X163.03 Y74.698 E0.01796
G1 X163.372 Y75.543 E0.10915
G1 X163.431 Y75.709 E0.02109
G1 X163.702 Y76.551 E0.10591
G1 X163.749 Y76.717 E0.02066
G1 X163.96 Y77.586 E0.10707
G1 X163.994 Y77.749 E0.01994
G1 X164.142 Y78.641 E0.10827
G1 X164.166 Y78.827 E0.02246
G1 X164.247 Y79.711 E0.10629
G1 X164.256 Y79.863 E0.01823
G1 X164.277 Y80.596 E0.0878
G1 X164.277 Y113.348 E3.92161
G1 X164.241 Y114.354 E0.12053
G1 X164.231 Y114.489 E0.01621
G1 X164.129 Y115.406 E0.11048
G1 X164.104 Y115.581 E0.02117
G1 X163.942 Y116.459 E0.1069
G1 X163.912 Y116.593 E0.01644
G1 X163.681 Y117.478 E0.10952
G1 X163.629 Y117.65 E0.02152
G1 X163.343 Y118.492 E0.10648
G1 X163.279 Y118.658 E0.0213
G1 X162.938 Y119.461 E0.10446
G1 X162.857 Y119.636 E0.02309
G1 X162.453 Y120.422 E0.10582
G1 X162.375 Y120.561 E0.01908
G1 X161.901 Y121.34 E0.10918
G1 X161.801 Y121.491 E0.02169
G1 X161.29 Y122.205 E0.10513
G1 X161.177 Y122.353 E0.0223
G1 X160.6 Y123.045 E0.10788
G1 X160.504 Y123.153 E0.0173
G1 X160.022 Y123.665 E0.0842
G1 X159.865 Y123.821 E0.0265
G1 X159.18 Y124.457 E0.11192
G1 X159.032 Y124.584 E0.02335
G1 X158.339 Y125.14 E0.10638
G1 X158.2 Y125.244 E0.02079
G1 X157.485 Y125.736 E0.10392
G1 X157.301 Y125.853 E0.02611
G1 X156.545 Y126.296 E0.10492
G1 X156.403 Y126.373 E0.01934
G1 X155.575 Y126.78 E0.11047
G1 X155.458 Y126.832 E0.01533
G1 X154.603 Y127.177 E0.11039
G1 X154.44 Y127.235 E0.02072
G1 X153.597 Y127.506 E0.10603
G1 X153.433 Y127.552 E0.02039
G1 X152.561 Y127.764 E0.10745
G1 X152.399 Y127.797 E0.0198
G1 X151.506 Y127.945 E0.10838
G1 X151.329 Y127.968 E0.02137
G1 X150.435 Y128.051 E0.1075
G1 X150.293 Y128.058 E0.01702
G1 X149.552 Y128.079 E0.08876
G1 X109.791 Y128.078 E4.76084
G1 X108.79 Y128.042 E0.11993
G1 X108.667 Y128.033 E0.01477
G1 X107.75 Y127.931 E0.11048
G1 X107.575 Y127.906 E0.02117
G1 X106.686 Y127.742 E0.10824
G1 X106.563 Y127.714 E0.0151
G1 X105.669 Y127.48 E0.11065
G1 X105.506 Y127.431 E0.02038
G1 X104.664 Y127.145 E0.10648
G1 X104.498 Y127.081 E0.0213
G1 X103.695 Y126.74 E0.10446
G1 X103.506 Y126.652 E0.02496
G1 X102.712 Y126.244 E0.10689
G1 X102.595 Y126.177 E0.01614
G1 X101.816 Y125.703 E0.10918
G1 X101.665 Y125.603 E0.02169
G1 X100.951 Y125.092 E0.10513
G1 X100.803 Y124.979 E0.0223
G1 X100.111 Y124.402 E0.10788
G1 X100.003 Y124.306 E0.0173
G1 X99.491 Y123.824 E0.0842
G1 X99.331 Y123.663 E0.02718
G1 X98.687 Y122.969 E0.11336
G1 X98.57 Y122.832 E0.02157
G1 X98.02 Y122.146 E0.10528
G1 X97.904 Y121.99 E0.02328
G1 X97.42 Y121.287 E0.1022
G1 X97.303 Y121.103 E0.02611
G1 X96.86 Y120.347 E0.10492
G1 X96.783 Y120.205 E0.01934
G1 X96.374 Y119.373 E0.11101
G1 X96.324 Y119.26 E0.0148
G1 X95.975 Y118.396 E0.11157
G1 X95.919 Y118.238 E0.02007
G1 X95.647 Y117.39 E0.10663
G1 X95.605 Y117.24 E0.01865
G1 X95.389 Y116.352 E0.10943
G1 X95.36 Y116.209 E0.01747
G1 X95.21 Y115.303 E0.10996
G1 X95.188 Y115.131 E0.02076
G1 X95.105 Y114.232 E0.1081
G1 X95.098 Y114.095 E0.01643
G1 X95.077 Y113.362 E0.0878
G1 X95.077 Y80.61 E3.92161
G1 X95.113 Y79.604 E0.12053
G1 X95.123 Y79.469 E0.01621
G1 X95.224 Y78.554 E0.11022
G1 X95.25 Y78.379 E0.02118
G1 X95.412 Y77.499 E0.10714
G1 X95.442 Y77.365 E0.01644
G1 X95.673 Y76.479 E0.10963
G1 X95.725 Y76.308 E0.0214
G1 X96.011 Y75.466 E0.10648
G1 X96.075 Y75.3 E0.0213
G1 X96.416 Y74.497 E0.10446
G1 X96.497 Y74.322 E0.02309
G1 X96.912 Y73.514 E0.10876
G1 X96.979 Y73.397 E0.01614
G1 X97.453 Y72.618 E0.10918
G1 X97.553 Y72.467 E0.02169
G1 X98.069 Y71.746 E0.10616
G0 F7200 X97.6 Y72.401
G1 F1350 X97.6 Y121.548 E5.88469
G0 F7200 X99.2 Y123.521
G1 F1350 X99.2 Y70.433 E6.35657
G0 F7200 X100.8 Y68.99
G1 F1350 X100.8 Y124.976 E6.70357
G0 F7200 X102.4 Y126.058
G1 F1350 X102.4 Y67.901 E6.96351
G0 F7200 X104 Y67.084
G1 F1350 X104 Y126.869 E7.15845
G0 F7200 X105.6 Y127.459
G1 F1350 X105.6 Y66.502 E7.29878
G0 F7200 X107.2 Y66.12
G1 F1350 X107.2 Y127.836 E7.38966
G0 F7200 X108.8 Y128.042
G1 F1350 X108.8 Y65.918 E7.43851
G0 F7200 X110.4 Y65.88
G1 F1350 X110.4 Y128.078 E7.44737
G0 F7200 X112 Y128.078
G1 F1350 X112 Y65.88 E7.44737
G0 F7200 X113.6 Y65.88
G1 F1350 X113.6 Y128.078 E7.44737
G0 F7200 X115.2 Y128.078
G1 F1350 X115.2 Y65.88 E7.44737
G0 F7200 X116.8 Y65.88
G1 F1350 X116.8 Y128.078 E7.44737
G0 F7200 X118.4 Y128.078
G1 F1350 X118.4 Y65.88 E7.44737
G0 F7200 X120 Y65.88
G1 F1350 X120 Y128.078 E7.44737
G0 F7200 X121.6 Y128.078
G1 F1350 X121.6 Y65.88 E7.44737
G0 F7200 X123.2 Y65.88
G1 F1350 X123.2 Y128.078 E7.44737
G0 F7200 X124.8 Y128.078
G1 F1350 X124.8 Y65.88 E7.44737
G0 F7200 X126.4 Y65.88
G1 F1350 X126.4 Y128.078 E7.44737
G0 F7200 X128 Y128.078
G1 F1350 X128 Y65.88 E7.44737
G0 F7200 X129.6 Y65.88
G1 F1350 X129.6 Y128.078 E7.44737
G0 F7200 X131.2 Y128.078
G1 F1350 X131.2 Y65.88 E7.44737
G0 F7200 X132.8 Y65.88
G1 F1350 X132.8 Y128.078 E7.44737
G0 F7200 X134.4 Y128.078
G1 F1350 X134.4 Y65.88 E7.44737
G0 F7200 X136 Y65.88
G1 F1350 X136 Y128.078 E7.44737
G0 F7200 X137.6 Y128.078
G1 F1350 X137.6 Y65.88 E7.44737
G0 F7200 X139.2 Y65.88
G1 F1350 X139.2 Y128.078 E7.44737
G0 F7200 X140.8 Y128.078
G1 F1350 X140.8 Y65.88 E7.44737
G0 F7200 X142.4 Y65.88
G1 F1350 X142.4 Y128.078 E7.44737
G0 F7200 X144 Y128.078
G1 F1350 X144 Y65.88 E7.44737
G0 F7200 X145.6 Y65.88
G1 F1350 X145.6 Y128.078 E7.44737
G0 F7200 X147.2 Y128.078
G1 F1350 X147.2 Y65.88 E7.44737
G0 F7200 X148.8 Y65.88
G1 F1350 X148.8 Y128.078 E7.44737
G0 F7200 X150.4 Y128.053
G1 F1350 X150.4 Y65.911 E7.44066
G0 F7200 X152 Y66.093
G1 F1350 X152 Y127.864 E7.39624
G0 F7200 X153.6 Y127.506
G1 F1350 X153.6 Y66.456 E7.30991
G0 F7200 X155.2 Y67.024
G1 F1350 X155.2 Y126.937 E7.17377
G0 F7200 X156.8 Y126.147
G1 F1350 X156.8 Y67.806 E6.98555
G0 F7200 X158.4 Y68.864
G1 F1350 X158.4 Y125.092 E6.73254
G0 F7200 X160 Y123.687
G1 F1350 X160 Y70.273 E6.3956
G0 F7200 X161.6 Y72.186
G1 F1350 X161.6 Y121.772 E5.93725
G0 F7200 X163.2 Y118.845
G1 F1350 X163.2 Y75.119 E5.2356
G0 F7200 X96 Y75.498
G1 F1350 X96 Y118.457 E5.14376
G0 F600 X96 Y118.457 Z0.51
G0 F7200 X97.807 Y121.848
;TIME_ELAPSED:130.362557
;LAYER:-8
;TYPE:SUPPORT
G1 F1350 X101.297 Y125.338 E0.24624
G1 X100.95 Y125.091 E0.02125
G1 X100.802 Y124.978 E0.00929
G1 X100.11 Y124.401 E0.04495
G1 X100.003 Y124.305 E0.00717
G1 X99.49 Y123.823 E0.03512
G1 X99.33 Y123.662 E0.01132
G1 X98.687 Y122.967 E0.04724
G1 X98.569 Y122.83 E0.00902
G1 X98.019 Y122.144 E0.04387
G1 X97.903 Y121.989 E0.00966
G0 F7200 X101.297 Y125.338
G1 F1350 X101.664 Y125.601 E0.02253
G1 X101.816 Y125.702 E0.0091
G1 X102.595 Y126.176 E0.04549
G1 X102.712 Y126.243 E0.00673
G1 X103.506 Y126.651 E0.04454
G1 X103.695 Y126.739 E0.0104
G1 X104.419 Y127.046 E0.03923
G1 X96.114 Y118.741 E0.58596
G1 X95.974 Y118.395 E0.01862
G1 X95.919 Y118.236 E0.00839
G1 X95.646 Y117.388 E0.04445
G1 X95.605 Y117.239 E0.00771
G1 X95.469 Y116.682 E0.02861
G1 X106.477 Y127.69 E0.77667
G1 X106.562 Y127.713 E0.00439
G1 X106.686 Y127.74 E0.00633
G1 X107.574 Y127.905 E0.04506
G1 X107.749 Y127.93 E0.00882
G1 X108.178 Y127.977 E0.02153
G1 X95.173 Y114.972 E0.91757
G1 X95.105 Y114.23 E0.03717
G1 X95.098 Y114.093 E0.00684
G1 X95.079 Y113.464 E0.0314
G1 X109.687 Y128.072 E1.03067
G1 X109.791 Y128.076 E0.00519
G1 X111.106 Y128.076 E0.06561
G1 X95.076 Y112.046 E1.131
G1 X95.076 Y110.632 E0.07054
G1 X112.52 Y128.076 E1.23077
G1 X113.934 Y128.076 E0.07054
G1 X95.076 Y109.218 E1.33053
G1 X95.076 Y107.804 E0.07054
G1 X115.348 Y128.076 E1.4303
G1 X116.763 Y128.076 E0.07059
G1 X95.076 Y106.389 E1.53013
G1 X95.076 Y104.975 E0.07054
G1 X118.177 Y128.076 E1.6299
G1 X119.591 Y128.076 E0.07054
G1 X95.076 Y103.561 E1.72967
G1 X95.076 Y102.147 E0.07054
G1 X121.005 Y128.076 E1.82943
G1 X122.419 Y128.076 E0.07054
G1 X95.076 Y100.733 E1.9292
G1 X95.076 Y99.318 E0.07059
G1 X123.834 Y128.077 E2.02907
G1 X125.249 Y128.077 E0.07059
G1 X95.076 Y97.904 E2.12887
G1 X95.076 Y96.49 E0.07054
G1 X126.663 Y128.077 E2.22863
G1 X128.077 Y128.077 E0.07054
G1 X95.076 Y95.076 E2.3284
G1 X95.076 Y93.661 E0.07059
G1 X129.491 Y128.077 E2.4282
G1 X130.905 Y128.077 E0.07054
G1 X95.076 Y92.247 E2.52796
G1 X95.076 Y90.833 E0.07054
G1 X132.32 Y128.077 E2.62777
G1 X133.734 Y128.077 E0.07054
G1 X95.076 Y89.419 E2.72753
G1 X95.076 Y88.005 E0.07054
G1 X135.148 Y128.077 E2.8273
G1 X136.563 Y128.078 E0.07059
G1 X95.076 Y86.59 E2.92717
G1 X95.076 Y85.176 E0.07054
G1 X137.977 Y128.078 E3.02693
G1 X139.391 Y128.078 E0.07054
G1 X95.076 Y83.762 E3.1267
G1 X95.076 Y82.348 E0.07054
G1 X140.806 Y128.078 E3.2265
G1 X142.22 Y128.078 E0.07054
G1 X95.076 Y80.934 E3.32626
G1 X95.076 Y80.61 E0.01616
G1 X95.112 Y79.603 E0.05027
G1 X95.115 Y79.558 E0.00225
G1 X143.634 Y128.078 E3.42331
G1 X145.048 Y128.078 E0.07054
G1 X95.264 Y78.294 E3.51253
G1 X95.411 Y77.498 E0.04038
G1 X95.441 Y77.365 E0.0068
G1 X95.504 Y77.119 E0.01267
G1 X146.463 Y128.078 E3.59543
G1 X147.877 Y128.078 E0.07054
G1 X95.82 Y76.021 E3.6729
G1 X96.01 Y75.465 E0.02931
G1 X96.074 Y75.299 E0.00888
G1 X96.204 Y74.991 E0.01668
G1 X149.291 Y128.078 E3.74557
G1 X149.55 Y128.078 E0.01292
G1 X150.292 Y128.057 E0.03703
G1 X150.434 Y128.051 E0.00709
G1 X150.657 Y128.03 E0.01117
G1 X96.65 Y74.022 E3.81052
G1 X96.911 Y73.514 E0.02849
G1 X96.978 Y73.397 E0.00673
G1 X97.152 Y73.11 E0.01674
G1 X151.917 Y127.876 E3.864
G1 X152.398 Y127.796 E0.02433
G1 X152.56 Y127.763 E0.00825
G1 X153.09 Y127.634 E0.02721
G1 X97.706 Y72.25 E3.90764
G1 X98.068 Y71.745 E0.031
G1 X98.176 Y71.605 E0.00882
G1 X98.311 Y71.441 E0.0106
G1 X154.186 Y127.315 E3.94225
G1 X154.439 Y127.235 E0.01324
G1 X154.602 Y127.176 E0.00865
G1 X155.214 Y126.929 E0.03293
G1 X98.965 Y70.68 E3.96867
G1 X99.33 Y70.292 E0.02658
G1 X99.487 Y70.137 E0.01101
G1 X99.668 Y69.97 E0.01229
G1 X156.18 Y126.481 E3.98719
G1 X156.402 Y126.372 E0.01234
G1 X156.544 Y126.295 E0.00806
G1 X157.088 Y125.976 E0.03146
G1 X100.413 Y69.3 E3.99876
G1 X101.014 Y68.818 E0.03844
G1 X101.153 Y68.713 E0.00869
G1 X101.205 Y68.678 E0.00313
G1 X157.945 Y125.418 E4.00331
G1 X158.199 Y125.244 E0.01536
G1 X158.338 Y125.139 E0.00869
G1 X158.749 Y124.808 E0.02633
G1 X102.048 Y68.107 E4.00056
G0 F7200 X102.051 Y68.104
G1 F1350 X102.808 Y67.662 E0.04373
G1 X102.944 Y67.588 E0.00772
G1 X159.507 Y124.151 E3.99083
G1 X159.864 Y123.821 E0.02425
G1 X160.021 Y123.665 E0.01104
G1 X160.221 Y123.452 E0.01458
G1 X103.895 Y67.125 E3.97414
G1 X104.745 Y66.783 E0.04571
G1 X104.908 Y66.724 E0.00865
G1 X160.885 Y122.702 E3.94951
G1 X161.175 Y122.352 E0.02268
G1 X161.289 Y122.205 E0.00928
G1 X161.503 Y121.905 E0.01838
G1 X105.987 Y66.389 E3.91695
G1 X106.792 Y66.194 E0.04132
G1 X106.954 Y66.161 E0.00825
G1 X107.142 Y66.13 E0.00951
G1 X162.07 Y121.058 E3.87547
G1 X162.373 Y120.56 E0.02908
G1 X162.452 Y120.421 E0.00798
G1 X162.587 Y120.16 E0.01466
G1 X108.383 Y65.956 E3.82438
G1 X108.918 Y65.906 E0.02681
G1 X109.06 Y65.9 E0.00709
G1 X109.722 Y65.881 E0.03304
G1 X163.046 Y119.205 E3.7623
G1 X163.278 Y118.658 E0.02964
G1 X163.342 Y118.492 E0.00888
G1 X163.445 Y118.19 E0.01592
G1 X111.134 Y65.879 E3.69082
G1 X112.548 Y65.879 E0.07054
G1 X163.777 Y117.108 E3.61448
G1 X163.91 Y116.592 E0.02658
G1 X163.941 Y116.459 E0.00681
G1 X164.035 Y115.952 E0.02573
G1 X113.962 Y65.879 E3.53292
G1 X115.377 Y65.879 E0.07059
G1 X164.205 Y114.708 E3.44511
G1 X164.229 Y114.489 E0.01099
G1 X164.24 Y114.354 E0.00676
G1 X164.276 Y113.364 E0.04942
G1 X116.791 Y65.879 E3.35032
G1 X118.205 Y65.879 E0.07054
G1 X164.276 Y111.95 E3.25056
G1 X164.276 Y110.536 E0.07054
G1 X119.619 Y65.879 E3.15079
G1 X121.034 Y65.879 E0.07059
G1 X164.276 Y109.122 E3.05099
G1 X164.276 Y107.707 E0.07059
G1 X122.448 Y65.879 E2.95119
G1 X123.862 Y65.879 E0.07054
G1 X164.276 Y106.293 E2.85143
G1 X164.276 Y104.879 E0.07054
G1 X125.276 Y65.879 E2.75166
G1 X126.69 Y65.879 E0.07054
G1 X164.276 Y103.465 E2.6519
G1 X164.276 Y102.051 E0.07054
G1 X128.105 Y65.879 E2.55209
G1 X129.519 Y65.879 E0.07054
G1 X164.276 Y100.636 E2.45229
G1 X164.276 Y99.222 E0.07054
G1 X130.934 Y65.88 E2.35246
G1 X132.348 Y65.88 E0.07054
G1 X164.276 Y97.808 E2.25269
G1 X164.276 Y96.394 E0.07054
G1 X133.762 Y65.88 E2.15293
G1 X135.176 Y65.88 E0.07054
G1 X164.276 Y94.979 E2.05313
G1 X164.276 Y93.565 E0.07054
G1 X136.591 Y65.88 E1.95333
G1 X138.005 Y65.88 E0.07054
G1 X164.276 Y92.151 E1.85356
G1 X164.276 Y90.737 E0.07054
G1 X139.419 Y65.88 E1.7538
G1 X140.833 Y65.88 E0.07054
G1 X164.276 Y89.323 E1.65403
G1 X164.276 Y87.908 E0.07059
G1 X142.247 Y65.88 E1.55423
G1 X143.662 Y65.88 E0.07059
G1 X164.276 Y86.494 E1.45443
G1 X164.276 Y85.08 E0.07054
G1 X145.076 Y65.88 E1.35466
G1 X146.49 Y65.88 E0.07054
G1 X164.276 Y83.666 E1.2549
G1 X164.276 Y82.252 E0.07054
G1 X147.904 Y65.88 E1.15513
G1 X149.319 Y65.88 E0.07059
G1 X164.276 Y80.837 E1.0553
G1 X164.276 Y80.596 E0.01202
G1 X164.255 Y79.863 E0.03658
G1 X164.246 Y79.711 E0.0076
G1 X164.214 Y79.361 E0.01753
G1 X150.789 Y65.937 E0.94717
G1 X151.603 Y66.026 E0.04085
G1 X151.778 Y66.051 E0.00882
G1 X152.441 Y66.174 E0.03364
G1 X163.987 Y77.72 E0.81463
G1 X163.958 Y77.585 E0.00689
G1 X163.748 Y76.717 E0.04455
G1 X163.701 Y76.55 E0.00866
G1 X163.449 Y75.767 E0.04104
G1 X154.393 Y66.712 E0.63891
G1 X154.689 Y66.813 E0.0156
G1 X154.854 Y66.876 E0.00881
G1 X155.658 Y67.217 E0.04357
G1 X155.847 Y67.305 E0.0104
G1 X156.641 Y67.713 E0.04454
G1 X156.757 Y67.781 E0.00671
G1 X157.061 Y67.965 E0.01773
G1 X162.193 Y73.097 E0.36209
G0 F7200 X162.05 Y72.854
G1 F1350 X161.933 Y72.67 E0.01088
G1 X161.441 Y71.955 E0.0433
G1 X161.337 Y71.817 E0.00862
G1 X160.783 Y71.126 E0.04419
G1 X160.663 Y70.987 E0.00916
G1 X159.98 Y70.253 E0.05002
G1 X159.861 Y70.134 E0.0084
G1 X159.35 Y69.652 E0.03505
G1 X159.242 Y69.555 E0.00724
G1 X158.55 Y68.979 E0.04492
G1 X158.402 Y68.865 E0.00932
G1 X157.688 Y68.355 E0.04378
G1 X157.537 Y68.254 E0.00906
G1 X157.061 Y67.965 E0.02778
G0 F600 X157.061 Y67.965 Z0.61
G0 F7200 X152.6 Y66
;TIME_ELAPSED:319.240165
;LAYER:-7
;TYPE:SUPPORT-INTERFACE
G1 F1800 X106.745 Y66 E0.76257
G0 F7200 X106.749 Y65.999
G1 F1800 X106.923 Y65.963 E0.00295
G1 X107.818 Y65.814 E0.01509
