;FLAVOR:RepRap
;TIME:4040
;Filament used: 3.93932m
;Layer height: 0.2
;MINX:103.699
;MINY:75.199
;MINZ:0.36
;MAXX:146.3
;MAXY:124.8
;MAXZ:42.71
;Generated with Cura_SteamEngine 4.8.0
T0
M190 S60
M104 S215
M109 S215
M82 ;absolute extrusion mode
;Craftbot Start Script
G28 X0Y0 ;home xy
G28 Z0 ;home z
G91 ;relative movements
G0 F100 ;speed 100mm/sec
G0 X15 Y15 Z0.4 E12 ;purge nozzle - move to xy15
G90 ;Absolute movements
M83 ;relative extrusion mode
G1 F1500 E-6.5
;LAYER_COUNT:207
;LAYER:-6
M107
G0 F7200 X104.89 Y77.161 Z0.36
;TYPE:SUPPORT-INTERFACE
G1 F1500 E6.5
G1 F1350 X105.059 Y76.96 E0.03144
G1 X105.279 Y76.727 E0.03837
G1 X105.481 Y76.54 E0.03296
G1 X105.711 Y76.352 E0.03557
G1 X105.939 Y76.188 E0.03363
G1 X106.198 Y76.026 E0.03658
G1 X106.437 Y75.898 E0.03246
G1 X106.712 Y75.771 E0.03627
G1 X106.973 Y75.669 E0.03355
G1 X107.276 Y75.574 E0.03802
G1 X107.497 Y75.52 E0.02724
G1 X107.853 Y75.46 E0.04323
G1 X108.407 Y75.41 E0.0666
G1 X108.629 Y75.4 E0.02661
G1 X141.424 Y75.4 E3.92676
G1 X141.55 Y75.404 E0.01509
G1 X141.927 Y75.428 E0.04523
G1 X142.225 Y75.465 E0.03596
G1 X142.509 Y75.52 E0.03464
G1 X142.8 Y75.596 E0.03601
G1 X143.058 Y75.68 E0.03249
G1 X143.337 Y75.791 E0.03595
G1 X143.595 Y75.913 E0.03417
G1 X143.853 Y76.056 E0.03532
G1 X144.092 Y76.208 E0.03391
G1 X144.339 Y76.39 E0.03674
G1 X144.54 Y76.559 E0.03144
G1 X144.773 Y76.779 E0.03837
G1 X144.96 Y76.981 E0.03296
G1 X145.148 Y77.211 E0.03557
G1 X145.312 Y77.439 E0.03363
G1 X145.474 Y77.698 E0.03658
G1 X145.602 Y77.937 E0.03246
G1 X145.729 Y78.212 E0.03627
G1 X145.831 Y78.473 E0.03355
G1 X145.926 Y78.776 E0.03802
G1 X145.98 Y78.997 E0.02724
G1 X146.04 Y79.353 E0.04323
G1 X146.09 Y79.907 E0.0666
G1 X146.1 Y80.129 E0.02661
G1 X146.1 Y119.924 E4.76491
G1 X146.096 Y120.05 E0.01509
G1 X146.072 Y120.427 E0.04523
G1 X146.035 Y120.725 E0.03596
G1 X145.98 Y121.009 E0.03464
G1 X145.904 Y121.3 E0.03601
G1 X145.82 Y121.558 E0.03249
G1 X145.709 Y121.837 E0.03595
G1 X145.587 Y122.095 E0.03417
G1 X145.444 Y122.353 E0.03532
G1 X145.292 Y122.592 E0.03391
G1 X145.119 Y122.827 E0.03494
G1 X144.938 Y123.044 E0.03383
G1 X144.724 Y123.27 E0.03727
G1 X144.519 Y123.46 E0.03347
G1 X144.289 Y123.648 E0.03557
G1 X144.061 Y123.812 E0.03363
G1 X143.802 Y123.974 E0.03658
G1 X143.563 Y124.102 E0.03246
G1 X143.288 Y124.229 E0.03627
G1 X143.027 Y124.331 E0.03355
G1 X142.724 Y124.426 E0.03802
G1 X142.503 Y124.48 E0.02724
G1 X142.147 Y124.54 E0.04323
G1 X141.593 Y124.59 E0.0666
G1 X141.371 Y124.6 E0.02661
G1 X108.576 Y124.6 E3.92676
G1 X108.45 Y124.596 E0.01509
G1 X108.073 Y124.572 E0.04523
G1 X107.775 Y124.535 E0.03596
G1 X107.491 Y124.48 E0.03464
G1 X107.2 Y124.404 E0.03601
G1 X106.94 Y124.319 E0.03275
G1 X106.663 Y124.209 E0.03569
G1 X106.404 Y124.086 E0.03433
G1 X106.147 Y123.944 E0.03516
G1 X105.908 Y123.792 E0.03391
G1 X105.661 Y123.61 E0.03674
G1 X105.46 Y123.441 E0.03144
G1 X105.227 Y123.221 E0.03837
G1 X105.04 Y123.019 E0.03296
G1 X104.848 Y122.784 E0.03634
G1 X104.688 Y122.561 E0.03286
G1 X104.526 Y122.302 E0.03658
G1 X104.398 Y122.063 E0.03246
G1 X104.271 Y121.788 E0.03627
G1 X104.169 Y121.527 E0.03355
G1 X104.074 Y121.224 E0.03802
G1 X104.018 Y120.995 E0.02823
G1 X103.96 Y120.647 E0.04224
G1 X103.91 Y120.093 E0.0666
G1 X103.9 Y119.871 E0.02661
G1 X103.9 Y80.076 E4.76491
G1 X103.904 Y79.95 E0.01509
G1 X103.928 Y79.573 E0.04523
G1 X103.965 Y79.275 E0.03596
G1 X104.02 Y78.991 E0.03464
G1 X104.096 Y78.7 E0.03601
G1 X104.18 Y78.442 E0.03249
G1 X104.291 Y78.163 E0.03595
G1 X104.413 Y77.905 E0.03417
G1 X104.559 Y77.642 E0.03602
G1 X104.708 Y77.408 E0.03322
G1 X104.89 Y77.161 E0.03674
G0 F7200 X105.6 Y76.442
G1 F1350 X105.6 Y123.558 E5.6415
G0 F7200 X107.2 Y124.404
G1 F1350 X107.2 Y75.597 E5.84398
G0 F7200 X108.8 Y75.4
G1 F1350 X108.8 Y124.6 E5.89104
G0 F7200 X110.4 Y124.6
G1 F1350 X110.4 Y75.4 E5.89104
G0 F7200 X112 Y75.4
G1 F1350 X112 Y124.6 E5.89104
G0 F7200 X113.6 Y124.6
G1 F1350 X113.6 Y75.4 E5.89104
G0 F7200 X115.2 Y75.4
G1 F1350 X115.2 Y124.6 E5.89104
G0 F7200 X116.8 Y124.6
G1 F1350 X116.8 Y75.4 E5.89104
G0 F7200 X118.4 Y75.4
G1 F1350 X118.4 Y124.6 E5.89104
G0 F7200 X120 Y124.6
G1 F1350 X120 Y75.4 E5.89104
G0 F7200 X121.6 Y75.4
G1 F1350 X121.6 Y124.6 E5.89104
G0 F7200 X123.2 Y124.6
G1 F1350 X123.2 Y75.4 E5.89104
G0 F7200 X124.8 Y75.4
G1 F1350 X124.8 Y124.6 E5.89104
G0 F7200 X126.4 Y124.6
G1 F1350 X126.4 Y75.4 E5.89104
G0 F7200 X128 Y75.4
G1 F1350 X128 Y124.6 E5.89104
G0 F7200 X129.6 Y124.6
G1 F1350 X129.6 Y75.4 E5.89104
G0 F7200 X131.2 Y75.4
G1 F1350 X131.2 Y124.6 E5.89104
G0 F7200 X132.8 Y124.6
G1 F1350 X132.8 Y75.4 E5.89104
G0 F7200 X134.4 Y75.4
G1 F1350 X134.4 Y124.6 E5.89104
G0 F7200 X136 Y124.6
G1 F1350 X136 Y75.4 E5.89104
G0 F7200 X137.6 Y75.4
G1 F1350 X137.6 Y124.6 E5.89104
G0 F7200 X139.2 Y124.6
G1 F1350 X139.2 Y75.4 E5.89104
G0 F7200 X140.8 Y75.4
G1 F1350 X140.8 Y124.6 E5.89104
G0 F7200 X142.4 Y124.498
G1 F1350 X142.4 Y75.499 E5.86697
G0 F7200 X144 Y76.15
G1 F1350 X144 Y123.851 E5.71155
G0 F7200 X145.6 Y122.068
G1 F1350 X145.6 Y77.934 E5.28445
G0 F7200 X104 Y79.094
G1 F1350 X104 Y120.887 E5.00415
G0 F600 X104 Y120.887 Z0.66
G0 F7200 X104.018 Y120.994
;TIME_ELAPSED:71.077069
;LAYER:-5
;TYPE:SUPPORT
G1 F1350 X104.074 Y121.222 E0.02343
G1 X104.169 Y121.526 E0.03178
G1 X104.27 Y121.787 E0.02792
G1 X104.397 Y122.062 E0.03022
G1 X104.525 Y122.301 E0.02705
G1 X104.687 Y122.56 E0.03048
G1 X104.848 Y122.783 E0.02744
G1 X105.04 Y123.018 E0.03028
G1 X105.227 Y123.22 E0.02747
G1 X105.46 Y123.44 E0.03197
G1 X105.661 Y123.609 E0.0262
G1 X105.908 Y123.791 E0.03061
G1 X106.146 Y123.943 E0.02818
G1 X106.404 Y124.085 E0.02938
G1 X106.663 Y124.208 E0.02861
G1 X106.94 Y124.317 E0.0297
G1 X107.199 Y124.403 E0.02723
G1 X107.49 Y124.479 E0.03001
G1 X107.513 Y124.484 E0.00235
G1 X104.016 Y120.987 E0.49346
G1 X103.96 Y120.646 E0.03448
G1 X103.91 Y120.092 E0.0555
G1 X103.899 Y119.87 E0.02218
G1 X103.899 Y119.455 E0.04141
G1 X109.042 Y124.599 E0.7258
G1 X110.457 Y124.599 E0.14119
G1 X103.899 Y118.041 E0.9254
G1 X103.899 Y116.627 E0.14109
G1 X111.871 Y124.599 E1.12494
G1 X113.285 Y124.599 E0.14109
G1 X103.899 Y115.213 E1.32447
G1 X103.899 Y113.798 E0.14119
G1 X114.699 Y124.599 E1.52407
G1 X116.114 Y124.599 E0.14119
G1 X103.899 Y112.384 E1.72367
G1 X103.899 Y110.97 E0.14109
G1 X117.528 Y124.599 E1.9232
G1 X118.942 Y124.599 E0.14109
G1 X103.899 Y109.556 E2.12273
G1 X103.899 Y108.142 E0.14109
G1 X120.356 Y124.599 E2.32226
G1 X121.77 Y124.599 E0.14109
G1 X103.899 Y106.727 E2.52186
G1 X103.899 Y105.313 E0.14109
G1 X123.185 Y124.599 E2.72146
G1 X124.599 Y124.599 E0.14109
G1 X103.899 Y103.899 E2.92099
G1 X103.899 Y102.485 E0.14109
G1 X126.013 Y124.599 E3.12052
G1 X127.427 Y124.599 E0.14109
G1 X103.899 Y101.071 E3.32005
G1 X103.899 Y99.656 E0.14119
G1 X128.841 Y124.599 E3.51966
G1 X130.256 Y124.599 E0.14119
G1 X103.899 Y98.242 E3.71926
G1 X103.899 Y96.828 E0.14109
G1 X131.67 Y124.599 E3.91879
G1 X133.084 Y124.599 E0.14109
G1 X103.899 Y95.414 E4.11832
G1 X103.899 Y93.999 E0.14119
G1 X134.498 Y124.599 E4.31792
G1 X135.912 Y124.599 E0.14109
G1 X103.899 Y92.585 E4.51745
G1 X103.899 Y91.171 E0.14109
G1 X137.327 Y124.599 E4.71705
G1 X138.741 Y124.599 E0.14109
G1 X103.899 Y89.757 E4.91658
G1 X103.899 Y88.343 E0.14109
G1 X140.155 Y124.599 E5.11611
G1 X141.369 Y124.599 E0.12113
G1 X141.561 Y124.59 E0.01918
G1 X103.899 Y86.928 E5.31452
G1 X103.899 Y85.514 E0.14109
G1 X142.789 Y124.404 E5.4878
G1 X143.026 Y124.33 E0.02477
G1 X143.287 Y124.229 E0.02792
G1 X143.562 Y124.101 E0.03027
G1 X143.782 Y123.983 E0.02491
G1 X103.899 Y84.1 E5.62792
G1 X103.899 Y82.686 E0.14109
G1 X144.598 Y123.385 E5.74307
G1 X144.723 Y123.269 E0.01702
G1 X144.937 Y123.043 E0.03106
G1 X145.118 Y122.827 E0.02812
G1 X145.26 Y122.633 E0.02399
G1 X103.899 Y81.272 E5.83648
G1 X103.899 Y80.075 E0.11944
G1 X103.903 Y79.949 E0.01258
G1 X103.908 Y79.867 E0.0082
G1 X145.757 Y121.715 E5.90528
G1 X145.818 Y121.558 E0.01681
G1 X145.902 Y121.299 E0.02717
G1 X145.979 Y121.008 E0.03004
G1 X146.033 Y120.725 E0.02875
G1 X146.05 Y120.594 E0.01318
G1 X104.11 Y78.654 E5.91819
G1 X104.179 Y78.442 E0.02225
G1 X104.29 Y78.162 E0.03005
G1 X104.412 Y77.905 E0.02839
G1 X104.541 Y77.671 E0.02666
G1 X146.099 Y119.229 E5.86428
G1 X146.099 Y117.815 E0.14109
G1 X105.148 Y76.863 E5.7787
G1 X105.278 Y76.726 E0.01884
G1 X105.48 Y76.54 E0.0274
G1 X105.709 Y76.351 E0.02963
G1 X105.908 Y76.209 E0.02439
G1 X146.099 Y116.401 E5.67145
G1 X146.099 Y114.986 E0.14119
G1 X106.835 Y75.722 E5.54057
G1 X106.972 Y75.668 E0.01469
G1 X107.275 Y75.574 E0.03165
G1 X107.496 Y75.519 E0.02272
G1 X107.852 Y75.459 E0.03602
G1 X107.975 Y75.449 E0.01231
G1 X146.099 Y113.572 E5.37964
G1 X146.099 Y112.158 E0.14109
G1 X109.341 Y75.4 E5.18695
G1 X110.755 Y75.4 E0.14109
G1 X146.099 Y110.744 E4.98742
G1 X146.099 Y109.33 E0.14109
G1 X112.169 Y75.4 E4.78789
G1 X113.583 Y75.4 E0.14109
G1 X146.099 Y107.915 E4.58829
G1 X146.099 Y106.501 E0.14109
G1 X114.998 Y75.4 E4.38869
G1 X116.412 Y75.4 E0.14109
G1 X146.099 Y105.087 E4.18916
G1 X146.099 Y103.673 E0.14109
G1 X117.826 Y75.4 E3.98963
G1 X119.24 Y75.4 E0.14109
G1 X146.099 Y102.258 E3.79002
G1 X146.099 Y100.844 E0.14109
G1 X120.655 Y75.4 E3.59042
G1 X122.069 Y75.4 E0.14109
G1 X146.099 Y99.43 E3.39089
G1 X146.099 Y98.016 E0.14109
G1 X123.483 Y75.4 E3.19136
G1 X124.897 Y75.4 E0.14109
G1 X146.099 Y96.602 E2.99183
G1 X146.099 Y95.187 E0.14119
G1 X126.311 Y75.4 E2.79223
G1 X127.726 Y75.4 E0.14119
G1 X146.099 Y93.773 E2.59263
G1 X146.099 Y92.359 E0.14109
G1 X129.14 Y75.4 E2.3931
G1 X130.554 Y75.4 E0.14109
G1 X146.099 Y90.945 E2.19357
G1 X146.099 Y89.531 E0.14109
G1 X131.968 Y75.4 E1.99404
G1 X133.382 Y75.4 E0.14109
G1 X146.099 Y88.116 E1.79444
G1 X146.099 Y86.702 E0.14109
G1 X134.797 Y75.4 E1.59483
G1 X136.211 Y75.4 E0.14109
G1 X146.099 Y85.288 E1.3953
G1 X146.099 Y83.874 E0.14109
G1 X137.625 Y75.4 E1.19577
G1 X139.039 Y75.4 E0.14109
G1 X146.099 Y82.459 E0.99617
G1 X146.099 Y81.045 E0.14109
G1 X140.454 Y75.4 E0.79657
G1 X141.423 Y75.399 E0.09669
G1 X141.549 Y75.403 E0.01258
G1 X141.895 Y75.427 E0.03461
G1 X146.061 Y79.593 E0.58787
G1 X146.038 Y79.352 E0.02416
G1 X145.979 Y78.996 E0.03601
G1 X145.925 Y78.775 E0.0227
G1 X145.83 Y78.472 E0.03168
G1 X145.728 Y78.212 E0.02787
G1 X145.601 Y77.936 E0.03032
G1 X145.473 Y77.698 E0.02696
G1 X145.311 Y77.438 E0.03057
G1 X145.285 Y77.403 E0.00435
G1 X144.087 Y76.205 E0.16905
G0 F7200 X144.091 Y76.207
G1 F1350 X144.338 Y76.389 E0.03061
G1 X144.538 Y76.559 E0.02619
G1 X144.772 Y76.778 E0.03198
G1 X144.959 Y76.98 E0.02747
G1 X145.147 Y77.211 E0.02972
G0 F600 X145.147 Y77.211 Z0.86
G0 F7200 X146.018 Y78.4
;TIME_ELAPSED:166.751197
;LAYER:-4
;TYPE:SUPPORT-INTERFACE
G1 F1800 X103.985 Y78.4 E1.39802
G1 X103.994 Y78.368 E0.00111
G1 X104.156 Y78 E0.01337
G1 X145.848 Y78 E1.38668
G1 X145.784 Y77.852 E0.00536
G1 X145.637 Y77.6 E0.0097
G1 X104.362 Y77.6 E1.37281
G1 X104.54 Y77.3 E0.0116
G1 X104.619 Y77.2 E0.00424
G1 X145.381 Y77.2 E1.35575
G1 X145.11 Y76.848 E0.01478
G1 X145.063 Y76.8 E0.00223
G1 X104.936 Y76.8 E1.33463
G1 X105.339 Y76.4 E0.01889
G1 X144.661 Y76.4 E1.30786
G1 X144.204 Y76.042 E0.01931
G1 X144.134 Y76 E0.00272
G1 X105.867 Y76 E1.27277
G1 X106.353 Y75.716 E0.01872
G1 X106.625 Y75.6 E0.00984
G1 X143.377 Y75.6 E1.22238
G1 X143.132 Y75.493 E0.00889
G1 X142.552 Y75.323 E0.0201
G1 X141.954 Y75.229 E0.02013
G1 X141.449 Y75.2 E0.01682
G1 X108.62 Y75.2 E1.0919
G1 X141.431 Y75.199 E1.0913
G0 F7200 X146.019 Y78.403
G1 F1800 X146.132 Y78.8 E0.01373
G1 X103.867 Y78.8 E1.40574
G1 X103.825 Y78.942 E0.00493
G1 X103.785 Y79.2 E0.00868
G1 X146.218 Y79.2 E1.41133
G1 X146.239 Y79.328 E0.00431
G1 X146.264 Y79.6 E0.00908
G1 X103.727 Y79.6 E1.41479
G1 X103.704 Y80 E0.01333
G1 X146.295 Y80 E1.41658
G1 X146.3 Y80.11 E0.00366
G1 X146.3 Y80.4 E0.00965
G1 X103.7 Y80.4 E1.41688
G1 X103.7 Y80.8 E0.0133
G1 X146.3 Y80.8 E1.41688
G1 X146.3 Y81.2 E0.0133
G1 X103.7 Y81.2 E1.41688
G1 X103.7 Y81.6 E0.0133
G1 X146.3 Y81.6 E1.41688
G1 X146.3 Y82 E0.0133
G1 X103.7 Y82 E1.41688
G1 X103.7 Y82.4 E0.0133
G1 X146.3 Y82.4 E1.41688
G1 X146.3 Y82.8 E0.0133
G1 X103.7 Y82.8 E1.41688
G1 X103.7 Y83.2 E0.0133
G1 X146.3 Y83.2 E1.41688
G1 X146.3 Y83.6 E0.0133
G1 X103.7 Y83.6 E1.41688
G1 X103.7 Y84 E0.0133
G1 X146.3 Y84 E1.41688
G1 X146.3 Y84.4 E0.0133
G1 X103.7 Y84.4 E1.41688
G1 X103.7 Y84.8 E0.0133
G1 X146.3 Y84.8 E1.41688
G1 X146.3 Y85.2 E0.0133
G1 X103.7 Y85.2 E1.41688
G1 X103.7 Y85.6 E0.0133
G1 X146.3 Y85.6 E1.41688
G1 X146.3 Y86 E0.0133
G1 X103.7 Y86 E1.41688
G1 X103.7 Y86.4 E0.0133
G1 X146.3 Y86.4 E1.41688
G1 X146.3 Y86.8 E0.0133
G1 X103.7 Y86.8 E1.41688
G1 X103.7 Y87.2 E0.0133
G1 X146.3 Y87.2 E1.41688
G1 X146.3 Y87.6 E0.0133
G1 X103.7 Y87.6 E1.41688
G1 X103.7 Y88 E0.0133
G1 X146.3 Y88 E1.41688
G1 X146.3 Y88.4 E0.0133
G1 X103.7 Y88.4 E1.41688
G1 X103.7 Y88.8 E0.0133
G1 X146.3 Y88.8 E1.41688
G1 X146.3 Y89.2 E0.0133
G1 X103.7 Y89.2 E1.41688
G1 X103.7 Y89.6 E0.0133
G1 X146.3 Y89.6 E1.41688
G1 X146.3 Y90 E0.0133
G1 X103.7 Y90 E1.41688
G1 X103.7 Y90.4 E0.0133
G1 X146.3 Y90.4 E1.41688
G1 X146.3 Y90.8 E0.0133
G1 X103.7 Y90.8 E1.41688
G1 X103.7 Y91.2 E0.0133
G1 X146.3 Y91.2 E1.41688
G1 X146.3 Y91.6 E0.0133
G1 X103.7 Y91.6 E1.41688
G1 X103.7 Y92 E0.0133
G1 X146.3 Y92 E1.41688
G1 X146.3 Y92.4 E0.0133
G1 X103.7 Y92.4 E1.41688
G1 X103.7 Y92.8 E0.0133
G1 X146.3 Y92.8 E1.41688
G1 X146.3 Y93.2 E0.0133
G1 X103.7 Y93.2 E1.41688
G1 X103.7 Y93.6 E0.0133
G1 X146.3 Y93.6 E1.41688
G1 X146.3 Y94 E0.0133
G1 X103.7 Y94 E1.41688
G1 X103.7 Y94.4 E0.0133
G1 X146.3 Y94.4 E1.41688
G1 X146.3 Y94.8 E0.0133
G1 X103.7 Y94.8 E1.41688
G1 X103.7 Y95.2 E0.0133
G1 X146.3 Y95.2 E1.41688
G1 X146.3 Y95.6 E0.0133
G1 X103.7 Y95.6 E1.41688
G1 X103.7 Y96 E0.0133
G1 X146.3 Y96 E1.41688
G1 X146.3 Y96.4 E0.0133
G1 X103.7 Y96.4 E1.41688
G1 X103.7 Y96.8 E0.0133
G1 X146.3 Y96.8 E1.41688
G1 X146.3 Y97.2 E0.0133
G1 X103.7 Y97.2 E1.41688
G1 X103.7 Y97.6 E0.0133
G1 X146.3 Y97.6 E1.41688
G1 X146.3 Y98 E0.0133
G1 X103.7 Y98 E1.41688
G1 X103.7 Y98.4 E0.0133
G1 X146.3 Y98.4 E1.41688
G1 X146.3 Y98.8 E0.0133
G1 X103.7 Y98.8 E1.41688
G1 X103.7 Y99.2 E0.0133
G1 X146.3 Y99.2 E1.41688
G1 X146.3 Y99.6 E0.0133
G1 X103.7 Y99.6 E1.41688
G1 X103.7 Y100 E0.0133
G1 X146.3 Y100 E1.41688
G1 X146.3 Y100.4 E0.0133
G1 X103.7 Y100.4 E1.41688
G1 X103.7 Y100.8 E0.0133
G1 X146.3 Y100.8 E1.41688
G1 X146.3 Y101.2 E0.0133
G1 X103.7 Y101.2 E1.41688
G1 X103.7 Y101.6 E0.0133
G1 X146.3 Y101.6 E1.41688
G1 X146.3 Y102 E0.0133
G1 X103.7 Y102 E1.41688
G1 X103.7 Y102.4 E0.0133
G1 X146.3 Y102.4 E1.41688
G1 X146.3 Y102.8 E0.0133
G1 X103.7 Y102.8 E1.41688
G1 X103.7 Y103.2 E0.0133
G1 X146.3 Y103.2 E1.41688
G1 X146.3 Y103.6 E0.0133
G1 X103.7 Y103.6 E1.41688
G1 X103.7 Y104 E0.0133
G1 X146.3 Y104 E1.41688
G1 X146.3 Y104.4 E0.0133
G1 X103.7 Y104.4 E1.41688
G1 X103.7 Y104.8 E0.0133
G1 X146.3 Y104.8 E1.41688
G1 X146.3 Y105.2 E0.0133
G1 X103.7 Y105.2 E1.41688
G1 X103.7 Y105.6 E0.0133
G1 X146.3 Y105.6 E1.41688
G1 X146.3 Y106 E0.0133
G1 X103.7 Y106 E1.41688
G1 X103.7 Y106.4 E0.0133
G1 X146.3 Y106.4 E1.41688
G1 X146.3 Y106.8 E0.0133
G1 X103.7 Y106.8 E1.41688
G1 X103.7 Y107.2 E0.0133
G1 X146.3 Y107.2 E1.41688
G1 X146.3 Y107.6 E0.0133
G1 X103.7 Y107.6 E1.41688
G1 X103.7 Y108 E0.0133
G1 X146.3 Y108 E1.41688
G1 X146.3 Y108.4 E0.0133
G1 X103.7 Y108.4 E1.41688
G1 X103.7 Y108.8 E0.0133
G1 X146.3 Y108.8 E1.41688
G1 X146.3 Y109.2 E0.0133
G1 X103.7 Y109.2 E1.41688
G1 X103.7 Y109.6 E0.0133
G1 X146.3 Y109.6 E1.41688
G1 X146.3 Y110 E0.0133
G1 X103.7 Y110 E1.41688
G1 X103.7 Y110.4 E0.0133
G1 X146.3 Y110.4 E1.41688
G1 X146.3 Y110.8 E0.0133
G1 X103.7 Y110.8 E1.41688
G1 X103.7 Y111.2 E0.0133
G1 X146.3 Y111.2 E1.41688
G1 X146.3 Y111.6 E0.0133
G1 X103.7 Y111.6 E1.41688
G1 X103.7 Y112 E0.0133
G1 X146.3 Y112 E1.41688
G1 X146.3 Y112.4 E0.0133
G1 X103.7 Y112.4 E1.41688
G1 X103.7 Y112.8 E0.0133
G1 X146.3 Y112.8 E1.41688
G1 X146.3 Y113.2 E0.0133
G1 X103.7 Y113.2 E1.41688
G1 X103.7 Y113.6 E0.0133
G1 X146.3 Y113.6 E1.41688
G1 X146.3 Y114 E0.0133
G1 X103.7 Y114 E1.41688
G1 X103.7 Y114.4 E0.0133
G1 X146.3 Y114.4 E1.41688
G1 X146.3 Y114.8 E0.0133
G1 X103.7 Y114.8 E1.41688
G1 X103.7 Y115.2 E0.0133
G1 X146.3 Y115.2 E1.41688
G1 X146.3 Y115.6 E0.0133
G1 X103.7 Y115.6 E1.41688
