; #disp params :
; Printmode:0
; Layer:208
; Zmax:125.069 mm
; Xmax:151.59 mm
; Ymax:42.6 mm
; Xmin:108.344 mm
; Ymin:0.3 mm
; E0diam:0.4 mm
; E0len:3.35667 m
; E0temp:215 C
; Bedtemp:215 C
; Time:51.4608 min
; #params end
; GCode generated by CraftWare

G28 X Y ; home horizontally
G28 Z ; home vertically


M104 S215 ;set head temp (no wait)
M190 S60 ;set bed temp (wait)
M109 S215 ;set head temp (wait)

; ------------------------------------
; Raft Layer #0
; ------------------------------------
M106 S0 ;turn off fan
G21 ; mm
G90 ; abs
G92 E0 ;reset extr
G0 F600 Z0.300
;segType:Raft
G0 F3000 E-1.00000
G0 F600 Z2.300
G0 X108.409 Y122.313 F5400
G0 F600 Z0.300
G0 F3000 E0.00000
G1 X108.409 Y77.688 E2.22635 F600
G1 X111.034 Y75.063 E2.41156
G1 X111.494 Y74.997 E2.43472
G1 X148.769 Y74.997 E4.29438
G1 X151.394 Y77.622 E4.47959
G1 X151.460 Y78.081 E4.50275
G1 X151.460 Y122.181 E6.70291
G1 X151.263 Y122.510 E6.72202
G1 X148.769 Y125.003 E6.89797
G1 X111.100 Y125.003 E8.77727
G1 X110.903 Y124.806 E8.79118
G1 X108.409 Y122.313 E8.96713
G0 X111.137 Y124.413 F5400
G1 X111.137 Y75.719 E11.39647 F600
G0 X113.803 Y75.456 F5400
G1 X113.803 Y124.675 E13.85200 F600
G0 X116.470 Y124.675 F5400
G1 X116.470 Y75.456 E16.30754 F600
G0 X119.136 Y75.456 F5400
G1 X119.136 Y124.675 E18.76307 F600
G0 X121.803 Y124.675 F5400
G1 X121.803 Y75.456 E21.21860 F600
G0 X124.470 Y75.456 F5400
G1 X124.470 Y124.675 E23.67414 F600
G0 X127.136 Y124.675 F5400
G1 X127.136 Y75.456 E26.12967 F600
G0 X129.803 Y75.456 F5400
G1 X129.803 Y124.675 E28.58521 F600
G0 X132.470 Y124.675 F5400
G1 X132.470 Y75.456 E31.04074 F600
G0 X135.136 Y75.456 F5400
G1 X135.136 Y124.675 E33.49627 F600
G0 X137.803 Y124.675 F5400
G1 X137.803 Y75.456 E35.95181 F600
G0 X140.470 Y75.456 F5400
G1 X140.470 Y124.675 E38.40734 F600
G0 X143.136 Y124.675 F5400
G1 X143.136 Y75.456 E40.86288 F600
G0 X145.803 Y75.456 F5400
G1 X145.803 Y124.675 E43.31842 F600
G0 X148.470 Y124.675 F5400
G1 X148.470 Y75.456 E45.77395 F600



; ------------------------------------
; Raft Layer #1
; ------------------------------------
G92 E0 ;reset extr
G0 F600 Z0.600
;segType:Raft
G0 X149.096 Y75.312 F7200
G1 X108.540 Y115.868 E2.86144 F1800
G0 X108.540 Y113.983 F7200
G1 X147.521 Y75.001 E5.61176 F1800
G0 X145.552 Y75.084 F7200
G1 X108.540 Y112.097 E8.22317 F1800
G0 X108.540 Y110.211 F7200
G1 X143.715 Y75.036 E10.70494 F1800
G0 X141.746 Y75.119 F7200
G1 X108.540 Y108.326 E13.04780 F1800
G0 X108.540 Y106.440 F7200
G1 X139.909 Y75.071 E15.26102 F1800
G0 X138.071 Y75.023 F7200
G1 X108.540 Y104.554 E17.34459 F1800
G0 X108.540 Y102.669 F7200
G1 X136.103 Y75.106 E19.28926 F1800
G0 X134.265 Y75.058 F7200
G1 X108.540 Y100.783 E21.10429 F1800
G0 X108.540 Y98.898 F7200
G1 X132.428 Y75.010 E22.78966 F1800
G0 X130.459 Y75.093 F7200
G1 X108.540 Y97.012 E24.33614 F1800
G0 X108.540 Y95.126 F7200
G1 X128.621 Y75.045 E25.75297 F1800
G0 X126.784 Y74.997 F7200
G1 X108.540 Y93.241 E27.04015 F1800
G0 X108.540 Y91.355 F7200
G1 X124.815 Y75.080 E28.18844 F1800
G0 X122.978 Y75.032 F7200
G1 X108.540 Y89.470 E29.20707 F1800
G0 X108.540 Y87.584 F7200
G1 X121.009 Y75.115 E30.08680 F1800
G0 X119.172 Y75.067 F7200
G1 X108.540 Y85.698 E30.83689 F1800
G0 X108.540 Y83.813 F7200
G1 X117.334 Y75.019 E31.45733 F1800
G0 X115.365 Y75.102 F7200
G1 X108.540 Y81.927 E31.93887 F1800
G0 X108.540 Y80.041 F7200
G1 X113.528 Y75.054 E32.29076 F1800
G0 X111.690 Y75.006 F7200
G1 X108.540 Y78.156 E32.51301 F1800
G0 X108.540 Y117.754 F7200
G1 X150.015 Y76.279 E35.43927 F1800
G0 X151.065 Y77.114 F7200
G1 X108.540 Y119.639 E38.43962 F1800
G0 X108.540 Y121.525 F7200
G1 X151.590 Y78.475 E41.47701 F1800
G0 X151.590 Y80.361 F7200
G1 X109.065 Y122.886 E44.47735 F1800
G0 X109.949 Y123.888 F7200
G1 X151.555 Y82.281 E47.41288 F1800
G0 X151.472 Y84.250 F7200
G1 X110.916 Y124.806 E50.27432 F1800
G0 X112.474 Y125.003 F7200
G1 X151.455 Y86.022 E53.02466 F1800
G0 X151.372 Y87.991 F7200
G1 X114.491 Y124.872 E55.62681 F1800
G0 X116.376 Y124.872 F7200
G1 X151.420 Y89.829 E58.09932 F1800
G0 X151.337 Y91.797 F7200
G1 X118.131 Y125.003 E60.44220 F1800
G0 X120.082 Y125.069 F7200
G1 X151.581 Y93.569 E62.66468 F1800
G0 X151.498 Y95.538 F7200
G1 X121.967 Y125.069 E64.74826 F1800
G0 X123.853 Y125.069 F7200
G1 X151.546 Y97.375 E66.70218 F1800
G0 X151.463 Y99.344 F7200
G1 X125.739 Y125.069 E68.51721 F1800
G0 X127.624 Y125.069 F7200
G1 X151.511 Y101.181 E70.20259 F1800
G0 X151.559 Y103.019 F7200
G1 X129.510 Y125.069 E71.75832 F1800
G0 X131.395 Y125.069 F7200
G1 X151.476 Y104.988 E73.17515 F1800
G0 X151.459 Y106.759 F7200
G1 X133.216 Y125.003 E74.46234 F1800
G0 X135.232 Y124.872 F7200
G1 X151.376 Y108.729 E75.60137 F1800
G0 X151.490 Y110.631 F7200
G1 X137.052 Y125.069 E76.62001 F1800
G0 X138.938 Y125.069 F7200
G1 X151.538 Y112.469 E77.50900 F1800
G0 X151.586 Y114.306 F7200
G1 X140.824 Y125.069 E78.26834 F1800
G0 X142.644 Y125.003 F7200
G1 X151.437 Y116.209 E78.88879 F1800
G0 X151.551 Y118.113 F7200
G1 X144.595 Y125.069 E79.37959 F1800
G0 X146.480 Y125.069 F7200
G1 X151.468 Y120.081 E79.73148 F1800
G0 X151.516 Y121.919 F7200
G1 X148.366 Y125.069 E79.95372 F1800



; ------------------------------------
; Raft Layer #2
; ------------------------------------
G92 E0 ;reset extr
G0 F600 Z0.800
;segType:Raft
G0 X148.769 Y124.997 F7200
G1 X110.969 Y124.997 E1.25723 F2400
G1 X110.575 Y124.597 E1.27590
G1 X149.163 Y124.597 E2.55933
G1 X149.556 Y124.197 E2.57800
G1 X110.181 Y124.197 E3.88761
G1 X109.788 Y123.797 E3.90628
G1 X149.950 Y123.797 E5.24209
G1 X150.344 Y123.397 E5.26076
G1 X109.394 Y123.397 E6.62276
G1 X109.000 Y122.997 E6.64143
G1 X150.738 Y122.997 E8.02963
G1 X151.131 Y122.597 E8.04830
G1 X108.606 Y122.597 E9.46268
G1 X108.344 Y122.197 E9.47860
G1 X151.394 Y122.197 E10.91044
G1 X151.394 Y121.797 E10.92375
G1 X108.344 Y121.797 E12.35560
G1 X108.344 Y121.397 E12.36890
G1 X151.394 Y121.397 E13.80075
G1 X151.394 Y120.997 E13.81405
G1 X108.344 Y120.997 E15.24590
G1 X108.344 Y120.597 E15.25921
G1 X151.394 Y120.597 E16.69105
G1 X151.394 Y120.197 E16.70436
G1 X108.344 Y120.197 E18.13621
G1 X108.344 Y119.797 E18.14951
G1 X151.394 Y119.797 E19.58136
G1 X151.394 Y119.397 E19.59466
G1 X108.344 Y119.397 E21.02651
G1 X108.344 Y118.997 E21.03982
G1 X151.394 Y118.997 E22.47166
G1 X151.394 Y118.597 E22.48497
G1 X108.344 Y118.597 E23.91682
G1 X108.344 Y118.197 E23.93012
G1 X151.394 Y118.197 E25.36197
G1 X151.394 Y117.797 E25.37527
G1 X108.344 Y117.797 E26.80712
G1 X108.344 Y117.397 E26.82042
G1 X151.394 Y117.397 E28.25227
G1 X151.394 Y116.997 E28.26558
G1 X108.344 Y116.997 E29.69743
G1 X108.344 Y116.597 E29.71073
G1 X151.394 Y116.597 E31.14258
G1 X151.394 Y116.197 E31.15588
G1 X108.344 Y116.197 E32.58773
G1 X108.344 Y115.797 E32.60104
G1 X151.394 Y115.797 E34.03289
G1 X151.394 Y115.397 E34.04619
G1 X108.344 Y115.397 E35.47804
G1 X108.344 Y114.997 E35.49135
G1 X151.394 Y114.997 E36.92320
G1 X151.394 Y114.597 E36.93651
G1 X108.344 Y114.597 E38.36836
G1 X108.344 Y114.197 E38.38166
G1 X151.394 Y114.197 E39.81351
G1 X151.394 Y113.797 E39.82682
G1 X108.344 Y113.797 E41.25867
G1 X108.344 Y113.397 E41.27197
G1 X151.394 Y113.397 E42.70383
G1 X151.394 Y112.997 E42.71713
G1 X108.344 Y112.997 E44.14898
G1 X108.344 Y112.597 E44.16229
G1 X151.394 Y112.597 E45.59414
G1 X151.394 Y112.197 E45.60744
G1 X108.344 Y112.197 E47.03929
G1 X108.344 Y111.797 E47.05260
G1 X151.394 Y111.797 E48.48445
G1 X151.394 Y111.397 E48.49776
G1 X108.344 Y111.397 E49.92961
G1 X108.344 Y110.997 E49.94291
G1 X151.394 Y110.997 E51.37476
G1 X151.394 Y110.597 E51.38807
G1 X108.344 Y110.597 E52.81992
G1 X108.344 Y110.197 E52.83322
G1 X151.394 Y110.197 E54.26507
G1 X151.394 Y109.797 E54.27838
G1 X108.344 Y109.797 E55.71023
G1 X108.344 Y109.397 E55.72354
G1 X151.394 Y109.397 E57.15539
G1 X151.394 Y108.997 E57.16869
G1 X108.344 Y108.997 E58.60054
G1 X108.344 Y108.597 E58.61385
G1 X151.394 Y108.597 E60.04570
G1 X151.394 Y108.197 E60.05900
G1 X108.344 Y108.197 E61.49085
G1 X108.344 Y107.797 E61.50416
G1 X151.394 Y107.797 E62.93601
G1 X151.394 Y107.397 E62.94932
G1 X108.344 Y107.397 E64.38117
G1 X108.344 Y106.997 E64.39447
G1 X151.394 Y106.997 E65.82632
G1 X151.394 Y106.597 E65.83962
G1 X108.344 Y106.597 E67.27147
G1 X108.344 Y106.197 E67.28478
G1 X151.394 Y106.197 E68.71662
G1 X151.394 Y105.797 E68.72993
G1 X108.344 Y105.797 E70.16178
G1 X108.344 Y105.397 E70.17508
G1 X151.394 Y105.397 E71.60693
G1 X151.394 Y104.997 E71.62023
G1 X108.344 Y104.997 E73.05208
G1 X108.344 Y104.597 E73.06539
G1 X151.394 Y104.597 E74.49723
G1 X151.394 Y104.197 E74.51054
G1 X108.344 Y104.197 E75.94239
G1 X108.344 Y103.797 E75.95569
G1 X151.394 Y103.797 E77.38754
G1 X151.394 Y103.397 E77.40084
G1 X108.344 Y103.397 E78.83269
G1 X108.344 Y102.997 E78.84600
G1 X151.394 Y102.997 E80.27784
G1 X151.394 Y102.597 E80.29115
G1 X108.344 Y102.597 E81.72299
G1 X108.344 Y102.197 E81.73630
G1 X151.394 Y102.197 E83.16815
G1 X151.394 Y101.797 E83.18145
G1 X108.344 Y101.797 E84.61330
G1 X108.344 Y101.397 E84.62660
G1 X151.394 Y101.397 E86.05845
G1 X151.394 Y100.997 E86.07175
G1 X108.344 Y100.997 E87.50360
G1 X108.344 Y100.597 E87.51691
G1 X151.394 Y100.597 E88.94875
G1 X151.394 Y100.197 E88.96206
G1 X108.344 Y100.197 E90.39391
G1 X108.344 Y99.797 E90.40721
G1 X151.394 Y99.797 E91.83906
G1 X151.394 Y99.397 E91.85236
G1 X108.344 Y99.397 E93.28421
G1 X108.344 Y98.997 E93.29752
G1 X151.394 Y98.997 E94.72936
G1 X151.394 Y98.597 E94.74267
G1 X108.344 Y98.597 E96.17451
G1 X108.344 Y98.197 E96.18782
G1 X151.394 Y98.197 E97.61967
G1 X151.394 Y97.797 E97.63297
G1 X108.344 Y97.797 E99.06482
G1 X108.344 Y97.397 E99.07812
G1 X151.394 Y97.397 E100.50997
G1 X151.394 Y96.997 E100.52328
G1 X108.344 Y96.997 E101.95512
G1 X108.344 Y96.597 E101.96843
G1 X151.394 Y96.597 E103.40028
G1 X151.394 Y96.197 E103.41358
G1 X108.344 Y96.197 E104.84543
G1 X108.344 Y95.797 E104.85873
G1 X151.394 Y95.797 E106.29058
G1 X151.394 Y95.397 E106.30389
G1 X108.344 Y95.397 E107.73573
G1 X108.344 Y94.997 E107.74904
G1 X151.394 Y94.997 E109.18089
G1 X151.394 Y94.597 E109.19419
G1 X108.344 Y94.597 E110.62604
G1 X108.344 Y94.197 E110.63934
G1 X151.394 Y94.197 E112.07119
G1 X151.394 Y93.797 E112.08450
G1 X108.344 Y93.797 E113.51634
G1 X108.344 Y93.397 E113.52965
G1 X151.394 Y93.397 E114.96149
G1 X151.394 Y92.997 E114.97480
G1 X108.344 Y92.997 E116.40665
G1 X108.344 Y92.597 E116.41995
G1 X151.394 Y92.597 E117.85180
G1 X151.394 Y92.197 E117.86510
G1 X108.344 Y92.197 E119.29695
G1 X108.344 Y91.797 E119.31026
G1 X151.394 Y91.797 E120.74210
G1 X151.394 Y91.397 E120.75541
G1 X108.344 Y91.397 E122.18726
G1 X108.344 Y90.997 E122.20056
G1 X151.394 Y90.997 E123.63241
G1 X151.394 Y90.597 E123.64571
G1 X108.344 Y90.597 E125.07756
G1 X108.344 Y90.197 E125.09087
G1 X151.394 Y90.197 E126.52271
G1 X151.394 Y89.797 E126.53602
G1 X108.344 Y89.797 E127.96786
G1 X108.344 Y89.397 E127.98117
G1 X151.394 Y89.397 E129.41302
G1 X151.394 Y88.997 E129.42633
G1 X108.344 Y88.997 E130.85818
G1 X108.344 Y88.597 E130.87149
G1 X151.394 Y88.597 E132.30334
G1 X151.394 Y88.197 E132.31665
G1 X108.344 Y88.197 E133.74850
G1 X108.344 Y87.797 E133.76181
G1 X151.394 Y87.797 E135.19366
G1 X151.394 Y87.397 E135.20697
G1 X108.344 Y87.397 E136.63882
G1 X108.344 Y86.997 E136.65213
G1 X151.394 Y86.997 E138.08398
G1 X151.394 Y86.597 E138.09729
G1 X108.344 Y86.597 E139.52914
G1 X108.344 Y86.197 E139.54245
G1 X151.394 Y86.197 E140.97430
G1 X151.394 Y85.797 E140.98761
G1 X108.344 Y85.797 E142.41946
G1 X108.344 Y85.397 E142.43277
G1 X151.394 Y85.397 E143.86462
G1 X151.394 Y84.997 E143.87793
G1 X108.344 Y84.997 E145.30978
G1 X108.344 Y84.597 E145.32309
G1 X151.394 Y84.597 E146.75494
G1 X151.394 Y84.197 E146.76825
G1 X108.344 Y84.197 E148.20010
G1 X108.344 Y83.797 E148.21341
G1 X151.394 Y83.797 E149.64526
G1 X151.394 Y83.397 E149.65857
G1 X108.344 Y83.397 E151.09042
G1 X108.344 Y82.997 E151.10373
G1 X151.394 Y82.997 E152.53558
G1 X151.394 Y82.597 E152.54889
G1 X108.344 Y82.597 E153.98074
G1 X108.344 Y82.197 E153.99405
G1 X151.394 Y82.197 E155.42590
G1 X151.394 Y81.797 E155.43921
G1 X108.344 Y81.797 E156.87106
G1 X108.344 Y81.397 E156.88437
G1 X151.394 Y81.397 E158.31622
G1 X151.394 Y80.997 E158.32953
G1 X108.344 Y80.997 E159.76138
G1 X108.344 Y80.597 E159.77469
G1 X151.394 Y80.597 E161.20654
G1 X151.394 Y80.197 E161.21985
G1 X108.344 Y80.197 E162.65170
G1 X108.344 Y79.797 E162.66501
G1 X151.394 Y79.797 E164.09686
G1 X151.394 Y79.397 E164.11017
G1 X108.344 Y79.397 E165.54202
G1 X108.344 Y78.997 E165.55533
G1 X151.394 Y78.997 E166.98718
G1 X151.394 Y78.597 E167.00049
G1 X108.344 Y78.597 E168.43234
G1 X108.344 Y78.197 E168.44564
G1 X151.394 Y78.197 E169.87750
G1 X151.394 Y77.797 E169.89080
G1 X108.344 Y77.797 E171.32266
G1 X108.606 Y77.397 E171.33858
G1 X151.131 Y77.397 E172.75296
G1 X150.738 Y76.997 E172.77162
G1 X109.000 Y76.997 E174.15982
G1 X109.394 Y76.597 E174.17848
G1 X150.344 Y76.597 E175.54048
G1 X149.950 Y76.197 E175.55914
G1 X109.788 Y76.197 E176.89496
G1 X110.181 Y75.797 E176.91362
G1 X149.556 Y75.797 E178.22324
G1 X149.163 Y75.397 E178.24190
G1 X110.575 Y75.397 E179.52532
G1 X110.969 Y74.997 E179.54400
G1 X148.769 Y74.997 E180.80122



; ------------------------------------
; Raft Layer #3
; ------------------------------------
M106 S255 ;set fan speed
G92 E0 ;reset extr
G0 F600 Z1.000
;segType:Raft
G0 F3000 E-1.00000
G0 F600 Z3.000
G0 X151.403 Y122.444 F7200
G0 F600 Z1.000
G0 F3000 E0.00000
G1 X151.403 Y77.688 E1.48860 F2400
G1 X151.003 Y77.294 E1.50727
G1 X151.003 Y122.838 E3.02206
G1 X150.603 Y123.231 E3.04073
G1 X150.603 Y76.900 E4.58171
G1 X150.203 Y76.506 E4.60038
G1 X150.203 Y123.625 E6.16756
G1 X149.803 Y124.019 E6.18622
G1 X149.803 Y76.112 E7.77959
G1 X149.403 Y75.719 E7.79826
G1 X149.403 Y124.413 E9.41782
G1 X149.003 Y124.806 E9.43649
G1 X149.003 Y75.325 E11.08224
G1 X148.603 Y75.063 E11.09816
G1 X148.603 Y125.069 E12.76137
G1 X148.203 Y125.069 E12.77468
G1 X148.203 Y75.063 E14.43789
G1 X147.803 Y75.063 E14.45119
G1 X147.803 Y125.069 E16.11441
G1 X147.403 Y125.069 E16.12771
G1 X147.403 Y75.063 E17.79092
G1 X147.003 Y75.063 E17.80423
G1 X147.003 Y125.069 E19.46744
G1 X146.603 Y125.069 E19.48075
G1 X146.603 Y75.063 E21.14396
G1 X146.203 Y75.063 E21.15726
G1 X146.203 Y125.069 E22.82048
G1 X145.803 Y125.069 E22.83378
G1 X145.803 Y75.063 E24.49700
G1 X145.403 Y75.063 E24.51030
G1 X145.403 Y125.069 E26.17351
G1 X145.003 Y125.069 E26.18682
G1 X145.003 Y75.063 E27.85003
G1 X144.603 Y75.063 E27.86333
G1 X144.603 Y125.069 E29.52655
G1 X144.203 Y125.069 E29.53985
G1 X144.203 Y75.063 E31.20307
G1 X143.803 Y75.063 E31.21637
G1 X143.803 Y125.069 E32.87958
G1 X143.403 Y125.069 E32.89289
G1 X143.403 Y75.063 E34.55610
G1 X143.003 Y75.063 E34.56941
G1 X143.003 Y125.069 E36.23263
G1 X142.603 Y125.069 E36.24593
G1 X142.603 Y75.063 E37.90915
G1 X142.203 Y75.063 E37.92245
G1 X142.203 Y125.069 E39.58567
G1 X141.803 Y125.069 E39.59897
G1 X141.803 Y75.063 E41.26219
G1 X141.403 Y75.063 E41.27549
G1 X141.403 Y125.069 E42.93871
G1 X141.003 Y125.069 E42.95202
G1 X141.003 Y75.063 E44.61523
G1 X140.603 Y75.063 E44.62854
G1 X140.603 Y125.069 E46.29175
G1 X140.203 Y125.069 E46.30506
G1 X140.203 Y75.063 E47.96828
G1 X139.803 Y75.063 E47.98158
G1 X139.803 Y125.069 E49.64480
G1 X139.403 Y125.069 E49.65810
G1 X139.403 Y75.063 E51.32132
G1 X139.003 Y75.063 E51.33462
G1 X139.003 Y125.069 E52.99784
G1 X138.603 Y125.069 E53.01115
G1 X138.603 Y75.063 E54.67436
G1 X138.203 Y75.063 E54.68767
G1 X138.203 Y125.069 E56.35088
G1 X137.803 Y125.069 E56.36419
G1 X137.803 Y75.063 E58.02740
G1 X137.403 Y75.063 E58.04071
G1 X137.403 Y125.069 E59.70392
G1 X137.003 Y125.069 E59.71723
G1 X137.003 Y75.063 E61.38045
G1 X136.603 Y75.063 E61.39375
G1 X136.603 Y125.069 E63.05697
G1 X136.203 Y125.069 E63.07027
G1 X136.203 Y75.063 E64.73348
G1 X135.803 Y75.063 E64.74679
G1 X135.803 Y125.069 E66.41001
G1 X135.403 Y125.069 E66.42331
G1 X135.403 Y75.063 E68.08653
G1 X135.003 Y75.063 E68.09983
G1 X135.003 Y125.069 E69.76305
G1 X134.603 Y125.069 E69.77635
G1 X134.603 Y75.063 E71.43957
G1 X134.203 Y75.063 E71.45288
G1 X134.203 Y125.069 E73.11609
G1 X133.803 Y125.069 E73.12940
G1 X133.803 Y75.063 E74.79261
G1 X133.403 Y75.063 E74.80592
G1 X133.403 Y125.069 E76.46913
G1 X133.003 Y125.069 E76.48244
G1 X133.003 Y75.063 E78.14566
G1 X132.603 Y75.063 E78.15896
G1 X132.603 Y125.069 E79.82218
G1 X132.203 Y125.069 E79.83548
G1 X132.203 Y75.063 E81.49870
G1 X131.803 Y75.063 E81.51200
G1 X131.803 Y125.069 E83.17522
G1 X131.403 Y125.069 E83.18852
G1 X131.403 Y75.063 E84.85174
G1 X131.003 Y75.063 E84.86504
G1 X131.003 Y125.069 E86.52826
G1 X130.603 Y125.069 E86.54156
G1 X130.603 Y75.063 E88.20478
G1 X130.203 Y75.063 E88.21809
G1 X130.203 Y125.069 E89.88130
G1 X129.803 Y125.069 E89.89461
G1 X129.803 Y75.063 E91.55782
G1 X129.403 Y75.063 E91.57113
G1 X129.403 Y125.069 E93.23434
G1 X129.003 Y125.069 E93.24765
G1 X129.003 Y75.063 E94.91087
G1 X128.603 Y75.063 E94.92417
G1 X128.603 Y125.069 E96.58739
G1 X128.203 Y125.069 E96.60069
G1 X128.203 Y75.063 E98.26391
G1 X127.803 Y75.063 E98.27721
G1 X127.803 Y125.069 E99.94043
G1 X127.403 Y125.069 E99.95374
G1 X127.403 Y75.063 E101.61695
G1 X127.003 Y75.063 E101.63026
G1 X127.003 Y125.069 E103.29347
G1 X126.603 Y125.069 E103.30678
G1 X126.603 Y75.063 E104.96999
G1 X126.203 Y75.063 E104.98330
G1 X126.203 Y125.069 E106.64651
G1 X125.803 Y125.069 E106.65982
G1 X125.803 Y75.063 E108.32304
G1 X125.403 Y75.063 E108.33634
G1 X125.403 Y125.069 E109.99956
G1 X125.003 Y125.069 E110.01286
G1 X125.003 Y75.063 E111.67608
G1 X124.603 Y75.063 E111.68938
G1 X124.603 Y125.069 E113.35260
G1 X124.203 Y125.069 E113.36591
G1 X124.203 Y75.063 E115.02912
G1 X123.803 Y75.063 E115.04243
G1 X123.803 Y125.069 E116.70564
G1 X123.403 Y125.069 E116.71895
G1 X123.403 Y75.063 E118.38216
G1 X123.003 Y75.063 E118.39547
G1 X123.003 Y125.069 E120.05869
G1 X122.603 Y125.069 E120.07199
G1 X122.603 Y75.063 E121.73521
G1 X122.203 Y75.063 E121.74851
G1 X122.203 Y125.069 E123.41173
G1 X121.803 Y125.069 E123.42503
G1 X121.803 Y75.063 E125.08825
G1 X121.403 Y75.063 E125.10155
G1 X121.403 Y125.069 E126.76477
G1 X121.003 Y125.069 E126.77808
G1 X121.003 Y75.063 E128.44128
G1 X120.603 Y75.063 E128.45459
G1 X120.603 Y125.069 E130.11780
G1 X120.203 Y125.069 E130.13110
G1 X120.203 Y75.063 E131.79431
G1 X119.803 Y75.063 E131.80762
G1 X119.803 Y125.069 E133.47083
G1 X119.403 Y125.069 E133.48413
G1 X119.403 Y75.063 E135.14734
G1 X119.003 Y75.063 E135.16064
G1 X119.003 Y125.069 E136.82385
G1 X118.603 Y125.069 E136.83716
G1 X118.603 Y75.063 E138.50037
G1 X118.203 Y75.063 E138.51367
G1 X118.203 Y125.069 E140.17688
G1 X117.803 Y125.069 E140.19019
G1 X117.803 Y75.063 E141.85339
G1 X117.403 Y75.063 E141.86670
G1 X117.403 Y125.069 E143.52991
G1 X117.003 Y125.069 E143.54321
G1 X117.003 Y75.063 E145.20642
G1 X116.603 Y75.063 E145.21973
G1 X116.603 Y125.069 E146.88293
G1 X116.203 Y125.069 E146.89624
G1 X116.203 Y75.063 E148.55945
G1 X115.803 Y75.063 E148.57275
G1 X115.803 Y125.069 E150.23596
G1 X115.403 Y125.069 E150.24927
G1 X115.403 Y75.063 E151.91248
G1 X115.003 Y75.063 E151.92578
G1 X115.003 Y125.069 E153.58899
G1 X114.603 Y125.069 E153.60229
G1 X114.603 Y75.063 E155.26550
G1 X114.203 Y75.063 E155.27881
G1 X114.203 Y125.069 E156.94202
G1 X113.803 Y125.069 E156.95532
G1 X113.803 Y75.063 E158.61853
G1 X113.403 Y75.063 E158.63184
G1 X113.403 Y125.069 E160.29504
G1 X113.003 Y125.069 E160.30835
G1 X113.003 Y75.063 E161.97156
G1 X112.603 Y75.063 E161.98486
G1 X112.603 Y125.069 E163.64807
G1 X112.203 Y125.069 E163.66138
G1 X112.203 Y75.063 E165.32458
G1 X111.803 Y75.063 E165.33789
G1 X111.803 Y125.069 E167.00110
G1 X111.403 Y125.069 E167.01440
G1 X111.403 Y75.063 E168.67762
G1 X111.003 Y75.194 E168.69162
G1 X111.003 Y124.938 E170.34610
G1 X110.603 Y124.544 E170.36476
G1 X110.603 Y75.587 E171.99306
G1 X110.203 Y75.981 E172.01172
G1 X110.203 Y124.150 E173.61382
G1 X109.803 Y123.756 E173.63248
G1 X109.803 Y76.375 E175.20838
G1 X109.403 Y76.769 E175.22706
G1 X109.403 Y123.363 E176.77676
G1 X109.003 Y122.969 E176.79542
G1 X109.003 Y77.163 E178.31896
G1 X108.603 Y77.556 E178.33762
G1 X108.603 Y122.575 E179.83494


; ------------------------------------
; Layer #0
; ------------------------------------
G21 ; mm
G90 ; abs
G92 E0 ;reset extr
G0 F600 Z1.450
;segType:HShell
G0 F3000 E-1.00000
G0 X123.789 Y90.132 F5400
G0 F3000 E0.00000
G1 X114.618 Y80.961 E0.43138 F2400
G0 X113.916 Y80.780 F5400
;segType:Perimeter
G1 X113.760 Y80.200 E0.45134 F1200
G1 X146.300 Y80.200 E1.53360
G1 X146.300 Y119.800 E2.85068
G1 X113.700 Y119.800 E3.93494
G1 X113.700 Y80.260 E5.25002
G0 X113.760 Y80.200 F5400
G0 X115.360 Y80.200
G0 X114.800 Y80.600
;segType:Loop
G1 X145.900 Y80.600 E6.28438 F2400
G1 X145.900 Y119.400 E7.57485
G1 X114.100 Y119.400 E8.63250
G1 X114.100 Y80.600 E9.92297
G1 X114.600 Y80.600 E9.93960
G0 F3000 E8.93960
G0 X114.106 Y80.200 F5400
G0 X124.550 Y88.659
G0 X124.550 Y91.200
G0 X127.688 Y91.200
G0 X145.540 Y105.659
G0 F3000 E9.93960
;segType:HShell
G1 X131.210 Y91.330 E10.61359 F2400
G0 X131.190 Y91.200 F5400
;segType:Perimeter
G1 X130.390 Y91.200 E10.64020 F1200
G1 X124.550 Y91.200 E10.83447
G1 X124.550 Y87.300 E10.96420
G1 X130.450 Y87.300 E11.16046
G1 X130.450 Y91.140 E11.28821
G0 X130.390 Y91.200 F5400
G0 X128.790 Y91.200
G0 X129.350 Y91.600
;segType:Loop
G1 X124.150 Y91.600 E11.46118 F2400
G1 X124.150 Y86.900 E11.61753
G1 X130.850 Y86.900 E11.84040
G1 X130.850 Y91.600 E11.99674
G1 X129.550 Y91.600 E12.03998
G0 F3000 E11.03998
G0 X128.376 Y91.200 F5400
G0 X124.550 Y91.200
G0 X124.550 Y89.897
G0 X114.460 Y86.460
G0 F3000 E12.03998
;segType:HShell
G1 X125.296 Y97.295 E12.54966 F2400
G0 X125.861 Y97.087 F5400
;segType:Perimeter
G1 X125.670 Y96.310 E12.57627 F1200
G1 X125.563 Y95.894 E12.59056
G1 X125.563 Y95.405 E12.60683
G1 X125.685 Y94.931 E12.62310
G1 X125.921 Y94.503 E12.63938
G1 X126.256 Y94.146 E12.65565
G1 X126.669 Y93.884 E12.67192
G1 X127.134 Y93.733 E12.68819
G1 X127.622 Y93.702 E12.70447
G1 X128.103 Y93.793 E12.72074
G1 X128.546 Y94.002 E12.73702
G1 X128.923 Y94.314 E12.75329
G1 X129.211 Y94.710 E12.76957
G1 X129.391 Y95.165 E12.78584
G1 X129.452 Y95.650 E12.80212
G1 X129.391 Y96.136 E12.81839
G1 X129.211 Y96.590 E12.83467
G1 X128.923 Y96.986 E12.85094
G1 X128.546 Y97.298 E12.86721
G1 X128.103 Y97.506 E12.88349
G1 X127.623 Y97.598 E12.89976
G1 X127.134 Y97.568 E12.91604
G1 X126.669 Y97.416 E12.93231
G1 X126.256 Y97.154 E12.94859
G1 X125.921 Y96.797 E12.96486
G1 X125.714 Y96.421 E12.97914
G0 X125.670 Y96.310 F5400
G0 X125.563 Y95.894
G0 X125.563 Y95.405
G0 X125.685 Y94.931
G0 X125.778 Y94.763
G0 X125.188 Y95.258
;segType:Loop
G1 X125.310 Y94.783 E12.99544 F2400
G1 X125.595 Y94.266 E13.01509
G1 X125.999 Y93.835 E13.03472
G1 X126.497 Y93.519 E13.05435
G1 X127.059 Y93.336 E13.07399
G1 X127.648 Y93.300 E13.09362
G1 X128.228 Y93.410 E13.11325
G1 X128.762 Y93.662 E13.13290
G1 X129.217 Y94.038 E13.15253
G1 X129.564 Y94.515 E13.17216
G1 X129.781 Y95.064 E13.19180
G1 X129.855 Y95.650 E13.21144
G1 X129.781 Y96.236 E13.23107
G1 X129.564 Y96.785 E13.25071
G1 X129.217 Y97.262 E13.27034
G1 X128.762 Y97.639 E13.28998
G1 X128.672 Y97.681 E13.29329
G0 X128.634 Y97.804 F5400
G0 X128.502 Y97.834
G0 X128.369 Y97.863
G1 X128.129 Y97.904 E13.30124 F2400
G1 X128.014 Y97.915 E13.30476
G1 X127.900 Y97.926 E13.30808
G1 X127.786 Y97.937 E13.31120
G1 X127.671 Y97.947 E13.31410
G1 X127.557 Y97.947 E13.31700
G1 X127.443 Y97.944 E13.31997
G1 X127.329 Y97.940 E13.32300
G1 X127.214 Y97.936 E13.32611
G1 X127.100 Y97.933 E13.32928
G1 X126.986 Y97.919 E13.33273
G1 X126.871 Y97.901 E13.33655
G1 X126.757 Y97.883 E13.34072
G1 X126.643 Y97.865 E13.34524
G0 X126.372 Y97.809 F5400
G1 X126.338 Y97.680 E13.34965 F2400
G1 X125.999 Y97.465 E13.36304
G1 X125.595 Y97.034 E13.38267
G1 X125.310 Y96.517 E13.40231
G1 X125.163 Y95.945 E13.42195
G1 X125.163 Y95.455 E13.43825
G0 F3000 E12.43825
G0 X126.059 Y98.300 F5400
G0 X123.800 Y98.300
G0 X123.800 Y113.700
G0 X130.908 Y113.700
G0 X131.148 Y114.461
G0 F3000 E13.43825
;segType:HShell
G1 X135.727 Y119.039 E13.65363 F2400
G0 X136.292 Y119.039 F5400
G1 X131.713 Y114.461 E13.86901 F2400
G0 X131.140 Y113.700 F5400
;segType:Perimeter
G1 X123.800 Y113.700 E14.11317 F1200
G1 X123.800 Y98.300 E14.62540
G1 X131.200 Y98.300 E14.87155
G1 X131.200 Y113.640 E15.38178
G0 X131.140 Y113.700 F5400
G0 X129.540 Y113.700
G0 X130.100 Y114.100
;segType:Loop
G1 X128.814 Y114.100 E15.42456 F2400
G0 X128.700 Y114.192 F5400
G0 X128.586 Y114.185
G0 X128.471 Y114.160
G0 X128.357 Y114.134
G0 X128.243 Y114.108
G1 X128.129 Y114.096 E15.42830 F2400
G1 X128.014 Y114.085 E15.43182
G1 X127.900 Y114.074 E15.43514
G1 X127.786 Y114.063 E15.43825
G1 X127.671 Y114.053 E15.44116
G1 X127.557 Y114.053 E15.44405
G1 X127.443 Y114.056 E15.44702
G1 X127.329 Y114.060 E15.45005
G1 X127.214 Y114.064 E15.45316
G1 X127.100 Y114.067 E15.45633
G1 X126.986 Y114.081 E15.45978
G1 X126.871 Y114.099 E15.46360
G1 X126.757 Y114.117 E15.46777
G1 X126.643 Y114.135 E15.47229
G1 X126.529 Y114.146 E15.47697
G1 X126.414 Y114.179 E15.48248
G1 X126.300 Y114.100 E15.48709
G1 X123.400 Y114.100 E15.58356
G1 X123.400 Y97.900 E16.12240
G1 X126.300 Y97.900 E16.21887
G1 X126.414 Y97.821 E16.22528
G1 X126.529 Y97.855 E16.23013
G0 X126.643 Y97.865 F5400
G0 X126.986 Y97.919
G0 X127.100 Y97.933
G0 X127.557 Y97.947
G0 X127.671 Y97.947
G0 X128.129 Y97.904
G1 X128.243 Y97.892 E16.23411 F2400
G1 X128.357 Y97.866 E16.23866
G1 X128.471 Y97.841 E16.24371
G1 X128.586 Y97.815 E16.24925
G1 X128.700 Y97.808 E16.25480
G1 X128.814 Y97.900 E16.25966
G1 X131.600 Y97.900 E16.35233
G1 X131.600 Y114.100 E16.89116
G1 X130.300 Y114.100 E16.93440
G0 F3000 E15.93440
G0 X129.430 Y113.700 F5400
G0 X123.800 Y113.700
G0 X123.800 Y111.114
G0 X114.460 Y106.824
G0 F3000 E16.93440
;segType:HShell
G1 X124.968 Y117.331 E17.42863 F2400
G0 X125.861 Y117.787 F5400
;segType:Perimeter
G1 X125.670 Y117.011 E17.45523 F1200
G1 X125.563 Y116.595 E17.46952
G1 X125.563 Y116.105 E17.48579
G1 X125.685 Y115.632 E17.50206
G1 X125.921 Y115.203 E17.51834
G1 X126.256 Y114.846 E17.53461
G1 X126.669 Y114.584 E17.55088
G1 X127.134 Y114.433 E17.56715
G1 X127.622 Y114.402 E17.58343
G1 X128.103 Y114.494 E17.59971
G1 X128.546 Y114.702 E17.61598
G1 X128.923 Y115.014 E17.63225
G1 X129.211 Y115.410 E17.64853
G1 X129.391 Y115.865 E17.66481
G1 X129.452 Y116.350 E17.68108
G1 X129.391 Y116.835 E17.69735
G1 X129.211 Y117.290 E17.71362
G1 X128.923 Y117.686 E17.72990
G1 X128.546 Y117.998 E17.74617
G1 X128.103 Y118.206 E17.76245
G1 X127.622 Y118.298 E17.77873
G1 X127.134 Y118.267 E17.79500
G1 X126.669 Y118.116 E17.81127
G1 X126.256 Y117.854 E17.82755
G1 X125.921 Y117.497 E17.84382
G1 X125.714 Y117.121 E17.85810
G0 X125.670 Y117.011 F5400
G0 X125.563 Y116.595
G0 X125.563 Y116.105
G0 X125.685 Y115.632
G0 X125.778 Y115.463
G0 X125.188 Y115.958
;segType:Loop
G1 X125.310 Y115.483 E17.87440 F2400
G1 X125.595 Y114.966 E17.89405
G1 X125.999 Y114.535 E17.91367
G1 X126.377 Y114.296 E17.92856
G0 X126.643 Y114.135 F5400
G0 X126.986 Y114.081
G0 X127.100 Y114.067
G0 X127.557 Y114.053
G0 X127.671 Y114.053
G0 X128.129 Y114.096
G1 X128.451 Y114.155 E17.94242 F2400
G1 X128.583 Y114.184 E17.94881
G1 X128.630 Y114.299 E17.95293
G1 X128.762 Y114.362 E17.95780
G1 X129.217 Y114.738 E17.97743
G1 X129.564 Y115.215 E17.99707
G1 X129.781 Y115.764 E18.01671
G1 X129.855 Y116.350 E18.03634
G1 X129.781 Y116.936 E18.05597
G1 X129.564 Y117.485 E18.07560
G1 X129.217 Y117.962 E18.09524
G1 X128.762 Y118.339 E18.11488
G1 X128.228 Y118.590 E18.13452
G1 X127.648 Y118.701 E18.15416
G1 X127.059 Y118.663 E18.17379
G1 X126.497 Y118.481 E18.19342
G1 X125.999 Y118.165 E18.21306
G1 X125.595 Y117.734 E18.23270
G1 X125.310 Y117.217 E18.25233
G1 X125.163 Y116.645 E18.27197
G1 X125.163 Y116.155 E18.28827
G0 X124.803 Y116.601 F5400
;segType:HShell
G1 X114.460 Y106.259 E18.77477 F2400
G0 X114.460 Y105.693 F5400
G1 X123.039 Y114.272 E19.17830 F2400
G0 X123.039 Y113.706 F5400
G1 X114.460 Y105.127 E19.58182 F2400
G0 X114.460 Y104.561 F5400
G1 X123.039 Y113.140 E19.98535 F2400
G0 X123.039 Y112.575 F5400
G1 X114.460 Y103.996 E20.38887 F2400
G0 X114.460 Y103.430 F5400
G1 X123.039 Y112.009 E20.79240 F2400
G0 X123.039 Y111.443 F5400
G1 X114.460 Y102.864 E21.19593 F2400
G0 X114.460 Y102.299 F5400
G1 X123.039 Y110.878 E21.59945 F2400
G0 X123.039 Y110.312 F5400
G1 X114.460 Y101.733 E22.00298 F2400
G0 X114.460 Y101.167 F5400
G1 X123.039 Y109.746 E22.40651 F2400
G0 X123.039 Y109.181 F5400
G1 X114.460 Y100.602 E22.81003 F2400
G0 X114.460 Y100.036 F5400
G1 X123.039 Y108.615 E23.21356 F2400
G0 X123.039 Y108.049 F5400
G1 X114.460 Y99.470 E23.61709 F2400
G0 X114.460 Y98.905 F5400
G1 X123.039 Y107.484 E24.02061 F2400
G0 X123.039 Y106.918 F5400
G1 X114.460 Y98.339 E24.42414 F2400
G0 X114.460 Y97.773 F5400
G1 X123.039 Y106.352 E24.82766 F2400
G0 X123.039 Y105.787 F5400
G1 X114.460 Y97.208 E25.23119 F2400
G0 X114.460 Y96.642 F5400
G1 X123.039 Y105.221 E25.63472 F2400
G0 X123.039 Y104.655 F5400
G1 X114.460 Y96.076 E26.03824 F2400
G0 X114.460 Y95.511 F5400
G1 X123.039 Y104.089 E26.44177 F2400
G0 X123.039 Y103.524 F5400
G1 X114.460 Y94.945 E26.84530 F2400
G0 X114.460 Y94.379 F5400
G1 X123.039 Y102.958 E27.24882 F2400
G0 X123.039 Y102.392 F5400
G1 X114.460 Y93.813 E27.65235 F2400
G0 X114.460 Y93.248 F5400
G1 X123.039 Y101.827 E28.05588 F2400
G0 X123.039 Y101.261 F5400
G1 X114.460 Y92.682 E28.45940 F2400
G0 X114.460 Y92.116 F5400
G1 X123.039 Y100.695 E28.86293 F2400
G0 X123.039 Y100.130 F5400
G1 X114.460 Y91.551 E29.26645 F2400
G0 X114.460 Y90.985 F5400
G1 X123.039 Y99.564 E29.66998 F2400
G0 X123.039 Y98.998 F5400
G1 X114.460 Y90.419 E30.07351 F2400
G0 X114.460 Y89.854 F5400
G1 X123.039 Y98.433 E30.47703 F2400
G0 X123.039 Y97.867 F5400
G1 X114.460 Y89.288 E30.88056 F2400
G0 X114.460 Y88.722 F5400
G1 X123.278 Y97.540 E31.29530 F2400
G0 X123.843 Y97.540 F5400
G1 X114.460 Y88.157 E31.73664 F2400
G0 X114.460 Y87.591 F5400
G1 X124.409 Y97.540 E32.20460 F2400
G0 X124.975 Y97.540 F5400
G1 X114.460 Y87.025 E32.69916 F2400
G0 X123.789 Y90.697 F5400
G1 X114.460 Y81.368 E33.13797 F2400
G0 X114.460 Y81.934 F5400
G1 X123.789 Y91.263 E33.57678 F2400
G0 X123.789 Y91.829 F5400
G1 X114.460 Y82.500 E34.01559 F2400
G0 X115.184 Y80.961 F5400
G1 X123.789 Y89.566 E34.42036 F2400
G0 X123.789 Y89.000 F5400
G1 X115.750 Y80.961 E34.79853 F2400
G0 X116.315 Y80.961 F5400
G1 X123.789 Y88.435 E35.15009 F2400
G0 X123.789 Y87.869 F5400
G1 X116.881 Y80.961 E35.47504 F2400
G0 X117.447 Y80.961 F5400
G1 X123.789 Y87.303 E35.77338 F2400
G0 X123.789 Y86.738 F5400
G1 X118.012 Y80.961 E36.04511 F2400
G0 X118.578 Y80.961 F5400
G1 X124.157 Y86.539 E36.30753 F2400
G0 X124.723 Y86.539 F5400
G1 X119.144 Y80.961 E36.56994 F2400
G0 X119.709 Y80.961 F5400
G1 X125.288 Y86.539 E36.83235 F2400
G0 X125.854 Y86.539 F5400
G1 X120.275 Y80.961 E37.09477 F2400
G0 X120.841 Y80.961 F5400
G1 X126.420 Y86.539 E37.35718 F2400
G0 X126.985 Y86.539 F5400
G1 X121.407 Y80.961 E37.61959 F2400
G0 X121.972 Y80.961 F5400
G1 X127.551 Y86.539 E37.88201 F2400
G0 X128.117 Y86.539 F5400
G1 X122.538 Y80.961 E38.14442 F2400
G0 X123.104 Y80.961 F5400
G1 X128.682 Y86.539 E38.40683 F2400
G0 X129.248 Y86.539 F5400
G1 X123.669 Y80.961 E38.66924 F2400
G0 X124.235 Y80.961 F5400
G1 X129.814 Y86.539 E38.93166 F2400
G0 X130.380 Y86.539 F5400
G1 X124.801 Y80.961 E39.19407 F2400
G0 X125.366 Y80.961 F5400
G1 X130.945 Y86.539 E39.45648 F2400
G0 X131.210 Y86.805 F5400
G1 X145.540 Y101.134 E40.13048 F2400
G0 X145.540 Y101.699 F5400
G1 X131.210 Y87.370 E40.80448 F2400
G0 X131.210 Y87.936 F5400
G1 X145.540 Y102.265 E41.47847 F2400
G0 X145.540 Y102.831 F5400
G1 X131.210 Y88.502 E42.15247 F2400
G0 X131.210 Y89.067 F5400
G1 X145.540 Y103.396 E42.82646 F2400
G0 X145.540 Y103.962 F5400
G1 X131.210 Y89.633 E43.50046 F2400
G0 X131.210 Y90.199 F5400
G1 X145.540 Y104.528 E44.17446 F2400
G0 X145.540 Y105.094 F5400
G1 X131.210 Y90.764 E44.84845 F2400
G0 F3000 E43.84845
G0 X130.450 Y89.353 F5400
G0 X130.450 Y87.300
G0 X129.345 Y87.300
G0 X125.932 Y80.961
G0 F3000 E44.84845
G1 X145.540 Y100.568 E45.77073 F2400
G0 X145.540 Y100.002 F5400
G1 X126.498 Y80.961 E46.66640 F2400
G0 X127.063 Y80.961 F5400
G1 X145.540 Y99.437 E47.53546 F2400
G0 X145.540 Y98.871 F5400
G1 X127.629 Y80.961 E48.37791 F2400
G0 X128.195 Y80.961 F5400
G1 X145.540 Y98.305 E49.19376 F2400
G0 X145.540 Y97.740 F5400
G1 X128.760 Y80.961 E49.98300 F2400
G0 X129.326 Y80.961 F5400
G1 X145.540 Y97.174 E50.74563 F2400
G0 X145.540 Y96.608 F5400
G1 X129.892 Y80.961 E51.48165 F2400
G0 X130.458 Y80.961 F5400
G1 X145.540 Y96.043 E52.19106 F2400
G0 X145.540 Y95.477 F5400
G1 X131.023 Y80.961 E52.87386 F2400
G0 X131.589 Y80.961 F5400
G1 X145.540 Y94.911 E53.53006 F2400
G0 X145.540 Y94.346 F5400
G1 X132.155 Y80.961 E54.15965 F2400
G0 X132.720 Y80.961 F5400
G1 X145.540 Y93.780 E54.76263 F2400
G0 X145.540 Y93.214 F5400
G1 X133.286 Y80.961 E55.33900 F2400
G0 X133.852 Y80.961 F5400
G1 X145.540 Y92.648 E55.88877 F2400
G0 X145.540 Y92.083 F5400
G1 X134.417 Y80.961 E56.41192 F2400
G0 X134.983 Y80.961 F5400
G1 X145.540 Y91.517 E56.90847 F2400
G0 X145.540 Y90.951 F5400
G1 X135.549 Y80.961 E57.37841 F2400
G0 X136.114 Y80.961 F5400
G1 X145.540 Y90.386 E57.82174 F2400
G0 X145.540 Y89.820 F5400
G1 X136.680 Y80.961 E58.23847 F2400
G0 X137.246 Y80.961 F5400
G1 X145.540 Y89.254 E58.62858 F2400
G0 X145.540 Y88.689 F5400
G1 X137.811 Y80.961 E58.99209 F2400
G0 X138.377 Y80.961 F5400
G1 X145.540 Y88.123 E59.32899 F2400
G0 X145.540 Y87.557 F5400
G1 X138.943 Y80.961 E59.63928 F2400
G0 X139.508 Y80.961 F5400
G1 X145.540 Y86.992 E59.92296 F2400
G0 X145.540 Y86.426 F5400
G1 X140.074 Y80.961 E60.18004 F2400
G0 X140.640 Y80.961 F5400
G1 X145.540 Y85.860 E60.41051 F2400
G0 X145.540 Y85.295 F5400
G1 X141.206 Y80.961 E60.61436 F2400
G0 X141.771 Y80.961 F5400
G1 X145.540 Y84.729 E60.79161 F2400
G0 X145.540 Y84.163 F5400
G1 X142.337 Y80.961 E60.94226 F2400
G0 X142.903 Y80.961 F5400
G1 X145.540 Y83.597 E61.06629 F2400
G0 X145.540 Y83.032 F5400
G1 X143.468 Y80.961 E61.16372 F2400
G0 X144.034 Y80.961 F5400
G1 X145.540 Y82.466 E61.23454 F2400
G0 X145.540 Y81.900 F5400
G1 X144.600 Y80.961 E61.27875 F2400
G0 X145.165 Y80.961 F5400
G1 X145.540 Y81.335 E61.29635 F2400
G0 X145.540 Y106.225 F5400
G1 X131.210 Y91.896 E61.97034 F2400
G0 X130.709 Y91.960 F5400
G1 X145.540 Y106.791 E62.66791 F2400
G0 X145.540 Y107.356 F5400
G1 X130.144 Y91.960 E63.39208 F2400
G0 X129.578 Y91.960 F5400
G1 X145.540 Y107.922 E64.14287 F2400
G0 X145.540 Y108.488 F5400
G1 X129.012 Y91.960 E64.92026 F2400
G0 X128.447 Y91.960 F5400
G1 X145.540 Y109.053 E65.72426 F2400
G0 X145.540 Y109.619 F5400
G1 X127.881 Y91.960 E66.55487 F2400
G0 X127.315 Y91.960 F5400
G1 X128.490 Y93.136 E66.61015 F2400
G0 X127.740 Y92.950 F5400
G1 X126.750 Y91.960 E66.65672 F2400
G0 X126.184 Y91.960 F5400
G1 X127.191 Y92.967 E66.70408 F2400
G0 X126.724 Y93.067 F5400
G1 X125.618 Y91.960 E66.75611 F2400
G0 X125.053 Y91.960 F5400
G1 X126.306 Y93.214 E66.81507 F2400
G0 X125.960 Y93.433 F5400
G1 X124.487 Y91.960 E66.88436 F2400
G0 X123.921 Y91.960 F5400
G1 X125.646 Y93.685 E66.96548 F2400
G0 X125.372 Y93.977 F5400
G1 X114.460 Y83.065 E67.47872 F2400
G0 X114.460 Y83.631 F5400
G1 X125.152 Y94.323 E67.98162 F2400
G0 X124.960 Y94.697 F5400
G1 X114.460 Y84.197 E68.47551 F2400
G0 X114.460 Y84.762 F5400
G1 X124.845 Y95.147 E68.96397 F2400
G0 X124.803 Y95.671 F5400
G1 X114.460 Y85.328 E69.45046 F2400
G0 X114.460 Y85.894 F5400
G1 X124.888 Y96.322 E69.94096 F2400
G0 X125.386 Y97.495 F5400
;segType:InnerHair
G1 X125.500 Y97.507 E69.94464 F2400
G1 X125.614 Y97.557 E69.94761
G1 X125.729 Y97.606 E69.94955
G1 X125.755 Y97.617 E69.94994
G1 X125.642 Y97.569 E69.95262
G1 X125.529 Y97.520 E69.95629
G1 X125.416 Y97.471 E69.96097
G1 X125.386 Y97.495 E69.96230
G0 F3000 E68.96230
G0 X126.939 Y97.504 F5400
G0 X127.134 Y97.568
G0 X127.623 Y97.598
G0 X128.080 Y97.511
G0 X129.500 Y97.519
G0 F3000 E69.96230
G1 X129.386 Y97.578 E69.96490 F2400
G1 X129.271 Y97.603 E69.96679
G1 X129.248 Y97.611 E69.96715
G1 X129.367 Y97.568 E69.96991
G1 X129.486 Y97.525 E69.97357
G1 X129.594 Y97.472 E69.97814
G1 X129.500 Y97.519 E69.98130
G0 X129.715 Y97.189 F5400
;segType:HShell
G1 X130.066 Y97.540 E69.99780 F2400
G0 X130.632 Y97.540 F5400
G1 X129.930 Y96.838 E70.03079 F2400
G0 X130.091 Y96.433 F5400
G1 X131.197 Y97.540 E70.08286 F2400
G0 X131.763 Y97.540 F5400
G1 X130.179 Y95.956 E70.15734 F2400
G0 X130.186 Y95.397 F5400
G1 X145.540 Y110.750 E70.87952 F2400
G0 X145.540 Y110.185 F5400
G1 X130.004 Y94.650 E71.61025 F2400
G0 X131.961 Y97.737 F5400
G1 X145.540 Y111.316 E72.24896 F2400
G0 X145.540 Y111.882 F5400
G1 X131.961 Y98.303 E72.88768 F2400
G0 X131.961 Y98.868 F5400
G1 X145.540 Y112.447 E73.52640 F2400
G0 X145.540 Y113.013 F5400
G1 X131.961 Y99.434 E74.16512 F2400
G0 X131.961 Y100.000 F5400
G1 X145.540 Y113.579 E74.80384 F2400
G0 X145.540 Y114.145 F5400
G1 X131.961 Y100.566 E75.44255 F2400
G0 X131.961 Y101.131 F5400
G1 X145.540 Y114.710 E76.08127 F2400
G0 X145.540 Y115.276 F5400
G1 X131.961 Y101.697 E76.71999 F2400
G0 X131.961 Y102.263 F5400
G1 X145.540 Y115.842 E77.35871 F2400
G0 X145.540 Y116.407 F5400
G1 X131.961 Y102.828 E77.99742 F2400
G0 X131.961 Y103.394 F5400
G1 X145.540 Y116.973 E78.63614 F2400
G0 X145.540 Y117.539 F5400
G1 X131.961 Y103.960 E79.27486 F2400
G0 X131.961 Y104.525 F5400
G1 X145.540 Y118.104 E79.91358 F2400
G0 X145.540 Y118.670 F5400
G1 X131.961 Y105.091 E80.55229 F2400
G0 X131.961 Y105.657 F5400
G1 X145.343 Y119.039 E81.18178 F2400
G0 X144.778 Y119.039 F5400
G1 X131.961 Y106.222 E81.78466 F2400
G0 X131.961 Y106.788 F5400
G1 X144.212 Y119.039 E82.36093 F2400
G0 X143.646 Y119.039 F5400
G1 X131.961 Y107.354 E82.91059 F2400
G0 X131.961 Y107.919 F5400
G1 X143.081 Y119.039 E83.43364 F2400
G0 X142.515 Y119.039 F5400
G1 X131.961 Y108.485 E83.93008 F2400
G0 X131.961 Y109.051 F5400
G1 X141.949 Y119.039 E84.39992 F2400
G0 X141.384 Y119.039 F5400
G1 X131.961 Y109.616 E84.84315 F2400
G0 X131.961 Y110.182 F5400
G1 X140.818 Y119.039 E85.25977 F2400
G0 X140.252 Y119.039 F5400
G1 X131.961 Y110.748 E85.64978 F2400
G0 X131.961 Y111.314 F5400
G1 X139.686 Y119.039 E86.01318 F2400
G0 X139.121 Y119.039 F5400
G1 X131.961 Y111.879 E86.34998 F2400
G0 X131.961 Y112.445 F5400
G1 X138.555 Y119.039 E86.66017 F2400
G0 X137.989 Y119.039 F5400
G1 X131.961 Y113.011 E86.94375 F2400
G0 X131.961 Y113.576 F5400
G1 X137.424 Y119.039 E87.20072 F2400
G0 X136.858 Y119.039 F5400
G1 X131.961 Y114.142 E87.43108 F2400
G0 X130.582 Y114.461 F5400
G1 X135.161 Y119.039 E87.64646 F2400
G0 X134.595 Y119.039 F5400
G1 X130.016 Y114.461 E87.86184 F2400
G0 X129.592 Y114.602 F5400
G1 X134.030 Y119.039 E88.07056 F2400
G0 X133.464 Y119.039 F5400
G1 X130.138 Y115.713 E88.22701 F2400
G0 X130.217 Y116.358 F5400
G1 X132.898 Y119.039 E88.35312 F2400
G0 X132.333 Y119.039 F5400
G1 X130.154 Y116.861 E88.45560 F2400
G0 X130.025 Y117.298 F5400
G1 X131.767 Y119.039 E88.53753 F2400
G0 X131.201 Y119.039 F5400
G1 X129.856 Y117.695 E88.60078 F2400
G0 X129.618 Y118.022 F5400
G1 X130.636 Y119.039 E88.64863 F2400
G0 X130.070 Y119.039 F5400
G1 X129.350 Y118.320 E88.68249 F2400
G0 X129.505 Y118.757 F5400
G1 X128.807 Y118.908 E88.74183 F2400
G0 X128.471 Y118.960 F5400
;segType:InnerHair
G1 X128.357 Y118.986 E88.74599 F2400
G1 X128.243 Y118.997 E88.74986
G1 X128.129 Y119.008 E88.75352
G1 X128.014 Y119.019 E88.75697
G1 X127.900 Y119.029 E88.76022
G1 X127.786 Y119.040 E88.76327
G1 X127.671 Y119.051 E88.76611
G1 X127.557 Y119.048 E88.76900
G1 X127.443 Y119.044 E88.77196
G1 X127.329 Y119.040 E88.77499
G1 X127.214 Y119.037 E88.77808
G1 X127.100 Y119.033 E88.78125
G1 X126.986 Y119.029 E88.78449
G1 X126.871 Y119.011 E88.78812
G1 X126.757 Y118.993 E88.79209
G1 X126.643 Y118.975 E88.79642
G0 X126.495 Y118.859 F5400
;segType:HShell
G1 X126.528 Y118.892 E88.79797 F2400
G0 X126.110 Y119.039 F5400
G1 X114.460 Y107.390 E89.34592 F2400
G0 X114.460 Y107.956 F5400
G1 X125.544 Y119.039 E89.86728 F2400
G0 X124.979 Y119.039 F5400
G1 X114.460 Y108.521 E90.36202 F2400
G0 X114.460 Y109.087 F5400
G1 X124.413 Y119.039 E90.83015 F2400
G0 X123.847 Y119.039 F5400
G1 X114.460 Y109.653 E91.27168 F2400
G0 X114.460 Y110.218 F5400
G1 X123.282 Y119.039 E91.68660 F2400
G0 X122.716 Y119.039 F5400
G1 X114.460 Y110.784 E92.07491 F2400
G0 X114.460 Y111.350 F5400
G1 X122.150 Y119.039 E92.43661 F2400
G0 X121.585 Y119.039 F5400
G1 X114.460 Y111.915 E92.77171 F2400
G0 X114.460 Y112.481 F5400
G1 X121.019 Y119.039 E93.08020 F2400
G0 X120.453 Y119.039 F5400
G1 X114.460 Y113.047 E93.36208 F2400
G0 X114.460 Y113.612 F5400
G1 X119.887 Y119.039 E93.61735 F2400
G0 X119.322 Y119.039 F5400
G1 X114.460 Y114.178 E93.84601 F2400
G0 X114.460 Y114.744 F5400
G1 X118.756 Y119.039 E94.04807 F2400
G0 X118.190 Y119.039 F5400
G1 X114.460 Y115.309 E94.22351 F2400
G0 X114.460 Y115.875 F5400
G1 X117.625 Y119.039 E94.37234 F2400
G0 X117.059 Y119.039 F5400
G1 X114.460 Y116.441 E94.49458 F2400
G0 X114.460 Y117.007 F5400
G1 X116.493 Y119.039 E94.59019 F2400
G0 X115.928 Y119.039 F5400
G1 X114.460 Y117.572 E94.65921 F2400
G0 X114.460 Y118.138 F5400
G1 X115.362 Y119.039 E94.70161 F2400
G0 X114.796 Y119.039 F5400
G1 X114.460 Y118.704 E94.71741 F2400
G0 X123.228 Y114.461 F5400
G1 X124.803 Y116.036 E94.79150 F2400
G0 X124.913 Y115.580 F5400
G1 X123.794 Y114.461 E94.84416 F2400
G0 X124.360 Y114.461 F5400
G1 X125.070 Y115.172 E94.87760 F2400
G0 X125.271 Y114.807 F5400
G1 X124.925 Y114.461 E94.89388 F2400
G0 X125.386 Y114.505 F5400
;segType:InnerHair
G1 X125.500 Y114.493 E94.89756 F2400
G1 X125.614 Y114.444 E94.90053
G1 X125.729 Y114.394 E94.90247
G1 X125.686 Y114.413 E94.90334
G1 X125.573 Y114.462 E94.90664
G1 X125.460 Y114.510 E94.91093
G1 X125.386 Y114.505 E94.91346
G0 F3000 E93.91346
G0 X126.939 Y114.496 F5400
G0 X127.134 Y114.433
G0 X127.622 Y114.402
G0 X128.080 Y114.489
G0 X129.500 Y114.481
G0 F3000 E94.91346
G1 X129.386 Y114.422 E94.91606 F2400
G1 X129.271 Y114.397 E94.91795
G1 X129.322 Y114.415 E94.91896
G1 X129.440 Y114.458 E94.92227
G1 X129.553 Y114.507 E94.92650
G1 X129.500 Y114.481 E94.92827
; ------------------------------------
; Layer #1
; ------------------------------------
G92 E0 ;reset extr
G0 F3000 E-1.00000
G0 F600 Z1.400
G0 X129.214 Y113.700 F7200
G0 X123.800 Y113.700
G0 X123.800 Y98.948
G0 X117.198 Y80.961
G0 F3000 E0.00000
;segType:HShell
G1 X114.460 Y83.698 E0.12878 F3600
G0 X114.460 Y83.133 F7200
G1 X116.633 Y80.961 E0.23095 F3600
G0 X116.067 Y80.961 F7200
G1 X114.460 Y82.567 E0.30652 F3600
G0 X114.460 Y82.001 F7200
G1 X115.501 Y80.961 E0.35548 F3600
G0 X114.936 Y80.961 F7200
G1 X114.460 Y81.436 E0.37783 F3600
G0 X113.916 Y80.780 F7200
;segType:Perimeter
G1 X113.760 Y80.200 E0.39778 F1800
G1 X146.300 Y80.200 E1.48005
G1 X146.300 Y119.800 E2.79712
G1 X113.700 Y119.800 E3.88138
G1 X113.700 Y80.260 E5.19646
G0 X113.760 Y80.200 F7200
G0 X115.360 Y80.200
G0 X114.800 Y80.600
;segType:Loop
G1 X145.900 Y80.600 E6.23083 F3600
G1 X145.900 Y119.400 E7.52129
G1 X114.100 Y119.400 E8.57894
G1 X114.100 Y80.600 E9.86941
G1 X114.600 Y80.600 E9.88604
G0 F3000 E8.88604
G0 X140.957 Y80.961 F7200
G0 F3000 E9.88604
;segType:HShell
G1 X131.210 Y90.707 E10.34449 F3600
G0 X131.190 Y91.200 F7200
;segType:Perimeter
G1 X130.390 Y91.200 E10.37110 F1800
G1 X124.550 Y91.200 E10.56536
G1 X124.550 Y87.300 E10.69510
G1 X130.450 Y87.300 E10.89136
G1 X130.450 Y91.140 E11.01910
G0 X130.390 Y91.200 F7200
G0 X128.790 Y91.200
G0 X129.350 Y91.600
;segType:Loop
G1 X124.150 Y91.600 E11.19208 F3600
G1 X124.150 Y86.900 E11.34843
G1 X130.850 Y86.900 E11.57129
G1 X130.850 Y91.600 E11.72764
G1 X129.550 Y91.600 E11.77088
G0 F3000 E10.77088
G0 X129.977 Y91.200 F7200
G0 X127.288 Y93.723
G0 X127.134 Y93.733
G0 X126.669 Y93.884
G0 X126.256 Y94.146
G0 X125.921 Y94.503
G0 X125.685 Y94.931
G0 X125.585 Y95.321
G0 X114.460 Y105.760
G0 F3000 E11.77088
;segType:HShell
G1 X124.803 Y95.417 E12.25738 F3600
G0 X124.803 Y95.983 F7200
G1 X123.247 Y97.540 E12.33059 F3600
G0 X123.812 Y97.540 F7200
G1 X124.917 Y96.435 E12.38256 F3600
G0 X125.077 Y96.841 F7200
G1 X124.378 Y97.540 E12.41544 F3600
G0 X124.944 Y97.540 F7200
G1 X125.278 Y97.205 E12.43116 F3600
G0 X125.861 Y97.087 F7200
;segType:Perimeter
G1 X125.670 Y96.310 E12.45777 F1800
G1 X125.563 Y95.894 E12.47205
G1 X125.563 Y95.405 E12.48832
G1 X125.685 Y94.931 E12.50459
G1 X125.921 Y94.503 E12.52087
G1 X126.256 Y94.146 E12.53714
G1 X126.669 Y93.884 E12.55342
G1 X127.134 Y93.733 E12.56969
G1 X127.622 Y93.702 E12.58596
G1 X128.103 Y93.793 E12.60224
G1 X128.546 Y94.002 E12.61852
G1 X128.923 Y94.314 E12.63479
G1 X129.211 Y94.710 E12.65106
G1 X129.391 Y95.165 E12.66734
G1 X129.452 Y95.650 E12.68361
G1 X129.391 Y96.136 E12.69989
G1 X129.211 Y96.590 E12.71616
G1 X128.923 Y96.986 E12.73243
G1 X128.546 Y97.298 E12.74871
G1 X128.103 Y97.506 E12.76498
G1 X127.623 Y97.598 E12.78126
G1 X127.134 Y97.568 E12.79753
G1 X126.669 Y97.416 E12.81381
G1 X126.256 Y97.154 E12.83008
G1 X125.921 Y96.797 E12.84636
G1 X125.714 Y96.421 E12.86063
G0 X125.670 Y96.310 F7200
G0 X125.563 Y95.894
G0 X125.563 Y95.405
G0 X125.685 Y94.931
G0 X125.778 Y94.763
G0 X125.188 Y95.258
;segType:Loop
G1 X125.310 Y94.783 E12.87694 F3600
G1 X125.595 Y94.266 E12.89658
G1 X125.999 Y93.835 E12.91621
G1 X126.497 Y93.519 E12.93585
G1 X127.059 Y93.336 E12.95548
G1 X127.648 Y93.300 E12.97512
G1 X128.228 Y93.410 E12.99475
G1 X128.762 Y93.662 E13.01440
G1 X129.217 Y94.038 E13.03403
G1 X129.564 Y94.515 E13.05366
G1 X129.781 Y95.064 E13.07330
G1 X129.855 Y95.650 E13.09293
G1 X129.781 Y96.236 E13.11257
G1 X129.564 Y96.785 E13.13221
G1 X129.217 Y97.262 E13.15184
G1 X128.762 Y97.639 E13.17148
G1 X128.672 Y97.681 E13.17479
G0 X128.634 Y97.804 F7200
G0 X128.502 Y97.834
G0 X128.369 Y97.863
G1 X128.129 Y97.904 E13.18273 F3600
G1 X128.014 Y97.915 E13.18626
G1 X127.900 Y97.926 E13.18958
G1 X127.786 Y97.937 E13.19269
G1 X127.671 Y97.947 E13.19560
G1 X127.557 Y97.947 E13.19850
G1 X127.443 Y97.944 E13.20146
G1 X127.329 Y97.940 E13.20450
G1 X127.214 Y97.936 E13.20760
G1 X127.100 Y97.933 E13.21078
G1 X126.986 Y97.919 E13.21423
G1 X126.871 Y97.901 E13.21805
G1 X126.757 Y97.883 E13.22222
G1 X126.643 Y97.865 E13.22673
G0 X126.372 Y97.809 F7200
G1 X126.338 Y97.680 E13.23115 F3600
G1 X125.999 Y97.465 E13.24454
G1 X125.595 Y97.034 E13.26417
G1 X125.310 Y96.517 E13.28380
G1 X125.163 Y95.945 E13.30345
G1 X125.163 Y95.455 E13.31975
G0 F3000 E12.31975
G0 X125.563 Y95.558 F7200
G0 X125.563 Y95.894
G0 X125.685 Y96.369
G0 X125.921 Y96.797
G0 X126.256 Y97.154
G0 X126.669 Y97.416
G0 X127.134 Y97.568
G0 X127.623 Y97.598
G0 X128.103 Y97.506
G0 X128.546 Y97.298
G0 X128.923 Y96.986
G0 X129.211 Y96.590
G0 X129.244 Y96.506
G0 X146.300 Y100.898
G0 X145.540 Y100.703
G0 F3000 E13.31975
;segType:HShell
G1 X131.961 Y114.282 E13.95847 F3600
G0 X131.216 Y114.461 F7200
G1 X130.096 Y115.581 E14.01115 F3600
G0 X130.182 Y116.061 F7200
G1 X131.782 Y114.461 E14.08641 F3600
G0 X131.140 Y113.700 F7200
;segType:Perimeter
G1 X123.800 Y113.700 E14.33057 F1800
G1 X123.800 Y98.300 E14.84280
G1 X131.200 Y98.300 E15.08895
G1 X131.200 Y113.640 E15.59919
G0 X131.140 Y113.700 F7200
G0 X129.540 Y113.700
G0 X130.100 Y114.100
;segType:Loop
G1 X128.814 Y114.100 E15.64196 F3600
G0 X128.700 Y114.192 F7200
G0 X128.586 Y114.185
G0 X128.471 Y114.160
G0 X128.357 Y114.134
G0 X128.243 Y114.108
G1 X128.129 Y114.096 E15.64570 F3600
G1 X128.014 Y114.085 E15.64922
G1 X127.900 Y114.074 E15.65254
G1 X127.786 Y114.063 E15.65565
G1 X127.671 Y114.053 E15.65856
G1 X127.557 Y114.053 E15.66145
G1 X127.443 Y114.056 E15.66442
G1 X127.329 Y114.060 E15.66745
G1 X127.214 Y114.064 E15.67056
G1 X127.100 Y114.067 E15.67373
G1 X126.986 Y114.081 E15.67718
G1 X126.871 Y114.099 E15.68100
G1 X126.757 Y114.117 E15.68517
G1 X126.643 Y114.135 E15.68969
G1 X126.529 Y114.146 E15.69437
G1 X126.414 Y114.179 E15.69988
G1 X126.300 Y114.100 E15.70449
G1 X123.400 Y114.100 E15.80096
G1 X123.400 Y97.900 E16.33980
G1 X126.300 Y97.900 E16.43627
G1 X126.414 Y97.821 E16.44268
G1 X126.529 Y97.855 E16.44754
G0 X126.643 Y97.865 F7200
G0 X126.986 Y97.919
G0 X127.100 Y97.933
G0 X127.557 Y97.947
G0 X127.671 Y97.947
G0 X128.129 Y97.904
G1 X128.243 Y97.892 E16.45151 F3600
G1 X128.357 Y97.866 E16.45606
G1 X128.471 Y97.841 E16.46111
G1 X128.586 Y97.815 E16.46665
G1 X128.700 Y97.808 E16.47220
G1 X128.814 Y97.900 E16.47706
G1 X131.600 Y97.900 E16.56973
G1 X131.600 Y114.100 E17.10857
G1 X130.300 Y114.100 E17.15180
G0 F3000 E16.15180
G0 X130.821 Y113.700 F7200
G0 X131.200 Y113.700
G0 X131.200 Y113.409
G0 X145.540 Y102.400
G0 F3000 E17.15180
;segType:HShell
G1 X128.900 Y119.039 E17.93449 F3600
G0 X128.526 Y118.848 F7200
G1 X128.513 Y118.860 E17.93508 F3600
G0 X128.471 Y118.960 F7200
;segType:InnerHair
G1 X128.357 Y118.986 E17.93924 F3600
G1 X128.243 Y118.997 E17.94311
G1 X128.129 Y119.008 E17.94677
G1 X128.014 Y119.019 E17.95022
G1 X127.900 Y119.029 E17.95347
G1 X127.786 Y119.040 E17.95652
G1 X127.671 Y119.051 E17.95936
G1 X127.557 Y119.048 E17.96224
G1 X127.443 Y119.044 E17.96520
G1 X127.329 Y119.040 E17.96823
G1 X127.214 Y119.037 E17.97133
G1 X127.100 Y119.033 E17.97449
G1 X126.986 Y119.029 E17.97773
G1 X126.871 Y119.011 E17.98136
G1 X126.757 Y118.993 E17.98533
G1 X126.643 Y118.975 E17.98966
G0 X126.317 Y118.793 F7200
;segType:HShell
G0 X126.422 Y118.971
G1 X125.738 Y118.807 E18.03305 F3600
G0 X125.655 Y118.325 F7200
G1 X124.940 Y119.039 E18.06667 F3600
G0 X124.374 Y119.039 F7200
G1 X125.381 Y118.033 E18.11402 F3600
G0 X125.861 Y117.787 F7200
;segType:Perimeter
G1 X125.670 Y117.011 E18.14063 F1800
G1 X125.563 Y116.595 E18.15491
G1 X125.563 Y116.105 E18.17118
G1 X125.685 Y115.632 E18.18745
G1 X125.921 Y115.203 E18.20373
G1 X126.256 Y114.846 E18.22000
G1 X126.669 Y114.584 E18.23628
G1 X127.134 Y114.433 E18.25255
G1 X127.622 Y114.402 E18.26882
G1 X128.103 Y114.494 E18.28510
G1 X128.546 Y114.702 E18.30138
G1 X128.923 Y115.014 E18.31765
G1 X129.211 Y115.410 E18.33393
G1 X129.391 Y115.865 E18.35020
G1 X129.452 Y116.350 E18.36648
G1 X129.391 Y116.835 E18.38274
G1 X129.211 Y117.290 E18.39902
G1 X128.923 Y117.686 E18.41530
G1 X128.546 Y117.998 E18.43157
G1 X128.103 Y118.206 E18.44785
G1 X127.622 Y118.298 E18.46412
G1 X127.134 Y118.267 E18.48040
G1 X126.669 Y118.116 E18.49666
G1 X126.256 Y117.854 E18.51294
G1 X125.921 Y117.497 E18.52922
G1 X125.714 Y117.121 E18.54349
G0 X125.670 Y117.011 F7200
G0 X125.563 Y116.595
G0 X125.563 Y116.105
G0 X125.685 Y115.632
G0 X125.778 Y115.463
G0 X125.188 Y115.958
;segType:Loop
G1 X125.310 Y115.483 E18.55980 F3600
G1 X125.595 Y114.966 E18.57944
G1 X125.999 Y114.535 E18.59907
G1 X126.377 Y114.296 E18.61396
G0 X126.643 Y114.135 F7200
G0 X126.986 Y114.081
G0 X127.100 Y114.067
G0 X127.557 Y114.053
G0 X127.671 Y114.053
G0 X128.129 Y114.096
G1 X128.451 Y114.155 E18.62781 F3600
G1 X128.583 Y114.184 E18.63420
G1 X128.630 Y114.299 E18.63833
G1 X128.762 Y114.362 E18.64319
G1 X129.217 Y114.738 E18.66283
G1 X129.564 Y115.215 E18.68247
G1 X129.781 Y115.764 E18.70210
G1 X129.855 Y116.350 E18.72174
G1 X129.781 Y116.936 E18.74136
G1 X129.564 Y117.485 E18.76100
G1 X129.217 Y117.962 E18.78064
G1 X128.762 Y118.339 E18.80028
G1 X128.228 Y118.590 E18.81992
G1 X127.648 Y118.701 E18.83955
G1 X127.059 Y118.663 E18.85919
G1 X126.497 Y118.481 E18.87882
G1 X125.999 Y118.165 E18.89846
G1 X125.595 Y117.734 E18.91809
G1 X125.310 Y117.217 E18.93773
G1 X125.163 Y116.645 E18.95737
G1 X125.163 Y116.155 E18.97367
G0 X125.159 Y117.689 F7200
;segType:HShell
G1 X123.809 Y119.039 E19.03718 F3600
G0 X123.243 Y119.039 F7200
G1 X124.964 Y117.318 E19.11815 F3600
G0 X124.849 Y116.868 F7200
G1 X122.677 Y119.039 E19.22030 F3600
G0 X122.112 Y119.039 F7200
G1 X124.803 Y116.348 E19.34691 F3600
G0 X124.882 Y115.703 F7200
G1 X121.546 Y119.039 E19.50382 F3600
G0 X120.980 Y119.039 F7200
G1 X125.405 Y114.615 E19.71194 F3600
G0 X124.993 Y114.461 F7200
G1 X120.414 Y119.039 E19.92732 F3600
G0 X119.849 Y119.039 F7200
G1 X124.428 Y114.461 E20.14269 F3600
G0 X123.862 Y114.461 F7200
G1 X119.283 Y119.039 E20.35807 F3600
G0 X118.717 Y119.039 F7200
G1 X123.296 Y114.461 E20.57345 F3600
G0 X123.039 Y114.152 F7200
G1 X118.152 Y119.039 E20.80335 F3600
G0 X117.586 Y119.039 F7200
G1 X123.039 Y113.586 E21.05986 F3600
G0 X123.039 Y113.020 F7200
G1 X117.020 Y119.039 E21.34298 F3600
G0 X116.455 Y119.039 F7200
G1 X123.039 Y112.455 E21.65271 F3600
G0 X123.039 Y111.889 F7200
G1 X115.889 Y119.039 E21.98904 F3600
G0 X115.323 Y119.039 F7200
G1 X123.039 Y111.323 E22.35198 F3600
G0 X123.039 Y110.758 F7200
G1 X114.758 Y119.039 E22.74153 F3600
G0 X114.460 Y118.771 F7200
G1 X123.039 Y110.192 E23.14506 F3600
G0 X123.039 Y109.626 F7200
G1 X114.460 Y118.205 E23.54858 F3600
G0 X114.460 Y117.640 F7200
G1 X123.039 Y109.061 E23.95211 F3600
G0 X123.039 Y108.495 F7200
G1 X114.460 Y117.074 E24.35564 F3600
G0 X114.460 Y116.508 F7200
G1 X123.039 Y107.929 E24.75916 F3600
G0 X123.039 Y107.364 F7200
G1 X114.460 Y115.942 E25.16269 F3600
G0 X114.460 Y115.377 F7200
G1 X123.039 Y106.798 E25.56621 F3600
G0 X123.039 Y106.232 F7200
G1 X114.460 Y114.811 E25.96974 F3600
G0 X114.460 Y114.245 F7200
G1 X123.039 Y105.667 E26.37327 F3600
G0 X123.039 Y105.101 F7200
G1 X114.460 Y113.680 E26.77679 F3600
G0 X114.460 Y113.114 F7200
G1 X123.039 Y104.535 E27.18032 F3600
G0 X123.039 Y103.969 F7200
G1 X114.460 Y112.548 E27.58385 F3600
G0 X114.460 Y111.983 F7200
G1 X123.039 Y103.404 E27.98737 F3600
G0 X123.039 Y102.838 F7200
G1 X114.460 Y111.417 E28.39090 F3600
G0 X114.460 Y110.851 F7200
G1 X123.039 Y102.272 E28.79443 F3600
G0 X123.039 Y101.707 F7200
G1 X114.460 Y110.286 E29.19795 F3600
G0 X114.460 Y109.720 F7200
G1 X123.039 Y101.141 E29.60148 F3600
G0 X123.039 Y100.575 F7200
G1 X114.460 Y109.154 E30.00501 F3600
G0 X114.460 Y108.589 F7200
G1 X123.039 Y100.010 E30.40853 F3600
G0 X123.039 Y99.444 F7200
G1 X114.460 Y108.023 E30.81206 F3600
G0 X114.460 Y107.457 F7200
G1 X123.039 Y98.878 E31.21559 F3600
G0 X123.039 Y98.313 F7200
G1 X114.460 Y106.892 E31.61912 F3600
G0 X114.460 Y106.326 F7200
G1 X123.039 Y97.747 E32.02264 F3600
G0 X125.386 Y97.495 F7200
;segType:InnerHair
G1 X125.500 Y97.507 E32.02632 F3600
G1 X125.614 Y97.557 E32.02929
G1 X125.729 Y97.606 E32.03123
G1 X125.755 Y97.617 E32.03162
G1 X125.642 Y97.569 E32.03430
G1 X125.529 Y97.520 E32.03798
G1 X125.416 Y97.471 E32.04266
G1 X125.386 Y97.495 E32.04398
G0 F3000 E31.04398
G0 X126.939 Y97.504 F7200
G0 X127.134 Y97.568
G0 X127.623 Y97.598
G0 X128.080 Y97.511
G0 X129.500 Y97.519
G0 F3000 E32.04398
G1 X129.386 Y97.578 E32.04659 F3600
G1 X129.271 Y97.603 E32.04847
G1 X129.248 Y97.611 E32.04884
G1 X129.367 Y97.568 E32.05160
G1 X129.486 Y97.525 E32.05526
G1 X129.594 Y97.472 E32.05984
G1 X129.500 Y97.519 E32.06300
G0 F3000 E31.06300
G0 X131.210 Y91.839 F7200
G0 F3000 E32.06300
;segType:HShell
G1 X142.088 Y80.961 E32.57466 F3600
G0 X141.523 Y80.961 F7200
G1 X131.210 Y91.273 E33.05972 F3600
G0 X124.961 Y94.694 F7200
G1 X114.460 Y105.194 E33.55365 F3600
G0 F3000 E32.55365
G0 X123.800 Y113.154 F7200
G0 X123.800 Y113.700
G0 X124.441 Y113.700
G0 X125.386 Y114.505
G0 F3000 E33.55365
;segType:InnerHair
G1 X125.500 Y114.493 E33.55733 F3600
G1 X125.614 Y114.444 E33.56029
G1 X125.729 Y114.394 E33.56223
G1 X125.686 Y114.413 E33.56311
G1 X125.573 Y114.462 E33.56640
G1 X125.460 Y114.510 E33.57070
G1 X125.386 Y114.505 E33.57323
G0 F3000 E32.57323
G0 X126.939 Y114.496 F7200
G0 X127.134 Y114.433
G0 X127.622 Y114.402
G0 X128.080 Y114.489
G0 X129.500 Y114.481
G0 F3000 E33.57323
G1 X129.386 Y114.422 E33.57583 F3600
G1 X129.271 Y114.397 E33.57772
G1 X129.322 Y114.415 E33.57874
G1 X129.440 Y114.458 E33.58205
G1 X129.553 Y114.507 E33.58627
G1 X129.500 Y114.481 E33.58805
G0 X130.650 Y114.461 F7200
;segType:HShell
G1 X129.935 Y115.175 E33.62167 F3600
G0 X129.723 Y114.822 F7200
G1 X130.085 Y114.461 E33.63867 F3600
G0 X131.961 Y113.716 F7200
G1 X145.540 Y100.137 E34.27739 F3600
G0 X145.540 Y99.571 F7200
G1 X131.961 Y113.150 E34.91610 F3600
G0 X131.961 Y112.585 F7200
G1 X145.540 Y99.006 E35.55482 F3600
G0 X145.540 Y98.440 F7200
G1 X131.961 Y112.019 E36.19354 F3600
G0 X131.961 Y111.453 F7200
G1 X145.540 Y97.874 E36.83226 F3600
G0 X145.540 Y97.308 F7200
G1 X131.961 Y110.887 E37.47098 F3600
G0 X131.961 Y110.322 F7200
G1 X145.540 Y96.743 E38.10969 F3600
G0 X145.540 Y96.177 F7200
G1 X131.961 Y109.756 E38.74841 F3600
G0 X131.961 Y109.190 F7200
G1 X145.540 Y95.611 E39.38713 F3600
G0 X145.540 Y95.046 F7200
G1 X131.961 Y108.625 E40.02585 F3600
G0 X131.961 Y108.059 F7200
G1 X145.540 Y94.480 E40.66456 F3600
G0 X145.540 Y93.914 F7200
G1 X131.961 Y107.493 E41.30328 F3600
G0 X131.961 Y106.928 F7200
G1 X145.540 Y93.349 E41.94200 F3600
G0 X145.540 Y92.783 F7200
G1 X131.961 Y106.362 E42.58071 F3600
G0 X131.961 Y105.796 F7200
G1 X145.540 Y92.217 E43.21943 F3600
G0 X145.540 Y91.652 F7200
G1 X131.961 Y105.231 E43.85815 F3600
G0 X131.961 Y104.665 F7200
G1 X145.540 Y91.086 E44.49687 F3600
G0 X145.540 Y90.520 F7200
G1 X131.961 Y104.099 E45.13558 F3600
G0 X131.961 Y103.534 F7200
G1 X145.540 Y89.955 E45.77430 F3600
G0 X145.540 Y89.389 F7200
G1 X131.961 Y102.968 E46.41302 F3600
G0 X131.961 Y102.402 F7200
G1 X145.540 Y88.823 E47.05173 F3600
G0 X145.540 Y88.257 F7200
G1 X131.961 Y101.837 E47.69044 F3600
G0 X131.961 Y101.271 F7200
G1 X145.540 Y87.692 E48.32916 F3600
G0 X145.540 Y87.126 F7200
G1 X131.961 Y100.705 E48.96787 F3600
G0 X131.961 Y100.139 F7200
G1 X145.540 Y86.560 E49.60659 F3600
G0 X145.540 Y85.995 F7200
G1 X131.961 Y99.574 E50.24530 F3600
G0 X131.961 Y99.008 F7200
G1 X145.540 Y85.429 E50.88401 F3600
G0 X145.540 Y84.863 F7200
G1 X131.961 Y98.442 E51.52273 F3600
G0 X131.961 Y97.877 F7200
G1 X145.540 Y84.298 E52.16144 F3600
G0 X145.540 Y83.732 F7200
G1 X131.732 Y97.540 E52.81090 F3600
G0 X131.166 Y97.540 F7200
G1 X145.540 Y83.166 E53.48698 F3600
G0 X145.540 Y82.601 F7200
G1 X130.601 Y97.540 E54.18966 F3600
G0 X130.035 Y97.540 F7200
G1 X145.540 Y82.035 E54.91895 F3600
G0 X145.540 Y81.469 F7200
G1 X129.614 Y97.395 E55.66806 F3600
G0 X130.135 Y96.308 F7200
G1 X145.483 Y80.961 E56.38995 F3600
G0 X144.917 Y80.961 F7200
G1 X130.217 Y95.661 E57.08140 F3600
G0 X130.156 Y95.156 F7200
G1 X144.351 Y80.961 E57.74911 F3600
G0 X143.786 Y80.961 F7200
G1 X130.031 Y94.716 E58.39611 F3600
G0 X129.864 Y94.316 F7200
G1 X143.220 Y80.961 E59.02431 F3600
G0 X142.654 Y80.961 F7200
G1 X129.626 Y93.989 E59.63711 F3600
G0 X129.360 Y93.689 F7200
G1 X131.089 Y91.960 E59.71841 F3600
G0 X130.523 Y91.960 F7200
G1 X129.051 Y93.433 E59.78767 F3600
G0 X128.689 Y93.229 F7200
G1 X129.957 Y91.960 E59.84733 F3600
G0 X129.392 Y91.960 F7200
G1 X128.296 Y93.056 E59.89888 F3600
G0 X127.820 Y92.966 F7200
G1 X128.826 Y91.960 E59.94617 F3600
G0 X128.260 Y91.960 F7200
G1 X127.257 Y92.963 E59.99334 F3600
G0 X126.523 Y93.132 F7200
G1 X127.695 Y91.960 E60.04845 F3600
G0 X127.129 Y91.960 F7200
G1 X114.460 Y104.629 E60.64433 F3600
G0 X114.460 Y104.063 F7200
G1 X126.563 Y91.960 E61.21360 F3600
G0 X125.997 Y91.960 F7200
G1 X114.460 Y103.497 E61.75627 F3600
G0 X114.460 Y102.932 F7200
G1 X125.432 Y91.960 E62.27232 F3600
G0 X124.866 Y91.960 F7200
G1 X114.460 Y102.366 E62.76177 F3600
G0 X114.460 Y101.800 F7200
G1 X124.300 Y91.960 E63.22461 F3600
G0 X123.789 Y91.906 F7200
G1 X114.460 Y101.235 E63.66342 F3600
G0 X114.460 Y100.669 F7200
G1 X123.789 Y91.340 E64.10223 F3600
G0 X123.789 Y90.774 F7200
G1 X114.460 Y100.103 E64.54104 F3600
G0 X114.460 Y99.538 F7200
G1 X123.789 Y90.209 E64.97985 F3600
G0 X123.789 Y89.643 F7200
G1 X114.460 Y98.972 E65.41867 F3600
G0 X114.460 Y98.406 F7200
G1 X123.789 Y89.077 E65.85748 F3600
G0 X123.789 Y88.512 F7200
G1 X114.460 Y97.841 E66.29629 F3600
G0 X114.460 Y97.275 F7200
G1 X123.789 Y87.946 E66.73510 F3600
G0 X123.789 Y87.380 F7200
G1 X114.460 Y96.709 E67.17391 F3600
G0 X114.460 Y96.144 F7200
G1 X123.789 Y86.814 E67.61273 F3600
G0 F3000 E66.61273
G0 X114.460 Y84.264 F7200
G0 F3000 E67.61273
G1 X117.764 Y80.961 E67.76811 F3600
G0 X118.330 Y80.961 F7200
G1 X114.460 Y84.830 E67.95011 F3600
G0 X114.460 Y85.395 F7200
G1 X118.895 Y80.961 E68.15872 F3600
G0 X119.461 Y80.961 F7200
G1 X114.460 Y85.961 E68.39393 F3600
G0 X114.460 Y86.527 F7200
G1 X120.027 Y80.961 E68.65576 F3600
G0 X120.592 Y80.961 F7200
G1 X114.460 Y87.093 E68.94419 F3600
G0 X114.460 Y87.658 F7200
G1 X121.158 Y80.961 E69.25923 F3600
G0 X121.724 Y80.961 F7200
G1 X114.460 Y88.224 E69.60087 F3600
G0 X114.460 Y88.790 F7200
G1 X122.290 Y80.961 E69.96913 F3600
G0 X122.855 Y80.961 F7200
G1 X114.460 Y89.355 E70.36399 F3600
G0 X114.460 Y89.921 F7200
G1 X123.421 Y80.961 E70.78546 F3600
G0 X123.987 Y80.961 F7200
G1 X114.460 Y90.487 E71.23354 F3600
G0 X114.460 Y91.052 F7200
G1 X124.552 Y80.961 E71.70822 F3600
G0 X125.118 Y80.961 F7200
G1 X114.460 Y91.618 E72.20952 F3600
G0 X114.460 Y92.184 F7200
G1 X125.684 Y80.961 E72.73742 F3600
G0 X126.249 Y80.961 F7200
G1 X114.460 Y92.749 E73.29193 F3600
G0 X114.460 Y93.315 F7200
G1 X126.815 Y80.961 E73.87305 F3600
G0 X127.381 Y80.961 F7200
G1 X114.460 Y93.881 E74.48078 F3600
G0 X114.460 Y94.446 F7200
G1 X127.946 Y80.961 E75.11511 F3600
G0 X128.512 Y80.961 F7200
G1 X114.460 Y95.012 E75.77606 F3600
G0 X114.460 Y95.578 F7200
G1 X129.078 Y80.961 E76.46361 F3600
G0 X129.643 Y80.961 F7200
G1 X124.065 Y86.539 E76.72602 F3600
G0 X124.630 Y86.539 F7200
G1 X130.209 Y80.961 E76.98844 F3600
G0 X130.775 Y80.961 F7200
G1 X125.196 Y86.539 E77.25085 F3600
G0 X125.762 Y86.539 F7200
G1 X131.340 Y80.961 E77.51326 F3600
G0 X131.906 Y80.961 F7200
G1 X126.327 Y86.539 E77.77568 F3600
G0 X126.893 Y86.539 F7200
G1 X132.472 Y80.961 E78.03809 F3600
G0 X133.038 Y80.961 F7200
G1 X127.459 Y86.539 E78.30050 F3600
G0 X128.024 Y86.539 F7200
G1 X133.603 Y80.961 E78.56291 F3600
G0 X134.169 Y80.961 F7200
G1 X128.590 Y86.539 E78.82533 F3600
G0 X129.156 Y86.539 F7200
G1 X134.735 Y80.961 E79.08774 F3600
G0 X135.300 Y80.961 F7200
G1 X129.721 Y86.539 E79.35015 F3600
G0 X130.287 Y86.539 F7200
G1 X135.866 Y80.961 E79.61257 F3600
G0 X136.432 Y80.961 F7200
G1 X130.853 Y86.539 E79.87498 F3600
G0 X131.210 Y86.747 F7200
G1 X136.997 Y80.961 E80.14717 F3600
G0 X137.563 Y80.961 F7200
G1 X131.210 Y87.313 E80.44598 F3600
G0 X131.210 Y87.879 F7200
G1 X138.129 Y80.961 E80.77139 F3600
G0 X138.694 Y80.961 F7200
G1 X131.210 Y88.444 E81.12341 F3600
G0 X131.210 Y89.010 F7200
G1 X139.260 Y80.961 E81.50203 F3600
G0 X139.826 Y80.961 F7200
G1 X131.210 Y89.576 E81.90727 F3600
G0 X131.210 Y90.142 F7200
G1 X140.391 Y80.961 E82.33911 F3600
G0 F3000 E81.33911
G0 X145.540 Y101.268 F7200
G0 F3000 E82.33911
G1 X130.183 Y116.624 E83.06141 F3600
G0 X129.992 Y117.381 F7200
G1 X145.540 Y101.834 E83.79272 F3600
G0 X145.540 Y118.804 F7200
G1 X145.305 Y119.039 E83.80377 F3600
G0 X144.739 Y119.039 F7200
G1 X145.540 Y118.239 E83.84143 F3600
G0 X145.540 Y117.673 F7200
G1 X144.173 Y119.039 E83.90570 F3600
G0 X143.608 Y119.039 F7200
G1 X145.540 Y117.107 E83.99657 F3600
G0 X145.540 Y116.542 F7200
G1 X143.042 Y119.039 E84.11406 F3600
G0 X142.476 Y119.039 F7200
G1 X145.540 Y115.976 E84.25816 F3600
G0 X145.540 Y115.410 F7200
G1 X141.911 Y119.039 E84.42886 F3600
G0 X141.345 Y119.039 F7200
G1 X145.540 Y114.845 E84.62617 F3600
G0 X145.540 Y114.279 F7200
G1 X140.779 Y119.039 E84.85008 F3600
G0 X140.213 Y119.039 F7200
G1 X145.540 Y113.713 E85.10061 F3600
G0 X145.540 Y113.148 F7200
G1 X139.648 Y119.039 E85.37775 F3600
G0 X139.082 Y119.039 F7200
G1 X145.540 Y112.582 E85.68149 F3600
G0 X145.540 Y112.016 F7200
G1 X138.516 Y119.039 E86.01184 F3600
G0 X137.951 Y119.039 F7200
G1 X145.540 Y111.451 E86.36880 F3600
G0 X145.540 Y110.885 F7200
G1 X137.385 Y119.039 E86.75237 F3600
G0 X136.819 Y119.039 F7200
G1 X145.540 Y110.319 E87.16254 F3600
G0 X145.540 Y109.754 F7200
G1 X136.254 Y119.039 E87.59932 F3600
G0 X135.688 Y119.039 F7200
G1 X145.540 Y109.188 E88.06271 F3600
G0 X145.540 Y108.622 F7200
G1 X135.122 Y119.039 E88.55271 F3600
G0 X134.557 Y119.039 F7200
G1 X145.540 Y108.056 E89.06932 F3600
G0 X145.540 Y107.491 F7200
G1 X133.991 Y119.039 E89.61253 F3600
G0 X133.425 Y119.039 F7200
G1 X145.540 Y106.925 E90.18236 F3600
G0 X145.540 Y106.359 F7200
G1 X132.860 Y119.039 E90.77879 F3600
G0 X132.294 Y119.039 F7200
G1 X145.540 Y105.794 E91.40182 F3600
G0 X145.540 Y105.228 F7200
G1 X131.728 Y119.039 E92.05148 F3600
G0 X131.162 Y119.039 F7200
G1 X145.540 Y104.662 E92.72773 F3600
G0 X145.540 Y104.097 F7200
G1 X130.597 Y119.039 E93.43060 F3600
G0 X130.031 Y119.039 F7200
G1 X145.540 Y103.531 E94.16006 F3600
G0 X145.540 Y102.965 F7200
G1 X129.465 Y119.039 E94.91615 F3600
; ------------------------------------
; Layer #2
; ------------------------------------
G92 E0 ;reset extr
G0 F3000 E-1.00000
G0 F600 Z1.600
G0 X129.615 Y119.800 F7200
G0 X129.141 Y117.386
G0 X129.211 Y117.290
G0 X129.391 Y116.835
G0 X129.452 Y116.350
G0 X129.391 Y115.865
G0 X129.211 Y115.410
G0 X128.923 Y115.014
G0 X128.627 Y114.769
G0 X128.417 Y113.700
G0 X123.800 Y113.700
G0 X123.800 Y98.300
G0 X125.393 Y98.300
G0 X123.789 Y90.132
G0 F3000 E0.00000
;segType:HShell
G1 X114.618 Y80.961 E0.43138 F3600
G0 X113.916 Y80.780 F7200
;segType:Perimeter
G1 X113.760 Y80.200 E0.45134 F1800
G1 X146.300 Y80.200 E1.53360
G1 X146.300 Y119.800 E2.85068
G1 X113.700 Y119.800 E3.93494
G1 X113.700 Y80.260 E5.25002
G0 X113.760 Y80.200 F7200
G0 X115.360 Y80.200
G0 X114.800 Y80.600
;segType:Loop
G1 X145.900 Y80.600 E6.28438 F3600
G1 X145.900 Y119.400 E7.57485
G1 X114.100 Y119.400 E8.63250
G1 X114.100 Y80.600 E9.92297
G1 X114.600 Y80.600 E9.93960
G0 F3000 E8.93960
G0 X114.095 Y80.200 F7200
G0 X124.550 Y88.477
G0 X124.550 Y91.200
G0 X127.990 Y91.200
G0 X145.540 Y105.094
G0 F3000 E9.93960
;segType:HShell
G1 X131.210 Y90.764 E10.61359 F3600
G0 X131.190 Y91.200 F7200
;segType:Perimeter
G1 X130.390 Y91.200 E10.64020 F1800
G1 X124.550 Y91.200 E10.83447
G1 X124.550 Y87.300 E10.96420
G1 X130.450 Y87.300 E11.16046
G1 X130.450 Y91.140 E11.28821
G0 X130.390 Y91.200 F7200
G0 X128.790 Y91.200
G0 X129.350 Y91.600
;segType:Loop
G1 X124.150 Y91.600 E11.46118 F3600
G1 X124.150 Y86.900 E11.61753
G1 X130.850 Y86.900 E11.84040
G1 X130.850 Y91.600 E11.99674
G1 X129.550 Y91.600 E12.03998
G0 F3000 E11.03998
G0 X128.376 Y91.200 F7200
G0 X124.550 Y91.200
G0 X124.550 Y89.897
G0 X114.460 Y86.460
G0 F3000 E12.03998
;segType:HShell
G1 X125.296 Y97.295 E12.54966 F3600
G0 X125.861 Y97.087 F7200
;segType:Perimeter
G1 X125.670 Y96.310 E12.57627 F1800
G1 X125.563 Y95.894 E12.59055
G1 X125.563 Y95.405 E12.60682
G1 X125.685 Y94.931 E12.62309
G1 X125.921 Y94.503 E12.63938
G1 X126.256 Y94.146 E12.65564
G1 X126.669 Y93.884 E12.67192
G1 X127.134 Y93.733 E12.68819
G1 X127.622 Y93.702 E12.70447
G1 X128.103 Y93.793 E12.72074
G1 X128.546 Y94.002 E12.73702
G1 X128.923 Y94.314 E12.75329
G1 X129.211 Y94.710 E12.76957
G1 X129.391 Y95.165 E12.78584
G1 X129.452 Y95.650 E12.80212
G1 X129.391 Y96.136 E12.81839
G1 X129.211 Y96.590 E12.83466
G1 X128.923 Y96.986 E12.85094
G1 X128.546 Y97.298 E12.86721
G1 X128.103 Y97.506 E12.88349
G1 X127.623 Y97.598 E12.89976
G1 X127.134 Y97.568 E12.91604
G1 X126.669 Y97.416 E12.93231
G1 X126.256 Y97.154 E12.94859
G1 X125.921 Y96.797 E12.96486
G1 X125.714 Y96.421 E12.97914
G0 X125.670 Y96.310 F7200
G0 X125.563 Y95.894
G0 X125.563 Y95.405
G0 X125.685 Y94.931
G0 X125.778 Y94.763
G0 X125.188 Y95.258
;segType:Loop
G1 X125.310 Y94.783 E12.99544 F3600
G1 X125.595 Y94.266 E13.01508
G1 X125.999 Y93.835 E13.03471
G1 X126.497 Y93.519 E13.05435
G1 X127.059 Y93.336 E13.07398
G1 X127.648 Y93.300 E13.09362
G1 X128.228 Y93.410 E13.11325
G1 X128.762 Y93.662 E13.13290
G1 X129.217 Y94.038 E13.15253
G1 X129.564 Y94.515 E13.17216
G1 X129.781 Y95.064 E13.19180
G1 X129.855 Y95.650 E13.21144
G1 X129.781 Y96.236 E13.23107
G1 X129.564 Y96.785 E13.25071
G1 X129.217 Y97.262 E13.27034
G1 X128.762 Y97.639 E13.28998
G1 X128.672 Y97.681 E13.29329
G0 X128.634 Y97.804 F7200
G0 X128.502 Y97.834
G0 X128.369 Y97.863
G1 X128.129 Y97.904 E13.30123 F3600
G1 X128.014 Y97.915 E13.30476
G1 X127.900 Y97.926 E13.30808
G1 X127.786 Y97.937 E13.31120
G1 X127.671 Y97.947 E13.31410
G1 X127.557 Y97.947 E13.31700
G1 X127.443 Y97.944 E13.31997
G1 X127.329 Y97.940 E13.32300
G1 X127.214 Y97.936 E13.32611
G1 X127.100 Y97.933 E13.32928
G1 X126.986 Y97.919 E13.33273
G1 X126.871 Y97.901 E13.33655
G1 X126.757 Y97.883 E13.34072
G1 X126.643 Y97.865 E13.34524
G0 X126.372 Y97.809 F7200
G1 X126.338 Y97.680 E13.34965 F3600
G1 X125.999 Y97.465 E13.36304
G1 X125.595 Y97.034 E13.38267
G1 X125.310 Y96.517 E13.40231
G1 X125.163 Y95.945 E13.42195
G1 X125.163 Y95.455 E13.43825
G0 F3000 E12.43825
G0 X126.059 Y98.300 F7200
G0 X123.800 Y98.300
G0 X123.800 Y113.700
G0 X130.908 Y113.700
G0 X131.148 Y114.461
G0 F3000 E13.43825
;segType:HShell
G1 X135.727 Y119.039 E13.65363 F3600
G0 X135.161 Y119.039 F7200
G1 X130.582 Y114.461 E13.86901 F3600
G0 X131.140 Y113.700 F7200
;segType:Perimeter
G1 X123.800 Y113.700 E14.11316 F1800
G1 X123.800 Y98.300 E14.62539
G1 X131.200 Y98.300 E14.87155
G1 X131.200 Y113.640 E15.38178
G0 X131.140 Y113.700 F7200
G0 X129.540 Y113.700
G0 X130.100 Y114.100
;segType:Loop
G1 X128.814 Y114.100 E15.42456 F3600
G0 X128.700 Y114.192 F7200
G0 X128.586 Y114.185
G0 X128.471 Y114.160
G0 X128.357 Y114.134
G0 X128.243 Y114.108
G1 X128.129 Y114.096 E15.42830 F3600
G1 X128.014 Y114.085 E15.43182
G1 X127.900 Y114.074 E15.43514
G1 X127.786 Y114.063 E15.43825
G1 X127.671 Y114.053 E15.44115
G1 X127.557 Y114.053 E15.44405
G1 X127.443 Y114.056 E15.44702
G1 X127.329 Y114.060 E15.45005
G1 X127.214 Y114.064 E15.45315
G1 X127.100 Y114.067 E15.45633
G1 X126.986 Y114.081 E15.45978
G1 X126.871 Y114.099 E15.46360
G1 X126.757 Y114.117 E15.46777
G1 X126.643 Y114.135 E15.47229
G1 X126.529 Y114.146 E15.47697
G1 X126.414 Y114.179 E15.48248
G1 X126.300 Y114.100 E15.48709
G1 X123.400 Y114.100 E15.58356
G1 X123.400 Y97.900 E16.12239
G1 X126.300 Y97.900 E16.21886
G1 X126.414 Y97.821 E16.22528
G1 X126.529 Y97.855 E16.23013
G0 X126.643 Y97.865 F7200
G0 X126.986 Y97.919
G0 X127.100 Y97.933
G0 X127.557 Y97.947
G0 X127.671 Y97.947
G0 X128.129 Y97.904
G1 X128.243 Y97.892 E16.23411 F3600
G1 X128.357 Y97.866 E16.23866
G1 X128.471 Y97.841 E16.24371
G1 X128.586 Y97.815 E16.24925
G1 X128.700 Y97.808 E16.25479
G1 X128.814 Y97.900 E16.25966
G1 X131.600 Y97.900 E16.35232
G1 X131.600 Y114.100 E16.89116
G1 X130.300 Y114.100 E16.93440
G0 F3000 E15.93440
G0 X129.430 Y113.700 F7200
G0 X123.800 Y113.700
G0 X123.800 Y111.114
G0 X114.460 Y106.824
G0 F3000 E16.93440
;segType:HShell
G1 X124.968 Y117.331 E17.42862 F3600
G0 X125.861 Y117.787 F7200
;segType:Perimeter
G1 X125.670 Y117.011 E17.45523 F1800
G1 X125.563 Y116.595 E17.46952
G1 X125.563 Y116.105 E17.48579
G1 X125.685 Y115.632 E17.50205
G1 X125.921 Y115.203 E17.51834
G1 X126.256 Y114.846 E17.53460
G1 X126.669 Y114.584 E17.55088
G1 X127.134 Y114.433 E17.56715
G1 X127.622 Y114.402 E17.58343
G1 X128.103 Y114.494 E17.59970
G1 X128.546 Y114.702 E17.61598
G1 X128.923 Y115.014 E17.63225
G1 X129.211 Y115.410 E17.64853
G1 X129.391 Y115.865 E17.66480
G1 X129.452 Y116.350 E17.68108
G1 X129.391 Y116.835 E17.69734
G1 X129.211 Y117.290 E17.71362
G1 X128.923 Y117.686 E17.72990
G1 X128.546 Y117.998 E17.74617
G1 X128.103 Y118.206 E17.76245
G1 X127.622 Y118.298 E17.77872
G1 X127.134 Y118.267 E17.79500
G1 X126.669 Y118.116 E17.81127
G1 X126.256 Y117.854 E17.82754
G1 X125.921 Y117.497 E17.84382
G1 X125.714 Y117.121 E17.85809
G0 X125.670 Y117.011 F7200
G0 X125.563 Y116.595
G0 X125.563 Y116.105
G0 X125.685 Y115.632
G0 X125.778 Y115.463
G0 X125.188 Y115.958
;segType:Loop
G1 X125.310 Y115.483 E17.87440 F3600
G1 X125.595 Y114.966 E17.89404
G1 X125.999 Y114.535 E17.91367
G1 X126.377 Y114.296 E17.92856
G0 X126.643 Y114.135 F7200
G0 X126.986 Y114.081
G0 X127.100 Y114.067
G0 X127.557 Y114.053
G0 X127.671 Y114.053
G0 X128.129 Y114.096
G1 X128.451 Y114.155 E17.94241 F3600
G1 X128.583 Y114.184 E17.94881
G1 X128.630 Y114.299 E17.95293
G1 X128.762 Y114.362 E17.95780
G1 X129.217 Y114.738 E17.97743
G1 X129.564 Y115.215 E17.99707
G1 X129.781 Y115.764 E18.01670
G1 X129.855 Y116.350 E18.03634
G1 X129.781 Y116.936 E18.05597
G1 X129.564 Y117.485 E18.07560
G1 X129.217 Y117.962 E18.09524
G1 X128.762 Y118.339 E18.11488
G1 X128.228 Y118.590 E18.13452
G1 X127.648 Y118.701 E18.15415
G1 X127.059 Y118.663 E18.17379
G1 X126.497 Y118.481 E18.19342
G1 X125.999 Y118.165 E18.21306
G1 X125.595 Y117.734 E18.23269
G1 X125.310 Y117.217 E18.25233
G1 X125.163 Y116.645 E18.27197
G1 X125.163 Y116.155 E18.28827
G0 X125.386 Y114.505 F7200
;segType:InnerHair
G1 X125.500 Y114.493 E18.29195 F3600
G1 X125.614 Y114.444 E18.29492
G1 X125.729 Y114.394 E18.29686
G1 X125.686 Y114.413 E18.29773
G1 X125.573 Y114.462 E18.30103
G1 X125.460 Y114.510 E18.30532
G1 X125.386 Y114.505 E18.30785
G0 X125.271 Y114.807 F7200
;segType:HShell
G1 X124.925 Y114.461 E18.32413 F3600
G0 X124.360 Y114.461 F7200
G1 X125.070 Y115.172 E18.35757 F3600
G0 X124.913 Y115.580 F7200
G1 X123.794 Y114.461 E18.41023 F3600
G0 X123.228 Y114.461 F7200
G1 X124.803 Y116.036 E18.48432 F3600
G0 X114.460 Y107.390 F7200
G1 X126.110 Y119.039 E19.03228 F3600
G0 X125.544 Y119.039 F7200
G1 X114.460 Y107.956 E19.55363 F3600
G0 X114.460 Y108.521 F7200
G1 X124.979 Y119.039 E20.04837 F3600
G0 X124.413 Y119.039 F7200
G1 X114.460 Y109.087 E20.51651 F3600
G0 X114.460 Y109.653 F7200
G1 X123.847 Y119.039 E20.95803 F3600
G0 X123.282 Y119.039 F7200
G1 X114.460 Y110.218 E21.37295 F3600
G0 X114.460 Y110.784 F7200
G1 X122.716 Y119.039 E21.76126 F3600
G0 X122.150 Y119.039 F7200
G1 X114.460 Y111.350 E22.12297 F3600
G0 X114.460 Y111.915 F7200
G1 X121.585 Y119.039 E22.45806 F3600
G0 X121.019 Y119.039 F7200
G1 X114.460 Y112.481 E22.76655 F3600
G0 X114.460 Y113.047 F7200
G1 X120.453 Y119.039 E23.04843 F3600
G0 X119.887 Y119.039 F7200
G1 X114.460 Y113.612 E23.30370 F3600
G0 X114.460 Y114.178 F7200
G1 X119.322 Y119.039 E23.53236 F3600
G0 X118.756 Y119.039 F7200
G1 X114.460 Y114.744 E23.73441 F3600
G0 X114.460 Y115.309 F7200
G1 X118.190 Y119.039 E23.90986 F3600
G0 X117.625 Y119.039 F7200
G1 X114.460 Y115.875 E24.05870 F3600
G0 X114.460 Y116.441 F7200
G1 X117.059 Y119.039 E24.18093 F3600
G0 X116.493 Y119.039 F7200
G1 X114.460 Y117.007 E24.27655 F3600
G0 X114.460 Y117.572 F7200
G1 X115.928 Y119.039 E24.34556 F3600
G0 X115.362 Y119.039 F7200
G1 X114.460 Y118.138 E24.38797 F3600
G0 X114.460 Y118.704 F7200
G1 X114.796 Y119.039 E24.40377 F3600
G0 F3000 E23.40377
G0 X125.563 Y116.595 F7200
G0 X124.803 Y116.601
G0 F3000 E24.40377
G1 X114.460 Y106.259 E24.89026 F3600
G0 X114.460 Y105.693 F7200
G1 X123.039 Y114.272 E25.29379 F3600
G0 X123.039 Y113.706 F7200
G1 X114.460 Y105.127 E25.69731 F3600
G0 X114.460 Y104.561 F7200
G1 X123.039 Y113.140 E26.10084 F3600
G0 X123.039 Y112.575 F7200
G1 X114.460 Y103.996 E26.50437 F3600
G0 X114.460 Y103.430 F7200
G1 X123.039 Y112.009 E26.90789 F3600
G0 X123.039 Y111.443 F7200
G1 X114.460 Y102.864 E27.31142 F3600
G0 X114.460 Y102.299 F7200
G1 X123.039 Y110.878 E27.71495 F3600
G0 X123.039 Y110.312 F7200
G1 X114.460 Y101.733 E28.11847 F3600
G0 X114.460 Y101.167 F7200
G1 X123.039 Y109.746 E28.52200 F3600
G0 X123.039 Y109.181 F7200
G1 X114.460 Y100.602 E28.92553 F3600
G0 X114.460 Y100.036 F7200
G1 X123.039 Y108.615 E29.32905 F3600
G0 X123.039 Y108.049 F7200
G1 X114.460 Y99.470 E29.73258 F3600
G0 X114.460 Y98.905 F7200
G1 X123.039 Y107.484 E30.13610 F3600
G0 X123.039 Y106.918 F7200
G1 X114.460 Y98.339 E30.53963 F3600
G0 X114.460 Y97.773 F7200
G1 X123.039 Y106.352 E30.94316 F3600
G0 X123.039 Y105.787 F7200
G1 X114.460 Y97.208 E31.34668 F3600
G0 X114.460 Y96.642 F7200
G1 X123.039 Y105.221 E31.75021 F3600
G0 X123.039 Y104.655 F7200
G1 X114.460 Y96.076 E32.15374 F3600
G0 X114.460 Y95.511 F7200
G1 X123.039 Y104.089 E32.55726 F3600
G0 X123.039 Y103.524 F7200
G1 X114.460 Y94.945 E32.96079 F3600
G0 X114.460 Y94.379 F7200
G1 X123.039 Y102.958 E33.36432 F3600
G0 X123.039 Y102.392 F7200
G1 X114.460 Y93.813 E33.76784 F3600
G0 X114.460 Y93.248 F7200
G1 X123.039 Y101.827 E34.17137 F3600
G0 X123.039 Y101.261 F7200
G1 X114.460 Y92.682 E34.57490 F3600
G0 X114.460 Y92.116 F7200
G1 X123.039 Y100.695 E34.97842 F3600
G0 X123.039 Y100.130 F7200
G1 X114.460 Y91.551 E35.38195 F3600
G0 X114.460 Y90.985 F7200
G1 X123.039 Y99.564 E35.78547 F3600
G0 X123.039 Y98.998 F7200
G1 X114.460 Y90.419 E36.18900 F3600
G0 X114.460 Y89.854 F7200
G1 X123.039 Y98.433 E36.59253 F3600
G0 X123.039 Y97.867 F7200
G1 X114.460 Y89.288 E36.99605 F3600
G0 X114.460 Y88.722 F7200
G1 X123.278 Y97.540 E37.41079 F3600
G0 X123.843 Y97.540 F7200
G1 X114.460 Y88.157 E37.85214 F3600
G0 X114.460 Y87.591 F7200
G1 X124.409 Y97.540 E38.32009 F3600
G0 X124.975 Y97.540 F7200
G1 X114.460 Y87.025 E38.81466 F3600
G0 X114.460 Y81.368 F7200
G1 X123.789 Y90.697 E39.25346 F3600
G0 X123.789 Y91.263 F7200
G1 X114.460 Y81.934 E39.69227 F3600
G0 X114.460 Y82.500 F7200
G1 X123.789 Y91.829 E40.13108 F3600
G0 X123.921 Y91.960 F7200
G1 X125.646 Y93.685 E40.21221 F3600
G0 X125.960 Y93.433 F7200
G1 X124.487 Y91.960 E40.28149 F3600
G0 X125.053 Y91.960 F7200
G1 X126.306 Y93.214 E40.34045 F3600
G0 X126.724 Y93.067 F7200
G1 X125.618 Y91.960 E40.39248 F3600
G0 X126.184 Y91.960 F7200
G1 X127.191 Y92.967 E40.43984 F3600
G0 X127.740 Y92.950 F7200
G1 X126.750 Y91.960 E40.48641 F3600
G0 X127.315 Y91.960 F7200
G1 X128.490 Y93.136 E40.54169 F3600
G0 F3000 E39.54169
G0 X128.033 Y93.780 F7200
G0 X127.622 Y93.702
G0 X127.134 Y93.733
G0 X126.669 Y93.884
G0 X126.256 Y94.146
G0 X125.921 Y94.503
G0 X125.685 Y94.931
G0 X125.563 Y95.405
G0 X125.563 Y95.894
G0 X125.685 Y96.369
G0 X125.909 Y96.776
G0 X125.416 Y97.471
G0 F3000 E40.54169
;segType:InnerHair
G1 X125.529 Y97.520 E40.54537 F3600
G1 X125.642 Y97.569 E40.54805
G1 X125.755 Y97.617 E40.54973
G1 X125.729 Y97.606 E40.55018
G1 X125.614 Y97.557 E40.55314
G1 X125.500 Y97.507 E40.55713
G1 X125.386 Y97.495 E40.56105
G1 X125.416 Y97.471 E40.56253
G0 X124.888 Y96.322 F7200
;segType:HShell
G1 X114.460 Y85.894 E41.05302 F3600
G0 X114.460 Y85.328 F7200
G1 X124.803 Y95.671 E41.53951 F3600
G0 X124.845 Y95.147 F7200
G1 X114.460 Y84.762 E42.02797 F3600
G0 X114.460 Y84.197 F7200
G1 X124.960 Y94.697 E42.52186 F3600
G0 X125.152 Y94.323 F7200
G1 X114.460 Y83.631 E43.02477 F3600
G0 X114.460 Y83.065 F7200
G1 X125.372 Y93.977 E43.53800 F3600
G0 X123.789 Y89.566 F7200
G1 X115.184 Y80.961 E43.94278 F3600
G0 X115.750 Y80.961 F7200
G1 X123.789 Y89.000 E44.32094 F3600
G0 X123.789 Y88.435 F7200
G1 X116.315 Y80.961 E44.67250 F3600
G0 X116.881 Y80.961 F7200
G1 X123.789 Y87.869 E44.99745 F3600
G0 X123.789 Y87.303 F7200
G1 X117.447 Y80.961 E45.29580 F3600
G0 X118.012 Y80.961 F7200
G1 X123.789 Y86.738 E45.56753 F3600
G0 X124.157 Y86.539 F7200
G1 X118.578 Y80.961 E45.82995 F3600
G0 X119.144 Y80.961 F7200
G1 X124.723 Y86.539 E46.09237 F3600
G0 X125.288 Y86.539 F7200
G1 X119.709 Y80.961 E46.35478 F3600
G0 X120.275 Y80.961 F7200
G1 X125.854 Y86.539 E46.61720 F3600
G0 X126.420 Y86.539 F7200
G1 X120.841 Y80.961 E46.87962 F3600
G0 X121.407 Y80.961 F7200
G1 X126.985 Y86.539 E47.14204 F3600
G0 X127.551 Y86.539 F7200
G1 X121.972 Y80.961 E47.40445 F3600
G0 X122.538 Y80.961 F7200
G1 X128.117 Y86.539 E47.66686 F3600
G0 X128.682 Y86.539 F7200
G1 X123.104 Y80.961 E47.92928 F3600
G0 X123.669 Y80.961 F7200
G1 X129.248 Y86.539 E48.19169 F3600
G0 X129.814 Y86.539 F7200
G1 X124.235 Y80.961 E48.45411 F3600
G0 X124.801 Y80.961 F7200
G1 X130.380 Y86.539 E48.71652 F3600
G0 X130.945 Y86.539 F7200
G1 X125.366 Y80.961 E48.97894 F3600
G0 X125.932 Y80.961 F7200
G1 X145.540 Y100.568 E49.90122 F3600
G0 X145.540 Y100.002 F7200
G1 X126.498 Y80.961 E50.79689 F3600
G0 X127.063 Y80.961 F7200
G1 X145.540 Y99.437 E51.66595 F3600
G0 X145.540 Y98.871 F7200
G1 X127.629 Y80.961 E52.50840 F3600
G0 X128.195 Y80.961 F7200
G1 X145.540 Y98.305 E53.32425 F3600
G0 X145.540 Y97.740 F7200
G1 X128.760 Y80.961 E54.11349 F3600
G0 X129.326 Y80.961 F7200
G1 X145.540 Y97.174 E54.87612 F3600
G0 X145.540 Y96.608 F7200
G1 X129.892 Y80.961 E55.61214 F3600
G0 X130.458 Y80.961 F7200
G1 X145.540 Y96.043 E56.32155 F3600
G0 X145.540 Y95.477 F7200
G1 X131.023 Y80.961 E57.00436 F3600
G0 X131.589 Y80.961 F7200
G1 X145.540 Y94.911 E57.66055 F3600
G0 X145.540 Y94.346 F7200
G1 X132.155 Y80.961 E58.29014 F3600
G0 X132.720 Y80.961 F7200
G1 X145.540 Y93.780 E58.89312 F3600
G0 X145.540 Y93.214 F7200
G1 X133.286 Y80.961 E59.46950 F3600
G0 X133.852 Y80.961 F7200
G1 X145.540 Y92.648 E60.01926 F3600
G0 X145.540 Y92.083 F7200
G1 X134.417 Y80.961 E60.54241 F3600
G0 X134.983 Y80.961 F7200
G1 X145.540 Y91.517 E61.03896 F3600
G0 X145.540 Y90.951 F7200
G1 X135.549 Y80.961 E61.50890 F3600
G0 X136.114 Y80.961 F7200
G1 X145.540 Y90.386 E61.95223 F3600
G0 X145.540 Y89.820 F7200
G1 X136.680 Y80.961 E62.36896 F3600
G0 X137.246 Y80.961 F7200
G1 X145.540 Y89.254 E62.75907 F3600
G0 X145.540 Y88.689 F7200
G1 X137.811 Y80.961 E63.12258 F3600
G0 X138.377 Y80.961 F7200
G1 X145.540 Y88.123 E63.45948 F3600
G0 X145.540 Y87.557 F7200
G1 X138.943 Y80.961 E63.76977 F3600
G0 X139.508 Y80.961 F7200
G1 X145.540 Y86.992 E64.05345 F3600
G0 X145.540 Y86.426 F7200
G1 X140.074 Y80.961 E64.31053 F3600
G0 X140.640 Y80.961 F7200
G1 X145.540 Y85.860 E64.54100 F3600
G0 X145.540 Y85.295 F7200
G1 X141.206 Y80.961 E64.74485 F3600
G0 X141.771 Y80.961 F7200
G1 X145.540 Y84.729 E64.92211 F3600
G0 X145.540 Y84.163 F7200
G1 X142.337 Y80.961 E65.07275 F3600
G0 X142.903 Y80.961 F7200
G1 X145.540 Y83.597 E65.19678 F3600
G0 X145.540 Y83.032 F7200
G1 X143.468 Y80.961 E65.29421 F3600
G0 X144.034 Y80.961 F7200
G1 X145.540 Y82.466 E65.36502 F3600
G0 X145.540 Y81.900 F7200
G1 X144.600 Y80.961 E65.40924 F3600
G0 X145.165 Y80.961 F7200
G1 X145.540 Y81.335 E65.42684 F3600
G0 X131.763 Y97.540 F7200
G1 X130.179 Y95.956 E65.50132 F3600
G0 X130.091 Y96.433 F7200
G1 X131.197 Y97.540 E65.55339 F3600
G0 X130.632 Y97.540 F7200
G1 X129.930 Y96.838 E65.58638 F3600
G0 X129.715 Y97.189 F7200
G1 X130.066 Y97.540 E65.60288 F3600
G0 X129.594 Y97.472 F7200
;segType:InnerHair
G1 X129.486 Y97.525 E65.60637 F3600
G1 X129.367 Y97.568 E65.60913
G1 X129.248 Y97.611 E65.61099
G1 X129.271 Y97.603 E65.61139
G1 X129.386 Y97.578 E65.61376
G1 X129.500 Y97.519 E65.61761
G1 X129.594 Y97.472 E65.62161
G0 F3000 E64.62161
G0 X131.210 Y90.199 F7200
G0 F3000 E65.62161
;segType:HShell
G1 X145.540 Y104.528 E66.29560 F3600
G0 X145.540 Y103.962 F7200
G1 X131.210 Y89.633 E66.96960 F3600
G0 X131.210 Y89.067 F7200
G1 X145.540 Y103.396 E67.64360 F3600
G0 X145.540 Y102.831 F7200
G1 X131.210 Y88.502 E68.31759 F3600
G0 X131.210 Y87.936 F7200
G1 X145.540 Y102.265 E68.99159 F3600
G0 X145.540 Y101.699 F7200
G1 X131.210 Y87.370 E69.66558 F3600
G0 X131.210 Y86.805 F7200
G1 X145.540 Y101.134 E70.33958 F3600
G0 X145.540 Y105.659 F7200
G1 X131.210 Y91.330 E71.01358 F3600
G0 X131.210 Y91.896 F7200
G1 X145.540 Y106.225 E71.68757 F3600
G0 X145.540 Y106.791 F7200
G1 X130.709 Y91.960 E72.38513 F3600
G0 X130.144 Y91.960 F7200
G1 X145.540 Y107.356 E73.10931 F3600
G0 X145.540 Y107.922 F7200
G1 X129.578 Y91.960 E73.86009 F3600
G0 X129.012 Y91.960 F7200
G1 X145.540 Y108.488 E74.63748 F3600
G0 X145.540 Y109.053 F7200
G1 X128.447 Y91.960 E75.44149 F3600
G0 X127.881 Y91.960 F7200
G1 X145.540 Y109.619 E76.27209 F3600
G0 X145.540 Y110.185 F7200
G1 X130.004 Y94.650 E77.00282 F3600
G0 X130.186 Y95.397 F7200
G1 X145.540 Y110.750 E77.72499 F3600
G0 X145.540 Y111.316 F7200
G1 X131.961 Y97.737 E78.36371 F3600
G0 X131.961 Y98.303 F7200
G1 X145.540 Y111.882 E79.00243 F3600
G0 X145.540 Y112.447 F7200
G1 X131.961 Y98.868 E79.64115 F3600
G0 X131.961 Y99.434 F7200
G1 X145.540 Y113.013 E80.27986 F3600
G0 X145.540 Y113.579 F7200
G1 X131.961 Y100.000 E80.91858 F3600
G0 X131.961 Y100.566 F7200
G1 X145.540 Y114.145 E81.55730 F3600
G0 X145.540 Y114.710 F7200
G1 X131.961 Y101.131 E82.19602 F3600
G0 X131.961 Y101.697 F7200
G1 X145.540 Y115.276 E82.83473 F3600
G0 X145.540 Y115.842 F7200
G1 X131.961 Y102.263 E83.47345 F3600
G0 X131.961 Y102.828 F7200
G1 X145.540 Y116.407 E84.11217 F3600
G0 X145.540 Y116.973 F7200
G1 X131.961 Y103.394 E84.75089 F3600
G0 X131.961 Y103.960 F7200
G1 X145.540 Y117.539 E85.38960 F3600
G0 X145.540 Y118.104 F7200
G1 X131.961 Y104.525 E86.02832 F3600
G0 X131.961 Y105.091 F7200
G1 X145.540 Y118.670 E86.66704 F3600
G0 X145.343 Y119.039 F7200
G1 X131.961 Y105.657 E87.29652 F3600
G0 X131.961 Y106.222 F7200
G1 X144.778 Y119.039 E87.89940 F3600
G0 X144.212 Y119.039 F7200
G1 X131.961 Y106.788 E88.47567 F3600
G0 X131.961 Y107.354 F7200
G1 X143.646 Y119.039 E89.02533 F3600
G0 X143.081 Y119.039 F7200
G1 X131.961 Y107.919 E89.54839 F3600
G0 X131.961 Y108.485 F7200
G1 X142.515 Y119.039 E90.04483 F3600
G0 X141.949 Y119.039 F7200
G1 X131.961 Y109.051 E90.51466 F3600
G0 X131.961 Y109.616 F7200
G1 X141.384 Y119.039 E90.95789 F3600
G0 X140.818 Y119.039 F7200
G1 X131.961 Y110.182 E91.37451 F3600
G0 X131.961 Y110.748 F7200
G1 X140.252 Y119.039 E91.76453 F3600
G0 X139.686 Y119.039 F7200
G1 X131.961 Y111.314 E92.12793 F3600
G0 X131.961 Y111.879 F7200
G1 X139.121 Y119.039 E92.46472 F3600
G0 X138.555 Y119.039 F7200
G1 X131.961 Y112.445 E92.77491 F3600
G0 X131.961 Y113.011 F7200
G1 X137.989 Y119.039 E93.05849 F3600
G0 X137.424 Y119.039 F7200
G1 X131.961 Y113.576 E93.31546 F3600
G0 X131.961 Y114.142 F7200
G1 X136.858 Y119.039 E93.54582 F3600
G0 X136.292 Y119.039 F7200
G1 X131.713 Y114.461 E93.76120 F3600
G0 X129.553 Y114.507 F7200
;segType:InnerHair
G1 X129.440 Y114.458 E93.76442 F3600
G1 X129.322 Y114.415 E93.76684
G1 X129.271 Y114.397 E93.76770
G1 X129.386 Y114.422 E93.77007
G1 X129.500 Y114.481 E93.77392
G1 X129.553 Y114.507 E93.77596
G0 X130.016 Y114.461 F7200
;segType:HShell
G1 X134.595 Y119.039 E93.99133 F3600
G0 X134.030 Y119.039 F7200
G1 X129.592 Y114.602 E94.20005 F3600
G0 X130.138 Y115.713 F7200
G1 X133.464 Y119.039 E94.35650 F3600
G0 X132.898 Y119.039 F7200
G1 X130.217 Y116.358 E94.48261 F3600
G0 X130.154 Y116.861 F7200
G1 X132.333 Y119.039 E94.58510 F3600
G0 X131.767 Y119.039 F7200
G1 X130.025 Y117.298 E94.66702 F3600
G0 X129.856 Y117.695 F7200
G1 X131.201 Y119.039 E94.73028 F3600
G0 X130.636 Y119.039 F7200
G1 X129.618 Y118.022 E94.77812 F3600
G0 X129.350 Y118.320 F7200
G1 X130.070 Y119.039 E94.81198 F3600
G0 X129.505 Y118.757 F7200
G1 X128.807 Y118.908 E94.87133 F3600
G0 X126.495 Y118.859 F7200
G1 X126.528 Y118.892 E94.87288 F3600
G0 X126.643 Y118.975 F7200
;segType:InnerHair
G1 X126.757 Y118.993 E94.87685 F3600
G1 X126.871 Y119.011 E94.88048
G1 X126.986 Y119.029 E94.88376
G1 X127.100 Y119.033 E94.88692
G1 X127.214 Y119.037 E94.89002
G1 X127.329 Y119.040 E94.89305
G1 X127.443 Y119.044 E94.89601
G1 X127.557 Y119.048 E94.89890
G1 X127.671 Y119.051 E94.90173
G1 X127.786 Y119.040 E94.90477
G1 X127.900 Y119.029 E94.90802
G1 X128.014 Y119.019 E94.91148
G1 X128.129 Y119.008 E94.91514
G1 X128.243 Y118.997 E94.91901
G1 X128.357 Y118.986 E94.92309
G1 X128.471 Y118.960 E94.92774
; ------------------------------------
; Layer #3
; ------------------------------------
G92 E0 ;reset extr
G0 F3000 E-1.00000
G0 F600 Z1.800
G0 X128.230 Y118.147 F7200
G0 X128.546 Y117.998
G0 X128.923 Y117.686
G0 X129.211 Y117.290
G0 X129.391 Y116.835
G0 X129.452 Y116.350
G0 X129.391 Y115.865
G0 X129.211 Y115.410
G0 X128.923 Y115.014
G0 X128.546 Y114.702
G0 X128.103 Y114.494
G0 X127.622 Y114.402
G0 X127.134 Y114.433
G0 X127.129 Y114.434
G0 X126.911 Y113.700
G0 X123.800 Y113.700
G0 X123.800 Y103.212
G0 X116.973 Y80.200
G0 X117.198 Y80.960
G0 F3000 E0.00000
;segType:HShell
G1 X114.460 Y83.698 E0.12878 F3600
G0 X114.460 Y83.133 F7200
G1 X116.633 Y80.960 E0.23096 F3600
G0 X116.067 Y80.960 F7200
G1 X114.460 Y82.567 E0.30652 F3600
G0 X114.460 Y82.001 F7200
G1 X115.501 Y80.960 E0.35548 F3600
G0 X114.936 Y80.960 F7200
G1 X114.460 Y81.436 E0.37783 F3600
G0 X113.916 Y80.780 F7200
;segType:Perimeter
G1 X113.760 Y80.200 E0.39779 F1800
G1 X146.300 Y80.200 E1.48005
G1 X146.300 Y119.800 E2.79713
G1 X113.700 Y119.800 E3.88138
G1 X113.700 Y80.260 E5.19646
G0 X113.760 Y80.200 F7200
G0 X115.360 Y80.200
G0 X114.800 Y80.600
;segType:Loop
G1 X145.900 Y80.600 E6.23083 F3600
G1 X145.900 Y119.400 E7.52130
G1 X114.100 Y119.400 E8.57895
G1 X114.100 Y80.600 E9.86941
G1 X114.600 Y80.600 E9.88604
G0 F3000 E8.88604
G0 X141.523 Y80.961 F7200
G0 F3000 E9.88604
;segType:HShell
G1 X131.210 Y91.273 E10.37111 F3600
G0 X131.190 Y91.200 F7200
;segType:Perimeter
G1 X130.390 Y91.200 E10.39771 F1800
G1 X124.550 Y91.200 E10.59198
G1 X124.550 Y87.300 E10.72172
G1 X130.450 Y87.300 E10.91798
G1 X130.450 Y91.140 E11.04572
G0 X130.390 Y91.200 F7200
G0 X128.790 Y91.200
G0 X129.350 Y91.600
;segType:Loop
G1 X124.150 Y91.600 E11.21870 F3600
G1 X124.150 Y86.900 E11.37504
G1 X130.850 Y86.900 E11.59791
G1 X130.850 Y91.600 E11.75426
G1 X129.550 Y91.600 E11.79749
G0 F3000 E10.79749
G0 X129.977 Y91.200 F7200
G0 X127.288 Y93.723
G0 X127.134 Y93.733
G0 X126.669 Y93.884
G0 X126.256 Y94.146
G0 X125.921 Y94.503
G0 X125.685 Y94.931
G0 X125.585 Y95.321
G0 X114.460 Y105.760
G0 F3000 E11.79749
;segType:HShell
G1 X124.803 Y95.417 E12.28399 F3600
G0 X124.803 Y95.983 F7200
G1 X123.247 Y97.540 E12.35721 F3600
G0 X123.812 Y97.540 F7200
G1 X124.917 Y96.435 E12.40918 F3600
G0 X125.077 Y96.841 F7200
G1 X124.378 Y97.540 E12.44206 F3600
G0 X125.278 Y97.205 F7200
G1 X124.944 Y97.540 E12.45777 F3600
G0 X125.861 Y97.087 F7200
;segType:Perimeter
G1 X125.670 Y96.310 E12.48438 F1800
G1 X125.563 Y95.894 E12.49867
G1 X125.563 Y95.405 E12.51494
G1 X125.685 Y94.931 E12.53121
G1 X125.921 Y94.503 E12.54749
G1 X126.256 Y94.146 E12.56376
G1 X126.669 Y93.884 E12.58003
G1 X127.134 Y93.733 E12.59630
G1 X127.622 Y93.702 E12.61258
G1 X128.103 Y93.793 E12.62885
G1 X128.546 Y94.002 E12.64513
G1 X128.923 Y94.314 E12.66140
G1 X129.211 Y94.710 E12.67768
G1 X129.391 Y95.165 E12.69395
G1 X129.452 Y95.650 E12.71023
G1 X129.391 Y96.136 E12.72650
G1 X129.211 Y96.590 E12.74278
G1 X128.923 Y96.986 E12.75905
G1 X128.546 Y97.298 E12.77532
G1 X128.103 Y97.506 E12.79160
G1 X127.623 Y97.598 E12.80787
G1 X127.134 Y97.568 E12.82415
G1 X126.669 Y97.416 E12.84042
G1 X126.256 Y97.154 E12.85670
G1 X125.921 Y96.797 E12.87297
G1 X125.714 Y96.421 E12.88725
G0 X125.670 Y96.310 F7200
G0 X125.563 Y95.894
G0 X125.563 Y95.405
G0 X125.685 Y94.931
G0 X125.778 Y94.763
G0 X125.188 Y95.258
;segType:Loop
G1 X125.310 Y94.783 E12.90355 F3600
G1 X125.595 Y94.266 E12.92320
G1 X125.999 Y93.835 E12.94283
G1 X126.497 Y93.519 E12.96246
G1 X127.059 Y93.336 E12.98210
G1 X127.648 Y93.300 E13.00173
G1 X128.228 Y93.410 E13.02137
G1 X128.762 Y93.662 E13.04102
G1 X129.217 Y94.038 E13.06064
G1 X129.564 Y94.515 E13.08028
G1 X129.781 Y95.064 E13.09991
G1 X129.855 Y95.650 E13.11955
G1 X129.781 Y96.236 E13.13918
G1 X129.564 Y96.785 E13.15883
G1 X129.217 Y97.262 E13.17846
G1 X128.762 Y97.639 E13.19809
G1 X128.672 Y97.681 E13.20140
G0 X128.634 Y97.804 F7200
G0 X128.502 Y97.834
G0 X128.369 Y97.863
G1 X128.129 Y97.904 E13.20935 F3600
G1 X128.014 Y97.915 E13.21287
G1 X127.900 Y97.926 E13.21619
G1 X127.786 Y97.937 E13.21931
G1 X127.671 Y97.947 E13.22221
G1 X127.557 Y97.947 E13.22511
G1 X127.443 Y97.944 E13.22808
G1 X127.329 Y97.940 E13.23112
G1 X127.214 Y97.936 E13.23422
G1 X127.100 Y97.933 E13.23739
G1 X126.986 Y97.919 E13.24084
G1 X126.871 Y97.901 E13.24466
G1 X126.757 Y97.883 E13.24883
G1 X126.643 Y97.865 E13.25335
G0 X126.372 Y97.809 F7200
G1 X126.338 Y97.680 E13.25777 F3600
G1 X125.999 Y97.465 E13.27115
G1 X125.595 Y97.034 E13.29079
G1 X125.310 Y96.517 E13.31042
G1 X125.163 Y95.945 E13.33006
G1 X125.163 Y95.455 E13.34636
G0 F3000 E12.34636
G0 X125.563 Y95.558 F7200
G0 X125.563 Y95.894
G0 X125.685 Y96.369
G0 X125.921 Y96.797
G0 X126.256 Y97.154
G0 X126.669 Y97.416
G0 X127.134 Y97.568
G0 X127.623 Y97.598
G0 X128.103 Y97.506
G0 X128.546 Y97.298
G0 X128.923 Y96.986
G0 X129.211 Y96.590
G0 X129.244 Y96.506
G0 X146.300 Y100.898
G0 X145.540 Y100.703
G0 F3000 E13.34636
;segType:HShell
G1 X131.961 Y114.282 E13.98508 F3600
G0 X131.782 Y114.461 F7200
G1 X130.182 Y116.061 E14.06034 F3600
G0 X129.723 Y114.822 F7200
G1 X130.085 Y114.461 E14.07734 F3600
G0 X130.650 Y114.461 F7200
G1 X129.935 Y115.175 E14.11096 F3600
G0 X130.096 Y115.581 F7200
G1 X131.216 Y114.461 E14.16364 F3600
G0 X131.140 Y113.700 F7200
;segType:Perimeter
G1 X123.800 Y113.700 E14.40780 F1800
G1 X123.800 Y98.300 E14.92003
G1 X131.200 Y98.300 E15.16618
G1 X131.200 Y113.640 E15.67642
G0 X131.140 Y113.700 F7200
G0 X129.540 Y113.700
G0 X130.100 Y114.100
;segType:Loop
G1 X128.814 Y114.100 E15.71920 F3600
G0 X128.700 Y114.192 F7200
G0 X128.586 Y114.185
G0 X128.471 Y114.160
G0 X128.357 Y114.134
G0 X128.243 Y114.108
G1 X128.129 Y114.096 E15.72293 F3600
G1 X128.014 Y114.085 E15.72646
G1 X127.900 Y114.074 E15.72977
G1 X127.786 Y114.063 E15.73289
G1 X127.671 Y114.053 E15.73579
G1 X127.557 Y114.053 E15.73869
G1 X127.443 Y114.056 E15.74165
G1 X127.329 Y114.060 E15.74469
G1 X127.214 Y114.064 E15.74779
G1 X127.100 Y114.067 E15.75096
G1 X126.986 Y114.081 E15.75442
G1 X126.871 Y114.099 E15.75824
G1 X126.757 Y114.117 E15.76240
G1 X126.643 Y114.135 E15.76692
G1 X126.529 Y114.146 E15.77160
G1 X126.414 Y114.179 E15.77711
G1 X126.300 Y114.100 E15.78172
G1 X123.400 Y114.100 E15.87819
G1 X123.400 Y97.900 E16.41703
G1 X126.300 Y97.900 E16.51350
G1 X126.414 Y97.821 E16.51992
G1 X126.529 Y97.855 E16.52477
G0 X126.643 Y97.865 F7200
G0 X126.986 Y97.919
G0 X127.100 Y97.933
G0 X127.557 Y97.947
G0 X127.671 Y97.947
G0 X128.129 Y97.904
G1 X128.243 Y97.892 E16.52875 F3600
G1 X128.357 Y97.866 E16.53330
G1 X128.471 Y97.841 E16.53834
G1 X128.586 Y97.815 E16.54388
G1 X128.700 Y97.808 E16.54943
G1 X128.814 Y97.900 E16.55429
G1 X131.600 Y97.900 E16.64696
G1 X131.600 Y114.100 E17.18580
G1 X130.300 Y114.100 E17.22904
G0 F3000 E16.22904
G0 X130.821 Y113.700 F7200
G0 X131.200 Y113.700
G0 X131.200 Y113.409
G0 X145.540 Y102.400
G0 F3000 E17.22904
;segType:HShell
G1 X128.900 Y119.039 E18.01172 F3600
G0 X128.471 Y118.960 F7200
;segType:InnerHair
G1 X128.357 Y118.986 E18.01588 F3600
G1 X128.243 Y118.997 E18.01975
G1 X128.129 Y119.008 E18.02341
G1 X128.014 Y119.019 E18.02687
G1 X127.900 Y119.029 E18.03012
G1 X127.786 Y119.040 E18.03316
G1 X127.671 Y119.051 E18.03600
G1 X127.557 Y119.048 E18.03889
G1 X127.443 Y119.044 E18.04185
G1 X127.329 Y119.040 E18.04487
G1 X127.214 Y119.037 E18.04797
G1 X127.100 Y119.033 E18.05113
G1 X126.986 Y119.029 E18.05438
G1 X126.871 Y119.011 E18.05800
G1 X126.757 Y118.993 E18.06198
G1 X126.643 Y118.975 E18.06630
G0 X126.071 Y119.039 F7200
;segType:HShell
G0 X126.422 Y118.971
G1 X125.738 Y118.807 E18.10969 F3600
G0 X124.940 Y119.039 F7200
G1 X125.655 Y118.325 E18.14331 F3600
G0 X125.861 Y117.787 F7200
;segType:Perimeter
G1 X125.670 Y117.011 E18.16992 F1800
G1 X125.563 Y116.595 E18.18420
G1 X125.563 Y116.105 E18.20047
G1 X125.685 Y115.632 E18.21674
G1 X125.921 Y115.203 E18.23303
G1 X126.256 Y114.846 E18.24929
G1 X126.669 Y114.584 E18.26557
G1 X127.134 Y114.433 E18.28184
G1 X127.622 Y114.402 E18.29812
G1 X128.103 Y114.494 E18.31439
G1 X128.546 Y114.702 E18.33067
G1 X128.923 Y115.014 E18.34694
G1 X129.211 Y115.410 E18.36322
G1 X129.391 Y115.865 E18.37949
G1 X129.452 Y116.350 E18.39577
G1 X129.391 Y116.835 E18.41203
G1 X129.211 Y117.290 E18.42831
G1 X128.923 Y117.686 E18.44459
G1 X128.546 Y117.998 E18.46086
G1 X128.103 Y118.206 E18.47714
G1 X127.622 Y118.298 E18.49341
G1 X127.134 Y118.267 E18.50969
G1 X126.669 Y118.116 E18.52596
G1 X126.256 Y117.854 E18.54223
G1 X125.921 Y117.497 E18.55851
G1 X125.714 Y117.121 E18.57278
G0 X125.670 Y117.011 F7200
G0 X125.563 Y116.595
G0 X125.563 Y116.105
G0 X125.685 Y115.632
G0 X125.778 Y115.463
G0 X125.188 Y115.958
;segType:Loop
G1 X125.310 Y115.483 E18.58909 F3600
G1 X125.595 Y114.966 E18.60873
G1 X125.999 Y114.535 E18.62836
G1 X126.377 Y114.296 E18.64325
G0 X126.643 Y114.135 F7200
G0 X126.986 Y114.081
G0 X127.100 Y114.067
G0 X127.557 Y114.053
G0 X127.671 Y114.053
G0 X128.129 Y114.096
G1 X128.451 Y114.155 E18.65710 F3600
G1 X128.583 Y114.184 E18.66349
G1 X128.630 Y114.299 E18.66762
G1 X128.762 Y114.362 E18.67249
G1 X129.217 Y114.738 E18.69212
G1 X129.564 Y115.215 E18.71176
G1 X129.781 Y115.764 E18.73139
G1 X129.855 Y116.350 E18.75103
G1 X129.781 Y116.936 E18.77066
G1 X129.564 Y117.485 E18.79029
G1 X129.217 Y117.962 E18.80993
G1 X128.762 Y118.339 E18.82957
G1 X128.228 Y118.590 E18.84921
G1 X127.648 Y118.701 E18.86884
G1 X127.059 Y118.663 E18.88848
G1 X126.497 Y118.481 E18.90811
G1 X125.999 Y118.165 E18.92775
G1 X125.595 Y117.734 E18.94738
G1 X125.310 Y117.217 E18.96702
G1 X125.163 Y116.645 E18.98666
G1 X125.163 Y116.155 E19.00296
G0 X125.386 Y114.505 F7200
;segType:InnerHair
G1 X125.500 Y114.493 E19.00664 F3600
G1 X125.614 Y114.444 E19.00961
G1 X125.729 Y114.394 E19.01155
G1 X125.686 Y114.413 E19.01242
G1 X125.573 Y114.462 E19.01572
G1 X125.460 Y114.510 E19.02001
G1 X125.386 Y114.505 E19.02254
G0 F3000 E18.02254
G0 X125.585 Y113.700 F7200
G0 X123.800 Y113.700
G0 X123.800 Y98.300
G0 X129.389 Y98.300
G0 X129.594 Y97.472
G0 F3000 E19.02254
G1 X129.486 Y97.525 E19.02604 F3600
G1 X129.367 Y97.568 E19.02880
G1 X129.248 Y97.611 E19.03067
G1 X129.271 Y97.603 E19.03106
G1 X129.386 Y97.578 E19.03343
G1 X129.500 Y97.519 E19.03728
G1 X129.594 Y97.472 E19.04128
G0 F3000 E18.04128
G0 X128.178 Y97.471 F7200
G0 X128.103 Y97.506
G0 X127.623 Y97.598
G0 X127.134 Y97.568
G0 X126.838 Y97.471
G0 X125.416 Y97.471
G0 F3000 E19.04128
G1 X125.529 Y97.520 E19.04496 F3600
G1 X125.642 Y97.569 E19.04764
G1 X125.755 Y97.617 E19.04932
G1 X125.729 Y97.606 E19.04977
G1 X125.614 Y97.557 E19.05273
G1 X125.500 Y97.507 E19.05672
G1 X125.386 Y97.495 E19.06064
G1 X125.416 Y97.471 E19.06212
G0 X124.961 Y94.694 F7200
;segType:HShell
G1 X114.460 Y105.194 E19.55604 F3600
G0 X114.460 Y104.629 F7200
G1 X127.129 Y91.960 E20.15192 F3600
G0 X126.563 Y91.960 F7200
G1 X114.460 Y104.063 E20.72120 F3600
G0 X114.460 Y103.497 F7200
G1 X125.997 Y91.960 E21.26386 F3600
G0 X125.432 Y91.960 F7200
G1 X114.460 Y102.932 E21.77992 F3600
G0 X114.460 Y102.366 F7200
G1 X124.866 Y91.960 E22.26937 F3600
G0 X124.300 Y91.960 F7200
G1 X114.460 Y101.800 E22.73221 F3600
G0 X114.460 Y101.235 F7200
G1 X123.789 Y91.906 E23.17101 F3600
G0 X123.789 Y91.340 F7200
G1 X114.460 Y100.669 E23.60982 F3600
G0 X114.460 Y100.103 F7200
G1 X123.789 Y90.774 E24.04863 F3600
G0 X123.789 Y90.209 F7200
G1 X114.460 Y99.538 E24.48744 F3600
G0 X114.460 Y98.972 F7200
G1 X123.789 Y89.643 E24.92625 F3600
G0 X123.789 Y89.077 F7200
G1 X114.460 Y98.406 E25.36506 F3600
G0 X114.460 Y97.841 F7200
G1 X123.789 Y88.512 E25.80386 F3600
G0 X123.789 Y87.946 F7200
G1 X114.460 Y97.275 E26.24267 F3600
G0 X114.460 Y96.709 F7200
G1 X123.789 Y87.380 E26.68148 F3600
G0 X123.789 Y86.814 F7200
G1 X114.460 Y96.143 E27.12029 F3600
G0 X114.460 Y95.578 F7200
G1 X129.078 Y80.961 E27.80784 F3600
G0 X128.512 Y80.961 F7200
G1 X114.460 Y95.012 E28.46879 F3600
G0 X114.460 Y94.446 F7200
G1 X127.946 Y80.961 E29.10312 F3600
G0 X127.381 Y80.961 F7200
G1 X114.460 Y93.881 E29.71085 F3600
G0 X114.460 Y93.315 F7200
G1 X126.815 Y80.961 E30.29197 F3600
G0 X126.249 Y80.961 F7200
G1 X114.460 Y92.749 E30.84648 F3600
G0 X114.460 Y92.184 F7200
G1 X125.684 Y80.961 E31.37439 F3600
G0 X125.118 Y80.961 F7200
G1 X114.460 Y91.618 E31.87568 F3600
G0 X114.460 Y91.052 F7200
G1 X124.552 Y80.961 E32.35037 F3600
G0 X123.987 Y80.961 F7200
G1 X114.460 Y90.487 E32.79845 F3600
G0 X114.460 Y89.921 F7200
G1 X123.421 Y80.961 E33.21992 F3600
G0 X122.855 Y80.960 F7200
G1 X114.460 Y89.355 E33.61478 F3600
G0 X114.460 Y88.790 F7200
G1 X122.290 Y80.960 E33.98304 F3600
G0 X121.724 Y80.960 F7200
G1 X114.460 Y88.224 E34.32469 F3600
G0 X114.460 Y87.658 F7200
G1 X121.158 Y80.960 E34.63973 F3600
G0 X120.592 Y80.960 F7200
G1 X114.460 Y87.093 E34.92816 F3600
G0 X114.460 Y86.527 F7200
G1 X120.027 Y80.960 E35.18998 F3600
G0 X119.461 Y80.960 F7200
G1 X114.460 Y85.961 E35.42519 F3600
G0 X114.460 Y85.395 F7200
G1 X118.895 Y80.960 E35.63380 F3600
G0 X118.330 Y80.960 F7200
G1 X114.460 Y84.830 E35.81580 F3600
G0 X114.460 Y84.264 F7200
G1 X117.764 Y80.960 E35.97119 F3600
G0 X124.065 Y86.539 F7200
G1 X129.643 Y80.961 E36.23361 F3600
G0 X130.209 Y80.961 F7200
G1 X124.630 Y86.539 E36.49602 F3600
G0 X125.196 Y86.539 F7200
G1 X130.775 Y80.961 E36.75844 F3600
G0 X131.340 Y80.961 F7200
G1 X125.762 Y86.539 E37.02086 F3600
G0 X126.327 Y86.539 F7200
G1 X131.906 Y80.961 E37.28327 F3600
G0 X132.472 Y80.961 F7200
G1 X126.893 Y86.539 E37.54569 F3600
G0 X127.459 Y86.539 F7200
G1 X133.038 Y80.961 E37.80811 F3600
G0 X133.603 Y80.961 F7200
G1 X128.024 Y86.539 E38.07052 F3600
G0 X128.590 Y86.539 F7200
G1 X134.169 Y80.961 E38.33294 F3600
G0 X134.735 Y80.961 F7200
G1 X129.156 Y86.539 E38.59535 F3600
G0 X129.721 Y86.539 F7200
G1 X135.300 Y80.961 E38.85777 F3600
G0 X135.866 Y80.961 F7200
G1 X130.287 Y86.539 E39.12019 F3600
G0 X130.853 Y86.539 F7200
G1 X136.432 Y80.961 E39.38260 F3600
G0 X136.997 Y80.961 F7200
G1 X131.210 Y86.747 E39.65480 F3600
G0 X131.210 Y87.313 F7200
G1 X137.563 Y80.961 E39.95361 F3600
G0 X138.129 Y80.961 F7200
G1 X131.210 Y87.879 E40.27902 F3600
G0 X131.210 Y88.444 F7200
G1 X138.694 Y80.961 E40.63104 F3600
G0 X139.260 Y80.961 F7200
G1 X131.210 Y89.010 E41.00967 F3600
G0 X131.210 Y89.576 F7200
G1 X139.826 Y80.961 E41.41490 F3600
G0 X140.391 Y80.961 F7200
G1 X131.210 Y90.142 E41.84675 F3600
G0 X131.210 Y90.707 F7200
G1 X140.957 Y80.961 E42.30520 F3600
G0 F3000 E41.30520
G0 X130.450 Y89.675 F7200
G0 X130.450 Y91.200
G0 X128.611 Y91.200
G0 X127.694 Y91.960
G0 F3000 E42.30520
