;FLAVOR:RepRap
;TIME:7994
;Filament used: 4.06712m
;Layer height: 0.1
;MINX:93.699
;MINY:65.199
;MINZ:0.36
;MAXX:158.283
;MAXY:134.8
;MAXZ:42.36
;Generated with Cura_SteamEngine 4.8.0
T0
M190 S60
M104 S215
M109 S215
M82 ;absolute extrusion mode
;Craftbot Start Script
G28 X0Y0 ;home xy
G28 Z0 ;home z
G91 ;relative movements
G0 F100 ;speed 100mm/sec
G0 X15 Y15 Z0.4 E12 ;purge nozzle - move to xy15
G90 ;Absolute movements
M83 ;relative extrusion mode
G1 F1500 E-6.5
;LAYER_COUNT:413
;LAYER:-9
M107
G0 F7200 X96.892 Y71.267 Z0.36
;TYPE:SUPPORT-INTERFACE
G1 F1500 E6.5
G1 F1350 X97 Y71.126 E0.02127
G1 X97.577 Y70.434 E0.10788
G1 X97.673 Y70.326 E0.0173
G1 X98.155 Y69.814 E0.0842
G1 X98.312 Y69.658 E0.0265
G1 X99.008 Y69.012 E0.1137
G1 X99.147 Y68.893 E0.02191
G1 X99.838 Y68.339 E0.10605
G1 X99.977 Y68.235 E0.02079
G1 X100.692 Y67.743 E0.10392
G1 X100.876 Y67.626 E0.02611
G1 X101.632 Y67.183 E0.10492
G1 X101.774 Y67.106 E0.01934
G1 X102.606 Y66.697 E0.11101
G1 X102.719 Y66.647 E0.0148
G1 X103.569 Y66.304 E0.10975
G1 X103.742 Y66.242 E0.022
G1 X104.58 Y65.973 E0.10538
G1 X104.744 Y65.927 E0.02039
G1 X105.616 Y65.715 E0.10745
G1 X105.778 Y65.682 E0.0198
G1 X106.671 Y65.534 E0.10838
G1 X106.848 Y65.511 E0.02137
G1 X107.742 Y65.428 E0.1075
G1 X107.884 Y65.421 E0.01702
G1 X108.625 Y65.4 E0.08876
G1 X141.386 Y65.401 E3.92269
G1 X142.387 Y65.437 E0.11993
G1 X142.51 Y65.446 E0.01477
G1 X143.427 Y65.548 E0.11048
G1 X143.602 Y65.573 E0.02117
G1 X144.491 Y65.737 E0.10824
G1 X144.614 Y65.765 E0.0151
G1 X145.508 Y65.999 E0.11065
G1 X145.671 Y66.048 E0.02038
G1 X146.513 Y66.334 E0.10648
G1 X146.679 Y66.398 E0.0213
G1 X147.482 Y66.739 E0.10446
G1 X147.671 Y66.827 E0.02496
G1 X148.465 Y67.235 E0.10689
G1 X148.582 Y67.302 E0.01614
G1 X149.361 Y67.776 E0.10918
G1 X149.512 Y67.876 E0.02169
G1 X150.226 Y68.387 E0.10513
G1 X150.374 Y68.5 E0.0223
G1 X151.066 Y69.077 E0.10788
G1 X151.174 Y69.173 E0.0173
G1 X151.686 Y69.655 E0.0842
G1 X151.805 Y69.774 E0.02015
G1 X152.488 Y70.508 E0.12005
G1 X152.607 Y70.647 E0.02191
G1 X153.161 Y71.338 E0.10605
G1 X153.264 Y71.477 E0.02071
G1 X153.773 Y72.217 E0.10754
G1 X153.901 Y72.416 E0.02833
G1 X154.309 Y72.973 E0.08267
G1 X154.373 Y73.048 E0.01181
G1 X154.476 Y73.179 E0.01995
G1 X155.019 Y73.927 E0.11067
G1 X155.104 Y74.054 E0.0183
G1 X155.584 Y74.828 E0.10905
G1 X155.658 Y74.958 E0.01791
G1 X156.079 Y75.761 E0.10856
G1 X156.146 Y75.901 E0.01858
G1 X156.514 Y76.75 E0.1108
G1 X156.567 Y76.886 E0.01748
G1 X156.866 Y77.743 E0.10868
G1 X156.914 Y77.9 E0.01966
G1 X157.151 Y78.776 E0.10866
G1 X157.183 Y78.919 E0.01755
G1 X157.354 Y79.798 E0.10722
G1 X157.378 Y79.934 E0.01654
G1 X157.675 Y81.846 E0.23168
G1 X157.787 Y82.786 E0.11335
G1 X157.802 Y82.968 E0.02187
G1 X157.848 Y84.128 E0.139
G1 X157.848 Y85.902 E0.21241
G1 X157.812 Y86.892 E0.11862
G1 X157.798 Y87.083 E0.02293
G1 X157.667 Y88.21 E0.13585
G1 X157.383 Y90.027 E0.2202
G1 X157.358 Y90.168 E0.01715
G1 X157.182 Y91.08 E0.11121
G1 X157.14 Y91.263 E0.02248
G1 X156.912 Y92.107 E0.10468
G1 X156.857 Y92.284 E0.02219
G1 X156.565 Y93.116 E0.10558
G1 X156.512 Y93.249 E0.01714
G1 X156.306 Y93.888 E0.08039
G1 X156.181 Y94.558 E0.08161
G1 X156.141 Y95.241 E0.08192
G1 X156.188 Y95.921 E0.08162
G1 X156.319 Y96.589 E0.08151
G1 X156.491 Y97.125 E0.0674
G1 X156.757 Y97.822 E0.08933
G1 X156.811 Y97.98 E0.01999
G1 X157.072 Y98.85 E0.10876
G1 X157.112 Y99.008 E0.01952
G1 X157.307 Y99.888 E0.10792
G1 X157.337 Y100.054 E0.0202
G1 X157.475 Y100.984 E0.11257
G1 X157.569 Y101.811 E0.09966
G1 X157.711 Y103.159 E0.1623
G1 X157.725 Y103.319 E0.01923
G1 X157.799 Y104.735 E0.16978
G1 X157.802 Y104.842 E0.01282
G1 X157.802 Y106.338 E0.17913
G1 X157.764 Y107.367 E0.12329
G1 X157.757 Y107.494 E0.01523
G1 X157.731 Y107.782 E0.03462
G1 X157.495 Y109.94 E0.25993
G1 X157.482 Y110.04 E0.01207
G1 X157.344 Y110.98 E0.11376
G1 X157.321 Y111.105 E0.01522
G1 X157.119 Y112.006 E0.11056
G1 X157.073 Y112.179 E0.02143
G1 X156.823 Y113.014 E0.10436
G1 X156.763 Y113.188 E0.02204
G1 X156.452 Y114.003 E0.10445
G1 X156.253 Y114.642 E0.08014
G1 X156.134 Y115.313 E0.0816
G1 X156.1 Y115.909 E0.07148
G1 X156.1 Y119.869 E0.47416
G1 X156.064 Y120.875 E0.12053
G1 X156.054 Y121.01 E0.01621
G1 X155.952 Y121.927 E0.11048
G1 X155.927 Y122.102 E0.02117
G1 X155.765 Y122.98 E0.1069
G1 X155.735 Y123.114 E0.01644
G1 X155.504 Y123.999 E0.10952
G1 X155.452 Y124.171 E0.02152
G1 X155.166 Y125.013 E0.10648
G1 X155.102 Y125.179 E0.0213
G1 X154.761 Y125.982 E0.10446
G1 X154.68 Y126.157 E0.02309
G1 X154.276 Y126.943 E0.10582
G1 X154.198 Y127.082 E0.01908
G1 X153.724 Y127.861 E0.10918
G1 X153.624 Y128.012 E0.02169
G1 X153.113 Y128.726 E0.10513
G1 X153 Y128.874 E0.0223
G1 X152.423 Y129.566 E0.10788
G1 X152.327 Y129.674 E0.0173
G1 X151.845 Y130.186 E0.0842
G1 X151.688 Y130.342 E0.0265
G1 X151.003 Y130.978 E0.11192
G1 X150.855 Y131.105 E0.02335
G1 X150.162 Y131.661 E0.10638
G1 X150.023 Y131.765 E0.02079
G1 X149.308 Y132.257 E0.10392
G1 X149.124 Y132.374 E0.02611
G1 X148.368 Y132.817 E0.10492
G1 X148.226 Y132.894 E0.01934
G1 X147.398 Y133.301 E0.11047
G1 X147.281 Y133.353 E0.01533
G1 X146.426 Y133.698 E0.11039
G1 X146.263 Y133.756 E0.02072
G1 X145.42 Y134.027 E0.10603
G1 X145.256 Y134.073 E0.02039
G1 X144.384 Y134.285 E0.10745
G1 X144.222 Y134.318 E0.0198
G1 X143.329 Y134.466 E0.10838
G1 X143.152 Y134.489 E0.02137
G1 X142.258 Y134.572 E0.1075
G1 X142.116 Y134.579 E0.01702
G1 X141.375 Y134.6 E0.08876
G1 X108.614 Y134.599 E3.92269
G1 X107.613 Y134.563 E0.11993
G1 X107.49 Y134.554 E0.01477
G1 X106.573 Y134.452 E0.11048
G1 X106.398 Y134.427 E0.02117
G1 X105.509 Y134.263 E0.10824
G1 X105.386 Y134.235 E0.0151
G1 X104.492 Y134.001 E0.11065
G1 X104.329 Y133.952 E0.02038
G1 X103.487 Y133.666 E0.10648
G1 X103.321 Y133.602 E0.0213
G1 X102.518 Y133.261 E0.10446
G1 X102.329 Y133.173 E0.02496
G1 X101.535 Y132.765 E0.10689
G1 X101.418 Y132.698 E0.01614
G1 X100.639 Y132.224 E0.10918
G1 X100.488 Y132.124 E0.02169
G1 X99.774 Y131.613 E0.10513
G1 X99.626 Y131.5 E0.0223
G1 X98.934 Y130.923 E0.10788
G1 X98.826 Y130.827 E0.0173
G1 X98.314 Y130.345 E0.0842
G1 X98.154 Y130.184 E0.02718
G1 X97.51 Y129.49 E0.11336
G1 X97.393 Y129.353 E0.02157
G1 X96.843 Y128.667 E0.10528
G1 X96.727 Y128.511 E0.02328
G1 X96.243 Y127.808 E0.1022
G1 X96.126 Y127.624 E0.02611
G1 X95.683 Y126.868 E0.10492
G1 X95.606 Y126.726 E0.01934
G1 X95.197 Y125.894 E0.11101
G1 X95.147 Y125.781 E0.0148
G1 X94.798 Y124.917 E0.11157
G1 X94.742 Y124.759 E0.02007
G1 X94.47 Y123.911 E0.10663
G1 X94.428 Y123.761 E0.01865
G1 X94.212 Y122.873 E0.10943
G1 X94.183 Y122.73 E0.01747
G1 X94.033 Y121.824 E0.10996
G1 X94.011 Y121.652 E0.02076
G1 X93.928 Y120.753 E0.1081
G1 X93.921 Y120.616 E0.01643
G1 X93.9 Y119.883 E0.0878
G1 X93.9 Y80.131 E4.75976
G1 X93.936 Y79.125 E0.12053
G1 X93.946 Y78.99 E0.01621
G1 X94.048 Y78.073 E0.11048
G1 X94.073 Y77.898 E0.02117
G1 X94.235 Y77.02 E0.1069
G1 X94.265 Y76.886 E0.01644
G1 X94.496 Y76.001 E0.10952
G1 X94.548 Y75.829 E0.02152
G1 X94.834 Y74.987 E0.10648
G1 X94.898 Y74.821 E0.0213
G1 X95.239 Y74.018 E0.10446
G1 X95.32 Y73.843 E0.02309
G1 X95.735 Y73.035 E0.10876
G1 X95.802 Y72.918 E0.01614
G1 X96.276 Y72.139 E0.10918
G1 X96.376 Y71.988 E0.02169
G1 X96.892 Y71.267 E0.10616
G0 F7200 X97.6 Y70.408
G1 F1350 X97.6 Y129.586 E7.08577
G0 F7200 X99.2 Y131.144
G1 F1350 X99.2 Y68.85 E7.45886
G0 F7200 X100.8 Y67.674
G1 F1350 X100.8 Y132.321 E7.7406
G0 F7200 X102.4 Y133.206
G1 F1350 X102.4 Y66.798 E7.95146
G0 F7200 X104 Y66.159
G1 F1350 X104 Y133.84 E8.10389
G0 F7200 X105.6 Y134.279
G1 F1350 X105.6 Y65.718 E8.20925
G0 F7200 X107.2 Y65.478
G1 F1350 X107.2 Y134.521 E8.26697
G0 F7200 X108.8 Y134.599
G1 F1350 X108.8 Y65.401 E8.28553
G0 F7200 X110.4 Y65.401
G1 F1350 X110.4 Y134.599 E8.28553
G0 F7200 X112 Y134.599
G1 F1350 X112 Y65.401 E8.28553
G0 F7200 X113.6 Y65.401
G1 F1350 X113.6 Y134.599 E8.28553
G0 F7200 X115.2 Y134.599
G1 F1350 X115.2 Y65.401 E8.28553
G0 F7200 X116.8 Y65.401
G1 F1350 X116.8 Y134.599 E8.28553
G0 F7200 X118.4 Y134.599
G1 F1350 X118.4 Y65.401 E8.28553
G0 F7200 X120 Y65.401
G1 F1350 X120 Y134.599 E8.28553
G0 F7200 X121.6 Y134.599
G1 F1350 X121.6 Y65.401 E8.28553
G0 F7200 X123.2 Y65.401
G1 F1350 X123.2 Y134.599 E8.28553
G0 F7200 X124.8 Y134.599
G1 F1350 X124.8 Y65.401 E8.28553
G0 F7200 X126.4 Y65.401
G1 F1350 X126.4 Y134.599 E8.28553
G0 F7200 X128 Y134.599
G1 F1350 X128 Y65.401 E8.28553
G0 F7200 X129.6 Y65.401
G1 F1350 X129.6 Y134.599 E8.28553
G0 F7200 X131.2 Y134.599
G1 F1350 X131.2 Y65.401 E8.28553
G0 F7200 X132.8 Y65.401
G1 F1350 X132.8 Y134.599 E8.28553
G0 F7200 X134.4 Y134.599
G1 F1350 X134.4 Y65.401 E8.28553
G0 F7200 X136 Y65.401
G1 F1350 X136 Y134.599 E8.28553
G0 F7200 X137.6 Y134.599
G1 F1350 X137.6 Y65.401 E8.28553
G0 F7200 X139.2 Y65.401
G1 F1350 X139.2 Y134.599 E8.28553
G0 F7200 X140.8 Y134.599
G1 F1350 X140.8 Y65.401 E8.28553
G0 F7200 X142.4 Y65.438
G1 F1350 X142.4 Y134.559 E8.27631
G0 F7200 X144 Y134.355
G1 F1350 X144 Y65.647 E8.22685
G0 F7200 X145.6 Y66.027
G1 F1350 X145.6 Y133.97 E8.13526
G0 F7200 X147.2 Y133.386
G1 F1350 X147.2 Y66.62 E7.99433
G0 F7200 X148.8 Y67.435
G1 F1350 X148.8 Y132.564 E7.79832
G0 F7200 X150.4 Y131.471
G1 F1350 X150.4 Y68.522 E7.53729
G0 F7200 X152 Y69.984
G1 F1350 X152 Y130.022 E7.18874
G0 F7200 X153.6 Y128.046
G1 F1350 X153.6 Y71.966 E6.71482
G0 F7200 X155.2 Y74.209
G1 F1350 X155.2 Y124.913 E6.07112
G0 F7200 X156.8 Y113.081
G1 F1350 X156.8 Y97.948 E1.81197
G0 F7200 X156.622 Y95.509
G0 X156.8 Y92.447
G1 F1350 X156.8 Y77.554 E1.78324
G0 F7200 X96 Y72.592
G1 F1350 X96 Y127.408 E6.56348
G0 F7200 X94.4 Y123.645
G1 F1350 X94.4 Y76.368 E5.66078
G0 F600 X94.4 Y76.368 Z0.51
G0 F7200 X95.605 Y126.725
;TIME_ELAPSED:132.825022
;LAYER:-8
;TYPE:SUPPORT
G1 F1350 X95.682 Y126.867 E0.00806
G1 X96.126 Y127.623 E0.04374
G1 X96.242 Y127.806 E0.01081
G1 X96.727 Y128.51 E0.04265
G1 X96.843 Y128.665 E0.00966
G1 X97.392 Y129.352 E0.04387
G1 X97.51 Y129.489 E0.00902
G1 X98.154 Y130.183 E0.04723
G1 X98.314 Y130.344 E0.01132
G1 X98.825 Y130.826 E0.03505
G1 X98.934 Y130.922 E0.00725
G1 X99.625 Y131.499 E0.04491
G1 X99.774 Y131.612 E0.00933
G1 X100.487 Y132.123 E0.04376
G1 X100.639 Y132.223 E0.00908
G1 X101.418 Y132.697 E0.04549
G1 X101.535 Y132.764 E0.00673
G1 X101.774 Y132.887 E0.01341
G1 X95.598 Y126.711 E0.43575
G1 X95.196 Y125.893 E0.04547
G1 X95.146 Y125.78 E0.00616
G1 X94.797 Y124.916 E0.04649
G1 X94.741 Y124.758 E0.00836
G1 X94.591 Y124.29 E0.02452
G1 X104.213 Y133.911 E0.67885
G1 X104.329 Y133.951 E0.00612
G1 X104.491 Y134 E0.00844
G1 X105.385 Y134.234 E0.0461
G1 X105.508 Y134.262 E0.00629
G1 X106.083 Y134.367 E0.02916
G1 X94.13 Y122.415 E0.84331
G1 X94.032 Y121.823 E0.02994
G1 X94.01 Y121.651 E0.00865
G1 X93.932 Y120.802 E0.04254
G1 X107.695 Y134.565 E0.97105
G1 X108.613 Y134.598 E0.04583
G1 X109.142 Y134.598 E0.02639
G1 X93.899 Y119.355 E1.07548
G1 X93.899 Y117.941 E0.07054
G1 X110.556 Y134.598 E1.17524
G1 X111.971 Y134.598 E0.07059
G1 X93.899 Y116.526 E1.27508
G1 X93.899 Y115.112 E0.07054
G1 X113.385 Y134.598 E1.37484
G1 X114.799 Y134.598 E0.07054
G1 X93.899 Y113.698 E1.47461
G1 X93.899 Y112.284 E0.07054
G1 X116.213 Y134.598 E1.57437
G1 X117.627 Y134.598 E0.07054
G1 X93.899 Y110.87 E1.67414
G1 X93.899 Y109.455 E0.07059
G1 X119.042 Y134.598 E1.77397
G1 X120.456 Y134.598 E0.07054
G1 X93.899 Y108.041 E1.87374
G1 X93.899 Y106.627 E0.07054
G1 X121.87 Y134.598 E1.97351
G1 X123.284 Y134.598 E0.07054
G1 X93.899 Y105.213 E2.07327
G1 X93.899 Y103.799 E0.07054
G1 X124.698 Y134.598 E2.17304
G1 X126.113 Y134.599 E0.07059
G1 X93.899 Y102.384 E2.27291
G1 X93.899 Y100.97 E0.07054
G1 X127.528 Y134.599 E2.37271
G1 X128.942 Y134.599 E0.07054
G1 X93.899 Y99.556 E2.47247
G1 X93.899 Y98.142 E0.07054
G1 X130.356 Y134.599 E2.57224
G1 X131.77 Y134.599 E0.07054
G1 X93.899 Y96.727 E2.67204
G1 X93.899 Y95.313 E0.07054
G1 X133.184 Y134.599 E2.7718
G1 X134.599 Y134.599 E0.07059
G1 X93.899 Y93.899 E2.8716
G1 X93.899 Y92.485 E0.07054
G1 X136.013 Y134.599 E2.97137
G1 X137.427 Y134.599 E0.07054
G1 X93.899 Y91.071 E3.07114
G1 X93.899 Y89.656 E0.07059
G1 X138.841 Y134.599 E3.17094
G1 X140.256 Y134.599 E0.07059
G1 X93.899 Y88.242 E3.27074
G1 X93.899 Y86.828 E0.07054
G1 X141.662 Y134.591 E3.36994
G1 X142.115 Y134.578 E0.02261
G1 X142.257 Y134.572 E0.00709
G1 X142.989 Y134.503 E0.03668
G1 X93.899 Y85.414 E3.46353
G1 X93.899 Y84 E0.07054
G1 X144.217 Y134.317 E3.55017
G0 F7200 X144.221 Y134.317
G1 F1350 X144.383 Y134.284 E0.00825
G1 X145.255 Y134.073 E0.04476
G1 X145.357 Y134.043 E0.0053
G1 X93.899 Y82.585 E3.63064
G1 X93.899 Y81.171 E0.07054
G1 X146.425 Y133.697 E3.70599
G1 X147.28 Y133.353 E0.04598
G1 X147.397 Y133.3 E0.00641
G1 X147.427 Y133.285 E0.00167
G1 X93.911 Y79.769 E3.77584
G1 X93.934 Y79.125 E0.03215
G1 X93.945 Y78.99 E0.00676
G1 X94.004 Y78.448 E0.0272
G1 X148.37 Y132.814 E3.83581
G1 X149.123 Y132.373 E0.04354
G1 X149.258 Y132.287 E0.00799
G1 X94.195 Y77.225 E3.88496
G1 X94.233 Y77.02 E0.0104
G1 X94.264 Y76.886 E0.00686
G1 X94.472 Y76.087 E0.04119
G1 X150.094 Y131.709 E3.92443
G1 X150.161 Y131.66 E0.00414
G1 X150.854 Y131.104 E0.04433
G1 X150.88 Y131.081 E0.00173
G1 X94.82 Y75.021 E3.95534
G1 X94.832 Y74.987 E0.0018
G1 X94.897 Y74.821 E0.00889
G1 X95.235 Y74.022 E0.04328
G1 X151.618 Y130.405 E3.97813
G1 X151.687 Y130.342 E0.00466
G1 X151.844 Y130.186 E0.01104
G1 X152.314 Y129.686 E0.03424
G1 X95.709 Y73.082 E3.99375
G1 X95.734 Y73.034 E0.0027
G1 X95.801 Y72.918 E0.00668
G1 X96.239 Y72.197 E0.04209
G1 X152.962 Y128.92 E4.00211
G1 X152.999 Y128.874 E0.00295
G1 X153.112 Y128.725 E0.00933
G1 X153.558 Y128.103 E0.03818
G1 X96.82 Y71.364 E4.00321
G1 X96.891 Y71.267 E0.006
G1 X96.999 Y71.126 E0.00886
G1 X97.452 Y70.581 E0.03536
G1 X154.104 Y127.234 E3.99714
G1 X154.196 Y127.081 E0.00891
G1 X154.275 Y126.942 E0.00798
G1 X154.598 Y126.314 E0.03523
G1 X98.127 Y69.843 E3.98433
G1 X98.154 Y69.814 E0.00198
G1 X98.311 Y69.657 E0.01108
G1 X98.854 Y69.155 E0.03689
G1 X155.034 Y125.336 E3.96384
G1 X155.101 Y125.179 E0.00852
G1 X155.165 Y125.012 E0.00892
G1 X155.409 Y124.296 E0.03774
G1 X99.623 Y68.51 E3.936
G1 X99.837 Y68.339 E0.01367
G1 X99.975 Y68.235 E0.00862
G1 X100.441 Y67.914 E0.02823
G1 X155.715 Y123.188 E3.89988
G1 X155.734 Y123.114 E0.00381
G1 X155.764 Y122.98 E0.00685
G1 X155.926 Y122.102 E0.04454
G1 X155.941 Y122 E0.00514
G1 X101.312 Y67.371 E3.85437
G1 X101.631 Y67.182 E0.0185
G1 X101.773 Y67.106 E0.00804
G1 X102.234 Y66.879 E0.02564
G1 X156.069 Y120.714 E3.79835
G1 X156.099 Y119.868 E0.04223
G1 X156.099 Y119.329 E0.02689
G1 X103.216 Y66.446 E3.73118
G1 X103.568 Y66.303 E0.01896
G1 X103.741 Y66.241 E0.00917
G1 X104.26 Y66.076 E0.02717
G1 X156.099 Y117.915 E3.65752
G1 X156.099 Y116.501 E0.07054
G1 X105.372 Y65.774 E3.57906
G1 X105.615 Y65.714 E0.01249
G1 X105.777 Y65.681 E0.00825
G1 X106.563 Y65.551 E0.03975
G1 X156.162 Y115.15 E3.49948
G1 X156.252 Y114.641 E0.02579
G1 X156.445 Y114.019 E0.03249
G1 X107.85 Y65.423 E3.42867
G1 X107.883 Y65.421 E0.00165
G1 X108.624 Y65.4 E0.03698
G1 X109.241 Y65.401 E0.03078
G1 X156.829 Y112.989 E3.35759
G1 X157.071 Y112.178 E0.04222
G1 X157.118 Y112.006 E0.0089
G1 X157.144 Y111.889 E0.00598
G1 X110.655 Y65.401 E3.28001
G1 X112.07 Y65.401 E0.07059
G1 X157.382 Y110.713 E3.19701
G1 X157.481 Y110.039 E0.03399
G1 X157.494 Y109.94 E0.00498
G1 X157.546 Y109.463 E0.02394
G1 X113.484 Y65.401 E3.10881
G1 X114.898 Y65.401 E0.07054
G1 X157.686 Y108.189 E3.01892
G1 X157.73 Y107.782 E0.02042
G1 X157.756 Y107.493 E0.01448
G1 X157.763 Y107.366 E0.00635
G1 X157.782 Y106.87 E0.02476
G1 X116.312 Y65.401 E2.9259
G1 X117.726 Y65.401 E0.07054
G1 X157.801 Y105.475 E2.82747
G1 X157.801 Y104.842 E0.03158
G1 X157.797 Y104.735 E0.00534
G1 X157.761 Y104.021 E0.03567
G1 X119.141 Y65.401 E2.72485
G1 X120.555 Y65.401 E0.07054
G1 X157.639 Y102.485 E2.61648
G1 X157.568 Y101.811 E0.03381
G1 X157.474 Y100.984 E0.04152
G1 X157.461 Y100.892 E0.00464
G1 X121.969 Y65.401 E2.50412
G1 X123.383 Y65.401 E0.07054
G1 X157.145 Y99.163 E2.38209
G1 X157.111 Y99.008 E0.00792
G1 X157.071 Y98.849 E0.00818
G1 X156.81 Y97.98 E0.04527
G1 X156.756 Y97.821 E0.00838
G1 X156.49 Y97.124 E0.03722
G1 X156.476 Y97.079 E0.00235
G1 X124.797 Y65.401 E2.23509
G1 X126.212 Y65.401 E0.07059
