; #disp params :
; Printmode:0
; Layer:69
; Zmax:52.74 mm
; Xmax:191.035 mm
; Ymax:7 mm
; Xmin:69.289 mm
; Ymin:0.2 mm
; E0diam:0.4 mm
; E0len:2.62072 m
; E0temp:215 C
; Bedtemp:215 C
; Time:47.8076 min
; #params end
; GCode generated by CraftWare

G28 X Y ; home horizontally
G28 Z ; home vertically


M104 S215 ;set head temp (no wait)
M190 S60 ;set bed temp (wait)
M109 S215 ;set head temp (wait)
; ------------------------------------
; Layer #0
; ------------------------------------
M106 S0 ;turn off fan
G21 ; mm
G90 ; abs
G92 E0 ;reset extr
G0 F600 Z0.200
;segType:Skirt
G0 F3000 E-1.00000
G0 X125.394 Y52.217 F5400
G0 F3000 E0.00000
G1 X124.871 Y52.217 E0.01738 F2400
G1 X124.741 Y52.087 E0.02352
G1 X123.826 Y51.956 E0.05425
G1 X123.435 Y51.825 E0.06798
G1 X123.043 Y51.695 E0.08172
G1 X122.781 Y51.695 E0.09041
G1 X122.651 Y51.564 E0.09656
G1 X122.389 Y51.564 E0.10525
G1 X122.259 Y51.433 E0.11139
G1 X121.998 Y51.433 E0.12008
G1 X121.867 Y51.303 E0.12622
G1 X121.606 Y51.303 E0.13491
G1 X121.475 Y51.172 E0.14106
G1 X121.214 Y51.172 E0.14975
G1 X121.083 Y51.041 E0.15589
G1 X120.822 Y51.041 E0.16458
G1 X120.495 Y50.845 E0.17726
G1 X120.103 Y50.715 E0.19100
G1 X119.777 Y50.519 E0.20365
G1 X119.516 Y50.519 E0.21234
G1 X118.863 Y50.127 E0.23768
G1 X118.471 Y49.996 E0.25142
G1 X117.818 Y49.605 E0.27675
G1 X117.426 Y49.474 E0.29049
G1 X117.164 Y49.213 E0.30278
G1 X115.205 Y48.037 E0.37878
G1 X114.944 Y47.776 E0.39107
G1 X114.291 Y47.384 E0.41640
G1 X114.029 Y47.123 E0.42869
G1 X113.376 Y46.731 E0.45403
G1 X113.115 Y46.470 E0.46631
G1 X112.462 Y46.078 E0.49165
G1 X112.200 Y45.816 E0.50394
G1 X110.241 Y44.641 E0.57994
G1 X109.849 Y44.510 E0.59368
G1 X109.522 Y44.314 E0.60636
G1 X109.130 Y44.183 E0.62010
G1 X108.804 Y43.988 E0.63275
G1 X108.020 Y43.726 E0.66023
G1 X107.890 Y43.596 E0.66637
G1 X107.628 Y43.596 E0.67506
G1 X107.498 Y43.465 E0.68121
G1 X107.237 Y43.465 E0.68990
G1 X107.106 Y43.334 E0.69604
G1 X106.649 Y43.269 E0.71141
G1 X106.257 Y43.138 E0.72515
G1 X105.800 Y43.073 E0.74050
G1 X105.669 Y42.943 E0.74665
G1 X105.147 Y42.943 E0.76403
G1 X105.016 Y42.812 E0.77017
G1 X104.493 Y42.812 E0.78755
G1 X104.102 Y42.681 E0.80129
G1 X103.579 Y42.681 E0.81867
G1 X103.448 Y42.551 E0.82481
G1 X101.881 Y42.551 E0.87695
G1 X101.750 Y42.420 E0.88309
G1 X100.966 Y42.420 E0.90916
G1 X100.836 Y42.551 E0.91530
G1 X99.268 Y42.551 E0.96744
G1 X98.354 Y42.681 E0.99816
G1 X98.093 Y42.681 E1.00685
G1 X97.962 Y42.812 E1.01300
G1 X97.439 Y42.812 E1.03038
G1 X97.048 Y42.943 E1.04412
G1 X96.525 Y42.943 E1.06149
G1 X96.394 Y43.073 E1.06764
G1 X95.872 Y43.073 E1.08502
G1 X95.741 Y43.204 E1.09116
G1 X95.219 Y43.204 E1.10854
G1 X95.088 Y43.334 E1.11468
G1 X94.566 Y43.334 E1.13206
G1 X94.435 Y43.465 E1.13821
G1 X93.913 Y43.465 E1.15559
G1 X93.521 Y43.596 E1.16933
G1 X92.998 Y43.596 E1.18671
G1 X92.606 Y43.726 E1.20044
G1 X90.777 Y43.988 E1.26189
G1 X90.255 Y43.988 E1.27927
G1 X90.124 Y44.118 E1.28541
G1 X89.602 Y44.118 E1.30279
G1 X89.210 Y44.249 E1.31653
G1 X87.904 Y44.249 E1.35998
G1 X87.773 Y44.379 E1.36612
G1 X87.250 Y44.379 E1.38350
G1 X86.336 Y44.510 E1.41422
G1 X85.030 Y44.510 E1.45767
G1 X84.899 Y44.641 E1.46381
G1 X83.332 Y44.641 E1.51595
G1 X82.417 Y44.771 E1.54667
G1 X79.805 Y44.771 E1.63357
G1 X78.629 Y44.379 E1.67478
G1 X78.302 Y44.183 E1.68746
G1 X74.122 Y40.003 E1.88408
G1 X69.942 Y35.823 E2.08070
G1 X69.550 Y35.170 E2.10604
G1 X69.289 Y34.386 E2.13351
G1 X69.289 Y32.819 E2.18565
G1 X69.419 Y32.688 E2.19179
G1 X69.419 Y32.427 E2.20048
G1 X70.008 Y31.447 E2.23850
G1 X74.188 Y27.267 E2.43512
G1 X78.368 Y23.087 E2.63174
G1 X78.760 Y22.956 E2.64547
G1 X78.890 Y22.825 E2.65162
G1 X79.152 Y22.825 E2.66031
G1 X79.282 Y22.695 E2.66645
G1 X80.197 Y22.564 E2.69717
G1 X82.287 Y22.564 E2.76669
G1 X83.201 Y22.433 E2.79741
G1 X84.769 Y22.433 E2.84955
G1 X84.899 Y22.303 E2.85569
G1 X85.944 Y22.303 E2.89045
G1 X86.859 Y22.172 E2.92117
G1 X87.381 Y22.172 E2.93855
G1 X87.773 Y22.041 E2.95229
G1 X88.557 Y22.041 E2.97836
G1 X88.687 Y21.911 E2.98450
G1 X89.210 Y21.911 E3.00188
G1 X90.124 Y21.780 E3.03260
G1 X90.647 Y21.780 E3.04998
G1 X90.777 Y21.650 E3.05613
G1 X91.300 Y21.650 E3.07351
G1 X91.692 Y21.519 E3.08724
G1 X92.214 Y21.519 E3.10462
G1 X92.345 Y21.388 E3.11077
G1 X92.867 Y21.388 E3.12815
G1 X93.259 Y21.258 E3.14189
G1 X94.174 Y21.127 E3.17261
G1 X94.566 Y20.996 E3.18635
G1 X95.480 Y20.866 E3.21707
G1 X95.872 Y20.735 E3.23081
G1 X96.133 Y20.735 E3.23950
G1 X96.264 Y20.605 E3.24564
G1 X96.786 Y20.605 E3.26302
G1 X96.917 Y20.474 E3.26916
G1 X97.831 Y20.343 E3.29989
G1 X97.962 Y20.213 E3.30603
G1 X98.876 Y20.082 E3.33675
G1 X99.007 Y19.951 E3.34290
G1 X99.921 Y19.821 E3.37362
G1 X100.052 Y19.690 E3.37976
G1 X100.313 Y19.690 E3.38845
G1 X100.444 Y19.560 E3.39460
G1 X100.901 Y19.494 E3.40995
G1 X101.293 Y19.364 E3.42369
G1 X101.750 Y19.298 E3.43906
G1 X101.881 Y19.168 E3.44520
G1 X102.142 Y19.168 E3.45389
G1 X102.273 Y19.037 E3.46004
G1 X102.534 Y19.037 E3.46873
G1 X102.665 Y18.906 E3.47487
G1 X102.926 Y18.906 E3.48356
G1 X103.056 Y18.776 E3.48970
G1 X103.513 Y18.711 E3.50505
G1 X105.865 Y17.927 E3.58749
G1 X106.192 Y17.731 E3.60017
G1 X106.453 Y17.731 E3.60886
G1 X106.583 Y17.600 E3.61500
G1 X106.845 Y17.600 E3.62369
G1 X107.171 Y17.404 E3.63635
G1 X107.563 Y17.274 E3.65009
G1 X107.890 Y17.078 E3.66276
G1 X108.151 Y17.078 E3.67145
G1 X108.477 Y16.882 E3.68411
G1 X108.869 Y16.751 E3.69785
G1 X109.196 Y16.555 E3.71053
G1 X109.457 Y16.555 E3.71922
G1 X110.110 Y16.163 E3.74455
G1 X110.372 Y16.163 E3.75324
G1 X111.025 Y15.771 E3.77857
G1 X111.809 Y15.510 E3.80605
G1 X112.462 Y15.118 E3.83139
G1 X112.723 Y15.118 E3.84008
G1 X113.376 Y14.726 E3.86541
G1 X113.768 Y14.596 E3.87915
G1 X114.421 Y14.204 E3.90448
G1 X114.813 Y14.073 E3.91822
G1 X115.466 Y13.681 E3.94356
G1 X115.858 Y13.551 E3.95729
G1 X116.119 Y13.289 E3.96958
G1 X116.511 Y13.159 E3.98332
G1 X117.164 Y12.767 E4.00866
G1 X117.556 Y12.636 E4.02240
G1 X122.781 Y9.501 E4.22507
G1 X123.043 Y9.240 E4.23736
G1 X124.349 Y8.456 E4.28802
G1 X124.610 Y8.195 E4.30031
G1 X124.936 Y7.999 E4.31297
G1 X125.198 Y7.738 E4.32526
G1 X125.525 Y7.542 E4.33793
G1 X125.786 Y7.280 E4.35022
G1 X126.765 Y6.693 E4.38821
G1 X127.027 Y6.432 E4.40050
G1 X127.353 Y6.235 E4.41318
G1 X127.876 Y5.713 E4.43776
G1 X128.529 Y5.321 E4.46309
G1 X128.790 Y5.060 E4.47538
G1 X129.117 Y4.864 E4.48804
G1 X129.508 Y4.733 E4.50178
G1 X129.966 Y4.668 E4.51715
G1 X130.488 Y4.668 E4.53453
G1 X131.272 Y4.929 E4.56200
G1 X131.795 Y5.452 E4.58658
G1 X132.448 Y5.844 E4.61191
G1 X132.709 Y6.105 E4.62420
G1 X133.036 Y6.301 E4.63688
G1 X133.297 Y6.562 E4.64917
G1 X133.624 Y6.758 E4.66183
G1 X133.885 Y7.019 E4.67412
G1 X134.212 Y7.215 E4.68679
G1 X134.473 Y7.477 E4.69908
G1 X135.452 Y8.064 E4.73707
G1 X135.714 Y8.326 E4.74936
G1 X136.367 Y8.717 E4.77470
G1 X136.628 Y8.979 E4.78698
G1 X137.934 Y9.762 E4.83765
G1 X138.196 Y10.024 E4.84994
G1 X138.587 Y10.154 E4.86368
G1 X138.849 Y10.416 E4.87597
G1 X142.768 Y12.767 E5.02797
G1 X143.159 Y12.897 E5.04171
G1 X144.466 Y13.681 E5.09238
G1 X144.858 Y13.812 E5.10612
G1 X145.511 Y14.204 E5.13145
G1 X145.903 Y14.334 E5.14519
G1 X146.556 Y14.726 E5.17052
G1 X146.948 Y14.857 E5.18426
G1 X147.601 Y15.249 E5.20960
G1 X147.993 Y15.379 E5.22334
G1 X148.123 Y15.510 E5.22948
G1 X148.385 Y15.510 E5.23817
G1 X149.038 Y15.902 E5.26351
G1 X149.821 Y16.163 E5.29098
G1 X150.148 Y16.359 E5.30366
G1 X150.540 Y16.490 E5.31740
G1 X150.866 Y16.686 E5.33006
G1 X151.128 Y16.686 E5.33875
G1 X151.455 Y16.882 E5.35143
G1 X151.846 Y17.013 E5.36516
G1 X152.173 Y17.208 E5.37782
G1 X152.957 Y17.469 E5.40530
G1 X153.087 Y17.600 E5.41144
G1 X153.348 Y17.600 E5.42013
G1 X153.479 Y17.731 E5.42628
G1 X153.740 Y17.731 E5.43497
G1 X153.871 Y17.861 E5.44111
G1 X154.132 Y17.861 E5.44980
G1 X154.459 Y18.058 E5.46248
G1 X156.418 Y18.711 E5.53117
G1 X156.875 Y18.776 E5.54653
G1 X157.006 Y18.906 E5.55267
G1 X157.267 Y18.906 E5.56136
G1 X157.594 Y19.103 E5.57404
G1 X157.986 Y19.233 E5.58778
G1 X158.443 Y19.298 E5.60313
G1 X158.574 Y19.429 E5.60927
G1 X158.835 Y19.429 E5.61796
G1 X158.965 Y19.560 E5.62411
G1 X159.880 Y19.690 E5.65483
G1 X160.010 Y19.821 E5.66097
G1 X160.272 Y19.821 E5.66966
G1 X160.402 Y19.951 E5.67581
G1 X160.664 Y19.951 E5.68450
G1 X160.794 Y20.082 E5.69064
G1 X161.709 Y20.213 E5.72136
G1 X161.839 Y20.343 E5.72751
G1 X162.754 Y20.474 E5.75823
G1 X162.884 Y20.605 E5.76437
G1 X163.799 Y20.735 E5.79509
G1 X164.191 Y20.866 E5.80883
G1 X165.105 Y20.996 E5.83956
G1 X165.236 Y21.127 E5.84570
G1 X165.758 Y21.127 E5.86308
G1 X165.889 Y21.258 E5.86922
G1 X166.803 Y21.388 E5.89994
G1 X167.064 Y21.388 E5.90863
G1 X167.195 Y21.519 E5.91478
G1 X167.718 Y21.519 E5.93216
G1 X167.848 Y21.650 E5.93830
G1 X168.371 Y21.650 E5.95568
G1 X168.763 Y21.780 E5.96942
G1 X169.285 Y21.780 E5.98680
G1 X169.677 Y21.911 E6.00054
G1 X170.199 Y21.911 E6.01792
G1 X170.591 Y22.041 E6.03166
G1 X171.114 Y22.041 E6.04904
G1 X171.506 Y22.172 E6.06278
G1 X172.028 Y22.172 E6.08015
G1 X172.943 Y22.303 E6.11088
G1 X173.465 Y22.303 E6.12826
G1 X173.857 Y22.433 E6.14199
G1 X174.902 Y22.433 E6.17675
G1 X175.294 Y22.564 E6.19049
G1 X176.862 Y22.564 E6.24263
G1 X176.992 Y22.695 E6.24877
G1 X180.127 Y22.695 E6.35305
G1 X180.519 Y22.825 E6.36679
G1 X180.977 Y22.891 E6.38216
G1 X181.368 Y23.021 E6.39590
G1 X181.695 Y23.217 E6.40855
G1 X182.087 Y23.348 E6.42229
G1 X186.267 Y27.528 E6.61891
G1 X190.447 Y31.708 E6.81553
G1 X190.643 Y32.035 E6.82821
G1 X190.774 Y32.427 E6.84195
G1 X190.904 Y32.557 E6.84809
G1 X190.904 Y32.819 E6.85678
G1 X191.035 Y32.949 E6.86292
G1 X191.035 Y34.778 E6.92375
G1 X190.904 Y34.909 E6.92990
G1 X190.904 Y35.170 E6.93858
G1 X190.316 Y36.150 E6.97660
G1 X186.136 Y40.330 E7.17322
G1 X182.217 Y44.249 E7.35755
G1 X181.564 Y44.641 E7.38288
G1 X180.780 Y44.902 E7.41036
G1 X177.123 Y44.902 E7.53201
G1 X176.208 Y44.771 E7.56273
G1 X174.902 Y44.771 E7.60618
G1 X174.771 Y44.641 E7.61233
G1 X173.465 Y44.641 E7.65577
G1 X173.335 Y44.510 E7.66192
G1 X172.028 Y44.510 E7.70536
G1 X171.898 Y44.379 E7.71151
G1 X170.853 Y44.379 E7.74627
G1 X170.722 Y44.249 E7.75241
G1 X170.199 Y44.249 E7.76979
G1 X169.285 Y44.118 E7.80051
G1 X169.024 Y44.118 E7.80920
G1 X168.893 Y43.988 E7.81535
G1 X168.109 Y43.988 E7.84141
G1 X167.979 Y43.857 E7.84756
G1 X167.456 Y43.857 E7.86494
G1 X167.064 Y43.726 E7.87868
G1 X166.542 Y43.726 E7.89606
G1 X166.411 Y43.596 E7.90220
G1 X165.889 Y43.596 E7.91958
G1 X165.497 Y43.465 E7.93332
G1 X164.582 Y43.334 E7.96404
G1 X164.191 Y43.204 E7.97778
G1 X163.276 Y43.073 E8.00850
G1 X163.015 Y43.073 E8.01719
G1 X162.884 Y42.943 E8.02333
G1 X162.362 Y42.943 E8.04071
G1 X161.970 Y42.812 E8.05445
G1 X161.447 Y42.812 E8.07183
G1 X161.317 Y42.681 E8.07798
G1 X159.749 Y42.681 E8.13011
G1 X159.619 Y42.551 E8.13626
G1 X158.312 Y42.551 E8.17970
G1 X158.182 Y42.681 E8.18585
G1 X156.614 Y42.681 E8.23798
G1 X156.483 Y42.812 E8.24413
G1 X155.961 Y42.812 E8.26151
G1 X155.569 Y42.943 E8.27525
G1 X154.655 Y43.073 E8.30597
G1 X154.263 Y43.204 E8.31971
G1 X154.002 Y43.204 E8.32840
G1 X153.871 Y43.334 E8.33454
G1 X153.610 Y43.334 E8.34323
G1 X153.479 Y43.465 E8.34938
G1 X153.022 Y43.530 E8.36473
G1 X152.238 Y43.791 E8.39221
G1 X151.912 Y43.988 E8.40488
G1 X151.128 Y44.249 E8.43236
G1 X150.997 Y44.379 E8.43851
G1 X150.736 Y44.379 E8.44720
G1 X149.430 Y45.163 E8.49786
G1 X149.038 Y45.294 E8.51160
G1 X147.731 Y46.078 E8.56227
G1 X147.470 Y46.339 E8.57456
G1 X147.144 Y46.535 E8.58721
G1 X146.883 Y46.796 E8.59950
G1 X146.556 Y46.992 E8.61218
G1 X146.295 Y47.253 E8.62447
G1 X144.988 Y48.037 E8.67514
G1 X144.727 Y48.298 E8.68743
G1 X142.768 Y49.474 E8.76343
G1 X142.637 Y49.605 E8.76957
G1 X142.376 Y49.605 E8.77826
G1 X141.722 Y49.996 E8.80360
G1 X141.331 Y50.127 E8.81734
G1 X140.677 Y50.519 E8.84267
G1 X139.894 Y50.780 E8.87015
G1 X139.763 Y50.911 E8.87629
G1 X139.502 Y50.911 E8.88498
G1 X139.175 Y51.107 E8.89764
G1 X138.392 Y51.368 E8.92511
G1 X137.934 Y51.433 E8.94049
G1 X137.804 Y51.564 E8.94663
G1 X137.542 Y51.564 E8.95532
G1 X137.412 Y51.695 E8.96146
G1 X137.151 Y51.695 E8.97015
G1 X137.020 Y51.825 E8.97630
G1 X136.759 Y51.825 E8.98499
G1 X136.628 Y51.956 E8.99113
G1 X136.105 Y51.956 E9.00851
G1 X135.975 Y52.087 E9.01466
G1 X135.452 Y52.087 E9.03203
G1 X135.322 Y52.217 E9.03818
G1 X133.493 Y52.478 E9.09962
G1 X132.970 Y52.478 E9.11700
G1 X132.840 Y52.609 E9.12315
G1 X131.272 Y52.609 E9.17528
G1 X131.142 Y52.740 E9.18143
G1 X129.052 Y52.740 E9.25094
G1 X128.660 Y52.609 E9.26468
G1 X127.353 Y52.609 E9.30813
G1 X127.223 Y52.478 E9.31427
G1 X126.700 Y52.478 E9.33165
G1 X125.786 Y52.348 E9.36237
G1 X125.525 Y52.348 E9.37106
G1 X125.394 Y52.217 E9.37721
G0 X125.394 Y52.217 F5400
G0 F3000 E8.37721
G0 X129.052 Y33.014 F5400
G0 F3000 E9.37721
G1 X131.272 Y33.014 E9.45107 F2400
G1 X131.403 Y32.884 E9.45721
G1 X131.925 Y32.884 E9.47459
G1 X132.840 Y32.753 E9.50531
G1 X133.232 Y32.622 E9.51905
G1 X133.427 Y31.251 E9.56513
G1 X133.297 Y31.120 E9.57127
G1 X133.297 Y30.075 E9.60603
G1 X132.579 Y30.010 E9.63001
G1 X132.448 Y29.880 E9.63616
G1 X131.925 Y29.880 E9.65354
G1 X131.533 Y29.749 E9.66727
G1 X128.921 Y29.749 E9.75417
G1 X128.529 Y29.880 E9.76791
G1 X128.007 Y29.880 E9.78529
G1 X127.615 Y30.010 E9.79903
G1 X127.353 Y30.010 E9.80772
G1 X127.158 Y30.337 E9.82037
G1 X127.027 Y30.729 E9.83411
G1 X127.027 Y31.774 E9.86887
G1 X127.092 Y32.230 E9.88422
G1 X127.223 Y32.622 E9.89796
G1 X127.615 Y32.753 E9.91170
G1 X128.137 Y32.753 E9.92908
G1 X128.268 Y32.884 E9.93522
G1 X128.790 Y32.884 E9.95260
G1 X129.052 Y33.014 E9.96232
G0 X129.052 Y33.014 F5400
G0 X129.182 Y33.406
G1 X131.272 Y33.406 E10.03183 F2400
G1 X131.403 Y33.276 E10.03798
G1 X131.925 Y33.276 E10.05535
G1 X132.840 Y33.145 E10.08608
G1 X133.232 Y33.014 E10.09982
G1 X133.689 Y32.688 E10.11849
G1 X133.689 Y32.165 E10.13587
G1 X133.819 Y31.251 E10.16659
G1 X133.689 Y31.120 E10.17274
G1 X133.689 Y30.075 E10.20749
G1 X133.493 Y29.749 E10.22015
G1 X133.101 Y29.618 E10.23389
G1 X132.579 Y29.618 E10.25127
G1 X132.448 Y29.488 E10.25741
G1 X131.925 Y29.488 E10.27479
G1 X131.533 Y29.357 E10.28853
G1 X128.921 Y29.357 E10.37542
G1 X128.529 Y29.488 E10.38916
G1 X128.007 Y29.488 E10.40654
G1 X127.615 Y29.618 E10.42028
G1 X127.353 Y29.618 E10.42897
G1 X127.223 Y29.749 E10.43512
G1 X126.766 Y29.814 E10.45047
G1 X126.766 Y30.337 E10.46785
G1 X126.635 Y30.729 E10.48159
G1 X126.635 Y31.774 E10.51634
G1 X126.766 Y32.688 E10.54707
G1 X126.831 Y32.884 E10.55392
G1 X127.484 Y33.145 E10.57732
G1 X128.137 Y33.145 E10.59904
G1 X128.268 Y33.276 E10.60519
G1 X128.790 Y33.276 E10.62257
G1 X129.182 Y33.406 E10.63631
G0 X129.182 Y33.406 F5400
G0 F3000 E9.63631
G0 X126.308 Y52.087 F5400
G0 F3000 E10.63631
G1 X126.178 Y51.956 E10.64245 F2400
G1 X125.655 Y51.956 E10.65983
G1 X125.263 Y51.825 E10.67357
G1 X124.349 Y51.695 E10.70429
G1 X124.218 Y51.564 E10.71044
G1 X123.696 Y51.564 E10.72781
G1 X123.565 Y51.433 E10.73396
G1 X123.304 Y51.433 E10.74265
G1 X123.173 Y51.303 E10.74879
G1 X122.716 Y51.237 E10.76416
G1 X120.756 Y50.584 E10.83286
G1 X120.430 Y50.388 E10.84551
G1 X120.169 Y50.388 E10.85420
G1 X119.842 Y50.192 E10.86688
G1 X119.450 Y50.062 E10.88062
G1 X119.124 Y49.866 E10.89328
G1 X118.732 Y49.735 E10.90702
G1 X118.079 Y49.343 E10.93235
G1 X117.687 Y49.213 E10.94609
G1 X117.034 Y48.821 E10.97143
G1 X116.772 Y48.560 E10.98371
G1 X116.381 Y48.429 E10.99745
G1 X116.119 Y48.168 E11.00974
G1 X115.727 Y48.037 E11.02348
G1 X115.466 Y47.776 E11.03577
G1 X114.813 Y47.384 E11.06110
G1 X114.552 Y47.123 E11.07339
G1 X113.899 Y46.731 E11.09873
G1 X113.637 Y46.470 E11.11102
G1 X112.984 Y46.078 E11.13635
G1 X112.723 Y45.816 E11.14864
G1 X112.396 Y45.620 E11.16132
G1 X112.135 Y45.359 E11.17361
G1 X111.155 Y44.771 E11.21160
G1 X110.764 Y44.641 E11.22533
G1 X110.502 Y44.379 E11.23762
G1 X110.110 Y44.249 E11.25136
G1 X109.457 Y43.857 E11.27670
G1 X109.196 Y43.857 E11.28539
G1 X108.543 Y43.465 E11.31072
G1 X108.282 Y43.465 E11.31941
G1 X107.955 Y43.269 E11.33209
G1 X107.171 Y43.008 E11.35957
G1 X106.714 Y42.943 E11.37492
G1 X106.583 Y42.812 E11.38106
G1 X106.322 Y42.812 E11.38975
G1 X106.192 Y42.681 E11.39589
G1 X105.277 Y42.551 E11.42662
G1 X104.885 Y42.420 E11.44036
G1 X104.363 Y42.420 E11.45773
G1 X104.232 Y42.289 E11.46388
G1 X103.710 Y42.289 E11.48126
G1 X103.318 Y42.159 E11.49500
G1 X102.273 Y42.159 E11.52976
G1 X101.358 Y42.028 E11.56048
G1 X100.444 Y42.159 E11.59120
G1 X98.876 Y42.159 E11.64334
G1 X98.746 Y42.289 E11.64948
G1 X98.223 Y42.289 E11.66686
G1 X97.831 Y42.420 E11.68060
G1 X97.309 Y42.420 E11.69798
G1 X97.178 Y42.551 E11.70412
G1 X96.656 Y42.551 E11.72150
G1 X96.264 Y42.681 E11.73524
G1 X95.349 Y42.812 E11.76596
G1 X94.958 Y42.943 E11.77970
G1 X94.043 Y43.073 E11.81042
G1 X93.782 Y43.073 E11.81911
G1 X93.651 Y43.204 E11.82526
G1 X92.867 Y43.204 E11.85132
G1 X92.737 Y43.334 E11.85747
G1 X92.214 Y43.334 E11.87485
G1 X92.084 Y43.465 E11.88099
G1 X91.300 Y43.465 E11.90706
G1 X91.169 Y43.596 E11.91321
G1 X90.647 Y43.596 E11.93058
G1 X89.732 Y43.726 E11.96131
G1 X89.471 Y43.726 E11.97000
G1 X89.341 Y43.857 E11.97614
G1 X88.295 Y43.857 E12.01090
G1 X87.381 Y43.988 E12.04162
G1 X86.859 Y43.988 E12.05900
G1 X86.728 Y44.118 E12.06514
G1 X85.160 Y44.118 E12.11728
G1 X84.769 Y44.249 E12.13102
G1 X82.940 Y44.249 E12.19185
G1 X82.809 Y44.379 E12.19799
G1 X79.674 Y44.379 E12.30226
G1 X79.543 Y44.249 E12.30841
G1 X79.282 Y44.249 E12.31710
G1 X79.152 Y44.118 E12.32324
G1 X78.890 Y44.118 E12.33193
G1 X78.237 Y43.726 E12.35726
G1 X74.057 Y39.546 E12.55388
G1 X70.399 Y35.889 E12.72593
G1 X69.811 Y34.909 E12.76394
G1 X69.811 Y34.647 E12.77263
G1 X69.681 Y34.517 E12.77877
G1 X69.681 Y32.949 E12.83091
G1 X69.942 Y32.165 E12.85839
G1 X70.334 Y31.512 E12.88372
G1 X74.514 Y27.332 E13.08034
G1 X78.172 Y23.675 E13.25238
G1 X78.825 Y23.283 E13.27771
G1 X79.217 Y23.152 E13.29145
G1 X79.674 Y23.087 E13.30682
G1 X79.805 Y22.956 E13.31297
G1 X82.678 Y22.956 E13.40855
G1 X82.809 Y22.825 E13.41470
G1 X84.377 Y22.825 E13.46683
G1 X85.291 Y22.695 E13.49756
G1 X86.336 Y22.695 E13.53231
G1 X86.467 Y22.564 E13.53846
G1 X87.512 Y22.564 E13.57322
G1 X87.642 Y22.433 E13.57936
G1 X88.165 Y22.433 E13.59674
G1 X89.079 Y22.303 E13.62746
G1 X89.602 Y22.303 E13.64484
G1 X89.732 Y22.172 E13.65098
G1 X90.255 Y22.172 E13.66836
G1 X91.169 Y22.041 E13.69908
G1 X91.431 Y22.041 E13.70777
G1 X91.561 Y21.911 E13.71392
G1 X92.084 Y21.911 E13.73130
G1 X92.476 Y21.780 E13.74504
G1 X92.998 Y21.780 E13.76241
G1 X93.129 Y21.650 E13.76856
G1 X93.651 Y21.650 E13.78594
G1 X93.782 Y21.519 E13.79208
G1 X94.304 Y21.519 E13.80946
G1 X94.435 Y21.388 E13.81561
G1 X94.958 Y21.388 E13.83298
G1 X95.088 Y21.258 E13.83913
G1 X95.611 Y21.258 E13.85651
G1 X95.741 Y21.127 E13.86265
G1 X96.656 Y20.996 E13.89337
G1 X97.048 Y20.866 E13.90711
G1 X97.309 Y20.866 E13.91580
G1 X97.439 Y20.735 E13.92195
G1 X98.354 Y20.605 E13.95267
G1 X98.485 Y20.474 E13.95881
G1 X99.399 Y20.343 E13.98954
G1 X99.530 Y20.213 E13.99568
G1 X99.986 Y20.148 E14.01103
G1 X100.378 Y20.017 E14.02477
G1 X100.836 Y19.951 E14.04014
G1 X100.966 Y19.821 E14.04629
G1 X101.228 Y19.821 E14.05497
G1 X101.358 Y19.690 E14.06112
G1 X101.815 Y19.625 E14.07647
G1 X102.991 Y19.233 E14.11769
G1 X103.448 Y19.168 E14.13306
G1 X103.579 Y19.037 E14.13920
G1 X103.840 Y19.037 E14.14789
G1 X103.971 Y18.906 E14.15404
G1 X104.232 Y18.906 E14.16273
G1 X104.363 Y18.776 E14.16887
G1 X104.624 Y18.776 E14.17756
G1 X104.755 Y18.645 E14.18371
G1 X105.016 Y18.645 E14.19239
G1 X105.147 Y18.515 E14.19854
G1 X105.408 Y18.515 E14.20723
G1 X105.538 Y18.384 E14.21337
G1 X105.800 Y18.384 E14.22206
G1 X106.126 Y18.188 E14.23472
G1 X106.910 Y17.927 E14.26219
G1 X107.237 Y17.731 E14.27487
G1 X107.498 Y17.731 E14.28356
G1 X107.824 Y17.535 E14.29622
G1 X108.216 Y17.404 E14.30996
G1 X108.543 Y17.208 E14.32263
G1 X108.804 Y17.208 E14.33132
G1 X109.130 Y17.013 E14.34398
G1 X109.522 Y16.882 E14.35772
G1 X109.849 Y16.686 E14.37040
G1 X110.633 Y16.424 E14.39788
G1 X111.286 Y16.033 E14.42321
G1 X111.547 Y16.033 E14.43190
G1 X112.200 Y15.641 E14.45723
G1 X112.984 Y15.379 E14.48471
G1 X113.637 Y14.988 E14.51005
G1 X114.029 Y14.857 E14.52379
G1 X114.682 Y14.465 E14.54912
G1 X115.074 Y14.334 E14.56286
G1 X116.381 Y13.551 E14.61353
G1 X116.772 Y13.420 E14.62727
G1 X117.426 Y13.028 E14.65260
G1 X117.818 Y12.897 E14.66634
G1 X118.079 Y12.636 E14.67863
G1 X118.471 Y12.506 E14.69237
G1 X118.732 Y12.244 E14.70466
G1 X119.124 Y12.114 E14.71840
G1 X121.736 Y10.546 E14.81973
G1 X121.998 Y10.285 E14.83202
G1 X122.389 Y10.154 E14.84576
G1 X122.651 Y9.893 E14.85805
G1 X123.957 Y9.109 E14.90872
G1 X124.218 Y8.848 E14.92101
G1 X124.871 Y8.456 E14.94634
G1 X125.133 Y8.195 E14.95863
G1 X125.459 Y7.999 E14.97128
G1 X125.720 Y7.738 E14.98357
G1 X126.700 Y7.150 E15.02159
G1 X127.223 Y6.627 E15.04616
G1 X127.549 Y6.432 E15.05882
G1 X127.810 Y6.170 E15.07111
G1 X128.137 Y5.974 E15.08379
G1 X128.398 Y5.713 E15.09607
G1 X129.052 Y5.321 E15.12141
G1 X129.182 Y5.190 E15.12755
G1 X129.443 Y5.190 E15.13624
G1 X129.574 Y5.060 E15.14239
G1 X130.619 Y5.060 E15.17714
G1 X130.750 Y5.190 E15.18329
G1 X131.011 Y5.190 E15.19198
G1 X131.338 Y5.387 E15.20466
G1 X131.599 Y5.648 E15.21694
G1 X131.925 Y5.844 E15.22960
G1 X132.187 Y6.105 E15.24189
G1 X132.513 Y6.301 E15.25457
G1 X132.775 Y6.562 E15.26686
G1 X133.101 Y6.758 E15.27951
G1 X133.362 Y7.019 E15.29180
G1 X134.015 Y7.411 E15.31713
G1 X134.538 Y7.934 E15.34171
G1 X135.844 Y8.717 E15.39238
G1 X136.105 Y8.979 E15.40467
G1 X136.759 Y9.371 E15.43000
G1 X137.020 Y9.632 E15.44229
G1 X138.979 Y10.807 E15.51829
G1 X139.241 Y11.069 E15.53058
G1 X139.632 Y11.199 E15.54432
G1 X139.894 Y11.461 E15.55661
G1 X141.200 Y12.244 E15.60728
G1 X141.592 Y12.375 E15.62102
G1 X141.853 Y12.636 E15.63330
G1 X142.245 Y12.767 E15.64704
G1 X142.506 Y13.028 E15.65933
G1 X142.898 Y13.159 E15.67307
G1 X144.204 Y13.943 E15.72374
G1 X144.596 Y14.073 E15.73748
G1 X145.249 Y14.465 E15.76281
G1 X145.641 Y14.596 E15.77655
G1 X146.295 Y14.988 E15.80189
G1 X146.686 Y15.118 E15.81562
G1 X147.340 Y15.510 E15.84096
G1 X147.731 Y15.641 E15.85470
G1 X148.058 Y15.837 E15.86738
G1 X148.450 Y15.968 E15.88111
G1 X148.776 Y16.163 E15.89377
G1 X149.168 Y16.294 E15.90751
G1 X149.299 Y16.424 E15.91365
G1 X149.560 Y16.424 E15.92234
G1 X150.213 Y16.816 E15.94768
G1 X150.475 Y16.816 E15.95637
G1 X150.801 Y17.013 E15.96904
G1 X151.193 Y17.143 E15.98278
G1 X151.520 Y17.339 E15.99544
G1 X151.781 Y17.339 E16.00413
G1 X152.434 Y17.731 E16.02946
G1 X152.695 Y17.731 E16.03815
G1 X153.022 Y17.927 E16.05083
G1 X154.198 Y18.319 E16.09205
G1 X154.524 Y18.515 E16.10470
G1 X154.785 Y18.515 E16.11339
G1 X154.916 Y18.645 E16.11953
G1 X155.177 Y18.645 E16.12822
G1 X155.308 Y18.776 E16.13437
G1 X155.569 Y18.776 E16.14306
G1 X155.700 Y18.906 E16.14920
G1 X155.961 Y18.906 E16.15789
G1 X156.092 Y19.037 E16.16404
G1 X156.353 Y19.037 E16.17273
G1 X156.483 Y19.168 E16.17887
G1 X156.941 Y19.233 E16.19424
G1 X157.333 Y19.364 E16.20798
G1 X157.659 Y19.560 E16.22064
G1 X157.920 Y19.560 E16.22932
G1 X158.051 Y19.690 E16.23547
G1 X158.508 Y19.756 E16.25084
G1 X158.900 Y19.886 E16.26458
G1 X159.357 Y19.951 E16.27993
G1 X159.488 Y20.082 E16.28607
G1 X159.945 Y20.148 E16.30144
G1 X160.729 Y20.409 E16.32892
G1 X161.186 Y20.474 E16.34428
G1 X161.317 Y20.605 E16.35042
G1 X162.231 Y20.735 E16.38114
G1 X162.362 Y20.866 E16.38728
G1 X163.276 Y20.996 E16.41801
G1 X163.407 Y21.127 E16.42415
G1 X163.929 Y21.127 E16.44153
G1 X164.060 Y21.258 E16.44767
G1 X164.582 Y21.258 E16.46505
G1 X164.713 Y21.388 E16.47120
G1 X165.627 Y21.519 E16.50192
G1 X166.019 Y21.650 E16.51566
G1 X166.281 Y21.650 E16.52435
G1 X166.411 Y21.780 E16.53049
G1 X166.934 Y21.780 E16.54787
G1 X167.326 Y21.911 E16.56161
G1 X168.240 Y22.041 E16.59233
G1 X168.501 Y22.041 E16.60102
G1 X168.632 Y22.172 E16.60717
G1 X169.416 Y22.172 E16.63323
G1 X169.546 Y22.303 E16.63938
G1 X170.330 Y22.303 E16.66545
G1 X170.461 Y22.433 E16.67159
G1 X171.245 Y22.433 E16.69766
G1 X171.375 Y22.564 E16.70380
G1 X172.420 Y22.564 E16.73856
G1 X172.551 Y22.695 E16.74471
G1 X173.596 Y22.695 E16.77946
G1 X173.726 Y22.825 E16.78561
G1 X175.033 Y22.825 E16.82905
G1 X175.163 Y22.956 E16.83520
G1 X176.731 Y22.956 E16.88734
G1 X177.123 Y23.087 E16.90108
G1 X180.258 Y23.087 E17.00535
G1 X180.388 Y23.217 E17.01149
G1 X180.911 Y23.217 E17.02887
G1 X181.042 Y23.348 E17.03502
G1 X181.303 Y23.348 E17.04371
G1 X182.283 Y23.936 E17.08172
G1 X186.463 Y28.116 E17.27834
G1 X190.121 Y31.774 E17.45038
G1 X190.251 Y32.165 E17.46412
G1 X190.447 Y32.492 E17.47677
G1 X190.578 Y32.884 E17.49051
G1 X190.643 Y33.341 E17.50588
G1 X190.643 Y34.386 E17.54064
G1 X190.578 Y34.844 E17.55601
G1 X190.447 Y35.235 E17.56975
G1 X189.859 Y36.215 E17.60774
G1 X185.679 Y40.395 E17.80436
G1 X182.283 Y43.791 E17.96411
G1 X181.303 Y44.379 E18.00213
G1 X181.042 Y44.379 E18.01082
G1 X180.911 Y44.510 E18.01696
G1 X176.731 Y44.510 E18.15599
G1 X176.600 Y44.379 E18.16213
G1 X175.033 Y44.379 E18.21427
G1 X174.641 Y44.249 E18.22801
G1 X173.596 Y44.249 E18.26277
G1 X173.204 Y44.118 E18.27651
G1 X172.159 Y44.118 E18.31127
G1 X171.767 Y43.988 E18.32501
G1 X171.245 Y43.988 E18.34238
G1 X170.330 Y43.857 E18.37310
G1 X169.808 Y43.857 E18.39048
G1 X169.677 Y43.726 E18.39663
G1 X169.154 Y43.726 E18.41401
G1 X168.763 Y43.596 E18.42775
G1 X168.240 Y43.596 E18.44513
G1 X167.848 Y43.465 E18.45886
G1 X167.326 Y43.465 E18.47624
G1 X167.195 Y43.334 E18.48239
G1 X166.673 Y43.334 E18.49977
G1 X166.281 Y43.204 E18.51350
G1 X165.758 Y43.204 E18.53088
G1 X165.627 Y43.073 E18.53703
G1 X165.105 Y43.073 E18.55441
G1 X164.974 Y42.943 E18.56055
G1 X164.452 Y42.943 E18.57793
G1 X164.321 Y42.812 E18.58407
G1 X163.799 Y42.812 E18.60145
G1 X163.668 Y42.681 E18.60760
G1 X163.146 Y42.681 E18.62498
G1 X162.754 Y42.551 E18.63871
G1 X162.231 Y42.551 E18.65609
G1 X162.101 Y42.420 E18.66224
G1 X161.578 Y42.420 E18.67962
G1 X161.186 Y42.289 E18.69336
G1 X160.141 Y42.289 E18.72811
G1 X159.227 Y42.159 E18.75884
G1 X158.704 Y42.159 E18.77621
G1 X157.790 Y42.289 E18.80693
G1 X156.745 Y42.289 E18.84169
G1 X156.353 Y42.420 E18.85543
G1 X155.830 Y42.420 E18.87281
G1 X155.700 Y42.551 E18.87895
G1 X155.177 Y42.551 E18.89633
G1 X155.047 Y42.681 E18.90248
G1 X154.524 Y42.681 E18.91986
G1 X154.393 Y42.812 E18.92600
G1 X153.937 Y42.877 E18.94135
G1 X153.545 Y43.008 E18.95509
G1 X153.087 Y43.073 E18.97046
G1 X152.957 Y43.204 E18.97661
G1 X152.695 Y43.204 E18.98529
G1 X152.565 Y43.334 E18.99144
G1 X152.303 Y43.334 E19.00013
G1 X151.650 Y43.726 E19.02546
G1 X151.389 Y43.726 E19.03415
G1 X151.063 Y43.922 E19.04681
G1 X150.671 Y44.053 E19.06055
G1 X150.344 Y44.249 E19.07323
G1 X149.952 Y44.379 E19.08696
G1 X149.691 Y44.641 E19.09925
G1 X149.299 Y44.771 E19.11299
G1 X147.666 Y45.751 E19.17631
G1 X147.405 Y46.012 E19.18860
G1 X147.078 Y46.208 E19.20128
G1 X146.817 Y46.470 E19.21357
G1 X146.164 Y46.861 E19.23890
G1 X145.903 Y47.123 E19.25119
G1 X144.596 Y47.906 E19.30186
G1 X144.335 Y48.168 E19.31415
G1 X142.702 Y49.147 E19.37747
G1 X142.311 Y49.278 E19.39121
G1 X141.984 Y49.474 E19.40389
G1 X141.592 Y49.605 E19.41763
G1 X140.939 Y49.996 E19.44296
G1 X140.547 Y50.127 E19.45670
G1 X140.416 Y50.258 E19.46284
G1 X140.155 Y50.258 E19.47153
G1 X139.829 Y50.453 E19.48419
G1 X139.437 Y50.584 E19.49793
G1 X139.110 Y50.780 E19.51061
G1 X138.849 Y50.780 E19.51930
G1 X138.718 Y50.911 E19.52544
G1 X138.457 Y50.911 E19.53413
G1 X138.326 Y51.041 E19.54027
G1 X137.869 Y51.107 E19.55562
G1 X136.694 Y51.498 E19.59684
G1 X136.236 Y51.564 E19.61221
G1 X135.844 Y51.695 E19.62595
G1 X134.930 Y51.825 E19.65667
G1 X134.799 Y51.956 E19.66282
G1 X134.015 Y51.956 E19.68889
G1 X133.885 Y52.087 E19.69503
G1 X133.362 Y52.087 E19.71241
G1 X132.448 Y52.217 E19.74313
G1 X131.403 Y52.217 E19.77789
G1 X131.011 Y52.348 E19.79163
G1 X128.921 Y52.348 E19.86114
G1 X128.790 Y52.217 E19.86729
G1 X127.745 Y52.217 E19.90204
G1 X126.831 Y52.087 E19.93277
G1 X126.308 Y52.087 E19.95015
G0 X126.308 Y52.087 F5400
G0 X126.178 Y51.564
G1 X125.655 Y51.564 E19.96753 F2400
G1 X125.263 Y51.433 E19.98126
G1 X124.349 Y51.303 E20.01199
G1 X124.218 Y51.172 E20.01813
G1 X123.696 Y51.172 E20.03551
G1 X123.565 Y51.041 E20.04165
G1 X123.304 Y51.041 E20.05034
G1 X123.173 Y50.911 E20.05649
G1 X122.716 Y50.845 E20.07186
G1 X120.756 Y50.192 E20.14056
G1 X120.430 Y49.996 E20.15321
G1 X120.169 Y49.996 E20.16190
G1 X119.842 Y49.800 E20.17458
G1 X119.450 Y49.670 E20.18832
G1 X119.124 Y49.474 E20.20097
G1 X118.732 Y49.343 E20.21471
G1 X118.079 Y48.951 E20.24004
G1 X117.687 Y48.821 E20.25378
G1 X117.034 Y48.429 E20.27912
G1 X116.772 Y48.168 E20.29141
G1 X116.381 Y48.037 E20.30514
G1 X116.119 Y47.776 E20.31743
G1 X115.727 Y47.645 E20.33117
G1 X115.466 Y47.384 E20.34346
G1 X114.813 Y46.992 E20.36879
G1 X114.552 Y46.731 E20.38108
G1 X113.899 Y46.339 E20.40642
G1 X113.637 Y46.078 E20.41871
G1 X112.984 Y45.686 E20.44404
G1 X112.723 Y45.424 E20.45633
G1 X112.396 Y45.228 E20.46901
G1 X112.135 Y44.967 E20.48130
G1 X111.155 Y44.379 E20.51928
G1 X110.764 Y44.249 E20.53302
G1 X110.502 Y43.988 E20.54531
G1 X110.110 Y43.857 E20.55905
G1 X109.457 Y43.465 E20.58438
G1 X109.196 Y43.465 E20.59307
G1 X108.543 Y43.073 E20.61841
G1 X108.282 Y43.073 E20.62710
G1 X107.955 Y42.877 E20.63977
G1 X107.171 Y42.616 E20.66725
G1 X106.714 Y42.551 E20.68261
G1 X106.583 Y42.420 E20.68875
G1 X106.322 Y42.420 E20.69744
G1 X106.192 Y42.289 E20.70358
G1 X105.277 Y42.159 E20.73431
G1 X104.885 Y42.028 E20.74804
G1 X104.363 Y42.028 E20.76542
G1 X104.232 Y41.898 E20.77157
G1 X103.710 Y41.898 E20.78894
G1 X103.318 Y41.767 E20.80268
G1 X102.273 Y41.767 E20.83744
G1 X101.358 Y41.636 E20.86816
G1 X100.444 Y41.767 E20.89888
G1 X98.876 Y41.767 E20.95102
G1 X98.746 Y41.898 E20.95717
G1 X98.223 Y41.898 E20.97455
G1 X97.831 Y42.028 E20.98828
G1 X97.309 Y42.028 E21.00566
G1 X97.178 Y42.159 E21.01181
G1 X96.656 Y42.159 E21.02919
G1 X96.264 Y42.289 E21.04293
G1 X95.349 Y42.420 E21.07365
G1 X94.958 Y42.551 E21.08739
G1 X94.043 Y42.681 E21.11811
G1 X93.782 Y42.681 E21.12680
G1 X93.651 Y42.812 E21.13294
G1 X92.867 Y42.812 E21.15901
G1 X92.737 Y42.943 E21.16515
G1 X92.214 Y42.943 E21.18253
G1 X92.084 Y43.073 E21.18868
G1 X91.300 Y43.073 E21.21474
G1 X91.169 Y43.204 E21.22089
G1 X90.647 Y43.204 E21.23827
G1 X89.732 Y43.334 E21.26899
G1 X89.471 Y43.334 E21.27768
G1 X89.341 Y43.465 E21.28382
G1 X88.295 Y43.465 E21.31858
G1 X87.381 Y43.596 E21.34930
G1 X86.859 Y43.596 E21.36668
G1 X86.728 Y43.726 E21.37282
G1 X85.160 Y43.726 E21.42496
G1 X84.769 Y43.857 E21.43870
G1 X82.940 Y43.857 E21.49953
G1 X82.809 Y43.988 E21.50567
G1 X79.674 Y43.988 E21.60994
G1 X79.543 Y43.857 E21.61609
G1 X79.282 Y43.857 E21.62478
G1 X79.152 Y43.726 E21.63092
G1 X78.890 Y43.726 E21.63961
G1 X78.237 Y43.334 E21.66494
G1 X76.147 Y41.244 E21.76325
G1 X74.057 Y39.154 E21.86156
G1 X71.967 Y37.064 E21.95987
G1 X70.661 Y35.758 E22.02132
G1 X70.464 Y35.431 E22.03400
G1 X70.334 Y35.039 E22.04773
G1 X70.203 Y34.909 E22.05388
G1 X70.203 Y34.647 E22.06257
G1 X70.073 Y34.517 E22.06871
G1 X70.073 Y32.949 E22.12085
G1 X70.334 Y32.165 E22.14833
G1 X70.726 Y31.512 E22.17366
G1 X72.816 Y29.422 E22.27197
G1 X74.906 Y27.332 E22.37028
G1 X76.996 Y25.242 E22.46859
G1 X78.302 Y23.936 E22.53004
G1 X78.629 Y23.740 E22.54271
G1 X79.413 Y23.478 E22.57019
G1 X79.674 Y23.478 E22.57888
G1 X79.805 Y23.348 E22.58503
G1 X82.678 Y23.348 E22.68061
G1 X82.809 Y23.217 E22.68675
G1 X84.377 Y23.217 E22.73889
G1 X85.291 Y23.087 E22.76961
G1 X86.336 Y23.087 E22.80437
G1 X86.467 Y22.956 E22.81051
G1 X87.512 Y22.956 E22.84527
G1 X87.642 Y22.825 E22.85141
G1 X88.165 Y22.825 E22.86879
G1 X89.079 Y22.695 E22.89952
G1 X89.602 Y22.695 E22.91690
G1 X89.732 Y22.564 E22.92304
G1 X90.255 Y22.564 E22.94042
G1 X91.169 Y22.433 E22.97114
G1 X91.431 Y22.433 E22.97983
G1 X91.561 Y22.303 E22.98597
G1 X92.084 Y22.303 E23.00335
G1 X92.476 Y22.172 E23.01709
G1 X92.998 Y22.172 E23.03447
G1 X93.129 Y22.041 E23.04062
G1 X93.651 Y22.041 E23.05799
G1 X93.782 Y21.911 E23.06414
G1 X94.304 Y21.911 E23.08152
G1 X94.435 Y21.780 E23.08766
G1 X94.958 Y21.780 E23.10504
G1 X95.088 Y21.650 E23.11118
G1 X95.611 Y21.650 E23.12856
G1 X95.741 Y21.519 E23.13471
G1 X96.656 Y21.388 E23.16543
G1 X97.048 Y21.258 E23.17917
G1 X97.309 Y21.258 E23.18786
G1 X97.439 Y21.127 E23.19400
G1 X98.354 Y20.996 E23.22472
G1 X98.485 Y20.866 E23.23087
G1 X99.399 Y20.735 E23.26159
G1 X99.530 Y20.605 E23.26773
G1 X99.986 Y20.540 E23.28308
G1 X100.378 Y20.409 E23.29682
G1 X100.836 Y20.343 E23.31219
G1 X100.966 Y20.213 E23.31834
G1 X101.228 Y20.213 E23.32703
G1 X101.358 Y20.082 E23.33317
G1 X101.815 Y20.017 E23.34852
G1 X102.991 Y19.625 E23.38974
G1 X103.448 Y19.560 E23.40511
G1 X103.579 Y19.429 E23.41125
G1 X103.840 Y19.429 E23.41994
G1 X103.971 Y19.298 E23.42609
G1 X104.232 Y19.298 E23.43478
G1 X104.363 Y19.168 E23.44092
G1 X104.624 Y19.168 E23.44961
G1 X104.755 Y19.037 E23.45575
G1 X105.016 Y19.037 E23.46444
G1 X105.147 Y18.906 E23.47059
G1 X105.408 Y18.906 E23.47928
G1 X105.538 Y18.776 E23.48542
G1 X105.800 Y18.776 E23.49411
G1 X106.126 Y18.580 E23.50676
G1 X106.910 Y18.319 E23.53424
G1 X107.237 Y18.123 E23.54692
G1 X107.498 Y18.123 E23.55561
G1 X107.824 Y17.927 E23.56827
G1 X108.216 Y17.796 E23.58201
G1 X108.543 Y17.600 E23.59468
G1 X108.804 Y17.600 E23.60337
G1 X109.130 Y17.404 E23.61603
G1 X109.522 Y17.274 E23.62977
G1 X109.849 Y17.078 E23.64245
G1 X110.633 Y16.816 E23.66993
G1 X111.286 Y16.424 E23.69526
G1 X111.547 Y16.424 E23.70395
G1 X112.200 Y16.033 E23.72928
G1 X112.984 Y15.771 E23.75676
G1 X113.637 Y15.379 E23.78209
G1 X114.029 Y15.249 E23.79583
G1 X114.682 Y14.857 E23.82117
G1 X115.074 Y14.726 E23.83490
G1 X116.381 Y13.943 E23.88557
G1 X116.772 Y13.812 E23.89931
G1 X117.426 Y13.420 E23.92464
G1 X117.818 Y13.289 E23.93838
G1 X118.079 Y13.028 E23.95067
G1 X118.471 Y12.897 E23.96441
G1 X118.732 Y12.636 E23.97670
G1 X119.124 Y12.506 E23.99044
G1 X121.736 Y10.938 E24.09177
G1 X121.998 Y10.677 E24.10406
G1 X122.389 Y10.546 E24.11780
G1 X122.651 Y10.285 E24.13009
G1 X123.957 Y9.501 E24.18076
G1 X124.218 Y9.240 E24.19305
G1 X124.871 Y8.848 E24.21838
G1 X125.133 Y8.587 E24.23067
G1 X125.459 Y8.391 E24.24333
G1 X125.720 Y8.130 E24.25561
G1 X126.700 Y7.542 E24.29363
G1 X127.223 Y7.019 E24.31820
G1 X127.549 Y6.824 E24.33086
G1 X127.810 Y6.562 E24.34315
G1 X128.137 Y6.366 E24.35583
G1 X128.398 Y6.105 E24.36812
G1 X129.052 Y5.713 E24.39345
G1 X129.182 Y5.582 E24.39959
G1 X129.443 Y5.582 E24.40828
G1 X129.574 Y5.452 E24.41443
G1 X130.619 Y5.452 E24.44918
G1 X130.750 Y5.582 E24.45533
G1 X131.011 Y5.582 E24.46402
G1 X131.338 Y5.779 E24.47670
G1 X131.599 Y6.040 E24.48898
G1 X131.925 Y6.235 E24.50164
G1 X132.187 Y6.497 E24.51393
G1 X132.513 Y6.693 E24.52661
G1 X132.775 Y6.954 E24.53890
G1 X133.101 Y7.150 E24.55155
G1 X133.362 Y7.411 E24.56384
G1 X134.015 Y7.803 E24.58917
G1 X134.538 Y8.326 E24.61375
G1 X135.844 Y9.109 E24.66442
G1 X136.105 Y9.371 E24.67671
G1 X136.759 Y9.762 E24.70204
G1 X137.020 Y10.024 E24.71433
G1 X138.979 Y11.199 E24.79033
G1 X139.241 Y11.461 E24.80262
G1 X139.632 Y11.591 E24.81636
G1 X139.894 Y11.852 E24.82865
G1 X141.200 Y12.636 E24.87932
G1 X141.592 Y12.767 E24.89306
G1 X141.853 Y13.028 E24.90535
G1 X142.245 Y13.159 E24.91908
G1 X142.506 Y13.420 E24.93137
G1 X142.898 Y13.551 E24.94511
G1 X144.204 Y14.334 E24.99578
G1 X144.596 Y14.465 E25.00952
G1 X145.249 Y14.857 E25.03485
G1 X145.641 Y14.988 E25.04859
G1 X146.295 Y15.379 E25.07392
G1 X146.686 Y15.510 E25.08766
G1 X147.340 Y15.902 E25.11300
G1 X147.731 Y16.033 E25.12674
G1 X148.058 Y16.229 E25.13941
G1 X148.450 Y16.359 E25.15315
G1 X148.776 Y16.555 E25.16581
G1 X149.168 Y16.686 E25.17955
G1 X149.299 Y16.816 E25.18569
G1 X149.560 Y16.816 E25.19438
G1 X150.213 Y17.208 E25.21971
G1 X150.475 Y17.208 E25.22840
G1 X150.801 Y17.404 E25.24108
G1 X151.193 Y17.535 E25.25482
G1 X151.520 Y17.731 E25.26747
G1 X151.781 Y17.731 E25.27616
G1 X152.434 Y18.123 E25.30150
G1 X152.695 Y18.123 E25.31019
G1 X153.022 Y18.319 E25.32287
G1 X154.198 Y18.711 E25.36408
G1 X154.524 Y18.906 E25.37674
G1 X154.785 Y18.906 E25.38543
G1 X154.916 Y19.037 E25.39157
G1 X155.177 Y19.037 E25.40026
G1 X155.308 Y19.168 E25.40641
G1 X155.569 Y19.168 E25.41510
G1 X155.700 Y19.298 E25.42124
G1 X155.961 Y19.298 E25.42993
G1 X156.092 Y19.429 E25.43607
G1 X156.353 Y19.429 E25.44476
G1 X156.483 Y19.560 E25.45091
G1 X156.941 Y19.625 E25.46628
G1 X157.333 Y19.756 E25.48002
G1 X157.659 Y19.951 E25.49267
G1 X157.920 Y19.951 E25.50136
G1 X158.051 Y20.082 E25.50751
G1 X158.508 Y20.148 E25.52288
G1 X158.900 Y20.278 E25.53661
G1 X159.357 Y20.343 E25.55197
G1 X159.488 Y20.474 E25.55811
G1 X159.945 Y20.540 E25.57348
G1 X160.729 Y20.801 E25.60096
G1 X161.186 Y20.866 E25.61631
G1 X161.317 Y20.996 E25.62246
G1 X162.231 Y21.127 E25.65318
G1 X162.362 Y21.258 E25.65932
G1 X163.276 Y21.388 E25.69004
G1 X163.407 Y21.519 E25.69619
G1 X163.929 Y21.519 E25.71357
G1 X164.060 Y21.650 E25.71971
G1 X164.582 Y21.650 E25.73709
G1 X164.713 Y21.780 E25.74323
G1 X165.627 Y21.911 E25.77396
G1 X166.019 Y22.041 E25.78770
G1 X166.281 Y22.041 E25.79639
G1 X166.411 Y22.172 E25.80253
G1 X166.934 Y22.172 E25.81991
G1 X167.326 Y22.303 E25.83365
G1 X168.240 Y22.433 E25.86437
G1 X168.501 Y22.433 E25.87306
G1 X168.632 Y22.564 E25.87920
G1 X169.416 Y22.564 E25.90527
G1 X169.546 Y22.695 E25.91142
G1 X170.330 Y22.695 E25.93749
G1 X170.461 Y22.825 E25.94363
G1 X171.245 Y22.825 E25.96970
G1 X171.375 Y22.956 E25.97584
G1 X172.420 Y22.956 E26.01060
G1 X172.551 Y23.087 E26.01674
G1 X173.596 Y23.087 E26.05150
G1 X173.726 Y23.217 E26.05765
G1 X175.033 Y23.217 E26.10109
G1 X175.163 Y23.348 E26.10724
G1 X176.731 Y23.348 E26.15938
G1 X177.123 Y23.478 E26.17311
G1 X180.258 Y23.478 E26.27739
G1 X180.388 Y23.609 E26.28353
G1 X180.911 Y23.609 E26.30091
G1 X181.042 Y23.740 E26.30705
G1 X181.303 Y23.740 E26.31574
G1 X182.283 Y24.328 E26.35376
G1 X184.373 Y26.418 E26.45207
G1 X186.463 Y28.508 E26.55038
G1 X188.553 Y30.598 E26.64868
G1 X189.598 Y31.643 E26.69784
G1 X189.990 Y32.296 E26.72317
G1 X190.251 Y33.080 E26.75065
G1 X190.251 Y34.647 E26.80279
G1 X189.990 Y35.431 E26.83027
G1 X189.598 Y36.084 E26.85560
G1 X187.508 Y38.174 E26.95391
G1 X185.418 Y40.264 E27.05222
G1 X183.328 Y42.354 E27.15053
G1 X182.283 Y43.399 E27.19969
G1 X181.303 Y43.988 E27.23770
G1 X181.042 Y43.988 E27.24639
G1 X180.911 Y44.118 E27.25254
G1 X176.731 Y44.118 E27.39157
G1 X176.600 Y43.988 E27.39771
G1 X175.033 Y43.988 E27.44985
G1 X174.641 Y43.857 E27.46359
G1 X173.596 Y43.857 E27.49834
G1 X173.204 Y43.726 E27.51208
G1 X172.159 Y43.726 E27.54684
G1 X171.767 Y43.596 E27.56058
G1 X171.245 Y43.596 E27.57796
G1 X170.330 Y43.465 E27.60868
G1 X169.808 Y43.465 E27.62606
G1 X169.677 Y43.334 E27.63220
G1 X169.154 Y43.334 E27.64958
G1 X168.763 Y43.204 E27.66332
G1 X168.240 Y43.204 E27.68070
G1 X167.848 Y43.073 E27.69444
G1 X167.326 Y43.073 E27.71182
G1 X167.195 Y42.943 E27.71796
G1 X166.673 Y42.943 E27.73534
G1 X166.281 Y42.812 E27.74908
G1 X165.758 Y42.812 E27.76646
G1 X165.627 Y42.681 E27.77260
G1 X165.105 Y42.681 E27.78998
G1 X164.974 Y42.551 E27.79613
G1 X164.452 Y42.551 E27.81350
G1 X164.321 Y42.420 E27.81965
G1 X163.799 Y42.420 E27.83703
G1 X163.668 Y42.289 E27.84317
G1 X163.146 Y42.289 E27.86055
G1 X162.754 Y42.159 E27.87429
G1 X162.231 Y42.159 E27.89167
G1 X162.101 Y42.028 E27.89781
G1 X161.578 Y42.028 E27.91519
G1 X161.186 Y41.898 E27.92893
G1 X160.141 Y41.898 E27.96369
G1 X159.227 Y41.767 E27.99441
G1 X158.704 Y41.767 E28.01179
G1 X157.790 Y41.898 E28.04251
G1 X156.745 Y41.898 E28.07727
G1 X156.353 Y42.028 E28.09101
G1 X155.830 Y42.028 E28.10839
G1 X155.700 Y42.159 E28.11453
G1 X155.177 Y42.159 E28.13191
G1 X155.047 Y42.289 E28.13805
G1 X154.524 Y42.289 E28.15543
G1 X154.393 Y42.420 E28.16158
G1 X153.937 Y42.485 E28.17693
G1 X153.545 Y42.616 E28.19067
G1 X153.087 Y42.681 E28.20604
G1 X152.957 Y42.812 E28.21218
G1 X152.695 Y42.812 E28.22087
G1 X152.565 Y42.943 E28.22702
G1 X152.303 Y42.943 E28.23571
G1 X151.650 Y43.334 E28.26104
G1 X151.389 Y43.334 E28.26973
G1 X151.063 Y43.530 E28.28238
G1 X150.671 Y43.661 E28.29612
G1 X150.344 Y43.857 E28.30880
G1 X149.952 Y43.988 E28.32254
G1 X149.691 Y44.249 E28.33483
G1 X149.299 Y44.379 E28.34857
G1 X147.666 Y45.359 E28.41189
G1 X147.405 Y45.620 E28.42418
G1 X147.078 Y45.816 E28.43686
G1 X146.817 Y46.078 E28.44915
G1 X146.164 Y46.470 E28.47448
G1 X145.903 Y46.731 E28.48677
G1 X144.596 Y47.515 E28.53743
G1 X144.335 Y47.776 E28.54972
G1 X142.702 Y48.755 E28.61305
G1 X142.311 Y48.886 E28.62678
G1 X141.984 Y49.082 E28.63946
G1 X141.592 Y49.213 E28.65320
G1 X140.939 Y49.605 E28.67853
G1 X140.547 Y49.735 E28.69227
G1 X140.416 Y49.866 E28.69842
G1 X140.155 Y49.866 E28.70711
G1 X139.829 Y50.062 E28.71976
G1 X139.437 Y50.192 E28.73350
G1 X139.110 Y50.388 E28.74618
G1 X138.849 Y50.388 E28.75487
G1 X138.718 Y50.519 E28.76101
G1 X138.457 Y50.519 E28.76970
G1 X138.326 Y50.650 E28.77585
G1 X137.869 Y50.715 E28.79120
G1 X136.694 Y51.107 E28.83242
G1 X136.236 Y51.172 E28.84779
G1 X135.844 Y51.303 E28.86153
G1 X134.930 Y51.433 E28.89225
G1 X134.799 Y51.564 E28.89839
G1 X134.015 Y51.564 E28.92446
G1 X133.885 Y51.695 E28.93061
G1 X133.362 Y51.695 E28.94799
G1 X132.448 Y51.825 E28.97871
G1 X131.403 Y51.825 E29.01347
G1 X131.011 Y51.956 E29.02720
G1 X128.921 Y51.956 E29.09672
G1 X128.790 Y51.825 E29.10286
G1 X127.353 Y51.825 E29.15066
G1 X127.092 Y51.695 E29.16037
G1 X126.308 Y51.695 E29.18644
G1 X126.178 Y51.564 E29.19258
G0 X126.178 Y51.564 F5400
G0 F3000 E28.19258
G0 X129.182 Y33.798 F5400
G0 F3000 E29.19258
G1 X131.272 Y33.798 E29.26210 F2400
G1 X131.403 Y33.667 E29.26824
G1 X131.925 Y33.667 E29.28562
G1 X132.840 Y33.537 E29.31634
G1 X133.624 Y33.276 E29.34382
G1 X133.950 Y33.080 E29.35647
G1 X133.950 Y32.819 E29.36516
G1 X134.080 Y32.688 E29.37131
G1 X134.080 Y32.165 E29.38869
G1 X134.211 Y31.251 E29.41941
G1 X134.080 Y31.120 E29.42555
G1 X134.080 Y30.075 E29.46031
G1 X133.885 Y29.488 E29.48091
G1 X133.101 Y29.227 E29.50839
G1 X132.579 Y29.227 E29.52576
G1 X132.448 Y29.096 E29.53191
G1 X131.925 Y29.096 E29.54929
G1 X131.533 Y28.965 E29.56303
G1 X129.443 Y28.965 E29.63254
G1 X128.921 Y28.965 E29.64992
G1 X128.529 Y29.096 E29.66366
G1 X128.007 Y29.096 E29.68104
G1 X127.615 Y29.227 E29.69477
G1 X127.353 Y29.227 E29.70346
G1 X127.223 Y29.357 E29.70961
G1 X126.570 Y29.488 E29.73176
G1 X126.374 Y29.814 E29.74442
G1 X126.374 Y30.337 E29.76180
G1 X126.243 Y30.729 E29.77553
G1 X126.243 Y31.774 E29.81029
G1 X126.374 Y32.688 E29.84101
G1 X126.374 Y32.949 E29.84970
G1 X126.570 Y33.276 E29.86236
G1 X127.027 Y33.341 E29.87773
G1 X127.484 Y33.537 E29.89426
G1 X128.137 Y33.537 E29.91599
G1 X128.268 Y33.667 E29.92213
G1 X128.790 Y33.667 E29.93951
G1 X129.182 Y33.798 E29.95325
G0 X129.182 Y33.798 F5400
G0 X129.182 Y34.190
G1 X131.272 Y34.190 E30.02277 F2400
G1 X131.403 Y34.059 E30.02891
G1 X131.925 Y34.059 E30.04629
G1 X132.840 Y33.929 E30.07701
G1 X134.015 Y33.537 E30.11823
G1 X134.342 Y33.341 E30.13088
G1 X134.342 Y32.819 E30.14826
G1 X134.472 Y32.688 E30.15440
G1 X134.472 Y32.165 E30.17178
G1 X134.603 Y31.251 E30.20251
G1 X134.472 Y31.120 E30.20865
G1 X134.472 Y30.075 E30.24341
G1 X134.342 Y29.684 E30.25715
G1 X134.342 Y29.422 E30.26584
G1 X133.689 Y29.030 E30.29117
G1 X133.297 Y28.900 E30.30491
G1 X132.579 Y28.835 E30.32889
G1 X132.448 Y28.704 E30.33504
G1 X131.925 Y28.704 E30.35242
G1 X131.533 Y28.573 E30.36616
G1 X128.921 Y28.573 E30.45305
G1 X128.529 Y28.704 E30.46679
G1 X128.007 Y28.704 E30.48417
G1 X127.615 Y28.835 E30.49791
G1 X127.353 Y28.835 E30.50660
G1 X127.223 Y28.965 E30.51274
G1 X126.766 Y29.030 E30.52809
G1 X126.178 Y29.227 E30.54871
G1 X126.113 Y29.684 E30.56406
G1 X125.982 Y29.814 E30.57021
G1 X125.982 Y30.337 E30.58759
G1 X125.851 Y30.729 E30.60133
G1 X125.851 Y31.774 E30.63608
G1 X125.982 Y32.688 E30.66680
G1 X125.982 Y32.949 E30.67549
G1 X126.113 Y33.080 E30.68164
G1 X126.113 Y33.341 E30.69033
G1 X126.570 Y33.667 E30.70900
G1 X127.027 Y33.733 E30.72437
G1 X127.484 Y33.929 E30.74091
G1 X128.137 Y33.929 E30.76263
G1 X128.268 Y34.059 E30.76878
G1 X128.790 Y34.059 E30.78616
G1 X129.182 Y34.190 E30.79989
G0 X129.182 Y34.190 F5400
G0 F3000 E29.79989
G0 X126.308 Y51.303 F5400
G0 F3000 E30.79989
G1 X126.178 Y51.172 E30.80604 F2400
G1 X125.655 Y51.172 E30.82342
G1 X125.263 Y51.041 E30.83716
G1 X124.349 Y50.911 E30.86788
G1 X124.218 Y50.780 E30.87402
G1 X123.696 Y50.780 E30.89140
G1 X123.565 Y50.650 E30.89754
G1 X123.304 Y50.650 E30.90623
G1 X123.173 Y50.519 E30.91238
G1 X122.716 Y50.453 E30.92775
G1 X121.344 Y49.996 E30.97583
G1 X120.561 Y49.735 E31.00330
G1 X120.430 Y49.605 E31.00945
G1 X120.169 Y49.605 E31.01814
G1 X119.842 Y49.408 E31.03082
G1 X119.450 Y49.278 E31.04456
G1 X119.124 Y49.082 E31.05721
G1 X118.732 Y48.951 E31.07095
G1 X118.079 Y48.560 E31.09628
G1 X117.687 Y48.429 E31.11002
G1 X117.034 Y48.037 E31.13535
G1 X116.772 Y47.776 E31.14764
G1 X116.381 Y47.645 E31.16138
G1 X116.119 Y47.384 E31.17367
G1 X115.727 Y47.253 E31.18741
G1 X115.466 Y46.992 E31.19970
G1 X114.813 Y46.600 E31.22503
G1 X114.552 Y46.339 E31.23732
G1 X113.899 Y45.947 E31.26265
G1 X113.637 Y45.686 E31.27494
G1 X112.984 Y45.294 E31.30028
G1 X112.723 Y45.033 E31.31257
G1 X112.396 Y44.836 E31.32524
G1 X112.135 Y44.575 E31.33753
G1 X111.155 Y43.988 E31.37552
G1 X110.764 Y43.857 E31.38926
G1 X110.502 Y43.596 E31.40155
G1 X110.110 Y43.465 E31.41529
G1 X109.457 Y43.073 E31.44062
G1 X109.196 Y43.073 E31.44931
G1 X108.543 Y42.681 E31.47464
G1 X108.282 Y42.681 E31.48333
G1 X107.955 Y42.485 E31.49601
G1 X107.171 Y42.224 E31.52349
G1 X106.714 Y42.159 E31.53884
G1 X106.583 Y42.028 E31.54499
G1 X106.322 Y42.028 E31.55368
G1 X106.192 Y41.898 E31.55982
G1 X105.277 Y41.767 E31.59054
G1 X104.885 Y41.636 E31.60428
G1 X104.363 Y41.636 E31.62166
G1 X104.232 Y41.506 E31.62780
G1 X103.710 Y41.506 E31.64518
G1 X103.318 Y41.375 E31.65892
G1 X102.273 Y41.375 E31.69368
G1 X101.358 Y41.244 E31.72440
G1 X100.444 Y41.375 E31.75512
G1 X98.876 Y41.375 E31.80726
G1 X98.746 Y41.506 E31.81340
G1 X98.223 Y41.506 E31.83078
G1 X97.831 Y41.636 E31.84452
G1 X97.309 Y41.636 E31.86190
G1 X97.178 Y41.767 E31.86805
G1 X96.656 Y41.767 E31.88542
G1 X96.264 Y41.898 E31.89916
G1 X95.349 Y42.028 E31.92989
G1 X94.958 Y42.159 E31.94362
G1 X94.043 Y42.289 E31.97435
G1 X93.782 Y42.289 E31.98304
G1 X93.651 Y42.420 E31.98918
G1 X92.867 Y42.420 E32.01525
G1 X92.737 Y42.551 E32.02139
G1 X92.214 Y42.551 E32.03877
G1 X92.084 Y42.681 E32.04492
G1 X91.300 Y42.681 E32.07099
G1 X91.169 Y42.812 E32.07713
G1 X90.647 Y42.812 E32.09451
G1 X89.732 Y42.943 E32.12524
G1 X89.471 Y42.943 E32.13393
G1 X89.341 Y43.073 E32.14007
G1 X88.295 Y43.073 E32.17483
G1 X87.381 Y43.204 E32.20555
G1 X86.859 Y43.204 E32.22293
G1 X86.728 Y43.334 E32.22908
G1 X85.160 Y43.334 E32.28121
G1 X84.769 Y43.465 E32.29495
G1 X82.940 Y43.465 E32.35578
G1 X82.809 Y43.596 E32.36192
G1 X79.674 Y43.596 E32.46620
G1 X79.543 Y43.465 E32.47234
G1 X79.282 Y43.465 E32.48103
G1 X79.152 Y43.334 E32.48718
G1 X78.890 Y43.334 E32.49587
G1 X78.237 Y42.943 E32.52120
G1 X76.147 Y40.852 E32.61951
G1 X74.057 Y38.762 E32.71782
G1 X71.967 Y36.672 E32.81613
G1 X71.183 Y35.889 E32.85299
G1 X70.595 Y34.909 E32.89101
G1 X70.595 Y34.647 E32.89970
G1 X70.464 Y34.517 E32.90584
G1 X70.464 Y32.949 E32.95798
G1 X70.726 Y32.165 E32.98546
G1 X71.118 Y31.512 E33.01079
G1 X73.208 Y29.422 E33.10910
G1 X75.298 Y27.332 E33.20741
G1 X77.388 Y25.242 E33.30571
G1 X78.172 Y24.458 E33.34258
G1 X78.825 Y24.066 E33.36791
G1 X79.217 Y23.936 E33.38165
G1 X79.674 Y23.870 E33.39702
G1 X79.805 Y23.740 E33.40317
G1 X82.678 Y23.740 E33.49875
G1 X82.809 Y23.609 E33.50490
G1 X84.377 Y23.609 E33.55703
G1 X85.291 Y23.478 E33.58776
G1 X86.336 Y23.478 E33.62252
G1 X86.467 Y23.348 E33.62866
G1 X87.512 Y23.348 E33.66342
G1 X87.642 Y23.217 E33.66956
G1 X88.165 Y23.217 E33.68694
G1 X89.079 Y23.087 E33.71767
G1 X89.602 Y23.087 E33.73505
G1 X89.732 Y22.956 E33.74119
G1 X90.255 Y22.956 E33.75857
G1 X91.169 Y22.825 E33.78930
G1 X91.431 Y22.825 E33.79799
G1 X91.561 Y22.695 E33.80413
G1 X92.084 Y22.695 E33.82151
G1 X92.476 Y22.564 E33.83525
G1 X92.998 Y22.564 E33.85263
G1 X93.129 Y22.433 E33.85878
G1 X93.651 Y22.433 E33.87616
G1 X93.782 Y22.303 E33.88230
G1 X94.304 Y22.303 E33.89968
G1 X94.435 Y22.172 E33.90583
G1 X94.958 Y22.172 E33.92321
G1 X95.088 Y22.041 E33.92935
G1 X95.611 Y22.041 E33.94673
G1 X95.741 Y21.911 E33.95288
G1 X96.656 Y21.780 E33.98360
G1 X97.048 Y21.650 E33.99734
G1 X97.309 Y21.650 E34.00603
G1 X97.439 Y21.519 E34.01218
G1 X98.354 Y21.388 E34.04290
G1 X98.485 Y21.258 E34.04905
G1 X99.399 Y21.127 E34.07977
G1 X99.530 Y20.996 E34.08592
G1 X99.986 Y20.931 E34.10127
G1 X100.378 Y20.801 E34.11501
G1 X100.836 Y20.735 E34.13038
G1 X100.966 Y20.605 E34.13652
G1 X101.228 Y20.605 E34.14521
G1 X101.358 Y20.474 E34.15136
G1 X101.815 Y20.409 E34.16671
G1 X102.991 Y20.017 E34.20793
G1 X103.448 Y19.951 E34.22329
G1 X103.579 Y19.821 E34.22944
G1 X103.840 Y19.821 E34.23813
G1 X103.971 Y19.690 E34.24428
G1 X104.232 Y19.690 E34.25297
G1 X104.363 Y19.560 E34.25911
G1 X104.624 Y19.560 E34.26780
G1 X104.755 Y19.429 E34.27395
G1 X105.016 Y19.429 E34.28264
G1 X105.147 Y19.298 E34.28878
G1 X105.408 Y19.298 E34.29747
G1 X105.538 Y19.168 E34.30362
G1 X105.800 Y19.168 E34.31231
G1 X106.126 Y18.972 E34.32496
G1 X106.910 Y18.711 E34.35244
G1 X107.237 Y18.515 E34.36512
G1 X107.498 Y18.515 E34.37381
G1 X107.824 Y18.319 E34.38647
G1 X108.216 Y18.188 E34.40021
G1 X108.543 Y17.992 E34.41289
G1 X108.804 Y17.992 E34.42158
G1 X109.130 Y17.796 E34.43424
G1 X109.522 Y17.666 E34.44798
G1 X109.849 Y17.469 E34.46066
G1 X110.633 Y17.208 E34.48813
G1 X111.286 Y16.816 E34.51347
G1 X111.547 Y16.816 E34.52216
G1 X112.200 Y16.424 E34.54749
G1 X112.984 Y16.163 E34.57497
G1 X113.637 Y15.771 E34.60030
G1 X114.029 Y15.641 E34.61404
G1 X114.682 Y15.249 E34.63938
G1 X115.074 Y15.118 E34.65312
G1 X116.381 Y14.334 E34.70378
G1 X116.772 Y14.204 E34.71752
G1 X117.426 Y13.812 E34.74286
G1 X117.818 Y13.681 E34.75660
G1 X118.079 Y13.420 E34.76888
G1 X118.471 Y13.289 E34.78262
G1 X118.732 Y13.028 E34.79491
G1 X119.124 Y12.897 E34.80865
G1 X121.736 Y11.330 E34.90999
G1 X121.998 Y11.069 E34.92227
G1 X122.389 Y10.938 E34.93601
G1 X122.651 Y10.677 E34.94830
G1 X123.957 Y9.893 E34.99897
G1 X124.218 Y9.632 E35.01125
G1 X124.871 Y9.240 E35.03659
G1 X125.133 Y8.979 E35.04888
G1 X125.459 Y8.783 E35.06153
G1 X125.720 Y8.522 E35.07382
G1 X126.700 Y7.934 E35.11183
G1 X127.223 Y7.411 E35.13641
G1 X127.549 Y7.215 E35.14906
G1 X127.810 Y6.954 E35.16135
G1 X128.137 Y6.758 E35.17403
G1 X128.398 Y6.497 E35.18632
G1 X129.052 Y6.105 E35.21165
G1 X129.182 Y5.974 E35.21780
G1 X129.443 Y5.974 E35.22649
G1 X129.574 Y5.844 E35.23263
G1 X130.619 Y5.844 E35.26739
G1 X130.750 Y5.974 E35.27354
G1 X131.011 Y5.974 E35.28223
G1 X131.338 Y6.170 E35.29491
G1 X131.599 Y6.432 E35.30720
G1 X131.925 Y6.627 E35.31985
G1 X132.187 Y6.889 E35.33214
G1 X132.513 Y7.085 E35.34482
G1 X132.775 Y7.346 E35.35710
G1 X133.101 Y7.542 E35.36976
G1 X133.362 Y7.803 E35.38204
G1 X134.015 Y8.195 E35.40738
G1 X134.538 Y8.717 E35.43195
G1 X135.844 Y9.501 E35.48262
G1 X136.105 Y9.762 E35.49491
G1 X136.759 Y10.154 E35.52024
G1 X137.020 Y10.416 E35.53253
G1 X138.979 Y11.591 E35.60853
G1 X139.241 Y11.852 E35.62082
G1 X139.632 Y11.983 E35.63456
G1 X139.894 Y12.244 E35.64684
G1 X141.200 Y13.028 E35.69751
G1 X141.592 Y13.159 E35.71125
G1 X141.853 Y13.420 E35.72354
G1 X142.245 Y13.551 E35.73728
G1 X142.506 Y13.812 E35.74957
G1 X142.898 Y13.943 E35.76331
G1 X144.204 Y14.726 E35.81397
G1 X144.596 Y14.857 E35.82771
G1 X145.249 Y15.249 E35.85305
G1 X145.641 Y15.379 E35.86679
G1 X146.295 Y15.771 E35.89212
G1 X146.686 Y15.902 E35.90586
G1 X147.340 Y16.294 E35.93120
G1 X147.731 Y16.424 E35.94494
G1 X148.058 Y16.621 E35.95762
G1 X148.450 Y16.751 E35.97136
G1 X148.776 Y16.947 E35.98401
G1 X149.168 Y17.078 E35.99775
G1 X149.299 Y17.208 E36.00390
G1 X149.560 Y17.208 E36.01259
G1 X150.213 Y17.600 E36.03792
G1 X150.475 Y17.600 E36.04661
G1 X150.801 Y17.796 E36.05929
G1 X151.193 Y17.927 E36.07303
G1 X151.520 Y18.123 E36.08569
G1 X151.781 Y18.123 E36.09438
G1 X152.434 Y18.515 E36.11971
G1 X152.695 Y18.515 E36.12840
G1 X153.022 Y18.711 E36.14108
G1 X154.198 Y19.103 E36.18230
G1 X154.524 Y19.298 E36.19496
G1 X154.785 Y19.298 E36.20365
G1 X154.916 Y19.429 E36.20979
G1 X155.177 Y19.429 E36.21848
G1 X155.308 Y19.560 E36.22463
G1 X155.569 Y19.560 E36.23332
G1 X155.700 Y19.690 E36.23947
G1 X155.961 Y19.690 E36.24815
G1 X156.092 Y19.821 E36.25430
G1 X156.353 Y19.821 E36.26299
G1 X156.483 Y19.951 E36.26914
G1 X156.941 Y20.017 E36.28451
G1 X157.333 Y20.148 E36.29825
G1 X157.659 Y20.343 E36.31090
G1 X157.920 Y20.343 E36.31959
G1 X158.051 Y20.474 E36.32573
G1 X158.508 Y20.540 E36.34110
G1 X158.900 Y20.670 E36.35484
G1 X159.357 Y20.735 E36.37019
G1 X159.488 Y20.866 E36.37634
G1 X159.945 Y20.931 E36.39171
G1 X160.729 Y21.193 E36.41919
G1 X161.186 Y21.258 E36.43454
G1 X161.317 Y21.388 E36.44068
G1 X162.231 Y21.519 E36.47141
G1 X162.362 Y21.650 E36.47755
G1 X163.276 Y21.780 E36.50828
G1 X163.407 Y21.911 E36.51442
G1 X163.929 Y21.911 E36.53180
G1 X164.060 Y22.041 E36.53795
G1 X164.582 Y22.041 E36.55533
G1 X164.713 Y22.172 E36.56147
G1 X165.627 Y22.303 E36.59219
G1 X166.019 Y22.433 E36.60594
G1 X166.281 Y22.433 E36.61463
G1 X166.411 Y22.564 E36.62077
G1 X166.934 Y22.564 E36.63815
G1 X167.326 Y22.695 E36.65189
G1 X168.240 Y22.825 E36.68261
G1 X168.501 Y22.825 E36.69130
G1 X168.632 Y22.956 E36.69745
G1 X169.416 Y22.956 E36.72352
G1 X169.546 Y23.087 E36.72967
G1 X170.330 Y23.087 E36.75573
G1 X170.461 Y23.217 E36.76188
G1 X171.245 Y23.217 E36.78795
G1 X171.375 Y23.348 E36.79410
G1 X172.420 Y23.348 E36.82885
G1 X172.551 Y23.478 E36.83500
G1 X173.596 Y23.478 E36.86976
G1 X173.726 Y23.609 E36.87591
G1 X175.033 Y23.609 E36.91935
G1 X175.163 Y23.740 E36.92550
G1 X176.731 Y23.740 E36.97763
G1 X177.123 Y23.870 E36.99137
G1 X180.258 Y23.870 E37.09565
G1 X180.388 Y24.001 E37.10179
G1 X180.911 Y24.001 E37.11917
G1 X181.042 Y24.132 E37.12532
G1 X181.303 Y24.132 E37.13401
G1 X182.283 Y24.720 E37.17202
G1 X184.373 Y26.810 E37.27033
G1 X186.463 Y28.900 E37.36864
G1 X188.553 Y30.990 E37.46695
G1 X189.337 Y31.774 E37.50381
G1 X189.467 Y32.165 E37.51755
G1 X189.663 Y32.492 E37.53021
G1 X189.794 Y32.884 E37.54395
G1 X189.859 Y33.341 E37.55932
G1 X189.859 Y34.386 E37.59408
G1 X189.794 Y34.844 E37.60945
G1 X189.663 Y35.235 E37.62319
G1 X189.076 Y36.215 E37.66118
G1 X186.985 Y38.305 E37.75949
G1 X184.895 Y40.395 E37.85780
G1 X182.805 Y42.485 E37.95611
G1 X182.283 Y43.008 E37.98068
G1 X181.303 Y43.596 E38.01870
G1 X181.042 Y43.596 E38.02739
G1 X180.911 Y43.726 E38.03353
G1 X176.731 Y43.726 E38.17256
G1 X176.600 Y43.596 E38.17871
G1 X175.033 Y43.596 E38.23084
G1 X174.641 Y43.465 E38.24458
G1 X173.596 Y43.465 E38.27934
G1 X173.204 Y43.334 E38.29308
G1 X172.159 Y43.334 E38.32784
G1 X171.767 Y43.204 E38.34158
G1 X171.245 Y43.204 E38.35896
G1 X170.330 Y43.073 E38.38968
G1 X169.808 Y43.073 E38.40706
G1 X169.677 Y42.943 E38.41321
G1 X169.154 Y42.943 E38.43059
G1 X168.763 Y42.812 E38.44433
G1 X168.240 Y42.812 E38.46171
G1 X167.848 Y42.681 E38.47545
G1 X167.326 Y42.681 E38.49283
G1 X167.195 Y42.551 E38.49897
G1 X166.673 Y42.551 E38.51635
G1 X166.281 Y42.420 E38.53009
G1 X165.758 Y42.420 E38.54747
G1 X165.627 Y42.289 E38.55362
G1 X165.105 Y42.289 E38.57100
G1 X164.974 Y42.159 E38.57714
G1 X164.452 Y42.159 E38.59452
G1 X164.321 Y42.028 E38.60067
G1 X163.799 Y42.028 E38.61805
G1 X163.668 Y41.898 E38.62419
G1 X163.146 Y41.898 E38.64157
G1 X162.754 Y41.767 E38.65531
G1 X162.231 Y41.767 E38.67269
G1 X162.101 Y41.636 E38.67884
G1 X161.578 Y41.636 E38.69622
G1 X161.186 Y41.506 E38.70996
G1 X160.141 Y41.506 E38.74472
G1 X159.227 Y41.375 E38.77544
G1 X158.704 Y41.375 E38.79282
G1 X157.790 Y41.506 E38.82354
G1 X156.745 Y41.506 E38.85830
G1 X156.353 Y41.636 E38.87204
G1 X155.830 Y41.636 E38.88942
G1 X155.700 Y41.767 E38.89557
G1 X155.177 Y41.767 E38.91295
G1 X155.047 Y41.898 E38.91910
G1 X154.524 Y41.898 E38.93648
G1 X154.393 Y42.028 E38.94262
G1 X153.937 Y42.093 E38.95797
G1 X153.545 Y42.224 E38.97171
G1 X153.087 Y42.289 E38.98708
G1 X152.957 Y42.420 E38.99323
G1 X152.695 Y42.420 E39.00192
G1 X152.565 Y42.551 E39.00806
G1 X152.303 Y42.551 E39.01675
G1 X151.650 Y42.943 E39.04208
G1 X151.389 Y42.943 E39.05077
G1 X151.063 Y43.138 E39.06343
G1 X150.671 Y43.269 E39.07717
G1 X150.344 Y43.465 E39.08985
G1 X149.952 Y43.596 E39.10359
G1 X149.691 Y43.857 E39.11588
G1 X149.299 Y43.988 E39.12962
G1 X147.666 Y44.967 E39.19294
G1 X147.405 Y45.228 E39.20523
G1 X147.078 Y45.424 E39.21791
G1 X146.817 Y45.686 E39.23020
G1 X146.164 Y46.078 E39.25553
G1 X145.903 Y46.339 E39.26782
G1 X144.596 Y47.123 E39.31848
G1 X144.335 Y47.384 E39.33077
G1 X142.702 Y48.363 E39.39409
G1 X142.311 Y48.494 E39.40783
G1 X141.984 Y48.690 E39.42051
G1 X141.592 Y48.821 E39.43425
G1 X140.939 Y49.213 E39.45959
G1 X140.547 Y49.343 E39.47333
G1 X140.416 Y49.474 E39.47947
G1 X140.155 Y49.474 E39.48816
G1 X139.829 Y49.670 E39.50082
G1 X139.437 Y49.800 E39.51456
G1 X139.110 Y49.996 E39.52724
G1 X138.849 Y49.996 E39.53593
G1 X138.718 Y50.127 E39.54208
G1 X138.457 Y50.127 E39.55077
G1 X138.326 Y50.258 E39.55691
G1 X137.869 Y50.323 E39.57226
G1 X136.694 Y50.715 E39.61348
G1 X136.236 Y50.780 E39.62885
G1 X135.844 Y50.911 E39.64259
G1 X134.930 Y51.041 E39.67331
G1 X134.799 Y51.172 E39.67946
G1 X134.015 Y51.172 E39.70553
G1 X133.885 Y51.303 E39.71167
G1 X133.362 Y51.303 E39.72905
G1 X132.448 Y51.433 E39.75978
G1 X131.403 Y51.433 E39.79454
G1 X131.011 Y51.564 E39.80828
G1 X128.921 Y51.564 E39.87779
G1 X128.790 Y51.433 E39.88394
G1 X127.745 Y51.433 E39.91870
G1 X126.831 Y51.303 E39.94942
G1 X126.308 Y51.303 E39.96680
G0 X126.308 Y51.303 F5400
G0 X126.178 Y50.780
G1 X125.655 Y50.780 E39.98418 F2400
G1 X125.263 Y50.650 E39.99792
G1 X124.349 Y50.519 E40.02865
G1 X124.218 Y50.388 E40.03479
G1 X123.696 Y50.388 E40.05217
G1 X123.565 Y50.258 E40.05832
G1 X123.304 Y50.258 E40.06701
G1 X123.173 Y50.127 E40.07315
G1 X122.716 Y50.062 E40.08852
G1 X121.344 Y49.605 E40.13660
G1 X120.561 Y49.343 E40.16408
G1 X120.430 Y49.213 E40.17022
G1 X120.169 Y49.213 E40.17891
G1 X119.842 Y49.017 E40.19159
G1 X119.450 Y48.886 E40.20533
G1 X119.124 Y48.690 E40.21799
G1 X118.732 Y48.560 E40.23173
G1 X118.079 Y48.168 E40.25706
G1 X117.687 Y48.037 E40.27080
G1 X117.034 Y47.645 E40.29614
G1 X116.772 Y47.384 E40.30842
G1 X116.381 Y47.253 E40.32216
G1 X116.119 Y46.992 E40.33445
G1 X115.727 Y46.861 E40.34819
G1 X115.466 Y46.600 E40.36048
G1 X114.813 Y46.208 E40.38581
G1 X114.552 Y45.947 E40.39810
G1 X113.899 Y45.555 E40.42343
G1 X113.637 Y45.294 E40.43572
G1 X112.984 Y44.902 E40.46105
G1 X112.723 Y44.641 E40.47334
G1 X112.396 Y44.445 E40.48602
G1 X112.135 Y44.183 E40.49831
G1 X111.155 Y43.596 E40.53630
G1 X110.764 Y43.465 E40.55004
G1 X110.502 Y43.204 E40.56233
G1 X110.110 Y43.073 E40.57607
G1 X109.457 Y42.681 E40.60140
G1 X109.196 Y42.681 E40.61009
G1 X108.543 Y42.289 E40.63542
G1 X108.282 Y42.289 E40.64411
G1 X107.955 Y42.093 E40.65679
G1 X107.171 Y41.832 E40.68427
G1 X106.714 Y41.767 E40.69962
G1 X106.583 Y41.636 E40.70577
G1 X106.322 Y41.636 E40.71446
G1 X106.192 Y41.506 E40.72060
G1 X105.277 Y41.375 E40.75132
G1 X104.885 Y41.244 E40.76507
G1 X104.363 Y41.244 E40.78245
G1 X104.232 Y41.114 E40.78859
G1 X103.710 Y41.114 E40.80597
G1 X103.318 Y40.983 E40.81971
G1 X102.273 Y40.983 E40.85447
G1 X101.358 Y40.852 E40.88519
G1 X100.444 Y40.983 E40.91592
G1 X98.876 Y40.983 E40.96805
G1 X98.746 Y41.114 E40.97420
G1 X98.223 Y41.114 E40.99158
G1 X97.831 Y41.244 E41.00532
G1 X97.309 Y41.244 E41.02270
G1 X97.178 Y41.375 E41.02884
G1 X96.656 Y41.375 E41.04622
G1 X96.264 Y41.506 E41.05996
G1 X95.349 Y41.636 E41.09069
G1 X94.958 Y41.767 E41.10443
G1 X94.043 Y41.898 E41.13515
G1 X93.782 Y41.898 E41.14384
G1 X93.651 Y42.028 E41.14999
G1 X92.867 Y42.028 E41.17606
G1 X92.737 Y42.159 E41.18220
G1 X92.214 Y42.159 E41.19958
G1 X92.084 Y42.289 E41.20573
G1 X91.300 Y42.289 E41.23180
G1 X91.169 Y42.420 E41.23794
G1 X90.647 Y42.420 E41.25532
G1 X89.732 Y42.551 E41.28605
G1 X89.471 Y42.551 E41.29474
G1 X89.341 Y42.681 E41.30088
G1 X88.295 Y42.681 E41.33564
G1 X87.381 Y42.812 E41.36636
G1 X86.859 Y42.812 E41.38374
G1 X86.728 Y42.943 E41.38989
G1 X85.160 Y42.943 E41.44202
G1 X84.769 Y43.073 E41.45576
G1 X82.940 Y43.073 E41.51659
G1 X82.809 Y43.204 E41.52273
G1 X79.674 Y43.204 E41.62701
G1 X79.543 Y43.073 E41.63315
G1 X79.282 Y43.073 E41.64184
G1 X79.152 Y42.943 E41.64799
G1 X78.890 Y42.943 E41.65668
G1 X78.237 Y42.551 E41.68201
G1 X76.147 Y40.461 E41.78032
G1 X74.057 Y38.371 E41.87863
G1 X71.967 Y36.280 E41.97694
G1 X71.444 Y35.758 E42.00152
G1 X71.248 Y35.431 E42.01420
G1 X71.118 Y35.039 E42.02794
G1 X70.987 Y34.909 E42.03408
G1 X70.987 Y34.647 E42.04277
G1 X70.856 Y34.517 E42.04892
G1 X70.856 Y32.949 E42.10105
G1 X71.118 Y32.165 E42.12853
G1 X71.509 Y31.512 E42.15386
G1 X73.600 Y29.422 E42.25217
G1 X75.690 Y27.332 E42.35048
G1 X77.780 Y25.242 E42.44879
G1 X78.302 Y24.720 E42.47337
G1 X78.629 Y24.523 E42.48605
G1 X79.413 Y24.262 E42.51353
G1 X79.674 Y24.262 E42.52222
G1 X79.805 Y24.132 E42.52836
G1 X82.678 Y24.132 E42.62395
G1 X82.809 Y24.001 E42.63009
G1 X84.377 Y24.001 E42.68223
G1 X85.291 Y23.870 E42.71295
G1 X86.336 Y23.870 E42.74771
G1 X86.467 Y23.740 E42.75386
G1 X87.512 Y23.740 E42.78861
G1 X87.642 Y23.609 E42.79476
G1 X88.165 Y23.609 E42.81214
G1 X89.079 Y23.478 E42.84286
G1 X89.602 Y23.478 E42.86024
G1 X89.732 Y23.348 E42.86639
G1 X90.255 Y23.348 E42.88376
G1 X91.169 Y23.217 E42.91449
G1 X91.431 Y23.217 E42.92318
G1 X91.561 Y23.087 E42.92932
G1 X92.084 Y23.087 E42.94670
G1 X92.476 Y22.956 E42.96044
G1 X92.998 Y22.956 E42.97782
G1 X93.129 Y22.825 E42.98397
G1 X93.651 Y22.825 E43.00135
G1 X93.782 Y22.695 E43.00749
G1 X94.304 Y22.695 E43.02487
G1 X94.435 Y22.564 E43.03102
G1 X94.958 Y22.564 E43.04840
G1 X95.088 Y22.433 E43.05455
G1 X95.611 Y22.433 E43.07192
G1 X95.741 Y22.303 E43.07807
G1 X96.656 Y22.172 E43.10879
G1 X97.048 Y22.041 E43.12253
G1 X97.309 Y22.041 E43.13122
G1 X97.439 Y21.911 E43.13737
G1 X98.354 Y21.780 E43.16809
G1 X98.485 Y21.650 E43.17424
G1 X99.399 Y21.519 E43.20496
G1 X99.530 Y21.388 E43.21111
G1 X99.986 Y21.323 E43.22646
G1 X100.378 Y21.193 E43.24020
G1 X100.836 Y21.127 E43.25557
G1 X100.966 Y20.996 E43.26171
G1 X101.228 Y20.996 E43.27040
G1 X101.358 Y20.866 E43.27655
G1 X101.815 Y20.801 E43.29190
G1 X102.991 Y20.409 E43.33312
G1 X103.448 Y20.343 E43.34849
G1 X103.579 Y20.213 E43.35463
G1 X103.840 Y20.213 E43.36332
G1 X103.971 Y20.082 E43.36947
G1 X104.232 Y20.082 E43.37816
G1 X104.363 Y19.951 E43.38430
G1 X104.624 Y19.951 E43.39299
G1 X104.755 Y19.821 E43.39914
G1 X105.016 Y19.821 E43.40783
G1 X105.147 Y19.690 E43.41397
G1 X105.408 Y19.690 E43.42266
G1 X105.538 Y19.560 E43.42881
G1 X105.800 Y19.560 E43.43750
G1 X106.126 Y19.364 E43.45016
G1 X106.910 Y19.103 E43.47763
G1 X107.237 Y18.906 E43.49031
G1 X107.498 Y18.906 E43.49900
G1 X107.824 Y18.711 E43.51166
G1 X108.216 Y18.580 E43.52540
G1 X108.543 Y18.384 E43.53808
G1 X108.804 Y18.384 E43.54677
G1 X109.130 Y18.188 E43.55943
G1 X109.522 Y18.058 E43.57317
G1 X109.849 Y17.861 E43.58585
G1 X110.633 Y17.600 E43.61333
G1 X111.286 Y17.208 E43.63866
G1 X111.547 Y17.208 E43.64735
G1 X112.200 Y16.816 E43.67268
G1 X112.984 Y16.555 E43.70016
G1 X113.637 Y16.163 E43.72549
G1 X114.029 Y16.033 E43.73923
G1 X114.682 Y15.641 E43.76457
G1 X115.074 Y15.510 E43.77831
G1 X116.381 Y14.726 E43.82897
G1 X116.772 Y14.596 E43.84271
G1 X117.426 Y14.204 E43.86805
G1 X117.818 Y14.073 E43.88179
G1 X118.079 Y13.812 E43.89408
G1 X118.471 Y13.681 E43.90782
G1 X118.732 Y13.420 E43.92010
G1 X119.124 Y13.289 E43.93384
G1 X121.736 Y11.722 E44.03518
G1 X121.998 Y11.461 E44.04746
G1 X122.389 Y11.330 E44.06121
G1 X122.651 Y11.069 E44.07349
G1 X123.957 Y10.285 E44.12416
G1 X124.218 Y10.024 E44.13645
G1 X124.871 Y9.632 E44.16178
G1 X125.133 Y9.371 E44.17407
G1 X125.459 Y9.175 E44.18672
G1 X125.720 Y8.914 E44.19901
G1 X126.700 Y8.326 E44.23702
G1 X127.223 Y7.803 E44.26160
G1 X127.549 Y7.607 E44.27426
G1 X127.810 Y7.346 E44.28654
G1 X128.137 Y7.150 E44.29922
G1 X128.398 Y6.889 E44.31151
G1 X129.052 Y6.497 E44.33684
G1 X129.182 Y6.366 E44.34299
G1 X129.443 Y6.366 E44.35168
G1 X129.574 Y6.235 E44.35782
G1 X130.619 Y6.235 E44.39258
G1 X130.750 Y6.366 E44.39873
G1 X131.011 Y6.366 E44.40742
G1 X131.338 Y6.562 E44.42010
G1 X131.599 Y6.824 E44.43239
G1 X131.925 Y7.019 E44.44504
G1 X132.187 Y7.280 E44.45733
G1 X132.513 Y7.477 E44.47001
G1 X132.775 Y7.738 E44.48229
G1 X133.101 Y7.934 E44.49495
G1 X133.362 Y8.195 E44.50724
G1 X134.015 Y8.587 E44.53257
G1 X134.538 Y9.109 E44.55715
G1 X135.844 Y9.893 E44.60781
G1 X136.105 Y10.154 E44.62010
G1 X136.759 Y10.546 E44.64543
G1 X137.020 Y10.807 E44.65772
G1 X138.979 Y11.983 E44.73372
G1 X139.241 Y12.244 E44.74601
G1 X139.632 Y12.375 E44.75975
G1 X139.894 Y12.636 E44.77204
G1 X141.200 Y13.420 E44.82270
G1 X141.592 Y13.551 E44.83644
G1 X141.853 Y13.812 E44.84873
G1 X142.245 Y13.943 E44.86247
G1 X142.506 Y14.204 E44.87476
G1 X142.898 Y14.334 E44.88850
G1 X144.204 Y15.118 E44.93917
G1 X144.596 Y15.249 E44.95291
G1 X145.249 Y15.641 E44.97824
G1 X145.641 Y15.771 E44.99198
G1 X146.295 Y16.163 E45.01731
G1 X146.686 Y16.294 E45.03105
G1 X147.340 Y16.686 E45.05639
G1 X147.731 Y16.816 E45.07013
G1 X148.058 Y17.013 E45.08281
G1 X148.450 Y17.143 E45.09655
G1 X148.776 Y17.339 E45.10921
G1 X149.168 Y17.469 E45.12295
G1 X149.299 Y17.600 E45.12909
G1 X149.560 Y17.600 E45.13778
G1 X150.213 Y17.992 E45.16312
G1 X150.475 Y17.992 E45.17181
G1 X150.801 Y18.188 E45.18449
G1 X151.193 Y18.319 E45.19823
G1 X151.520 Y18.515 E45.21088
G1 X151.781 Y18.515 E45.21957
G1 X152.434 Y18.906 E45.24491
G1 X152.695 Y18.906 E45.25360
G1 X153.022 Y19.103 E45.26628
G1 X154.198 Y19.494 E45.30749
G1 X154.524 Y19.690 E45.32015
G1 X154.785 Y19.690 E45.32884
G1 X154.916 Y19.821 E45.33499
G1 X155.177 Y19.821 E45.34368
G1 X155.308 Y19.951 E45.34982
G1 X155.569 Y19.951 E45.35851
G1 X155.700 Y20.082 E45.36466
G1 X155.961 Y20.082 E45.37335
G1 X156.092 Y20.213 E45.37949
G1 X156.353 Y20.213 E45.38818
G1 X156.483 Y20.343 E45.39433
G1 X156.941 Y20.409 E45.40970
G1 X157.333 Y20.540 E45.42344
G1 X157.659 Y20.735 E45.43609
G1 X157.920 Y20.735 E45.44478
G1 X158.051 Y20.866 E45.45093
G1 X158.508 Y20.931 E45.46630
G1 X158.900 Y21.062 E45.48004
G1 X159.357 Y21.127 E45.49539
G1 X159.488 Y21.258 E45.50153
G1 X159.945 Y21.323 E45.51690
G1 X160.729 Y21.585 E45.54438
G1 X161.186 Y21.650 E45.55973
G1 X161.317 Y21.780 E45.56587
G1 X162.231 Y21.911 E45.59660
G1 X162.362 Y22.041 E45.60274
G1 X163.276 Y22.172 E45.63347
G1 X163.407 Y22.303 E45.63961
G1 X163.929 Y22.303 E45.65699
G1 X164.060 Y22.433 E45.66314
G1 X164.582 Y22.433 E45.68052
G1 X164.713 Y22.564 E45.68666
G1 X165.627 Y22.695 E45.71739
G1 X166.019 Y22.825 E45.73113
G1 X166.281 Y22.825 E45.73982
G1 X166.411 Y22.956 E45.74596
G1 X166.934 Y22.956 E45.76334
G1 X167.326 Y23.087 E45.77708
G1 X168.240 Y23.217 E45.80781
G1 X168.501 Y23.217 E45.81650
G1 X168.632 Y23.348 E45.82264
G1 X169.416 Y23.348 E45.84871
G1 X169.546 Y23.478 E45.85486
G1 X170.330 Y23.478 E45.88093
G1 X170.461 Y23.609 E45.88707
G1 X171.245 Y23.609 E45.91314
G1 X171.375 Y23.740 E45.91929
G1 X172.420 Y23.740 E45.95405
G1 X172.551 Y23.870 E45.96019
G1 X173.596 Y23.870 E45.99495
G1 X173.726 Y24.001 E46.00110
G1 X175.033 Y24.001 E46.04454
G1 X175.163 Y24.132 E46.05069
G1 X176.731 Y24.132 E46.10282
G1 X177.123 Y24.262 E46.11656
G1 X180.258 Y24.262 E46.22084
G1 X180.388 Y24.393 E46.22698
G1 X180.911 Y24.393 E46.24436
G1 X181.042 Y24.523 E46.25051
G1 X181.303 Y24.523 E46.25920
G1 X182.283 Y25.112 E46.29721
G1 X184.373 Y27.202 E46.39552
G1 X186.463 Y29.292 E46.49383
G1 X188.553 Y31.382 E46.59214
G1 X188.814 Y31.643 E46.60443
G1 X189.206 Y32.296 E46.62976
G1 X189.467 Y33.080 E46.65724
G1 X189.467 Y34.647 E46.70937
G1 X189.206 Y35.431 E46.73685
G1 X188.814 Y36.084 E46.76218
G1 X186.724 Y38.174 E46.86049
G1 X184.634 Y40.264 E46.95880
G1 X182.544 Y42.354 E47.05711
G1 X182.283 Y42.616 E47.06940
G1 X181.303 Y43.204 E47.10741
G1 X181.042 Y43.204 E47.11610
G1 X180.911 Y43.334 E47.12224
G1 X176.731 Y43.334 E47.26127
G1 X176.600 Y43.204 E47.26742
G1 X175.033 Y43.204 E47.31956
G1 X174.641 Y43.073 E47.33330
G1 X173.596 Y43.073 E47.36805
G1 X173.204 Y42.943 E47.38179
G1 X172.159 Y42.943 E47.41655
G1 X171.767 Y42.812 E47.43029
G1 X171.245 Y42.812 E47.44767
G1 X170.330 Y42.681 E47.47839
G1 X169.808 Y42.681 E47.49577
G1 X169.677 Y42.551 E47.50192
G1 X169.154 Y42.551 E47.51930
G1 X168.763 Y42.420 E47.53304
G1 X168.240 Y42.420 E47.55042
G1 X167.848 Y42.289 E47.56416
G1 X167.326 Y42.289 E47.58154
G1 X167.195 Y42.159 E47.58768
G1 X166.673 Y42.159 E47.60506
G1 X166.281 Y42.028 E47.61880
G1 X165.758 Y42.028 E47.63618
G1 X165.627 Y41.898 E47.64233
G1 X165.105 Y41.898 E47.65971
G1 X164.974 Y41.767 E47.66585
G1 X164.452 Y41.767 E47.68323
G1 X164.321 Y41.636 E47.68938
G1 X163.799 Y41.636 E47.70676
G1 X163.668 Y41.506 E47.71290
G1 X163.146 Y41.506 E47.73028
G1 X162.754 Y41.375 E47.74402
G1 X162.231 Y41.375 E47.76140
G1 X162.101 Y41.244 E47.76755
G1 X161.578 Y41.244 E47.78493
G1 X161.186 Y41.114 E47.79867
G1 X160.141 Y41.114 E47.83343
G1 X159.227 Y40.983 E47.86415
G1 X158.704 Y40.983 E47.88153
G1 X157.790 Y41.114 E47.91226
G1 X156.745 Y41.114 E47.94702
G1 X156.353 Y41.244 E47.96076
G1 X155.830 Y41.244 E47.97814
G1 X155.700 Y41.375 E47.98428
G1 X155.177 Y41.375 E48.00166
G1 X155.047 Y41.506 E48.00781
G1 X154.524 Y41.506 E48.02519
G1 X154.393 Y41.636 E48.03133
G1 X153.937 Y41.701 E48.04668
G1 X153.545 Y41.832 E48.06042
G1 X153.087 Y41.898 E48.07579
G1 X152.957 Y42.028 E48.08194
G1 X152.695 Y42.028 E48.09063
G1 X152.565 Y42.159 E48.09677
G1 X152.303 Y42.159 E48.10546
G1 X151.650 Y42.551 E48.13080
G1 X151.389 Y42.551 E48.13949
G1 X151.063 Y42.746 E48.15214
G1 X150.671 Y42.877 E48.16588
G1 X150.344 Y43.073 E48.17856
G1 X149.952 Y43.204 E48.19230
G1 X149.691 Y43.465 E48.20459
G1 X149.299 Y43.596 E48.21833
G1 X147.666 Y44.575 E48.28165
G1 X147.405 Y44.836 E48.29394
G1 X147.078 Y45.033 E48.30662
G1 X146.817 Y45.294 E48.31891
G1 X146.164 Y45.686 E48.34424
G1 X145.903 Y45.947 E48.35653
G1 X144.596 Y46.731 E48.40719
G1 X144.335 Y46.992 E48.41948
G1 X142.702 Y47.971 E48.48281
G1 X142.311 Y48.102 E48.49655
G1 X141.984 Y48.298 E48.50923
G1 X141.592 Y48.429 E48.52297
G1 X140.939 Y48.821 E48.54830
G1 X140.547 Y48.951 E48.56204
G1 X140.416 Y49.082 E48.56819
G1 X140.155 Y49.082 E48.57688
G1 X139.829 Y49.278 E48.58953
G1 X139.437 Y49.408 E48.60327
G1 X139.110 Y49.605 E48.61595
G1 X138.849 Y49.605 E48.62464
G1 X138.718 Y49.735 E48.63079
G1 X138.457 Y49.735 E48.63948
G1 X138.326 Y49.866 E48.64562
G1 X137.869 Y49.931 E48.66098
G1 X136.694 Y50.323 E48.70219
G1 X136.236 Y50.388 E48.71756
G1 X135.844 Y50.519 E48.73130
G1 X134.930 Y50.650 E48.76203
G1 X134.799 Y50.780 E48.76817
G1 X134.015 Y50.780 E48.79424
G1 X133.885 Y50.911 E48.80039
G1 X133.362 Y50.911 E48.81777
G1 X132.448 Y51.041 E48.84849
G1 X131.403 Y51.041 E48.88325
G1 X131.011 Y51.172 E48.89699
G1 X128.921 Y51.172 E48.96651
G1 X128.790 Y51.041 E48.97265
G1 X127.745 Y51.041 E49.00741
G1 X126.831 Y50.911 E49.03813
G1 X126.308 Y50.911 E49.05551
G1 X126.178 Y50.780 E49.06166
G0 X126.178 Y50.780 F5400
G0 F3000 E48.06166
G0 X128.790 Y34.451 F5400
G0 F3000 E49.06166
G1 X129.182 Y34.582 E49.07540 F2400
G1 X131.272 Y34.582 E49.14492
G1 X131.403 Y34.451 E49.15106
G1 X131.925 Y34.451 E49.16844
G1 X132.840 Y34.321 E49.19916
G1 X134.015 Y33.929 E49.24038
G1 X134.277 Y33.929 E49.24907
G1 X134.603 Y33.733 E49.26173
G1 X134.603 Y33.472 E49.27042
G1 X134.734 Y33.341 E49.27656
G1 X134.734 Y32.819 E49.29394
G1 X134.864 Y32.688 E49.30009
G1 X134.864 Y32.165 E49.31747
G1 X134.995 Y31.251 E49.34819
G1 X134.864 Y31.120 E49.35434
G1 X134.864 Y30.075 E49.38910
G1 X134.734 Y29.684 E49.40284
G1 X134.734 Y29.422 E49.41153
G1 X134.603 Y29.292 E49.41767
G1 X134.603 Y29.030 E49.42636
G1 X134.277 Y28.835 E49.43902
G1 X134.015 Y28.835 E49.44771
G1 X133.689 Y28.638 E49.46039
G1 X133.297 Y28.508 E49.47413
G1 X132.579 Y28.443 E49.49812
G1 X132.448 Y28.312 E49.50426
G1 X131.925 Y28.312 E49.52164
G1 X131.533 Y28.182 E49.53538
G1 X128.921 Y28.182 E49.62228
G1 X128.529 Y28.312 E49.63602
G1 X128.007 Y28.312 E49.65340
G1 X127.615 Y28.443 E49.66714
G1 X127.353 Y28.443 E49.67583
G1 X127.223 Y28.573 E49.68198
G1 X126.766 Y28.638 E49.69733
G1 X125.982 Y28.900 E49.72480
G1 X125.786 Y29.227 E49.73748
G1 X125.721 Y29.684 E49.75283
G1 X125.590 Y29.814 E49.75898
G1 X125.590 Y30.337 E49.77636
G1 X125.460 Y30.729 E49.79010
G1 X125.460 Y31.774 E49.82486
G1 X125.590 Y32.688 E49.85558
G1 X125.590 Y32.949 E49.86427
G1 X125.721 Y33.080 E49.87042
G1 X125.721 Y33.341 E49.87911
G1 X125.851 Y33.472 E49.88525
G1 X125.916 Y33.798 E49.89632
G1 X126.178 Y33.929 E49.90604
G1 X126.439 Y33.929 E49.91472
G1 X126.570 Y34.059 E49.92087
G1 X127.027 Y34.125 E49.93624
G1 X127.419 Y34.255 E49.94998
G1 X128.137 Y34.321 E49.97397
G1 X128.268 Y34.451 E49.98011
G1 X128.790 Y34.451 E49.99749
G0 X128.790 Y34.451 F5400
G0 X129.052 Y34.974
G1 X131.142 Y34.974 E50.06701 F2400
G1 X131.533 Y34.843 E50.08075
G1 X132.317 Y34.843 E50.10682
G1 X132.448 Y34.712 E50.11296
G1 X132.970 Y34.712 E50.13034
G1 X133.101 Y34.582 E50.13649
G1 X133.362 Y34.582 E50.14518
G1 X133.493 Y34.451 E50.15132
G1 X133.754 Y34.451 E50.16001
G1 X133.885 Y34.321 E50.16616
G1 X134.342 Y34.255 E50.18151
G1 X134.864 Y33.994 E50.20094
G1 X135.126 Y33.210 E50.22842
G1 X135.256 Y32.296 E50.25914
G1 X135.256 Y31.774 E50.27652
G1 X135.387 Y31.643 E50.28266
G1 X135.256 Y30.729 E50.31339
G1 X135.256 Y29.945 E50.33946
G1 X135.126 Y29.814 E50.34560
G1 X135.060 Y29.357 E50.36095
G1 X134.930 Y28.965 E50.37469
G1 X134.734 Y28.638 E50.38737
G1 X133.950 Y28.377 E50.41485
G1 X133.624 Y28.182 E50.42750
G1 X133.362 Y28.182 E50.43619
G1 X133.232 Y28.051 E50.44234
G1 X132.709 Y28.051 E50.45972
G1 X132.317 Y27.920 E50.47346
G1 X131.795 Y27.920 E50.49084
G1 X131.664 Y27.790 E50.49699
G1 X129.574 Y27.790 E50.56650
G1 X128.790 Y27.790 E50.59257
G1 X128.660 Y27.920 E50.59872
G1 X127.876 Y27.920 E50.62479
G1 X127.745 Y28.051 E50.63093
G1 X126.831 Y28.182 E50.66165
G1 X126.700 Y28.312 E50.66780
G1 X126.439 Y28.312 E50.67649
G1 X126.308 Y28.443 E50.68263
G1 X126.047 Y28.443 E50.69132
G1 X125.525 Y28.704 E50.71076
G1 X125.460 Y29.161 E50.72611
G1 X125.329 Y29.292 E50.73225
G1 X125.198 Y30.206 E50.76298
G1 X125.198 Y30.467 E50.77167
G1 X125.068 Y30.598 E50.77781
G1 X125.068 Y32.165 E50.82995
G1 X125.198 Y32.296 E50.83609
G1 X125.198 Y32.819 E50.85347
G1 X125.460 Y33.602 E50.88095
G1 X125.460 Y33.864 E50.88964
G1 X125.786 Y34.190 E50.90499
G1 X126.505 Y34.386 E50.92977
G1 X126.961 Y34.451 E50.94512
G1 X127.092 Y34.582 E50.95127
G1 X127.353 Y34.582 E50.95996
G1 X127.484 Y34.712 E50.96610
G1 X128.007 Y34.712 E50.98348
G1 X128.398 Y34.843 E50.99722
G1 X128.921 Y34.843 E51.01460
G1 X129.052 Y34.974 E51.02075
G0 X129.052 Y34.974 F5400
G0 F3000 E50.02075
G0 X129.052 Y50.780 F5400
G0 F3000 E51.02075
G1 X128.660 Y50.650 E51.03449 F2400
G1 X127.353 Y50.650 E51.07793
G1 X127.223 Y50.519 E51.08408
G1 X126.700 Y50.519 E51.10146
G1 X125.786 Y50.388 E51.13218
G1 X125.525 Y50.388 E51.14087
G1 X125.394 Y50.258 E51.14702
G1 X124.871 Y50.258 E51.16440
G1 X124.741 Y50.127 E51.17054
G1 X123.826 Y49.996 E51.20127
G1 X123.435 Y49.866 E51.21501
G1 X123.043 Y49.735 E51.22875
G1 X122.781 Y49.735 E51.23744
G1 X122.651 Y49.605 E51.24358
G1 X122.389 Y49.605 E51.25227
G1 X122.259 Y49.474 E51.25842
G1 X121.998 Y49.474 E51.26711
G1 X121.867 Y49.343 E51.27325
G1 X121.606 Y49.343 E51.28194
G1 X121.475 Y49.213 E51.28809
G1 X121.214 Y49.213 E51.29678
G1 X121.083 Y49.082 E51.30292
G1 X120.822 Y49.082 E51.31161
G1 X120.495 Y48.886 E51.32429
G1 X120.103 Y48.755 E51.33803
G1 X119.777 Y48.560 E51.35069
G1 X119.516 Y48.560 E51.35938
G1 X118.863 Y48.168 E51.38471
G1 X118.471 Y48.037 E51.39846
G1 X117.818 Y47.645 E51.42379
G1 X117.426 Y47.515 E51.43753
G1 X117.164 Y47.253 E51.44982
G1 X115.205 Y46.078 E51.52582
G1 X114.944 Y45.816 E51.53810
G1 X114.291 Y45.424 E51.56344
G1 X114.029 Y45.163 E51.57572
G1 X113.376 Y44.771 E51.60106
G1 X113.115 Y44.510 E51.61334
G1 X112.462 Y44.118 E51.63868
G1 X112.200 Y43.857 E51.65097
G1 X110.241 Y42.681 E51.72697
G1 X109.849 Y42.551 E51.74071
G1 X109.522 Y42.354 E51.75339
G1 X109.130 Y42.224 E51.76713
G1 X108.804 Y42.028 E51.77978
G1 X108.020 Y41.767 E51.80726
G1 X107.890 Y41.636 E51.81341
G1 X107.628 Y41.636 E51.82210
G1 X107.498 Y41.506 E51.82824
G1 X107.237 Y41.506 E51.83693
G1 X107.106 Y41.375 E51.84308
G1 X106.649 Y41.309 E51.85845
G1 X106.257 Y41.179 E51.87219
G1 X105.800 Y41.114 E51.88754
G1 X105.669 Y40.983 E51.89368
G1 X105.147 Y40.983 E51.91106
G1 X105.016 Y40.852 E51.91721
G1 X104.493 Y40.852 E51.93459
G1 X104.102 Y40.722 E51.94833
G1 X103.579 Y40.722 E51.96571
G1 X103.448 Y40.591 E51.97185
G1 X101.881 Y40.591 E52.02399
G1 X101.750 Y40.461 E52.03013
G1 X100.966 Y40.461 E52.05620
G1 X100.836 Y40.591 E52.06235
G1 X99.268 Y40.591 E52.11449
G1 X98.354 Y40.722 E52.14521
G1 X98.093 Y40.722 E52.15390
G1 X97.962 Y40.852 E52.16004
G1 X97.439 Y40.852 E52.17742
G1 X97.048 Y40.983 E52.19116
G1 X96.525 Y40.983 E52.20854
G1 X96.394 Y41.114 E52.21469
G1 X95.872 Y41.114 E52.23207
G1 X95.741 Y41.244 E52.23822
G1 X95.219 Y41.244 E52.25559
G1 X95.088 Y41.375 E52.26174
G1 X94.566 Y41.375 E52.27912
G1 X94.435 Y41.506 E52.28527
G1 X93.913 Y41.506 E52.30265
G1 X93.521 Y41.636 E52.31639
G1 X92.998 Y41.636 E52.33377
G1 X92.606 Y41.767 E52.34751
G1 X90.777 Y42.028 E52.40895
G1 X90.255 Y42.028 E52.42633
G1 X90.124 Y42.159 E52.43247
G1 X89.602 Y42.159 E52.44985
G1 X89.210 Y42.289 E52.46360
G1 X87.904 Y42.289 E52.50704
G1 X87.773 Y42.420 E52.51319
G1 X87.250 Y42.420 E52.53057
G1 X86.336 Y42.551 E52.56129
G1 X85.030 Y42.551 E52.60474
G1 X84.899 Y42.681 E52.61088
G1 X83.332 Y42.681 E52.66302
G1 X82.417 Y42.812 E52.69374
G1 X79.805 Y42.812 E52.78063
G1 X78.629 Y42.420 E52.82185
G1 X78.302 Y42.224 E52.83453
G1 X74.122 Y38.044 E53.03115
G1 X71.771 Y35.692 E53.14175
G1 X71.640 Y35.301 E53.15549
G1 X71.444 Y34.974 E53.16815
G1 X71.314 Y34.582 E53.18189
G1 X71.248 Y34.125 E53.19726
G1 X71.248 Y32.819 E53.24071
G1 X71.379 Y32.688 E53.24685
G1 X71.379 Y32.427 E53.25554
G1 X71.967 Y31.447 E53.29355
G1 X76.147 Y27.267 E53.49018
G1 X78.237 Y25.177 E53.58848
G1 X78.890 Y24.785 E53.61382
G1 X79.152 Y24.785 E53.62251
G1 X79.282 Y24.654 E53.62865
G1 X80.197 Y24.523 E53.65938
G1 X82.287 Y24.523 E53.72889
G1 X83.201 Y24.393 E53.75962
G1 X84.769 Y24.393 E53.81175
G1 X84.899 Y24.262 E53.81790
G1 X85.944 Y24.262 E53.85266
G1 X86.859 Y24.132 E53.88338
G1 X87.381 Y24.132 E53.90076
G1 X87.773 Y24.001 E53.91450
G1 X88.557 Y24.001 E53.94057
G1 X88.687 Y23.870 E53.94671
G1 X89.210 Y23.870 E53.96409
G1 X90.124 Y23.740 E53.99482
G1 X90.647 Y23.740 E54.01220
G1 X90.777 Y23.609 E54.01834
G1 X91.300 Y23.609 E54.03572
G1 X91.692 Y23.478 E54.04946
G1 X92.214 Y23.478 E54.06684
G1 X92.345 Y23.348 E54.07299
G1 X92.867 Y23.348 E54.09037
G1 X93.259 Y23.217 E54.10411
G1 X94.174 Y23.087 E54.13483
G1 X94.566 Y22.956 E54.14857
G1 X95.480 Y22.825 E54.17930
G1 X95.872 Y22.695 E54.19304
G1 X96.133 Y22.695 E54.20173
G1 X96.264 Y22.564 E54.20787
G1 X96.786 Y22.564 E54.22525
G1 X96.917 Y22.433 E54.23140
G1 X97.831 Y22.303 E54.26212
G1 X97.962 Y22.172 E54.26827
G1 X98.876 Y22.041 E54.29899
G1 X99.007 Y21.911 E54.30514
G1 X99.921 Y21.780 E54.33586
G1 X100.052 Y21.650 E54.34201
G1 X100.313 Y21.650 E54.35070
G1 X100.444 Y21.519 E54.35684
G1 X100.901 Y21.454 E54.37219
G1 X101.293 Y21.323 E54.38593
G1 X101.750 Y21.258 E54.40130
G1 X101.881 Y21.127 E54.40745
G1 X102.142 Y21.127 E54.41614
G1 X102.273 Y20.996 E54.42228
G1 X102.534 Y20.996 E54.43097
G1 X102.665 Y20.866 E54.43712
G1 X102.926 Y20.866 E54.44581
G1 X103.056 Y20.735 E54.45195
G1 X103.513 Y20.670 E54.46730
G1 X105.865 Y19.886 E54.54974
G1 X106.192 Y19.690 E54.56242
G1 X106.453 Y19.690 E54.57111
G1 X106.583 Y19.560 E54.57725
G1 X106.845 Y19.560 E54.58594
G1 X107.171 Y19.364 E54.59860
G1 X107.563 Y19.233 E54.61234
G1 X107.890 Y19.037 E54.62502
G1 X108.151 Y19.037 E54.63371
G1 X108.477 Y18.841 E54.64636
G1 X108.869 Y18.711 E54.66011
G1 X109.196 Y18.515 E54.67279
G1 X109.457 Y18.515 E54.68148
G1 X110.110 Y18.123 E54.70681
G1 X110.372 Y18.123 E54.71550
G1 X111.025 Y17.731 E54.74083
G1 X111.809 Y17.469 E54.76831
G1 X112.462 Y17.078 E54.79364
G1 X112.723 Y17.078 E54.80233
G1 X113.376 Y16.686 E54.82767
G1 X113.768 Y16.555 E54.84141
G1 X114.421 Y16.163 E54.86674
G1 X114.813 Y16.033 E54.88048
G1 X115.466 Y15.641 E54.90581
G1 X115.858 Y15.510 E54.91955
G1 X116.119 Y15.249 E54.93184
G1 X116.511 Y15.118 E54.94558
G1 X117.164 Y14.726 E54.97092
G1 X117.556 Y14.596 E54.98466
G1 X122.781 Y11.461 E55.18733
G1 X123.043 Y11.199 E55.19961
G1 X124.349 Y10.416 E55.25028
G1 X124.610 Y10.154 E55.26257
G1 X124.936 Y9.959 E55.27523
G1 X125.198 Y9.697 E55.28751
G1 X125.525 Y9.501 E55.30019
G1 X125.786 Y9.240 E55.31248
G1 X126.765 Y8.652 E55.35047
G1 X127.027 Y8.391 E55.36276
G1 X127.353 Y8.195 E55.37544
G1 X127.876 Y7.672 E55.40002
G1 X128.529 Y7.280 E55.42535
G1 X128.790 Y7.019 E55.43764
G1 X129.117 Y6.824 E55.45029
G1 X129.508 Y6.693 E55.46403
G1 X129.966 Y6.627 E55.47940
G1 X130.488 Y6.627 E55.49678
G1 X131.272 Y6.889 E55.52426
G1 X131.795 Y7.411 E55.54883
G1 X132.448 Y7.803 E55.57417
G1 X132.709 Y8.064 E55.58645
G1 X133.036 Y8.260 E55.59914
G1 X133.297 Y8.522 E55.61142
G1 X133.624 Y8.717 E55.62408
G1 X133.885 Y8.979 E55.63637
G1 X134.212 Y9.175 E55.64905
G1 X134.473 Y9.436 E55.66133
G1 X135.452 Y10.024 E55.69932
G1 X135.714 Y10.285 E55.71161
G1 X136.367 Y10.677 E55.73694
G1 X136.628 Y10.938 E55.74923
G1 X137.934 Y11.722 E55.79990
G1 X138.196 Y11.983 E55.81219
G1 X138.587 Y12.114 E55.82593
G1 X138.849 Y12.375 E55.83821
G1 X142.768 Y14.726 E55.99022
G1 X143.159 Y14.857 E56.00396
G1 X144.466 Y15.641 E56.05463
G1 X144.858 Y15.771 E56.06837
G1 X145.511 Y16.163 E56.09370
G1 X145.903 Y16.294 E56.10744
G1 X146.556 Y16.686 E56.13277
G1 X146.948 Y16.816 E56.14651
G1 X147.601 Y17.208 E56.17185
G1 X147.993 Y17.339 E56.18559
G1 X148.123 Y17.469 E56.19173
G1 X148.385 Y17.469 E56.20042
G1 X149.038 Y17.861 E56.22576
G1 X149.821 Y18.123 E56.25323
G1 X150.148 Y18.319 E56.26591
G1 X150.540 Y18.449 E56.27965
G1 X150.866 Y18.645 E56.29231
G1 X151.128 Y18.645 E56.30100
G1 X151.455 Y18.841 E56.31368
G1 X151.846 Y18.972 E56.32742
G1 X152.173 Y19.168 E56.34008
G1 X152.957 Y19.429 E56.36756
G1 X153.087 Y19.560 E56.37370
G1 X153.348 Y19.560 E56.38239
G1 X153.479 Y19.690 E56.38854
G1 X153.740 Y19.690 E56.39723
G1 X153.871 Y19.821 E56.40337
G1 X154.132 Y19.821 E56.41206
G1 X154.459 Y20.017 E56.42474
G1 X156.418 Y20.670 E56.49344
G1 X156.875 Y20.735 E56.50879
G1 X157.006 Y20.866 E56.51493
G1 X157.267 Y20.866 E56.52362
G1 X157.594 Y21.062 E56.53630
G1 X157.986 Y21.193 E56.55004
G1 X158.443 Y21.258 E56.56539
G1 X158.574 Y21.388 E56.57154
G1 X158.835 Y21.388 E56.58023
G1 X158.965 Y21.519 E56.58637
G1 X159.880 Y21.650 E56.61710
G1 X160.010 Y21.780 E56.62324
G1 X160.272 Y21.780 E56.63193
G1 X160.402 Y21.911 E56.63808
G1 X160.664 Y21.911 E56.64677
G1 X160.794 Y22.041 E56.65291
G1 X161.709 Y22.172 E56.68364
G1 X161.839 Y22.303 E56.68978
G1 X162.754 Y22.433 E56.72051
G1 X162.884 Y22.564 E56.72665
G1 X163.799 Y22.695 E56.75738
G1 X164.191 Y22.825 E56.77112
G1 X165.105 Y22.956 E56.80184
G1 X165.236 Y23.087 E56.80799
G1 X165.758 Y23.087 E56.82537
G1 X165.889 Y23.217 E56.83151
G1 X166.803 Y23.348 E56.86223
G1 X167.064 Y23.348 E56.87092
G1 X167.195 Y23.478 E56.87707
G1 X167.718 Y23.478 E56.89445
G1 X167.848 Y23.609 E56.90060
G1 X168.371 Y23.609 E56.91798
G1 X168.763 Y23.740 E56.93172
G1 X169.285 Y23.740 E56.94910
G1 X169.677 Y23.870 E56.96284
G1 X170.199 Y23.870 E56.98022
G1 X170.591 Y24.001 E56.99396
G1 X171.114 Y24.001 E57.01134
G1 X171.506 Y24.132 E57.02508
G1 X172.028 Y24.132 E57.04246
G1 X172.943 Y24.262 E57.07318
G1 X173.465 Y24.262 E57.09056
G1 X173.857 Y24.393 E57.10430
G1 X174.902 Y24.393 E57.13906
G1 X175.294 Y24.523 E57.15280
G1 X176.862 Y24.523 E57.20494
G1 X176.992 Y24.654 E57.21108
G1 X180.127 Y24.654 E57.31536
G1 X180.519 Y24.785 E57.32910
G1 X180.977 Y24.850 E57.34447
G1 X181.368 Y24.981 E57.35821
G1 X181.695 Y25.177 E57.37086
G1 X182.087 Y25.307 E57.38460
G1 X186.267 Y29.487 E57.58122
G1 X188.357 Y31.577 E57.67953
G1 X188.945 Y32.557 E57.71754
G1 X188.945 Y32.819 E57.72623
G1 X189.076 Y32.949 E57.73238
G1 X189.076 Y34.778 E57.79320
G1 X188.945 Y34.909 E57.79935
G1 X188.945 Y35.170 E57.80804
G1 X188.357 Y36.150 E57.84605
G1 X184.177 Y40.330 E58.04267
G1 X182.348 Y42.159 E58.12870
G1 X181.368 Y42.746 E58.16669
G1 X180.977 Y42.877 E58.18043
G1 X180.519 Y42.943 E58.19580
G1 X176.862 Y42.943 E58.31745
G1 X176.470 Y42.812 E58.33119
G1 X174.902 Y42.812 E58.38332
G1 X174.771 Y42.681 E58.38947
G1 X173.465 Y42.681 E58.43291
G1 X173.335 Y42.551 E58.43906
G1 X172.028 Y42.551 E58.48250
G1 X171.898 Y42.420 E58.48865
G1 X170.853 Y42.420 E58.52341
G1 X170.722 Y42.289 E58.52955
G1 X170.199 Y42.289 E58.54693
G1 X169.285 Y42.159 E58.57766
G1 X169.024 Y42.159 E58.58635
G1 X168.893 Y42.028 E58.59249
G1 X168.109 Y42.028 E58.61856
G1 X167.979 Y41.898 E58.62471
G1 X167.456 Y41.898 E58.64209
G1 X167.064 Y41.767 E58.65583
G1 X166.542 Y41.767 E58.67321
G1 X166.411 Y41.636 E58.67935
G1 X165.889 Y41.636 E58.69673
G1 X165.497 Y41.506 E58.71047
G1 X164.582 Y41.375 E58.74120
G1 X164.191 Y41.244 E58.75494
G1 X163.276 Y41.114 E58.78566
G1 X163.015 Y41.114 E58.79435
G1 X162.884 Y40.983 E58.80050
G1 X162.362 Y40.983 E58.81788
G1 X161.970 Y40.852 E58.83162
G1 X161.447 Y40.852 E58.84900
G1 X161.317 Y40.722 E58.85514
G1 X159.749 Y40.722 E58.90728
G1 X159.619 Y40.591 E58.91342
G1 X158.312 Y40.591 E58.95687
G1 X158.182 Y40.722 E58.96302
G1 X156.614 Y40.722 E59.01515
G1 X156.483 Y40.852 E59.02130
G1 X155.961 Y40.852 E59.03868
G1 X155.569 Y40.983 E59.05242
G1 X154.655 Y41.114 E59.08314
G1 X154.263 Y41.244 E59.09688
G1 X154.002 Y41.244 E59.10557
G1 X153.871 Y41.375 E59.11172
G1 X153.610 Y41.375 E59.12041
G1 X153.479 Y41.506 E59.12655
G1 X153.022 Y41.571 E59.14190
G1 X152.238 Y41.832 E59.16938
G1 X151.912 Y42.028 E59.18206
G1 X151.128 Y42.289 E59.20954
G1 X150.997 Y42.420 E59.21568
G1 X150.736 Y42.420 E59.22437
G1 X149.430 Y43.204 E59.27504
G1 X149.038 Y43.334 E59.28878
G1 X147.731 Y44.118 E59.33945
G1 X147.470 Y44.379 E59.35173
G1 X147.144 Y44.575 E59.36439
G1 X146.883 Y44.836 E59.37667
G1 X146.556 Y45.033 E59.38935
G1 X146.295 Y45.294 E59.40164
G1 X144.988 Y46.078 E59.45231
G1 X144.727 Y46.339 E59.46459
G1 X142.768 Y47.515 E59.54059
G1 X142.637 Y47.645 E59.54674
G1 X142.376 Y47.645 E59.55543
G1 X141.722 Y48.037 E59.58076
G1 X141.331 Y48.168 E59.59450
G1 X140.677 Y48.560 E59.61984
G1 X139.894 Y48.821 E59.64731
G1 X139.763 Y48.951 E59.65346
G1 X139.502 Y48.951 E59.66215
G1 X139.175 Y49.147 E59.67480
G1 X138.392 Y49.408 E59.70228
G1 X137.934 Y49.474 E59.71765
G1 X137.804 Y49.605 E59.72380
G1 X137.542 Y49.605 E59.73249
G1 X137.412 Y49.735 E59.73863
G1 X137.151 Y49.735 E59.74732
G1 X137.020 Y49.866 E59.75347
G1 X136.759 Y49.866 E59.76216
G1 X136.628 Y49.996 E59.76830
G1 X136.105 Y49.996 E59.78568
G1 X135.975 Y50.127 E59.79183
G1 X135.452 Y50.127 E59.80921
G1 X135.322 Y50.258 E59.81535
G1 X133.493 Y50.519 E59.87680
G1 X132.970 Y50.519 E59.89418
G1 X132.840 Y50.650 E59.90032
G1 X131.272 Y50.650 E59.95246
G1 X131.142 Y50.780 E59.95860
G1 X129.052 Y50.780 E60.02812
G0 X129.052 Y50.780 F5400
G0 X128.790 Y50.258
G1 X127.745 Y50.258 E60.06288 F2400
G1 X126.831 Y50.127 E60.09360
G1 X126.308 Y50.127 E60.11098
G1 X126.178 Y49.996 E60.11713
G1 X125.655 Y49.996 E60.13450
G1 X125.263 Y49.866 E60.14825
G1 X124.349 Y49.735 E60.17897
G1 X124.218 Y49.605 E60.18511
G1 X123.696 Y49.605 E60.20249
G1 X123.565 Y49.474 E60.20864
G1 X123.304 Y49.474 E60.21733
G1 X123.173 Y49.343 E60.22348
G1 X122.716 Y49.278 E60.23884
G1 X120.756 Y48.625 E60.30754
G1 X120.430 Y48.429 E60.32019
G1 X120.169 Y48.429 E60.32888
G1 X119.842 Y48.233 E60.34156
G1 X119.450 Y48.102 E60.35530
G1 X119.124 Y47.906 E60.36796
G1 X118.732 Y47.776 E60.38170
G1 X118.079 Y47.384 E60.40703
G1 X117.687 Y47.253 E60.42078
G1 X117.034 Y46.861 E60.44611
G1 X116.772 Y46.600 E60.45840
G1 X116.381 Y46.470 E60.47214
G1 X116.119 Y46.208 E60.48442
G1 X115.727 Y46.078 E60.49816
G1 X115.466 Y45.816 E60.51045
G1 X114.813 Y45.424 E60.53578
G1 X114.552 Y45.163 E60.54807
G1 X113.899 Y44.771 E60.57340
G1 X113.637 Y44.510 E60.58569
G1 X112.984 Y44.118 E60.61103
G1 X112.723 Y43.857 E60.62331
G1 X112.396 Y43.661 E60.63599
G1 X112.135 Y43.399 E60.64828
G1 X111.155 Y42.812 E60.68627
G1 X110.764 Y42.681 E60.70001
G1 X110.502 Y42.420 E60.71230
G1 X110.110 Y42.289 E60.72604
G1 X109.457 Y41.898 E60.75137
G1 X109.196 Y41.898 E60.76006
G1 X108.543 Y41.506 E60.78540
G1 X108.282 Y41.506 E60.79409
G1 X107.955 Y41.309 E60.80677
G1 X107.171 Y41.048 E60.83424
G1 X106.714 Y40.983 E60.84959
G1 X106.583 Y40.852 E60.85574
G1 X106.322 Y40.852 E60.86443
G1 X106.192 Y40.722 E60.87057
G1 X105.277 Y40.591 E60.90130
G1 X104.885 Y40.461 E60.91504
G1 X104.363 Y40.461 E60.93242
G1 X104.232 Y40.330 E60.93856
G1 X103.710 Y40.330 E60.95594
G1 X103.318 Y40.199 E60.96968
G1 X102.273 Y40.199 E61.00444
G1 X101.358 Y40.069 E61.03517
G1 X100.444 Y40.199 E61.06589
G1 X98.876 Y40.199 E61.11803
G1 X98.746 Y40.330 E61.12417
G1 X98.223 Y40.330 E61.14155
G1 X97.831 Y40.461 E61.15529
G1 X97.309 Y40.461 E61.17267
G1 X97.178 Y40.591 E61.17882
G1 X96.656 Y40.591 E61.19620
G1 X96.264 Y40.722 E61.20994
G1 X95.349 Y40.852 E61.24066
G1 X94.958 Y40.983 E61.25440
G1 X94.043 Y41.114 E61.28512
G1 X93.782 Y41.114 E61.29381
G1 X93.651 Y41.244 E61.29996
G1 X92.867 Y41.244 E61.32603
G1 X92.737 Y41.375 E61.33217
G1 X92.214 Y41.375 E61.34955
G1 X92.084 Y41.506 E61.35570
G1 X91.300 Y41.506 E61.38177
G1 X91.169 Y41.636 E61.38792
G1 X90.647 Y41.636 E61.40530
G1 X89.732 Y41.767 E61.43602
G1 X89.471 Y41.767 E61.44471
G1 X89.341 Y41.898 E61.45085
G1 X88.295 Y41.898 E61.48561
G1 X87.381 Y42.028 E61.51633
G1 X86.859 Y42.028 E61.53371
G1 X86.728 Y42.159 E61.53986
G1 X85.160 Y42.159 E61.59199
G1 X84.769 Y42.289 E61.60573
G1 X82.940 Y42.289 E61.66656
G1 X82.809 Y42.420 E61.67271
G1 X79.674 Y42.420 E61.77698
G1 X79.543 Y42.289 E61.78313
G1 X79.282 Y42.289 E61.79182
G1 X79.152 Y42.159 E61.79796
G1 X78.890 Y42.159 E61.80665
G1 X78.237 Y41.767 E61.83198
G1 X76.147 Y39.677 E61.93029
G1 X74.057 Y37.587 E62.02860
G1 X72.228 Y35.758 E62.11462
G1 X72.032 Y35.431 E62.12730
G1 X71.901 Y35.039 E62.14104
G1 X71.771 Y34.909 E62.14719
G1 X71.771 Y34.647 E62.15588
G1 X71.640 Y34.517 E62.16202
G1 X71.640 Y32.949 E62.21416
G1 X71.901 Y32.165 E62.24164
G1 X72.293 Y31.512 E62.26697
G1 X74.383 Y29.422 E62.36528
G1 X76.473 Y27.332 E62.46359
G1 X78.302 Y25.503 E62.54961
G1 X78.629 Y25.307 E62.56229
G1 X79.413 Y25.046 E62.58977
G1 X79.674 Y25.046 E62.59846
G1 X79.805 Y24.915 E62.60460
G1 X82.678 Y24.915 E62.70019
G1 X82.809 Y24.785 E62.70633
G1 X84.377 Y24.785 E62.75847
G1 X85.291 Y24.654 E62.78919
G1 X86.336 Y24.654 E62.82395
G1 X86.467 Y24.523 E62.83010
G1 X87.512 Y24.523 E62.86485
G1 X87.642 Y24.393 E62.87100
G1 X88.165 Y24.393 E62.88838
G1 X89.079 Y24.262 E62.91910
G1 X89.602 Y24.262 E62.93648
G1 X89.732 Y24.132 E62.94263
G1 X90.255 Y24.132 E62.96001
G1 X91.169 Y24.001 E62.99073
G1 X91.431 Y24.001 E62.99942
G1 X91.561 Y23.870 E63.00556
G1 X92.084 Y23.870 E63.02294
G1 X92.476 Y23.740 E63.03668
G1 X92.998 Y23.740 E63.05406
G1 X93.129 Y23.609 E63.06021
G1 X93.651 Y23.609 E63.07759
G1 X93.782 Y23.478 E63.08374
G1 X94.304 Y23.478 E63.10111
G1 X94.435 Y23.348 E63.10726
G1 X94.958 Y23.348 E63.12464
G1 X95.088 Y23.217 E63.13079
G1 X95.611 Y23.217 E63.14817
G1 X95.741 Y23.087 E63.15431
G1 X96.656 Y22.956 E63.18503
G1 X97.048 Y22.825 E63.19877
G1 X97.309 Y22.825 E63.20746
G1 X97.439 Y22.695 E63.21361
G1 X98.354 Y22.564 E63.24433
G1 X98.485 Y22.433 E63.25048
G1 X99.399 Y22.303 E63.28120
G1 X99.530 Y22.172 E63.28735
G1 X99.986 Y22.107 E63.30270
G1 X100.378 Y21.976 E63.31644
G1 X100.836 Y21.911 E63.33181
G1 X100.966 Y21.780 E63.33795
G1 X101.228 Y21.780 E63.34664
G1 X101.358 Y21.650 E63.35279
G1 X101.815 Y21.585 E63.36814
G1 X102.991 Y21.193 E63.40936
G1 X103.448 Y21.127 E63.42473
G1 X103.579 Y20.996 E63.43087
G1 X103.840 Y20.996 E63.43956
G1 X103.971 Y20.866 E63.44571
G1 X104.232 Y20.866 E63.45440
G1 X104.363 Y20.735 E63.46054
G1 X104.624 Y20.735 E63.46923
G1 X104.755 Y20.605 E63.47538
G1 X105.016 Y20.605 E63.48407
G1 X105.147 Y20.474 E63.49021
G1 X105.408 Y20.474 E63.49890
G1 X105.538 Y20.343 E63.50505
G1 X105.800 Y20.343 E63.51374
G1 X106.126 Y20.148 E63.52640
G1 X106.910 Y19.886 E63.55387
G1 X107.237 Y19.690 E63.56655
G1 X107.498 Y19.690 E63.57524
G1 X107.824 Y19.494 E63.58790
G1 X108.216 Y19.364 E63.60164
G1 X108.543 Y19.168 E63.61432
G1 X108.804 Y19.168 E63.62301
G1 X109.130 Y18.972 E63.63567
G1 X109.522 Y18.841 E63.64941
G1 X109.849 Y18.645 E63.66209
G1 X110.633 Y18.384 E63.68957
G1 X111.286 Y17.992 E63.71490
G1 X111.547 Y17.992 E63.72359
G1 X112.200 Y17.600 E63.74892
G1 X112.984 Y17.339 E63.77640
G1 X113.637 Y16.947 E63.80173
G1 X114.029 Y16.816 E63.81547
G1 X114.682 Y16.424 E63.84081
G1 X115.074 Y16.294 E63.85455
G1 X116.381 Y15.510 E63.90521
G1 X116.772 Y15.379 E63.91896
G1 X117.426 Y14.988 E63.94429
G1 X117.818 Y14.857 E63.95803
G1 X118.079 Y14.596 E63.97032
G1 X118.471 Y14.465 E63.98406
G1 X118.732 Y14.204 E63.99634
G1 X119.124 Y14.073 E64.01008
G1 X121.736 Y12.506 E64.11141
G1 X121.998 Y12.244 E64.12371
G1 X122.389 Y12.114 E64.13745
G1 X122.651 Y11.852 E64.14974
G1 X123.957 Y11.069 E64.20040
G1 X124.218 Y10.807 E64.21269
G1 X124.871 Y10.416 E64.23803
G1 X125.133 Y10.154 E64.25032
G1 X125.459 Y9.959 E64.26298
G1 X125.720 Y9.697 E64.27527
G1 X126.700 Y9.109 E64.31328
G1 X127.223 Y8.587 E64.33785
G1 X127.549 Y8.391 E64.35051
G1 X127.810 Y8.130 E64.36280
G1 X128.137 Y7.934 E64.37548
G1 X128.398 Y7.672 E64.38777
G1 X129.052 Y7.280 E64.41311
G1 X129.182 Y7.150 E64.41925
G1 X129.443 Y7.150 E64.42794
G1 X129.574 Y7.019 E64.43408
G1 X130.619 Y7.019 E64.46884
G1 X130.750 Y7.150 E64.47499
G1 X131.011 Y7.150 E64.48368
G1 X131.338 Y7.346 E64.49636
G1 X131.599 Y7.607 E64.50865
G1 X131.925 Y7.803 E64.52130
G1 X132.187 Y8.064 E64.53359
G1 X132.513 Y8.260 E64.54627
G1 X132.775 Y8.522 E64.55857
G1 X133.101 Y8.717 E64.57122
G1 X133.362 Y8.979 E64.58351
G1 X134.015 Y9.371 E64.60885
G1 X134.538 Y9.893 E64.63343
G1 X135.844 Y10.677 E64.68409
G1 X136.105 Y10.938 E64.69638
G1 X136.759 Y11.330 E64.72172
G1 X137.020 Y11.591 E64.73401
G1 X138.979 Y12.767 E64.81002
G1 X139.241 Y13.028 E64.82231
G1 X139.632 Y13.159 E64.83605
G1 X139.894 Y13.420 E64.84834
G1 X141.200 Y14.204 E64.89900
G1 X141.592 Y14.334 E64.91275
G1 X141.853 Y14.596 E64.92504
G1 X142.245 Y14.726 E64.93878
G1 X142.506 Y14.988 E64.95107
G1 X142.898 Y15.118 E64.96481
G1 X144.204 Y15.902 E65.01547
G1 X144.596 Y16.033 E65.02922
G1 X145.249 Y16.424 E65.05455
G1 X145.641 Y16.555 E65.06829
G1 X146.295 Y16.947 E65.09363
G1 X146.686 Y17.078 E65.10737
G1 X147.340 Y17.469 E65.13271
G1 X147.731 Y17.600 E65.14645
G1 X148.058 Y17.796 E65.15913
G1 X148.450 Y17.927 E65.17287
G1 X148.776 Y18.123 E65.18553
G1 X149.168 Y18.253 E65.19927
G1 X149.299 Y18.384 E65.20541
G1 X149.560 Y18.384 E65.21410
G1 X150.213 Y18.776 E65.23944
G1 X150.475 Y18.776 E65.24813
G1 X150.801 Y18.972 E65.26081
G1 X151.193 Y19.103 E65.27455
G1 X151.520 Y19.298 E65.28720
G1 X151.781 Y19.298 E65.29589
G1 X152.434 Y19.690 E65.32123
G1 X152.695 Y19.690 E65.32992
G1 X153.022 Y19.886 E65.34260
G1 X154.198 Y20.278 E65.38381
G1 X154.524 Y20.474 E65.39647
G1 X154.785 Y20.474 E65.40516
G1 X154.916 Y20.605 E65.41130
G1 X155.177 Y20.605 E65.41999
G1 X155.308 Y20.735 E65.42613
G1 X155.569 Y20.735 E65.43482
G1 X155.700 Y20.866 E65.44097
G1 X155.961 Y20.866 E65.44966
G1 X156.092 Y20.996 E65.45580
G1 X156.353 Y20.996 E65.46449
G1 X156.483 Y21.127 E65.47063
G1 X156.941 Y21.193 E65.48600
G1 X157.333 Y21.323 E65.49974
G1 X157.659 Y21.519 E65.51240
G1 X157.920 Y21.519 E65.52109
G1 X158.051 Y21.650 E65.52723
G1 X158.508 Y21.715 E65.54261
G1 X158.900 Y21.846 E65.55635
G1 X159.357 Y21.911 E65.57170
G1 X159.488 Y22.041 E65.57784
G1 X159.945 Y22.107 E65.59321
G1 X160.729 Y22.368 E65.62069
G1 X161.186 Y22.433 E65.63604
G1 X161.317 Y22.564 E65.64218
G1 X162.231 Y22.695 E65.67291
G1 X162.362 Y22.825 E65.67905
G1 X163.276 Y22.956 E65.70977
G1 X163.407 Y23.087 E65.71591
G1 X163.929 Y23.087 E65.73329
G1 X164.060 Y23.217 E65.73944
G1 X164.582 Y23.217 E65.75682
G1 X164.713 Y23.348 E65.76296
G1 X165.627 Y23.478 E65.79368
G1 X166.019 Y23.609 E65.80742
G1 X166.281 Y23.609 E65.81611
G1 X166.411 Y23.740 E65.82225
G1 X166.934 Y23.740 E65.83963
G1 X167.326 Y23.870 E65.85337
G1 X168.240 Y24.001 E65.88410
G1 X168.501 Y24.001 E65.89279
G1 X168.632 Y24.132 E65.89893
G1 X169.416 Y24.132 E65.92500
G1 X169.546 Y24.262 E65.93114
G1 X170.330 Y24.262 E65.95721
G1 X170.461 Y24.393 E65.96335
G1 X171.245 Y24.393 E65.98942
G1 X171.375 Y24.523 E65.99556
G1 X172.420 Y24.523 E66.03032
G1 X172.551 Y24.654 E66.03646
G1 X173.596 Y24.654 E66.07122
G1 X173.726 Y24.785 E66.07736
G1 X175.033 Y24.785 E66.12081
G1 X175.163 Y24.915 E66.12696
G1 X176.731 Y24.915 E66.17909
G1 X177.123 Y25.046 E66.19284
G1 X180.258 Y25.046 E66.29711
G1 X180.388 Y25.177 E66.30325
G1 X180.911 Y25.177 E66.32063
G1 X181.042 Y25.307 E66.32677
G1 X181.303 Y25.307 E66.33546
G1 X182.283 Y25.895 E66.37347
G1 X184.373 Y27.985 E66.47178
G1 X186.463 Y30.075 E66.57009
G1 X188.031 Y31.643 E66.64382
G1 X188.422 Y32.296 E66.66916
G1 X188.684 Y33.080 E66.69664
G1 X188.684 Y34.647 E66.74878
G1 X188.422 Y35.431 E66.77626
G1 X188.031 Y36.084 E66.80160
G1 X185.940 Y38.174 E66.89991
G1 X183.850 Y40.264 E66.99822
G1 X182.283 Y41.832 E67.07196
G1 X181.303 Y42.420 E67.10996
G1 X181.042 Y42.420 E67.11865
G1 X180.911 Y42.551 E67.12480
G1 X176.731 Y42.551 E67.26383
G1 X176.600 Y42.420 E67.26997
G1 X175.033 Y42.420 E67.32211
G1 X174.641 Y42.289 E67.33585
G1 X173.596 Y42.289 E67.37061
G1 X173.204 Y42.159 E67.38435
G1 X172.159 Y42.159 E67.41911
G1 X171.767 Y42.028 E67.43285
G1 X171.245 Y42.028 E67.45023
G1 X170.330 Y41.898 E67.48095
G1 X169.808 Y41.898 E67.49833
G1 X169.677 Y41.767 E67.50447
G1 X169.154 Y41.767 E67.52185
G1 X168.763 Y41.636 E67.53559
G1 X168.240 Y41.636 E67.55297
G1 X167.848 Y41.506 E67.56671
G1 X167.326 Y41.506 E67.58409
G1 X167.195 Y41.375 E67.59024
G1 X166.673 Y41.375 E67.60762
G1 X166.281 Y41.244 E67.62136
G1 X165.758 Y41.244 E67.63874
G1 X165.627 Y41.114 E67.64488
G1 X165.105 Y41.114 E67.66226
G1 X164.974 Y40.983 E67.66840
G1 X164.452 Y40.983 E67.68578
G1 X164.321 Y40.852 E67.69192
G1 X163.799 Y40.852 E67.70930
G1 X163.668 Y40.722 E67.71544
G1 X163.146 Y40.722 E67.73282
G1 X162.754 Y40.591 E67.74656
G1 X162.231 Y40.591 E67.76394
G1 X162.101 Y40.461 E67.77008
G1 X161.578 Y40.461 E67.78746
G1 X161.186 Y40.330 E67.80120
G1 X160.141 Y40.330 E67.83596
G1 X159.227 Y40.199 E67.86669
G1 X158.704 Y40.199 E67.88407
G1 X157.790 Y40.330 E67.91479
G1 X156.745 Y40.330 E67.94955
G1 X156.353 Y40.461 E67.96329
G1 X155.830 Y40.461 E67.98067
G1 X155.700 Y40.591 E67.98681
G1 X155.177 Y40.591 E68.00419
G1 X155.047 Y40.722 E68.01033
G1 X154.524 Y40.722 E68.02771
G1 X154.393 Y40.852 E68.03385
G1 X153.937 Y40.918 E68.04920
G1 X153.545 Y41.048 E68.06295
G1 X153.087 Y41.114 E68.07832
G1 X152.957 Y41.244 E68.08446
G1 X152.695 Y41.244 E68.09315
G1 X152.565 Y41.375 E68.09929
G1 X152.303 Y41.375 E68.10798
G1 X151.650 Y41.767 E68.13332
G1 X151.389 Y41.767 E68.14201
G1 X151.063 Y41.963 E68.15467
G1 X150.671 Y42.093 E68.16841
G1 X150.344 Y42.289 E68.18109
G1 X149.952 Y42.420 E68.19483
G1 X149.691 Y42.681 E68.20712
G1 X149.299 Y42.812 E68.22086
G1 X147.666 Y43.791 E68.28418
G1 X147.405 Y44.053 E68.29647
G1 X147.078 Y44.249 E68.30915
G1 X146.817 Y44.510 E68.32144
G1 X146.164 Y44.902 E68.34678
G1 X145.903 Y45.163 E68.35907
G1 X144.596 Y45.947 E68.40974
G1 X144.335 Y46.208 E68.42203
G1 X142.702 Y47.188 E68.48535
G1 X142.311 Y47.318 E68.49909
G1 X141.984 Y47.515 E68.51177
G1 X141.592 Y47.645 E68.52552
G1 X140.939 Y48.037 E68.55085
G1 X140.547 Y48.168 E68.56459
G1 X140.416 Y48.298 E68.57073
G1 X140.155 Y48.298 E68.57942
G1 X139.829 Y48.494 E68.59208
G1 X139.437 Y48.625 E68.60582
G1 X139.110 Y48.821 E68.61850
G1 X138.849 Y48.821 E68.62719
G1 X138.718 Y48.951 E68.63333
G1 X138.457 Y48.951 E68.64202
G1 X138.326 Y49.082 E68.64817
G1 X137.869 Y49.147 E68.66352
G1 X136.694 Y49.539 E68.70473
G1 X136.236 Y49.605 E68.72010
G1 X135.844 Y49.735 E68.73384
G1 X134.930 Y49.866 E68.76457
G1 X134.799 Y49.996 E68.77071
G1 X134.015 Y49.996 E68.79678
G1 X133.885 Y50.127 E68.80292
G1 X133.362 Y50.127 E68.82030
G1 X132.448 Y50.258 E68.85102
G1 X131.403 Y50.258 E68.88578
G1 X131.011 Y50.388 E68.89952
G1 X128.921 Y50.388 E68.96903
G1 X128.790 Y50.258 E68.97518
G0 X128.790 Y50.258 F5400
G0 F3000 E67.97518
G0 X129.182 Y35.366 F5400
G0 F3000 E68.97518
G1 X131.272 Y35.366 E69.04470 F2400
G1 X131.403 Y35.235 E69.05084
G1 X131.925 Y35.235 E69.06822
G1 X132.840 Y35.104 E69.09894
G1 X134.015 Y34.712 E69.14015
G1 X134.277 Y34.712 E69.14884
G1 X135.256 Y34.125 E69.18683
G1 X135.256 Y33.864 E69.19552
