; #disp params :
; Printmode:0
; Layer:69
; Zmax:55.065 mm
; Xmax:193.154 mm
; Ymax:8 mm
; Xmin:66.776 mm
; Ymin:0.3 mm
; E0diam:0.4 mm
; E0len:3.39617 m
; E0temp:215 C
; Bedtemp:215 C
; Time:59.4895 min
; #params end
; GCode generated by CraftWare

G28 X Y ; home horizontally
G28 Z ; home vertically


M104 S215 ;set head temp (no wait)
M190 S60 ;set bed temp (wait)
M109 S215 ;set head temp (wait)

; ------------------------------------
; Raft Layer #0
; ------------------------------------
M106 S0 ;turn off fan
G21 ; mm
G90 ; abs
G92 E0 ;reset extr
G0 F600 Z0.300
;segType:Raft
G0 F3000 E-1.00000
G0 F600 Z2.300
G0 X73.372 Y46.443 F5400
G0 F600 Z0.300
G0 F3000 E0.00000
G1 X69.192 Y42.263 E0.29493 F600
G1 X67.363 Y40.434 E0.42396
G1 X67.233 Y40.042 E0.44457
G1 X67.037 Y39.716 E0.46355
G1 X66.907 Y39.324 E0.48416
G1 X66.841 Y38.867 E0.50722
G1 X66.841 Y30.507 E0.92431
G1 X66.841 Y28.155 E1.04162
G1 X66.972 Y28.025 E1.05083
G1 X66.972 Y27.763 E1.06387
G1 X67.560 Y26.783 E1.12089
G1 X71.740 Y22.603 E1.41582
G1 X73.307 Y21.036 E1.52641
G1 X73.960 Y20.644 E1.56442
G1 X74.222 Y20.644 E1.57745
G1 X74.352 Y20.513 E1.58667
G1 X75.267 Y20.383 E1.63275
G1 X77.357 Y20.383 E1.73702
G1 X78.271 Y20.252 E1.78310
G1 X79.839 Y20.252 E1.86131
G1 X79.969 Y20.121 E1.87053
G1 X81.014 Y20.121 E1.92266
G1 X81.929 Y19.991 E1.96875
G1 X82.451 Y19.991 E1.99481
G1 X82.843 Y19.860 E2.01542
G1 X83.627 Y19.860 E2.05452
G1 X83.758 Y19.729 E2.06374
G1 X84.280 Y19.729 E2.08981
G1 X85.194 Y19.599 E2.13589
G1 X85.717 Y19.599 E2.16196
G1 X85.848 Y19.468 E2.17118
G1 X86.370 Y19.468 E2.19725
G1 X86.762 Y19.338 E2.21785
G1 X87.285 Y19.338 E2.24392
G1 X87.415 Y19.207 E2.25314
G1 X87.938 Y19.207 E2.27921
G1 X88.330 Y19.076 E2.29982
G1 X89.244 Y18.946 E2.34590
G1 X89.636 Y18.815 E2.36651
G1 X90.550 Y18.684 E2.41259
G1 X90.942 Y18.554 E2.43320
G1 X91.203 Y18.554 E2.44623
G1 X91.334 Y18.423 E2.45545
G1 X91.857 Y18.423 E2.48152
G1 X91.987 Y18.293 E2.49073
G1 X92.902 Y18.162 E2.53682
G1 X93.032 Y18.031 E2.54603
G1 X93.947 Y17.901 E2.59212
G1 X94.077 Y17.770 E2.60133
G1 X94.992 Y17.639 E2.64742
G1 X95.122 Y17.509 E2.65663
G1 X95.383 Y17.509 E2.66967
G1 X95.514 Y17.378 E2.67888
G1 X95.971 Y17.313 E2.70191
G1 X96.363 Y17.182 E2.72252
G1 X96.820 Y17.117 E2.74557
G1 X96.951 Y16.986 E2.75479
G1 X97.212 Y16.986 E2.76782
G1 X97.343 Y16.856 E2.77704
G1 X97.604 Y16.856 E2.79008
G1 X97.735 Y16.725 E2.79929
G1 X97.996 Y16.725 E2.81233
G1 X98.127 Y16.594 E2.82154
G1 X98.584 Y16.529 E2.84457
G1 X100.935 Y15.746 E2.96822
G1 X101.262 Y15.549 E2.98724
G1 X101.523 Y15.549 E3.00027
G1 X101.654 Y15.419 E3.00949
G1 X101.915 Y15.419 E3.02252
G1 X102.241 Y15.223 E3.04151
G1 X102.633 Y15.092 E3.06212
G1 X102.960 Y14.896 E3.08113
G1 X103.221 Y14.896 E3.09417
G1 X103.548 Y14.701 E3.11315
G1 X103.939 Y14.570 E3.13376
G1 X104.266 Y14.374 E3.15278
G1 X104.527 Y14.374 E3.16581
G1 X105.181 Y13.982 E3.20381
G1 X105.442 Y13.982 E3.21685
G1 X106.095 Y13.590 E3.25485
G1 X106.879 Y13.329 E3.29607
G1 X107.532 Y12.937 E3.33407
G1 X107.793 Y12.937 E3.34710
G1 X108.446 Y12.545 E3.38510
G1 X108.838 Y12.414 E3.40571
G1 X109.491 Y12.022 E3.44371
G1 X109.883 Y11.892 E3.46432
G1 X110.536 Y11.500 E3.50232
G1 X110.928 Y11.369 E3.52293
G1 X111.190 Y11.108 E3.54136
G1 X111.581 Y10.977 E3.56197
G1 X112.235 Y10.586 E3.59997
G1 X112.626 Y10.455 E3.62058
G1 X117.852 Y7.320 E3.92459
G1 X118.113 Y7.059 E3.94302
G1 X119.419 Y6.275 E4.01902
G1 X119.680 Y6.014 E4.03745
G1 X120.007 Y5.818 E4.05644
G1 X120.268 Y5.557 E4.07487
G1 X120.595 Y5.360 E4.09389
G1 X120.856 Y5.099 E4.11232
G1 X121.835 Y4.512 E4.16931
G1 X122.097 Y4.250 E4.18774
G1 X122.424 Y4.054 E4.20676
G1 X122.946 Y3.532 E4.24362
G1 X123.599 Y3.140 E4.28162
G1 X123.860 Y2.878 E4.30006
G1 X124.187 Y2.683 E4.31904
G1 X124.579 Y2.552 E4.33965
G1 X125.036 Y2.487 E4.36270
G1 X133.396 Y2.487 E4.77980
G1 X134.964 Y2.487 E4.85800
G1 X135.748 Y2.748 E4.89922
G1 X136.270 Y3.270 E4.93609
G1 X136.923 Y3.662 E4.97409
G1 X137.185 Y3.923 E4.99252
G1 X137.511 Y4.120 E5.01154
G1 X137.773 Y4.381 E5.02997
G1 X138.099 Y4.577 E5.04895
G1 X138.360 Y4.838 E5.06739
G1 X138.687 Y5.034 E5.08640
G1 X138.948 Y5.295 E5.10484
G1 X139.928 Y5.883 E5.16182
G1 X140.189 Y6.144 E5.18025
G1 X140.842 Y6.536 E5.21825
G1 X141.103 Y6.797 E5.23669
G1 X142.410 Y7.581 E5.31269
G1 X142.671 Y7.842 E5.33112
G1 X143.063 Y7.973 E5.35173
G1 X143.324 Y8.234 E5.37016
G1 X147.243 Y10.586 E5.59817
G1 X147.635 Y10.716 E5.61878
G1 X148.941 Y11.500 E5.69478
G1 X149.333 Y11.631 E5.71539
G1 X149.986 Y12.022 E5.75339
G1 X150.378 Y12.153 E5.77400
G1 X151.031 Y12.545 E5.81200
G1 X151.423 Y12.676 E5.83261
G1 X152.076 Y13.067 E5.87061
G1 X152.468 Y13.198 E5.89121
G1 X152.599 Y13.329 E5.90043
G1 X152.860 Y13.329 E5.91347
G1 X153.513 Y13.721 E5.95147
G1 X154.297 Y13.982 E5.99268
G1 X154.624 Y14.178 E6.01170
G1 X155.016 Y14.309 E6.03231
G1 X155.342 Y14.504 E6.05129
G1 X155.603 Y14.504 E6.06433
G1 X155.930 Y14.701 E6.08334
G1 X156.322 Y14.831 E6.10395
G1 X156.648 Y15.027 E6.12294
G1 X157.432 Y15.288 E6.16415
G1 X157.563 Y15.419 E6.17337
G1 X157.824 Y15.419 E6.18641
G1 X157.954 Y15.549 E6.19562
G1 X158.216 Y15.549 E6.20866
G1 X158.346 Y15.680 E6.21787
G1 X158.608 Y15.680 E6.23091
G1 X158.934 Y15.876 E6.24992
G1 X160.894 Y16.529 E6.35297
G1 X161.351 Y16.594 E6.37600
G1 X161.481 Y16.725 E6.38521
G1 X161.743 Y16.725 E6.39825
G1 X162.070 Y16.921 E6.41726
G1 X162.461 Y17.052 E6.43787
G1 X162.918 Y17.117 E6.46090
G1 X163.049 Y17.248 E6.47012
G1 X163.310 Y17.248 E6.48315
G1 X163.441 Y17.378 E6.49237
G1 X164.355 Y17.509 E6.53845
G1 X164.486 Y17.639 E6.54767
G1 X164.747 Y17.639 E6.56070
G1 X164.878 Y17.770 E6.56992
G1 X165.139 Y17.770 E6.58295
G1 X165.270 Y17.901 E6.59217
G1 X166.184 Y18.031 E6.63825
G1 X166.315 Y18.162 E6.64747
G1 X167.229 Y18.293 E6.69355
G1 X167.360 Y18.423 E6.70277
G1 X168.274 Y18.554 E6.74885
G1 X168.666 Y18.684 E6.76946
G1 X169.580 Y18.815 E6.81554
G1 X169.711 Y18.946 E6.82476
G1 X170.234 Y18.946 E6.85083
G1 X170.364 Y19.076 E6.86004
G1 X171.279 Y19.207 E6.90613
G1 X171.540 Y19.207 E6.91916
G1 X171.670 Y19.338 E6.92838
G1 X172.193 Y19.338 E6.95444
G1 X172.324 Y19.468 E6.96366
G1 X172.846 Y19.468 E6.98973
G1 X173.238 Y19.599 E7.01034
G1 X173.761 Y19.599 E7.03641
G1 X174.152 Y19.729 E7.05701
G1 X174.675 Y19.729 E7.08308
G1 X175.067 Y19.860 E7.10369
G1 X175.589 Y19.860 E7.12976
G1 X175.981 Y19.991 E7.15037
G1 X176.504 Y19.991 E7.17644
G1 X177.418 Y20.121 E7.22252
G1 X177.941 Y20.121 E7.24859
G1 X178.333 Y20.252 E7.26919
G1 X179.378 Y20.252 E7.32133
G1 X179.769 Y20.383 E7.34194
G1 X181.337 Y20.383 E7.42015
G1 X181.468 Y20.513 E7.42936
G1 X184.603 Y20.513 E7.58577
G1 X184.995 Y20.644 E7.60638
G1 X185.452 Y20.709 E7.62944
G1 X185.844 Y20.840 E7.65005
G1 X186.170 Y21.036 E7.66903
G1 X186.562 Y21.166 E7.68964
G1 X190.742 Y25.347 E7.98457
G1 X192.310 Y26.914 E8.09516
G1 X192.898 Y27.894 E8.15218
G1 X192.898 Y28.155 E8.16522
G1 X193.028 Y28.286 E8.17443
G1 X193.028 Y36.646 E8.59153
G1 X193.028 Y39.520 E8.73490
G1 X192.898 Y39.651 E8.74412
G1 X192.898 Y39.912 E8.75715
G1 X192.310 Y40.892 E8.81417
G1 X188.130 Y45.072 E9.10910
G1 X186.823 Y46.378 E9.20127
G1 X185.844 Y46.966 E9.25825
G1 X185.452 Y47.096 E9.27886
G1 X184.995 Y47.162 E9.30191
G1 X176.634 Y47.162 E9.71901
G1 X171.932 Y47.162 E9.95362
G1 X171.540 Y47.031 E9.97423
G1 X169.972 Y47.031 E10.05244
G1 X169.842 Y46.901 E10.06165
G1 X168.535 Y46.901 E10.12682
G1 X168.405 Y46.770 E10.13604
G1 X167.098 Y46.770 E10.20121
G1 X166.968 Y46.639 E10.21043
G1 X165.923 Y46.639 E10.26256
G1 X165.792 Y46.509 E10.27178
G1 X165.270 Y46.509 E10.29785
G1 X164.355 Y46.378 E10.34393
G1 X164.094 Y46.378 E10.35697
G1 X163.963 Y46.248 E10.36618
G1 X163.180 Y46.248 E10.40528
G1 X163.049 Y46.117 E10.41450
G1 X162.526 Y46.117 E10.44057
G1 X162.135 Y45.986 E10.46118
G1 X161.612 Y45.986 E10.48725
G1 X161.481 Y45.856 E10.49646
G1 X160.959 Y45.856 E10.52253
G1 X160.567 Y45.725 E10.54314
G1 X159.653 Y45.594 E10.58922
G1 X159.261 Y45.464 E10.60983
G1 X158.477 Y45.464 E10.64893
G1 X158.346 Y45.594 E10.65815
G1 X158.085 Y45.594 E10.67118
G1 X157.954 Y45.725 E10.68040
G1 X157.498 Y45.790 E10.70343
G1 X156.714 Y46.051 E10.74464
G1 X156.387 Y46.248 E10.76366
G1 X155.603 Y46.509 E10.80488
G1 X155.473 Y46.639 E10.81410
G1 X155.211 Y46.639 E10.82713
G1 X153.905 Y47.423 E10.90313
G1 X153.513 Y47.554 E10.92374
G1 X152.207 Y48.338 E10.99974
G1 X151.946 Y48.599 E11.01817
G1 X151.619 Y48.795 E11.03716
G1 X151.358 Y49.056 E11.05559
G1 X151.031 Y49.252 E11.07461
G1 X150.770 Y49.513 E11.09304
G1 X149.464 Y50.297 E11.16904
G1 X149.202 Y50.558 E11.18748
G1 X147.243 Y51.734 E11.30148
G1 X147.112 Y51.865 E11.31070
G1 X146.851 Y51.865 E11.32373
G1 X146.198 Y52.256 E11.36173
G1 X145.806 Y52.387 E11.38234
G1 X145.153 Y52.779 E11.42034
G1 X144.369 Y53.040 E11.46156
G1 X144.239 Y53.171 E11.47077
G1 X143.977 Y53.171 E11.48381
G1 X143.651 Y53.367 E11.50279
G1 X142.867 Y53.628 E11.54401
G1 X142.410 Y53.693 E11.56707
G1 X142.279 Y53.824 E11.57628
G1 X142.018 Y53.824 E11.58932
G1 X141.887 Y53.955 E11.59853
G1 X141.626 Y53.955 E11.61157
G1 X141.495 Y54.085 E11.62078
G1 X141.234 Y54.085 E11.63382
G1 X141.103 Y54.216 E11.64304
G1 X140.581 Y54.216 E11.66910
G1 X140.450 Y54.347 E11.67832
G1 X139.928 Y54.347 E11.70439
G1 X139.797 Y54.477 E11.71360
G1 X137.968 Y54.738 E11.80577
G1 X137.446 Y54.738 E11.83184
G1 X137.315 Y54.869 E11.84105
G1 X135.748 Y54.869 E11.91926
G1 X135.617 Y55.000 E11.92848
G1 X127.257 Y55.000 E12.34557
G1 X124.122 Y55.000 E12.50198
G1 X123.730 Y54.869 E12.52259
G1 X122.424 Y54.869 E12.58776
G1 X122.293 Y54.738 E12.59697
G1 X121.770 Y54.738 E12.62304
G1 X120.856 Y54.608 E12.66913
G1 X120.595 Y54.608 E12.68216
G1 X120.464 Y54.477 E12.69138
G1 X119.942 Y54.477 E12.71745
G1 X119.811 Y54.347 E12.72666
G1 X119.419 Y54.347 E12.74621
G1 X119.158 Y54.216 E12.76078
G1 X118.700 Y54.150 E12.78384
G1 X118.309 Y54.020 E12.80445
G1 X117.852 Y53.955 E12.82748
G1 X117.721 Y53.824 E12.83669
G1 X117.460 Y53.824 E12.84973
G1 X117.329 Y53.693 E12.85894
G1 X117.068 Y53.693 E12.87198
G1 X116.937 Y53.563 E12.88119
G1 X116.676 Y53.563 E12.89423
G1 X116.545 Y53.432 E12.90344
G1 X116.284 Y53.432 E12.91648
G1 X116.153 Y53.302 E12.92570
G1 X115.892 Y53.302 E12.93873
G1 X115.565 Y53.105 E12.95775
G1 X115.173 Y52.975 E12.97836
G1 X114.847 Y52.779 E12.99734
G1 X114.586 Y52.779 E13.01037
G1 X113.933 Y52.387 E13.04837
G1 X113.541 Y52.256 E13.06898
G1 X112.888 Y51.865 E13.10698
G1 X112.496 Y51.734 E13.12759
G1 X112.235 Y51.473 E13.14603
G1 X110.275 Y50.297 E13.26003
G1 X110.014 Y50.036 E13.27846
G1 X109.361 Y49.644 E13.31646
G1 X109.099 Y49.383 E13.33489
G1 X108.446 Y48.991 E13.37289
G1 X108.185 Y48.730 E13.39133
G1 X107.532 Y48.338 E13.42933
G1 X107.271 Y48.076 E13.44776
G1 X105.311 Y46.901 E13.56176
G1 X104.919 Y46.770 E13.58237
G1 X104.593 Y46.574 E13.60139
G1 X104.201 Y46.443 E13.62200
G1 X103.874 Y46.248 E13.64098
G1 X103.091 Y45.986 E13.68220
G1 X102.960 Y45.856 E13.69142
G1 X102.699 Y45.856 E13.70445
G1 X102.568 Y45.725 E13.71367
G1 X102.307 Y45.725 E13.72670
G1 X102.176 Y45.594 E13.73592
G1 X101.719 Y45.529 E13.75897
G1 X101.327 Y45.398 E13.77958
G1 X100.870 Y45.333 E13.80261
G1 X100.347 Y45.333 E13.82868
G1 X100.217 Y45.464 E13.83789
G1 X99.694 Y45.464 E13.86396
G1 X99.564 Y45.594 E13.87318
G1 X99.041 Y45.594 E13.89925
G1 X98.910 Y45.725 E13.90846
G1 X98.388 Y45.725 E13.93453
G1 X97.996 Y45.856 E13.95514
G1 X97.474 Y45.856 E13.98121
G1 X97.082 Y45.986 E14.00182
G1 X95.253 Y46.248 E14.09398
G1 X94.730 Y46.248 E14.12005
G1 X94.600 Y46.378 E14.12927
G1 X94.077 Y46.378 E14.15534
G1 X93.685 Y46.509 E14.17594
G1 X92.379 Y46.509 E14.24112
G1 X92.248 Y46.639 E14.25033
G1 X91.726 Y46.639 E14.27640
G1 X90.811 Y46.770 E14.32248
G1 X89.505 Y46.770 E14.38765
G1 X89.375 Y46.901 E14.39687
G1 X87.807 Y46.901 E14.47508
G1 X86.893 Y47.031 E14.52116
G1 X78.532 Y47.031 E14.93825
G1 X74.875 Y47.031 E15.12073
G1 X73.699 Y46.639 E15.18255
G1 X73.372 Y46.443 E15.20157
G0 X73.804 Y46.182 F5400
G1 X73.804 Y21.363 E16.43982 F600
G0 X76.471 Y20.840 F5400
G1 X76.471 Y46.705 E17.73020 F600
G0 X79.137 Y46.705 F5400
G1 X79.137 Y20.709 E19.02710 F600
G0 X81.804 Y20.448 F5400
G1 X81.804 Y46.705 E20.33703 F600
G0 X84.471 Y46.705 F5400
G1 X84.471 Y20.187 E21.66000 F600
G0 X87.137 Y19.795 F5400
G1 X87.137 Y46.574 E22.99600 F600
G0 X89.804 Y46.443 F5400
G1 X89.804 Y19.273 E24.35155 F600
G0 X92.471 Y18.750 F5400
G1 X92.471 Y46.182 E25.72013 F600
G0 X95.137 Y45.921 F5400
G1 X95.137 Y18.097 E27.10827 F600
G0 X97.804 Y17.313 F5400
G1 X97.804 Y45.529 E28.51596 F600
G0 X100.471 Y45.006 F5400
G1 X100.471 Y16.399 E29.94320 F600
G0 X103.137 Y15.484 F5400
G1 X103.137 Y45.529 E31.44213 F600
G0 X105.804 Y46.705 F5400
G1 X105.804 Y14.309 E33.05836 F600
G0 X108.471 Y13.133 F5400
G1 X108.471 Y48.403 E34.81797 F600
G0 X111.137 Y50.362 F5400
G1 X111.137 Y11.827 E36.74051 F600
G0 X113.804 Y10.390 F5400
G1 X113.804 Y51.930 E38.81294 F600
G0 X116.471 Y52.975 F5400
G1 X116.471 Y8.822 E41.01571 F600
G0 X119.137 Y6.993 F5400
G1 X119.137 Y53.889 E43.35534 F600
G0 X121.804 Y54.412 F5400
G1 X121.804 Y5.165 E45.81228 F600
G0 X124.471 Y3.075 F5400
G1 X124.471 Y54.673 E48.38653 F600
G0 X127.137 Y54.673 F5400
G1 X127.137 Y2.944 E50.96729 F600
G0 X129.804 Y2.944 F5400
G1 X129.804 Y54.673 E53.54805 F600
G0 X132.471 Y54.673 F5400
G1 X132.471 Y2.944 E56.12881 F600
G0 X135.137 Y3.075 F5400
G1 X135.137 Y54.673 E58.70306 F600
G0 X137.804 Y54.412 F5400
G1 X137.804 Y5.034 E61.16651 F600
G0 X140.471 Y6.993 F5400
G1 X140.471 Y53.889 E63.50614 F600
G0 X143.137 Y53.105 F5400
G1 X143.137 Y8.692 E65.72195 F600
G0 X145.804 Y10.259 F5400
G1 X145.804 Y51.930 E67.80090 F600
G0 X148.471 Y50.493 F5400
G1 X148.471 Y11.827 E69.72995 F600
G0 X151.137 Y13.133 F5400
G1 X151.137 Y48.664 E71.50260 F600
G0 X153.804 Y46.966 F5400
G1 X153.804 Y14.309 E73.13187 F600
G0 X156.471 Y15.484 F5400
G1 X156.471 Y45.659 E74.63732 F600
G0 X159.137 Y45.137 F5400
G1 X159.137 Y16.529 E76.06455 F600
G0 X161.804 Y17.313 F5400
G1 X161.804 Y45.529 E77.47225 F600
G0 X164.471 Y46.051 F5400
G1 X164.471 Y18.097 E78.86690 F600
G0 X167.137 Y18.881 F5400
G1 X167.137 Y46.313 E80.23548 F600
G0 X169.804 Y46.574 F5400
G1 X169.804 Y19.403 E81.59104 F600
G0 X172.471 Y19.926 F5400
G1 X172.471 Y46.835 E82.93355 F600
G0 X175.137 Y46.835 F5400
G1 X175.137 Y20.318 E84.25652 F600
G0 X177.804 Y20.579 F5400
G1 X177.804 Y46.835 E85.56644 F600
G0 X180.471 Y46.835 F5400
G1 X180.471 Y20.840 E86.86334 F600
G0 X183.137 Y20.971 F5400
G1 X183.137 Y46.835 E88.15372 F600
G0 X185.804 Y46.574 F5400
G1 X185.804 Y21.363 E89.41152 F600
G0 X188.471 Y23.845 F5400
G1 X188.471 Y44.092 E90.42167 F600
G0 X191.137 Y41.479 F5400
G1 X191.137 Y26.457 E91.17113 F600
G0 X71.137 Y23.975 F5400
G1 X71.137 Y43.569 E92.14870 F600
G0 X68.471 Y40.957 F5400
G1 X68.471 Y26.588 E92.86558 F600



; ------------------------------------
; Raft Layer #1
; ------------------------------------
G92 E0 ;reset extr
G0 F600 Z0.600
;segType:Raft
G0 X67.037 Y27.464 F7200
G1 X73.960 Y20.541 E0.48848 F1800
G0 X76.116 Y20.402 F7200
G1 X66.972 Y29.546 E1.13363 F1800
G0 X66.972 Y31.432 F7200
G1 X78.075 Y20.328 E1.91703 F1800
G0 X80.165 Y20.124 F7200
G1 X66.972 Y33.317 E2.84789 F1800
G0 X66.972 Y35.203 F7200
G1 X82.124 Y20.050 E3.91700 F1800
G0 X84.214 Y19.845 F7200
G1 X66.972 Y37.088 E5.13358 F1800
G0 X66.972 Y38.974 F7200
G1 X86.435 Y19.510 E6.50683 F1800
G0 X88.656 Y19.175 F7200
G1 X67.494 Y40.337 E7.99990 F1800
G0 X68.409 Y41.308 F7200
G1 X91.138 Y18.579 E9.60356 F1800
G0 X93.489 Y18.113 F7200
G1 X69.323 Y42.280 E11.30861 F1800
G0 X70.237 Y43.251 F7200
G1 X96.232 Y17.256 E13.14269 F1800
G0 X98.845 Y16.529 F7200
G1 X71.152 Y44.222 E15.09658 F1800
G0 X72.066 Y45.193 F7200
G1 X101.588 Y15.671 E17.17950 F1800
G0 X104.853 Y14.291 F7200
G1 X73.111 Y46.034 E19.41910 F1800
G0 X74.156 Y46.874 F7200
G1 X108.119 Y12.911 E21.81538 F1800
G0 X112.168 Y10.747 F7200
G1 X75.854 Y47.062 E24.37756 F1800
G0 X77.705 Y47.096 F7200
G1 X116.763 Y8.039 E27.13328 F1800
G0 X123.090 Y3.597 F7200
G1 X79.591 Y47.096 E30.20237 F1800
G0 X81.477 Y47.096 F7200
G1 X126.020 Y2.552 E33.34519 F1800
G0 X127.906 Y2.552 F7200
G1 X83.362 Y47.096 E36.48800 F1800
G0 X85.248 Y47.096 F7200
G1 X129.791 Y2.552 E39.63081 F1800
G0 X131.677 Y2.552 F7200
G1 X87.133 Y47.096 E42.77363 F1800
G0 X89.150 Y46.966 F7200
G1 X133.563 Y2.552 E45.90723 F1800
G0 X135.318 Y2.683 F7200
G1 X91.166 Y46.835 E49.02239 F1800
G0 X93.313 Y46.574 F7200
G1 X136.550 Y3.336 E52.07305 F1800
G0 X137.521 Y4.250 F7200
G1 X95.460 Y46.313 E55.04075 F1800
G0 X97.737 Y45.921 F7200
G1 X138.623 Y5.034 E57.92550 F1800
G0 X139.725 Y5.818 F7200
G1 X100.015 Y45.529 E60.72731 F1800
G0 X101.770 Y45.659 F7200
G1 X140.827 Y6.602 E63.48303 F1800
G0 X141.929 Y7.385 F7200
G1 X103.263 Y46.051 E66.21111 F1800
G0 X104.626 Y46.574 F7200
G1 X143.161 Y8.039 E68.92996 F1800
G0 X144.263 Y8.822 F7200
G1 X105.859 Y47.227 E71.63961 F1800
G0 X106.961 Y48.011 F7200
G1 X145.365 Y9.606 E74.34925 F1800
G0 X146.597 Y10.259 F7200
G1 X108.063 Y48.795 E77.06810 F1800
G0 X109.295 Y49.448 F7200
G1 X147.830 Y10.912 E79.78696 F1800
G0 X149.062 Y11.565 F7200
G1 X110.266 Y50.362 E82.52425 F1800
G0 X111.499 Y51.015 F7200
G1 X150.295 Y12.219 E85.26154 F1800
G0 X151.527 Y12.872 F7200
G1 X112.601 Y51.799 E88.00804 F1800
G0 X113.833 Y52.452 F7200
G1 X152.890 Y13.394 E90.76376 F1800
G0 X154.123 Y14.047 F7200
G1 X115.196 Y52.975 E93.51027 F1800
G0 X116.559 Y53.497 F7200
G1 X155.486 Y14.570 E96.25677 F1800
G0 X156.849 Y15.092 F7200
G1 X117.923 Y54.020 E99.00328 F1800
G0 X119.416 Y54.412 F7200
G1 X158.212 Y15.615 E101.74057 F1800
G0 X159.575 Y16.137 F7200
G1 X121.041 Y54.673 E104.45943 F1800
G0 X122.665 Y54.934 F7200
G1 X160.938 Y16.660 E107.15985 F1800
G0 X162.432 Y17.052 F7200
G1 X124.420 Y55.065 E109.84184 F1800
G0 X126.306 Y55.065 F7200
G1 X163.926 Y17.444 E112.49619 F1800
G0 X165.289 Y17.966 F7200
G1 X128.191 Y55.065 E115.11366 F1800
G0 X130.077 Y55.065 F7200
G1 X166.783 Y18.358 E117.70349 F1800
G0 X168.407 Y18.619 F7200
G1 X131.962 Y55.065 E120.27489 F1800
G0 X133.848 Y55.065 F7200
G1 X169.901 Y19.011 E122.81863 F1800
G0 X171.525 Y19.273 F7200
G1 X135.864 Y54.934 E125.33473 F1800
G0 X137.881 Y54.803 F7200
G1 X173.150 Y19.534 E127.82318 F1800
G0 X174.774 Y19.795 F7200
G1 X140.158 Y54.412 E130.26555 F1800
G0 X142.697 Y53.758 F7200
G1 X176.398 Y20.056 E132.64340 F1800
G0 X178.153 Y20.187 F7200
G1 X145.889 Y52.452 E134.91988 F1800
G0 X150.387 Y49.840 F7200
G1 X179.778 Y20.448 E136.99358 F1800
G0 X181.533 Y20.579 F7200
G1 X155.407 Y46.705 E138.83687 F1800
G0 X158.338 Y45.659 F7200
G1 X183.418 Y20.579 E140.60643 F1800
G0 X185.173 Y20.709 F7200
G1 X160.224 Y45.659 E142.36678 F1800
G0 X161.717 Y46.051 F7200
G1 X186.536 Y21.232 E144.11790 F1800
G0 X187.508 Y22.146 F7200
G1 X163.342 Y46.313 E145.82295 F1800
G0 X164.966 Y46.574 F7200
G1 X188.479 Y23.061 E147.48192 F1800
G0 X189.450 Y23.975 F7200
G1 X166.721 Y46.705 E149.08559 F1800
G0 X168.476 Y46.835 F7200
G1 X190.291 Y25.020 E150.62474 F1800
G0 X191.262 Y25.935 F7200
G1 X170.101 Y47.096 E152.11781 F1800
G0 X171.856 Y47.227 F7200
G1 X192.233 Y26.849 E153.55559 F1800
G0 X192.943 Y28.025 F7200
G1 X173.741 Y47.227 E154.91042 F1800
G0 X175.627 Y47.227 F7200
G1 X193.131 Y29.723 E156.14542 F1800
G0 X193.057 Y31.682 F7200
G1 X177.512 Y47.227 E157.24217 F1800
G0 X179.398 Y47.227 F7200
G1 X193.114 Y33.511 E158.20990 F1800
G0 X193.040 Y35.470 F7200
G1 X181.284 Y47.227 E159.03938 F1800
G0 X183.169 Y47.227 F7200
G1 X193.097 Y37.299 E159.73984 F1800
G0 X193.154 Y39.128 F7200
G1 X185.055 Y47.227 E160.31126 F1800



; ------------------------------------
; Raft Layer #2
; ------------------------------------
G92 E0 ;reset extr
G0 F600 Z0.800
;segType:Raft
G0 F3000 E-1.00000
G0 F600 Z2.800
G0 X187.868 Y45.274 F7200
G0 F600 Z0.800
G0 F3000 E0.00000
G1 X72.132 Y45.274 E3.84942 F2400
G1 X71.740 Y44.874 E3.86805
G1 X188.260 Y44.874 E7.74353
G1 X188.652 Y44.474 E7.76216
G1 X71.348 Y44.474 E11.66372
G1 X70.956 Y44.074 E11.68234
G1 X189.044 Y44.074 E15.60997
G1 X189.436 Y43.674 E15.62859
G1 X70.564 Y43.674 E19.58228
G1 X70.172 Y43.274 E19.60091
G1 X189.828 Y43.274 E23.58067
G1 X190.220 Y42.874 E23.59930
G1 X69.780 Y42.874 E27.60513
G1 X69.388 Y42.474 E27.62375
G1 X190.612 Y42.474 E31.65565
G1 X191.003 Y42.074 E31.67428
G1 X68.997 Y42.074 E35.73224
G1 X68.474 Y41.674 E35.75412
G1 X191.526 Y41.674 E39.84685
G1 X191.918 Y41.274 E39.86547
G1 X68.082 Y41.274 E43.98427
G1 X67.690 Y40.874 E44.00289
G1 X192.310 Y40.874 E48.14775
G1 X192.571 Y40.474 E48.16364
G1 X67.298 Y40.474 E52.33023
G1 X67.168 Y40.074 E52.34422
G1 X192.702 Y40.074 E56.51950
G1 X192.832 Y39.674 E56.53349
G1 X66.907 Y39.674 E60.72180
G1 X66.776 Y39.274 E60.73580
G1 X192.963 Y39.274 E64.93280
G1 X192.963 Y38.874 E64.94610
G1 X66.776 Y38.874 E69.14310
G1 X66.776 Y38.474 E69.15641
G1 X192.963 Y38.474 E73.35340
G1 X192.963 Y38.074 E73.36671
G1 X66.776 Y38.074 E77.56371
G1 X66.776 Y37.674 E77.57701
G1 X192.963 Y37.674 E81.77401
G1 X192.963 Y37.274 E81.78732
G1 X66.776 Y37.274 E85.98431
G1 X66.776 Y36.874 E85.99762
G1 X192.963 Y36.874 E90.19462
G1 X192.963 Y36.474 E90.20792
G1 X66.776 Y36.474 E94.40492
G1 X66.776 Y36.074 E94.41823
G1 X192.963 Y36.074 E98.61523
G1 X192.963 Y35.674 E98.62853
G1 X66.776 Y35.674 E102.82553
G1 X66.776 Y35.274 E102.83884
G1 X192.963 Y35.274 E107.03584
G1 X192.963 Y34.874 E107.04914
G1 X66.776 Y34.874 E111.24614
G1 X66.776 Y34.474 E111.25945
G1 X192.963 Y34.474 E115.45644
G1 X192.963 Y34.074 E115.46975
G1 X66.776 Y34.074 E119.66675
G1 X66.776 Y33.674 E119.68005
G1 X192.963 Y33.674 E123.87705
G1 X192.963 Y33.274 E123.89036
G1 X66.776 Y33.274 E128.08736
G1 X66.776 Y32.874 E128.10066
G1 X192.963 Y32.874 E132.29765
G1 X192.963 Y32.474 E132.31096
G1 X66.776 Y32.474 E136.50795
G1 X66.776 Y32.074 E136.52126
G1 X192.963 Y32.074 E140.71825
G1 X192.963 Y31.674 E140.73155
G1 X66.776 Y31.674 E144.92854
G1 X66.776 Y31.274 E144.94185
G1 X192.963 Y31.274 E149.13884
G1 X192.963 Y30.874 E149.15215
G1 X66.776 Y30.874 E153.34914
G1 X66.776 Y30.474 E153.36244
G1 X192.963 Y30.474 E157.55943
G1 X192.963 Y30.074 E157.57274
G1 X66.776 Y30.074 E161.76973
G1 X66.776 Y29.674 E161.78304
G1 X192.963 Y29.674 E165.98003
G1 X192.963 Y29.274 E165.99333
G1 X66.776 Y29.274 E170.19032
G1 X66.776 Y28.874 E170.20362
G1 X192.963 Y28.874 E174.40062
G1 X192.963 Y28.474 E174.41392
G1 X66.776 Y28.474 E178.61092
G1 X66.907 Y28.074 E178.62490
G1 X192.832 Y28.074 E182.81322
G1 X192.702 Y27.674 E182.82720
G1 X67.037 Y27.674 E187.00684
G1 X67.168 Y27.274 E187.02082
G1 X192.440 Y27.274 E191.18740
G1 X192.179 Y26.874 E191.20330
G1 X67.429 Y26.874 E195.35250
G1 X67.821 Y26.474 E195.37112
G1 X191.787 Y26.474 E199.49426
G1 X191.395 Y26.074 E199.51290
G1 X68.213 Y26.074 E203.60996
G1 X68.605 Y25.674 E203.62858
G1 X191.003 Y25.674 E207.69958
G1 X190.612 Y25.274 E207.71822
G1 X68.997 Y25.274 E211.76316
G1 X69.388 Y24.874 E211.78178
G1 X190.220 Y24.874 E215.80064
G1 X189.828 Y24.474 E215.81928
G1 X69.780 Y24.474 E219.81208
G1 X70.172 Y24.074 E219.83070
G1 X189.436 Y24.074 E223.79742
G1 X189.044 Y23.674 E223.81606
G1 X70.564 Y23.674 E227.75672
G1 X70.956 Y23.274 E227.77534
G1 X188.652 Y23.274 E231.68994
G1 X188.260 Y22.874 E231.70858
G1 X71.348 Y22.874 E235.59710
G1 X71.740 Y22.474 E235.61572
G1 X187.868 Y22.474 E239.47818
G1 X187.346 Y22.074 E239.50006
G1 X72.262 Y22.074 E243.32776
G1 X72.654 Y21.674 E243.34638
G1 X186.954 Y21.674 E247.14802
G1 X186.562 Y21.274 E247.16664
G1 X73.046 Y21.274 E250.94220
G1 X73.569 Y20.874 E250.96408
G1 X185.778 Y20.874 E254.69620
G0 X181.337 Y20.474 F7200
G1 X74.744 Y20.474 E258.24148 F2400
G0 X81.406 Y20.074 F7200
G1 X176.896 Y20.074 E261.41748 F2400
G0 X173.891 Y19.674 F7200
G1 X84.672 Y19.674 E264.38492 F2400
G0 X87.285 Y19.274 F7200
G1 X171.540 Y19.274 E267.18726 F2400
G0 X169.580 Y18.874 F7200
G1 X89.375 Y18.874 E269.85492 F2400
G0 X91.203 Y18.474 F7200
G1 X167.752 Y18.474 E272.40090 F2400
G0 X166.184 Y18.074 F7200
G1 X92.902 Y18.074 E274.83828 F2400
G0 X94.469 Y17.674 F7200
G1 X164.747 Y17.674 E277.17576 F2400
G0 X163.310 Y17.274 F7200
G1 X95.906 Y17.274 E279.41764 F2400
G0 X97.212 Y16.874 F7200
G1 X162.004 Y16.874 E281.57260 F2400
G0 X160.828 Y16.474 F7200
G1 X98.519 Y16.474 E283.64502 F2400
G0 X99.694 Y16.074 F7200
G1 X159.653 Y16.074 E285.63926 F2400
G0 X158.216 Y15.674 F7200
G1 X101.131 Y15.674 E287.53790 F2400
G0 X102.176 Y15.274 F7200
G1 X157.171 Y15.274 E289.36704 F2400
G1 X156.256 Y14.874 E289.40024
G1 X103.221 Y14.874 E291.16418
G1 X104.136 Y14.474 E291.19738
G1 X155.211 Y14.474 E292.89618
G1 X154.297 Y14.074 E292.92938
G1 X105.050 Y14.074 E294.56736
G1 X105.964 Y13.674 E294.60056
G1 X153.382 Y13.674 E296.17768
G1 X152.468 Y13.274 E296.21088
G1 X106.879 Y13.274 E297.72718
G1 X107.793 Y12.874 E297.76038
G1 X151.684 Y12.874 E299.22022
G1 X150.901 Y12.474 E299.24948
G1 X108.577 Y12.474 E300.65716
G1 X109.361 Y12.074 E300.68644
G1 X150.117 Y12.074 E302.04200
G1 X149.333 Y11.674 E302.07126
G1 X110.144 Y11.674 E303.37466
G1 X110.928 Y11.274 E303.40394
G1 X148.549 Y11.274 E304.65522
G1 X147.896 Y10.874 E304.68070
G1 X111.581 Y10.874 E305.88852
G1 X112.365 Y10.474 E305.91778
G1 X147.112 Y10.474 E307.07348
G1 X146.459 Y10.074 E307.09896
G1 X113.018 Y10.074 E308.21122
G1 X113.671 Y9.674 E308.23670
G1 X145.806 Y9.674 E309.30548
G1 X144.892 Y9.274 E309.33868
G1 X114.716 Y9.274 E310.34232
G1 X115.370 Y8.874 E310.36780
G1 X144.239 Y8.874 E311.32798
G1 X143.585 Y8.474 E311.35346
G1 X115.892 Y8.474 E312.27454
G1 X116.545 Y8.074 E312.30002
G1 X143.063 Y8.074 E313.18200
G1 X142.410 Y7.674 E313.20748
G1 X117.198 Y7.674 E314.04602
G1 X117.852 Y7.274 E314.07150
G1 X141.757 Y7.274 E314.86658
G1 X141.234 Y6.874 E314.88846
G1 X118.374 Y6.874 E315.64878
G1 X119.027 Y6.474 E315.67426
G1 X140.581 Y6.474 E316.39114
G1 X140.058 Y6.074 E316.41302
G1 X119.550 Y6.074 E317.09516
G1 X120.072 Y5.674 E317.11704
G1 X139.536 Y5.674 E317.76440
G1 X138.883 Y5.274 E317.78988
G1 X120.595 Y5.274 E318.39814
G1 X121.117 Y4.874 E318.42002
G1 X138.491 Y4.874 E318.99786
G1 X137.968 Y4.474 E319.01974
G1 X121.770 Y4.474 E319.55850
G1 X122.162 Y4.074 E319.57712
G1 X137.446 Y4.074 E320.08544
G1 X136.923 Y3.674 E320.10734
G1 X122.685 Y3.674 E320.58090
G1 X123.207 Y3.274 E320.60278
G1 X136.401 Y3.274 E321.04160
G1 X135.748 Y2.874 E321.06708
G1 X123.991 Y2.874 E321.45810
G0 X103.221 Y46.074 F7200
G1 X156.648 Y46.074 E323.23508 F2400
G1 X155.734 Y46.474 E323.26828
G1 X104.136 Y46.474 E324.98444
G1 X105.050 Y46.874 E325.01764
G1 X154.819 Y46.874 E326.67298
G1 X154.166 Y47.274 E326.69846
G1 X105.703 Y47.274 E328.31034
G1 X106.487 Y47.674 E328.33960
G1 X153.382 Y47.674 E329.89936
G1 X152.729 Y48.074 E329.92484
G1 X107.140 Y48.074 E331.44114
G1 X107.793 Y48.474 E331.46662
G1 X151.946 Y48.474 E332.93512
G1 X151.423 Y48.874 E332.95700
G1 X108.316 Y48.874 E334.39074
G1 X108.838 Y49.274 E334.41262
G1 X150.901 Y49.274 E335.81160
G1 X150.378 Y49.674 E335.83348
G1 X109.491 Y49.674 E337.19340
G1 X110.014 Y50.074 E337.21528
G1 X149.725 Y50.074 E338.53608
G1 X149.202 Y50.474 E338.55796
G1 X110.536 Y50.474 E339.84400
G1 X111.190 Y50.874 E339.86948
G1 X148.549 Y50.874 E341.11208
G1 X148.027 Y51.274 E341.13396
G1 X111.843 Y51.274 E342.33744
G1 X112.365 Y51.674 E342.35932
G1 X147.374 Y51.674 E343.52372
G1 X146.459 Y52.074 E343.55692
G1 X113.149 Y52.074 E344.66484
G1 X113.933 Y52.474 E344.69408
G1 X145.675 Y52.474 E345.74984
G1 X144.892 Y52.874 E345.77912
G1 X114.847 Y52.874 E346.77840
G1 X115.762 Y53.274 E346.81160
G1 X143.847 Y53.274 E347.74572
G0 X142.802 Y53.674 F7200
G1 X116.937 Y53.674 E348.60600 F2400
G0 X118.243 Y54.074 F7200
G1 X141.495 Y54.074 E349.37932 F2400
G0 X139.797 Y54.474 F7200
G1 X119.811 Y54.474 E350.04408 F2400
G0 X123.860 Y54.874 F7200
G1 X135.617 Y54.874 E350.43508 F2400
G0 X157.954 Y45.674 F7200
G1 X102.176 Y45.674 E352.29028 F2400
G0 X98.910 Y45.674 F7200
G1 X72.524 Y45.674 E353.16792 F2400
G1 X72.915 Y46.074 E353.18652
G1 X96.559 Y46.074 E353.97292
G0 X93.816 Y46.474 F7200
G1 X73.307 Y46.474 E354.65504 F2400
G1 X74.222 Y46.874 E354.68828
G1 X89.375 Y46.874 E355.19228
G0 X160.045 Y45.674 F7200
G1 X187.477 Y45.674 E356.10464 F2400
G1 X187.085 Y46.074 E356.12328
G1 X162.265 Y46.074 E356.94876
G0 X164.747 Y46.474 F7200
G1 X186.693 Y46.474 E357.67868 F2400
G1 X186.040 Y46.874 E357.70416
G1 X168.405 Y46.874 E358.29072



; ------------------------------------
; Raft Layer #3
; ------------------------------------
M106 S255 ;set fan speed
G92 E0 ;reset extr
G0 F600 Z1.000
;segType:Raft
G0 F3000 E-1.00000
G0 F600 Z3.000
G0 X193.004 Y39.651 F7200
G0 F600 Z1.000
G0 F3000 E0.00000
G1 X193.004 Y28.286 E0.37799 F2400
G1 X192.604 Y27.372 E0.41119
G1 X192.604 Y40.565 E0.85000
G1 X192.204 Y41.087 E0.87189
G1 X192.204 Y26.849 E1.34546
G1 X191.804 Y26.457 E1.36409
G1 X191.804 Y41.479 E1.86373
G1 X191.404 Y41.871 E1.88236
G1 X191.404 Y26.065 E2.40807
G1 X191.004 Y25.673 E2.42669
G1 X191.004 Y42.263 E2.97847
G1 X190.604 Y42.655 E2.99710
G1 X190.604 Y25.281 E3.57494
G1 X190.204 Y24.890 E3.59357
G1 X190.204 Y43.047 E4.19748
G1 X189.804 Y43.439 E4.21611
G1 X189.804 Y24.498 E4.84609
G1 X189.404 Y24.106 E4.86472
G1 X189.404 Y43.831 E5.52077
G1 X189.004 Y44.223 E5.53940
G1 X189.004 Y23.714 E6.22152
G1 X188.604 Y23.322 E6.24014
G1 X188.604 Y44.614 E6.94833
G1 X188.204 Y45.006 E6.96696
G1 X188.204 Y22.930 E7.70121
G1 X187.804 Y22.538 E7.71984
G1 X187.804 Y45.398 E8.48016
G1 X187.404 Y45.921 E8.50205
G1 X187.404 Y22.016 E9.29713
G1 X187.004 Y21.624 E9.31576
G1 X187.004 Y46.313 E10.13691
G1 X186.604 Y46.574 E10.15280
G1 X186.604 Y21.232 E10.99568
G1 X186.204 Y21.101 E11.00967
G1 X186.204 Y46.835 E11.86558
G1 X185.804 Y47.096 E11.88147
G1 X185.804 Y20.840 E12.75476
G1 X185.404 Y20.709 E12.76876
G1 X185.404 Y47.227 E13.65073
G1 X185.004 Y47.227 E13.66404
G1 X185.004 Y20.709 E14.54602
G1 X184.604 Y20.579 E14.56001
G1 X184.604 Y47.227 E15.44633
G1 X184.204 Y47.227 E15.45964
G1 X184.204 Y20.579 E16.34596
G1 X183.804 Y20.579 E16.35926
G1 X183.804 Y47.227 E17.24559
G1 X183.404 Y47.227 E17.25889
G1 X183.404 Y20.579 E18.14521
G1 X183.004 Y20.579 E18.15852
G1 X183.004 Y47.227 E19.04484
G1 X182.604 Y47.227 E19.05814
G1 X182.604 Y20.579 E19.94446
G1 X182.204 Y20.579 E19.95777
G1 X182.204 Y47.227 E20.84409
G1 X181.804 Y47.227 E20.85739
G1 X181.804 Y20.579 E21.74372
G1 X181.404 Y20.579 E21.75702
G1 X181.404 Y47.227 E22.64334
G1 X181.004 Y47.227 E22.65665
G1 X181.004 Y20.448 E23.54731
G1 X180.604 Y20.448 E23.56062
G1 X180.604 Y47.227 E24.45128
G1 X180.204 Y47.227 E24.46459
G1 X180.204 Y20.448 E25.35525
G1 X179.804 Y20.448 E25.36856
G1 X179.804 Y47.227 E26.25923
G1 X179.404 Y47.227 E26.27253
G1 X179.404 Y20.318 E27.16754
G1 X179.004 Y20.318 E27.18084
G1 X179.004 Y47.227 E28.07586
G1 X178.604 Y47.227 E28.08916
G1 X178.604 Y20.318 E28.98417
G1 X178.204 Y20.318 E28.99748
G1 X178.204 Y47.227 E29.89249
G1 X177.804 Y47.227 E29.90579
G1 X177.804 Y20.187 E30.80515
G1 X177.404 Y20.187 E30.81845
G1 X177.404 Y47.227 E31.71781
G1 X177.004 Y47.227 E31.73111
G1 X177.004 Y20.187 E32.63047
G1 X176.604 Y20.056 E32.64446
G1 X176.604 Y47.227 E33.54817
G1 X176.204 Y47.227 E33.56147
G1 X176.204 Y20.056 E34.46517
G1 X175.804 Y20.056 E34.47848
G1 X175.804 Y47.227 E35.38218
G1 X175.404 Y47.227 E35.39549
G1 X175.404 Y19.926 E36.30353
G1 X175.004 Y19.926 E36.31684
G1 X175.004 Y47.227 E37.22489
G1 X174.604 Y47.227 E37.23819
G1 X174.604 Y19.795 E38.15058
G1 X174.204 Y19.795 E38.16389
G1 X174.204 Y47.227 E39.07628
G1 X173.804 Y47.227 E39.08959
G1 X173.804 Y19.664 E40.00632
G1 X173.404 Y19.664 E40.01963
G1 X173.404 Y47.227 E40.93636
G1 X173.004 Y47.227 E40.94967
G1 X173.004 Y19.534 E41.87075
G1 X172.604 Y19.534 E41.88406
G1 X172.604 Y47.227 E42.80514
G1 X172.204 Y47.227 E42.81845
G1 X172.204 Y19.403 E43.74387
G1 X171.804 Y19.403 E43.75718
G1 X171.804 Y47.227 E44.68260
G1 X171.404 Y47.096 E44.69660
G1 X171.404 Y19.273 E45.62203
G1 X171.004 Y19.273 E45.63533
G1 X171.004 Y47.096 E46.56076
G1 X170.604 Y47.096 E46.57406
G1 X170.604 Y19.142 E47.50384
G1 X170.204 Y19.011 E47.51783
G1 X170.204 Y47.096 E48.45194
G1 X169.804 Y46.966 E48.46594
G1 X169.804 Y19.011 E49.39571
G1 X169.404 Y18.881 E49.40971
G1 X169.404 Y46.966 E50.34382
G1 X169.004 Y46.966 E50.35713
G1 X169.004 Y18.750 E51.29558
G1 X168.604 Y18.750 E51.30889
G1 X168.604 Y46.966 E52.24735
G1 X168.204 Y46.835 E52.26134
G1 X168.204 Y18.619 E53.19980
G1 X167.804 Y18.489 E53.21380
G1 X167.804 Y46.835 E54.15660
G1 X167.404 Y46.835 E54.16991
G1 X167.404 Y18.489 E55.11271
G1 X167.004 Y18.358 E55.12670
G1 X167.004 Y46.705 E56.06951
G1 X166.604 Y46.705 E56.08281
G1 X166.604 Y18.228 E57.02996
G1 X166.204 Y18.097 E57.04396
G1 X166.204 Y46.705 E57.99545
G1 X165.804 Y46.574 E58.00944
G1 X165.804 Y18.097 E58.95659
G1 X165.404 Y17.966 E58.97059
G1 X165.404 Y46.574 E59.92208
G1 X165.004 Y46.574 E59.93539
G1 X165.004 Y17.836 E60.89122
G1 X164.604 Y17.705 E60.90522
G1 X164.604 Y46.443 E61.86106
G1 X164.204 Y46.443 E61.87436
G1 X164.204 Y17.574 E62.83454
G1 X163.804 Y17.444 E62.84854
G1 X163.804 Y46.313 E63.80872
G1 X163.404 Y46.313 E63.82203
G1 X163.404 Y17.444 E64.78221
G1 X163.004 Y17.313 E64.79621
G1 X163.004 Y46.182 E65.75639
G1 X162.604 Y46.182 E65.76969
G1 X162.604 Y17.182 E66.73422
G1 X162.204 Y17.052 E66.74822
G1 X162.204 Y46.051 E67.71275
G1 X161.804 Y46.051 E67.72605
G1 X161.804 Y16.791 E68.69927
G1 X161.404 Y16.660 E68.71326
G1 X161.404 Y45.921 E69.68647
G1 X161.004 Y45.921 E69.69978
G1 X161.004 Y16.660 E70.67299
G1 X160.604 Y16.529 E70.68698
G1 X160.604 Y45.790 E71.66020
G1 X160.204 Y45.790 E71.67350
G1 X160.204 Y16.399 E72.65106
G1 X159.804 Y16.268 E72.66506
G1 X159.804 Y45.659 E73.64262
G1 X159.404 Y45.529 E73.65661
G1 X159.404 Y16.137 E74.63417
G1 X159.004 Y16.007 E74.64817
G1 X159.004 Y45.529 E75.63007
G1 X158.604 Y45.529 E75.64337
G1 X158.604 Y15.746 E76.63397
G1 X158.204 Y15.615 E76.64796
G1 X158.204 Y45.659 E77.64724
G1 X157.804 Y45.790 E77.66123
G1 X157.804 Y15.484 E78.66921
G1 X157.404 Y15.354 E78.68320
G1 X157.404 Y45.921 E79.69986
G1 X157.004 Y46.051 E79.71385
G1 X157.004 Y15.223 E80.73921
G1 X156.604 Y15.092 E80.75320
G1 X156.604 Y46.182 E81.78724
G1 X156.204 Y46.313 E81.80123
G1 X156.204 Y14.831 E82.84831
G1 X155.804 Y14.701 E82.86230
G1 X155.804 Y46.443 E83.91806
G1 X155.404 Y46.705 E83.93395
G1 X155.404 Y14.570 E85.00275
G1 X155.004 Y14.309 E85.01865
G1 X155.004 Y46.835 E86.10048
G1 X154.604 Y47.096 E86.11637
G1 X154.604 Y14.178 E87.21124
G1 X154.204 Y14.047 E87.22523
G1 X154.204 Y47.358 E88.33314
G1 X153.804 Y47.488 E88.34713
G1 X153.804 Y13.917 E89.46372
G1 X153.404 Y13.656 E89.47961
G1 X153.404 Y47.750 E90.61359
G1 X153.004 Y47.880 E90.62758
G1 X153.004 Y13.525 E91.77024
G1 X152.604 Y13.394 E91.78423
G1 X152.604 Y48.141 E92.93993
G1 X152.204 Y48.403 E92.95582
G1 X152.204 Y13.133 E94.12889
G1 X151.804 Y13.002 E94.14288
G1 X151.804 Y48.795 E95.33334
G1 X151.404 Y49.056 E95.34923
G1 X151.404 Y12.741 E96.55706
G1 X151.004 Y12.611 E96.57105
G1 X151.004 Y49.317 E97.79192
G1 X150.604 Y49.578 E97.80781
G1 X150.604 Y12.349 E99.04605
G1 X150.204 Y12.219 E99.06004
G1 X150.204 Y49.840 E100.31133
G1 X149.804 Y50.101 E100.32722
G1 X149.804 Y11.957 E101.59587
G1 X149.404 Y11.827 E101.60986
G1 X149.404 Y50.362 E102.89156
G1 X149.004 Y50.754 E102.91018
G1 X149.004 Y11.565 E104.21359
G1 X148.604 Y11.304 E104.22948
G1 X148.604 Y51.015 E105.55028
G1 X148.204 Y51.277 E105.56617
G1 X148.204 Y11.043 E106.90434
G1 X147.804 Y10.912 E106.91833
G1 X147.804 Y51.538 E108.26954
G1 X147.404 Y51.799 E108.28543
G1 X147.404 Y10.651 E109.65401
G1 X147.004 Y10.520 E109.66801
G1 X147.004 Y51.930 E111.04528
G1 X146.604 Y52.060 E111.05927
G1 X146.604 Y10.259 E112.44958
G1 X146.204 Y9.998 E112.46548
G1 X146.204 Y52.322 E113.87317
G1 X145.804 Y52.452 E113.88716
G1 X145.804 Y9.737 E115.30788
G1 X145.404 Y9.606 E115.32188
G1 X145.404 Y52.713 E116.75563
G1 X145.004 Y52.844 E116.76962
G1 X145.004 Y9.345 E118.21642
G1 X144.604 Y9.084 E118.23231
G1 X144.604 Y52.975 E119.69213
G1 X144.204 Y53.236 E119.70802
G1 X144.204 Y8.822 E121.18523
G1 X143.804 Y8.561 E121.20112
G1 X143.804 Y53.367 E122.69136
G1 X143.404 Y53.497 E122.70535
G1 X143.404 Y8.300 E124.20863
G1 X143.004 Y8.039 E124.22452
G1 X143.004 Y53.628 E125.74082
G1 X142.604 Y53.758 E125.75481
G1 X142.604 Y7.777 E127.28416
G1 X142.204 Y7.516 E127.30005
G1 X142.204 Y53.889 E128.84242
G1 X141.804 Y54.020 E128.85641
G1 X141.804 Y7.255 E130.41182
G1 X141.404 Y6.993 E130.42770
G1 X141.404 Y54.150 E131.99614
G1 X141.004 Y54.281 E132.01013
G1 X141.004 Y6.732 E133.59161
G1 X140.604 Y6.471 E133.60750
G1 X140.604 Y54.281 E135.19766
G1 X140.204 Y54.412 E135.21165
G1 X140.204 Y6.210 E136.81485
G1 X139.804 Y5.948 E136.83073
G1 X139.804 Y54.542 E138.44698
G1 X139.404 Y54.542 E138.46028
G1 X139.404 Y5.687 E140.08521
G1 X139.004 Y5.426 E140.10109
G1 X139.004 Y54.673 E141.73904
G1 X138.604 Y54.673 E141.75235
G1 X138.604 Y5.034 E143.40334
G1 X138.204 Y4.773 E143.41922
G1 X138.204 Y54.803 E145.08325
G1 X137.804 Y54.803 E145.09656
G1 X137.804 Y4.512 E146.76927
G1 X137.404 Y4.120 E146.78790
G1 X137.404 Y54.803 E148.47365
G1 X137.004 Y54.934 E148.48764
G1 X137.004 Y3.858 E150.18643
G1 X136.604 Y3.597 E150.20232
G1 X136.604 Y54.934 E151.90979
G1 X136.204 Y54.934 E151.92310
G1 X136.204 Y3.205 E153.64360
G1 X135.804 Y2.813 E153.66223
G1 X135.804 Y54.934 E155.39577
G1 X135.404 Y55.065 E155.40976
G1 X135.404 Y2.683 E157.15199
G1 X135.004 Y2.552 E157.16599
G1 X135.004 Y55.065 E158.91257
G1 X134.604 Y55.065 E158.92587
G1 X134.604 Y2.552 E160.67245
G1 X134.204 Y2.552 E160.68576
G1 X134.204 Y55.065 E162.43234
G1 X133.804 Y55.065 E162.44565
G1 X133.804 Y2.552 E164.19223
G1 X133.404 Y2.552 E164.20554
G1 X133.404 Y55.065 E165.95212
G1 X133.004 Y55.065 E165.96542
G1 X133.004 Y2.552 E167.71201
G1 X132.604 Y2.552 E167.72531
G1 X132.604 Y55.065 E169.47190
G1 X132.204 Y55.065 E169.48520
G1 X132.204 Y2.552 E171.23178
G1 X131.804 Y2.552 E171.24508
G1 X131.804 Y55.065 E172.99166
G1 X131.404 Y55.065 E173.00498
G1 X131.404 Y2.552 E174.75156
G1 X131.004 Y2.552 E174.76486
G1 X131.004 Y55.065 E176.51144
G1 X130.604 Y55.065 E176.52474
G1 X130.604 Y2.552 E178.27134
G1 X130.204 Y2.552 E178.28464
G1 X130.204 Y55.065 E180.03122
G1 X129.804 Y55.065 E180.04452
G1 X129.804 Y2.552 E181.79110
G1 X129.404 Y2.552 E181.80442
G1 X129.404 Y55.065 E183.55100
G1 X129.004 Y55.065 E183.56430
G1 X129.004 Y2.552 E185.31088
G1 X128.604 Y2.552 E185.32418
G1 X128.604 Y55.065 E187.07078
G1 X128.204 Y55.065 E187.08408
G1 X128.204 Y2.552 E188.83066
G1 X127.804 Y2.552 E188.84396
G1 X127.804 Y55.065 E190.59054
G1 X127.404 Y55.065 E190.60386
G1 X127.404 Y2.552 E192.35044
G1 X127.004 Y2.552 E192.36374
G1 X127.004 Y55.065 E194.11032
G1 X126.604 Y55.065 E194.12362
G1 X126.604 Y2.552 E195.87020
G1 X126.204 Y2.552 E195.88352
G1 X126.204 Y55.065 E197.63010
G1 X125.804 Y55.065 E197.64340
G1 X125.804 Y2.552 E199.38998
G1 X125.404 Y2.552 E199.40328
G1 X125.404 Y55.065 E201.14988
G1 X125.004 Y55.065 E201.16318
G1 X125.004 Y2.552 E202.90976
G1 X124.604 Y2.552 E202.92306
G1 X124.604 Y55.065 E204.66964
G1 X124.204 Y55.065 E204.68296
G1 X124.204 Y2.683 E206.42518
G1 X123.804 Y2.944 E206.44108
G1 X123.804 Y54.934 E208.17028
G1 X123.404 Y54.934 E208.18358
G1 X123.404 Y3.205 E209.90408
G1 X123.004 Y3.597 E209.92272
G1 X123.004 Y54.934 E211.63018
G1 X122.604 Y54.934 E211.64350
G1 X122.604 Y3.989 E213.33794
G1 X122.204 Y4.250 E213.35382
G1 X122.204 Y54.803 E215.03524
G1 X121.804 Y54.803 E215.04854
G1 X121.804 Y4.642 E216.71690
G1 X121.404 Y4.903 E216.73278
G1 X121.404 Y54.803 E218.39248
G1 X121.004 Y54.673 E218.40646
G1 X121.004 Y5.165 E220.05312
G1 X120.604 Y5.426 E220.06900
G1 X120.604 Y54.673 E221.70696
G1 X120.204 Y54.542 E221.72094
G1 X120.204 Y5.687 E223.34588
G1 X119.804 Y5.948 E223.36176
G1 X119.804 Y54.412 E224.97364
G1 X119.404 Y54.412 E224.98696
G1 X119.404 Y6.340 E226.58582
G1 X119.004 Y6.602 E226.60170
G1 X119.004 Y54.281 E228.18752
G1 X118.604 Y54.150 E228.20150
G1 X118.604 Y6.863 E229.77430
G1 X118.204 Y7.124 E229.79018
G1 X118.204 Y54.020 E231.34992
G1 X117.804 Y54.020 E231.36324
G1 X117.804 Y7.385 E232.91430
G1 X117.404 Y7.647 E232.93020
G1 X117.404 Y53.889 E234.46822
G1 X117.004 Y53.758 E234.48220
G1 X117.004 Y7.777 E236.01156
G1 X116.604 Y8.169 E236.03018
G1 X116.604 Y53.497 E237.53780
G1 X116.204 Y53.367 E237.55178
G1 X116.204 Y8.430 E239.04638
G1 X115.804 Y8.692 E239.06226
G1 X115.804 Y53.236 E240.54380
G1 X115.404 Y53.105 E240.55780
G1 X115.404 Y8.953 E242.02632
G1 X115.004 Y9.084 E242.04032
G1 X115.004 Y52.975 E243.50014
G1 X114.604 Y52.844 E243.51412
G1 X114.604 Y9.345 E244.96092
G1 X114.204 Y9.606 E244.97680
G1 X114.204 Y52.583 E246.40622
G1 X113.804 Y52.452 E246.42022
G1 X113.804 Y9.737 E247.84092
G1 X113.404 Y9.998 E247.85682
G1 X113.404 Y52.191 E249.26016
G1 X113.004 Y52.060 E249.27416
G1 X113.004 Y10.259 E250.66446
G1 X112.604 Y10.520 E250.68034
G1 X112.604 Y51.799 E252.05326
G1 X112.204 Y51.538 E252.06916
G1 X112.204 Y10.651 E253.42904
G1 X111.804 Y10.912 E253.44494
G1 X111.804 Y51.277 E254.78744
G1 X111.404 Y51.146 E254.80144
G1 X111.404 Y11.043 E256.13526
G1 X111.004 Y11.304 E256.15116
G1 X111.004 Y50.885 E257.46760
G1 X110.604 Y50.623 E257.48348
G1 X110.604 Y11.565 E258.78256
G1 X110.204 Y11.827 E258.79846
G1 X110.204 Y50.231 E260.07580
G1 X109.804 Y49.970 E260.09170
G1 X109.804 Y11.957 E261.35602
G1 X109.404 Y12.219 E261.37192
G1 X109.404 Y49.709 E262.61886
G1 X109.004 Y49.448 E262.63476
G1 X109.004 Y12.349 E263.86866
G1 X108.604 Y12.611 E263.88456
G1 X108.604 Y49.056 E265.09674
G1 X108.204 Y48.795 E265.11264
G1 X108.204 Y12.741 E266.31176
G1 X107.804 Y13.002 E266.32766
G1 X107.804 Y48.533 E267.50942
G1 X107.404 Y48.272 E267.52532
G1 X107.404 Y13.133 E268.69406
G1 X107.004 Y13.264 E268.70806
G1 X107.004 Y48.011 E269.86376
G1 X106.604 Y47.750 E269.87966
G1 X106.604 Y13.525 E271.01798
G1 X106.204 Y13.656 E271.03198
G1 X106.204 Y47.488 E272.15726
G1 X105.804 Y47.358 E272.17126
G1 X105.804 Y13.786 E273.28788
G1 X105.404 Y14.047 E273.30378
G1 X105.404 Y47.096 E274.40298
G1 X105.004 Y46.835 E274.41888
G1 X105.004 Y14.178 E275.50506
G1 X104.604 Y14.309 E275.51908
G1 X104.604 Y46.705 E276.59656
G1 X104.204 Y46.574 E276.61056
G1 X104.204 Y14.439 E277.67936
G1 X103.804 Y14.701 E277.69526
G1 X103.804 Y46.313 E278.74668
G1 X103.404 Y46.182 E278.76068
G1 X103.404 Y14.831 E279.80340
G1 X103.004 Y14.962 E279.81742
G1 X103.004 Y45.921 E280.84710
G1 X102.604 Y45.790 E280.86112
G1 X102.604 Y15.223 E281.87778
G1 X102.204 Y15.354 E281.89178
G1 X102.204 Y45.659 E282.89974
G1 X101.804 Y45.659 E282.91306
G1 X101.804 Y15.484 E283.91668
G1 X101.404 Y15.615 E283.93070
G1 X101.404 Y45.529 E284.92562
G1 X101.004 Y45.398 E284.93964
G1 X101.004 Y15.746 E285.92588
G1 X100.604 Y15.876 E285.93988
G1 X100.604 Y45.398 E286.92178
G1 X100.204 Y45.529 E286.93580
G1 X100.204 Y16.007 E287.91770
G1 X99.804 Y16.137 E287.93170
G1 X99.804 Y45.529 E288.90928
G1 X99.404 Y45.659 E288.92328
G1 X99.404 Y16.268 E289.90084
G1 X99.004 Y16.399 E289.91486
G1 X99.004 Y45.659 E290.88806
G1 X98.604 Y45.790 E290.90206
G1 X98.604 Y16.529 E291.87528
G1 X98.204 Y16.660 E291.88928
G1 X98.204 Y45.790 E292.85816
G1 X97.804 Y45.921 E292.87216
G1 X97.804 Y16.791 E293.84104
G1 X97.404 Y16.921 E293.85504
G1 X97.404 Y45.921 E294.81958
G1 X97.004 Y46.051 E294.83358
G1 X97.004 Y17.052 E295.79812
G1 X96.604 Y17.182 E295.81214
G1 X96.604 Y46.182 E296.77668
G1 X96.204 Y46.182 E296.78998
G1 X96.204 Y17.313 E297.75016
G1 X95.804 Y17.444 E297.76416
G1 X95.804 Y46.182 E298.72000
G1 X95.404 Y46.313 E298.73400
G1 X95.404 Y17.574 E299.68984
G1 X95.004 Y17.705 E299.70386
G1 X95.004 Y46.313 E300.65536
G1 X94.604 Y46.443 E300.66938
G1 X94.604 Y17.705 E301.62522
G1 X94.204 Y17.836 E301.63922
G1 X94.204 Y46.443 E302.59072
G1 X93.804 Y46.574 E302.60474
G1 X93.804 Y17.966 E303.55624
G1 X93.404 Y18.097 E303.57026
G1 X93.404 Y46.574 E304.51740
G1 X93.004 Y46.574 E304.53070
G1 X93.004 Y18.097 E305.47784
G1 X92.604 Y18.228 E305.49186
G1 X92.604 Y46.574 E306.43466
G1 X92.204 Y46.705 E306.44866
G1 X92.204 Y18.358 E307.39148
G1 X91.804 Y18.489 E307.40548
G1 X91.804 Y46.705 E308.34394
G1 X91.404 Y46.705 E308.35724
G1 X91.404 Y18.489 E309.29568
G1 X91.004 Y18.619 E309.30970
G1 X91.004 Y46.835 E310.24814
G1 X90.604 Y46.835 E310.26144
G1 X90.604 Y18.750 E311.19556
G1 X90.204 Y18.750 E311.20886
G1 X90.204 Y46.835 E312.14298
G1 X89.804 Y46.835 E312.15628
G1 X89.804 Y18.881 E313.08606
G1 X89.404 Y19.011 E313.10006
G1 X89.404 Y46.966 E314.02984
G1 X89.004 Y46.966 E314.04316
G1 X89.004 Y19.011 E314.97294
G1 X88.604 Y19.142 E314.98694
G1 X88.604 Y46.966 E315.91236
G1 X88.204 Y46.966 E315.92566
G1 X88.204 Y19.142 E316.85108
G1 X87.804 Y19.273 E316.86508
G1 X87.804 Y46.966 E317.78616
G1 X87.404 Y46.966 E317.79946
G1 X87.404 Y19.273 E318.72056
G1 X87.004 Y19.403 E318.73456
G1 X87.004 Y47.096 E319.65564
G1 X86.604 Y47.096 E319.66894
G1 X86.604 Y19.403 E320.59002
G1 X86.204 Y19.534 E320.60404
G1 X86.204 Y47.096 E321.52078
G1 X85.804 Y47.096 E321.53408
G1 X85.804 Y19.534 E322.45084
G1 X85.404 Y19.664 E322.46484
G1 X85.404 Y47.096 E323.37722
G1 X85.004 Y47.096 E323.39054
G1 X85.004 Y19.664 E324.30292
G1 X84.604 Y19.795 E324.31692
G1 X84.604 Y47.096 E325.22498
G1 X84.204 Y47.096 E325.23828
G1 X84.204 Y19.795 E326.14634
G1 X83.804 Y19.795 E326.15964
G1 X83.804 Y47.096 E327.06768
G1 X83.404 Y47.096 E327.08100
G1 X83.404 Y19.926 E327.98468
G1 X83.004 Y19.926 E327.99798
G1 X83.004 Y47.096 E328.90168
G1 X82.604 Y47.096 E328.91498
G1 X82.604 Y20.056 E329.81434
G1 X82.204 Y20.056 E329.82764
G1 X82.204 Y47.096 E330.72698
G1 X81.804 Y47.096 E330.74030
G1 X81.804 Y20.056 E331.63964
G1 X81.404 Y20.187 E331.65366
G1 X81.404 Y47.096 E332.54868
G1 X81.004 Y47.096 E332.56198
G1 X81.004 Y20.187 E333.45700
G1 X80.604 Y20.187 E333.47030
G1 X80.604 Y47.096 E334.36532
G1 X80.204 Y47.096 E334.37864
G1 X80.204 Y20.187 E335.27366
G1 X79.804 Y20.318 E335.28766
G1 X79.804 Y47.096 E336.17832
G1 X79.404 Y47.096 E336.19160
G1 X79.404 Y20.318 E337.08228
G1 X79.004 Y20.318 E337.09560
G1 X79.004 Y47.096 E337.98624
G1 X78.604 Y47.096 E337.99956
G1 X78.604 Y20.318 E338.89020
G1 X78.204 Y20.318 E338.90352
G1 X78.204 Y47.096 E339.79416
G1 X77.804 Y47.096 E339.80748
G1 X77.804 Y20.448 E340.69380
G1 X77.404 Y20.448 E340.70708
G1 X77.404 Y47.096 E341.59340
G1 X77.004 Y47.096 E341.60672
G1 X77.004 Y20.448 E342.49304
G1 X76.604 Y20.448 E342.50636
G1 X76.604 Y47.096 E343.39268
G1 X76.204 Y47.096 E343.40596
G1 X76.204 Y20.448 E344.29228
G1 X75.804 Y20.448 E344.30560
G1 X75.804 Y47.096 E345.19192
G1 X75.404 Y47.096 E345.20524
G1 X75.404 Y20.448 E346.09156
G1 X75.004 Y20.448 E346.10484
G1 X75.004 Y47.096 E346.99120
G1 X74.604 Y46.966 E347.00520
G1 X74.604 Y20.579 E347.88280
G1 X74.204 Y20.709 E347.89684
G1 X74.204 Y46.835 E348.76576
G1 X73.804 Y46.705 E348.77980
G1 X73.804 Y20.840 E349.64004
G1 X73.404 Y20.971 E349.65404
G1 X73.404 Y46.574 E350.50560
G1 X73.004 Y46.182 E350.52424
G1 X73.004 Y21.363 E351.34972
G1 X72.604 Y21.754 E351.36836
G1 X72.604 Y45.790 E352.16780
G1 X72.204 Y45.398 E352.18640
G1 X72.204 Y22.146 E352.95976
G1 X71.804 Y22.669 E352.98164
G1 X71.804 Y44.876 E353.72024
G1 X71.404 Y44.484 E353.73888
G1 X71.404 Y23.061 E354.45140
G1 X71.004 Y23.453 E354.47000
G1 X71.004 Y44.092 E355.15648
G1 X70.604 Y43.700 E355.17508
G1 X70.604 Y23.845 E355.83548
G1 X70.204 Y24.236 E355.85408
G1 X70.204 Y43.308 E356.48844
G1 X69.804 Y42.916 E356.50704
G1 X69.804 Y24.628 E357.11528
G1 X69.404 Y25.020 E357.13392
G1 X69.404 Y42.524 E357.71608
G1 X69.004 Y42.133 E357.73472
G1 X69.004 Y25.412 E358.29084
G1 X68.604 Y25.804 E358.30944
G1 X68.604 Y41.741 E358.83952
G1 X68.204 Y41.349 E358.85812
G1 X68.204 Y26.196 E359.36212
G1 X67.804 Y26.588 E359.38072
G1 X67.804 Y40.957 E359.85864
G1 X67.404 Y40.565 E359.87724
G1 X67.404 Y26.980 E360.32912
G1 X67.004 Y27.763 E360.35836
G1 X67.004 Y39.781 E360.75808


; ------------------------------------
; Layer #0
; ------------------------------------
G21 ; mm
G90 ; abs
G92 E0 ;reset extr
G0 F600 Z1.350
;segType:HShell
G0 F3000 E-1.00000
G0 X77.945 Y32.804 F5400
G0 F3000 E0.00000
G1 X81.200 Y36.060 E0.15313 F2400
G0 X80.654 Y36.079 F5400
G1 X77.822 Y33.247 E0.28633 F2400
G0 X77.760 Y33.750 F5400
G1 X80.076 Y36.067 E0.39529 F2400
G0 X79.367 Y35.923 F5400
G1 X77.892 Y34.448 E0.46467 F2400
G0 X77.719 Y35.262 F5400
;segType:Perimeter
G1 X77.164 Y34.686 E0.49128 F1200
G1 X76.990 Y33.771 E0.52224
G1 X77.113 Y32.787 E0.55521
G1 X77.535 Y31.886 E0.58830
G1 X78.024 Y31.325 E0.61305
G1 X78.629 Y30.891 E0.63783
G1 X79.321 Y30.611 E0.66265
G1 X80.069 Y30.488 E0.68786
G1 X80.704 Y30.463 E0.70901
G1 X82.718 Y30.411 E0.77603
G1 X85.384 Y30.235 E0.86488
G1 X88.040 Y29.970 E0.95367
G1 X90.689 Y29.617 E1.04254
G1 X93.322 Y29.177 E1.13133
G1 X95.940 Y28.649 E1.22015
G1 X98.539 Y28.034 E1.30900
G1 X101.115 Y27.334 E1.39779
G1 X103.464 Y26.614 E1.47950
G1 X105.790 Y25.823 E1.56119
G1 X108.090 Y24.961 E1.64291
G1 X110.363 Y24.029 E1.72460
G1 X112.834 Y22.922 E1.81465
G1 X115.266 Y21.732 E1.90471
G1 X117.656 Y20.462 E1.99475
G1 X120.003 Y19.110 E2.08481
G1 X122.302 Y17.681 E2.17487
G1 X124.552 Y16.175 E2.26490
G1 X126.750 Y14.595 E2.35496
G1 X128.360 Y13.336 E2.42294
G1 X128.872 Y12.945 E2.44434
G1 X129.348 Y12.685 E2.46238
G1 X129.861 Y12.579 E2.47982
G1 X130.381 Y12.638 E2.49720
G1 X130.868 Y12.858 E2.51498
G1 X131.094 Y13.021 E2.52427
G1 X132.104 Y13.799 E2.56667
G1 X132.250 Y13.912 E2.57280
G1 X134.240 Y15.431 E2.65605
G1 X137.524 Y17.684 E2.78851
G1 X139.905 Y19.174 E2.88194
G1 X142.333 Y20.578 E2.97521
G1 X144.811 Y21.899 E3.06861
G1 X147.331 Y23.131 E3.16192
G1 X149.893 Y24.276 E3.25526
G1 X152.493 Y25.330 E3.34856
G1 X155.129 Y26.292 E3.44191
G1 X157.798 Y27.161 E3.53525
G1 X160.494 Y27.936 E3.62857
G1 X163.217 Y28.616 E3.72191
G1 X165.963 Y29.201 E3.81528
G1 X168.725 Y29.690 E3.90858
G1 X171.504 Y30.082 E4.00192
G1 X174.295 Y30.377 E4.09526
G1 X177.094 Y30.575 E4.18860
G1 X179.210 Y30.638 E4.25902
G1 X180.046 Y30.681 E4.28686
G1 X180.514 Y30.749 E4.30257
G1 X181.108 Y30.939 E4.32333
G1 X181.651 Y31.241 E4.34398
G1 X182.123 Y31.645 E4.36466
G1 X182.510 Y32.133 E4.38536
G1 X182.794 Y32.685 E4.40602
G1 X182.962 Y33.283 E4.42668
G1 X183.013 Y33.904 E4.44738
G1 X182.941 Y34.521 E4.46805
G1 X182.750 Y35.112 E4.48872
G1 X182.447 Y35.655 E4.50941
G1 X182.044 Y36.129 E4.53009
G1 X181.557 Y36.515 E4.55076
G1 X181.003 Y36.798 E4.57145
G1 X180.404 Y36.969 E4.59217
G1 X179.776 Y37.028 E4.61316
G1 X178.973 Y36.999 E4.63987
G1 X178.790 Y36.992 E4.64596
G1 X175.870 Y36.860 E4.74318
G1 X171.964 Y36.525 E4.87358
G1 X169.739 Y36.254 E4.94811
G1 X167.522 Y35.925 E5.02267
G1 X165.313 Y35.539 E5.09725
G1 X163.649 Y35.218 E5.15361
G1 X163.107 Y35.105 E5.17202
G1 X162.570 Y35.024 E5.19009
G1 X160.909 Y34.747 E5.24612
G1 X158.674 Y34.644 E5.32051
G1 X156.443 Y34.787 E5.39487
G1 X154.241 Y35.172 E5.46923
G1 X152.093 Y35.796 E5.54360
G1 X150.028 Y36.653 E5.61797
G1 X148.072 Y37.731 E5.69225
G1 X147.409 Y38.176 E5.71881
G1 X145.820 Y39.343 E5.78439
G1 X144.469 Y40.310 E5.83964
G1 X142.597 Y41.455 E5.91264
G1 X140.638 Y42.444 E5.98563
G1 X138.604 Y43.268 E6.05863
G1 X136.507 Y43.918 E6.13163
G1 X134.364 Y44.391 E6.20463
G1 X132.189 Y44.680 E6.27762
G1 X129.996 Y44.779 E6.35061
G1 X127.803 Y44.687 E6.42362
G1 X125.626 Y44.407 E6.49662
G1 X123.481 Y43.941 E6.56964
G1 X121.384 Y43.293 E6.64265
G1 X119.350 Y42.467 E6.71565
G1 X117.395 Y41.471 E6.78864
G1 X115.528 Y40.315 E6.86167
G1 X114.184 Y39.338 E6.91691
G1 X113.751 Y39.013 E6.93495
G1 X113.306 Y38.698 E6.95309
G1 X111.934 Y37.697 E7.00957
G1 X109.967 Y36.593 E7.08457
G1 X107.891 Y35.715 E7.15954
G1 X105.731 Y35.071 E7.23450
G1 X103.514 Y34.668 E7.30948
G1 X101.264 Y34.516 E7.38446
G1 X99.015 Y34.613 E7.45934
G1 X98.217 Y34.717 E7.48611
G1 X96.791 Y34.966 E7.53424
G1 X96.165 Y35.093 E7.55551
G1 X94.232 Y35.461 E7.62096
G1 X91.665 Y35.888 E7.70751
G1 X89.085 Y36.237 E7.79408
G1 X86.497 Y36.508 E7.88065
G1 X83.379 Y36.731 E7.98462
G1 X81.020 Y36.828 E8.06314
G1 X80.269 Y36.851 E8.08811
G1 X79.516 Y36.773 E8.11329
G1 X78.807 Y36.539 E8.13814
G1 X78.175 Y36.145 E8.16291
G1 X77.656 Y35.616 E8.18756
G1 X77.204 Y34.797 E8.21866
G0 X77.164 Y34.686 F5400
G0 X76.990 Y33.771
G0 X77.073 Y33.107
G0 X77.502 Y32.900
G0 X77.407 Y33.659
;segType:Loop
G1 X77.502 Y32.900 E8.24411 F2400
G1 X77.874 Y32.107 E8.27324
G1 X78.295 Y31.622 E8.29458
G1 X78.823 Y31.243 E8.31621
G1 X79.430 Y30.998 E8.33797
G1 X80.109 Y30.886 E8.36087
G1 X80.717 Y30.863 E8.38111
G1 X82.737 Y30.810 E8.44831
G1 X85.416 Y30.633 E8.53763
G1 X88.086 Y30.368 E8.62686
G1 X90.749 Y30.013 E8.71620
G1 X93.395 Y29.570 E8.80544
G1 X96.025 Y29.040 E8.89466
G1 X98.638 Y28.422 E8.98397
G1 X101.227 Y27.718 E9.07322
G1 X103.587 Y26.995 E9.15533
G1 X105.924 Y26.200 E9.23742
G1 X108.236 Y25.334 E9.31953
G1 X110.521 Y24.397 E9.40167
G1 X113.003 Y23.284 E9.49215
G1 X115.448 Y22.089 E9.58266
G1 X117.850 Y20.812 E9.67313
G1 X120.208 Y19.454 E9.76366
G1 X122.520 Y18.017 E9.85416
G1 X124.780 Y16.504 E9.94464
G1 X126.990 Y14.915 E10.03518
G1 X128.605 Y13.652 E10.10337
G1 X129.090 Y13.282 E10.12366
G1 X129.487 Y13.065 E10.13871
G1 X129.880 Y12.984 E10.15204
G1 X130.273 Y13.028 E10.16521
G1 X130.667 Y13.206 E10.17957
G1 X130.856 Y13.342 E10.18732
G1 X132.020 Y14.239 E10.23620
G1 X134.004 Y15.754 E10.31924
G1 X137.305 Y18.018 E10.45235
G1 X139.699 Y19.517 E10.54631
G1 X142.139 Y20.928 E10.64004
G1 X144.627 Y22.254 E10.73383
G1 X147.163 Y23.494 E10.82772
G1 X149.738 Y24.644 E10.92150
G1 X152.349 Y25.703 E11.01523
G1 X154.999 Y26.670 E11.10905
G1 X157.681 Y27.544 E11.20285
G1 X160.390 Y28.322 E11.29662
G1 X163.127 Y29.006 E11.39042
G1 X165.886 Y29.594 E11.48426
G1 X168.662 Y30.085 E11.57804
G1 X171.455 Y30.479 E11.67185
G1 X174.259 Y30.776 E11.76564
G1 X177.074 Y30.974 E11.85949
G1 X179.194 Y31.038 E11.93002
G1 X180.007 Y31.080 E11.95711
G1 X180.423 Y31.140 E11.97110
G1 X180.948 Y31.308 E11.98943
G1 X181.421 Y31.571 E12.00744
G1 X181.834 Y31.924 E12.02550
G1 X182.172 Y32.350 E12.04359
G1 X182.420 Y32.833 E12.06162
G1 X182.567 Y33.354 E12.07965
G1 X182.611 Y33.897 E12.09775
G1 X182.549 Y34.435 E12.11578
G1 X182.381 Y34.951 E12.13383
G1 X182.116 Y35.426 E12.15192
G1 X181.765 Y35.840 E12.16996
G1 X181.339 Y36.177 E12.18802
G1 X180.856 Y36.424 E12.20608
G1 X180.330 Y36.574 E12.22428
G1 X179.764 Y36.628 E12.24318
G1 X178.859 Y36.594 E12.27331
G1 X178.744 Y36.589 E12.27712
G1 X175.896 Y36.461 E12.37196
G1 X172.005 Y36.127 E12.50184
G1 X169.793 Y35.857 E12.57596
G1 X167.586 Y35.530 E12.65016
G1 X165.386 Y35.146 E12.72445
G1 X163.728 Y34.825 E12.78061
G1 X163.178 Y34.711 E12.79929
G1 X162.633 Y34.628 E12.81763
G1 X160.951 Y34.349 E12.87435
G1 X158.671 Y34.244 E12.95026
G1 X156.396 Y34.389 E13.02609
G1 X154.150 Y34.782 E13.10190
G1 X151.961 Y35.418 E13.17773
G1 X149.855 Y36.292 E13.25357
G1 X147.864 Y37.389 E13.32917
G1 X147.179 Y37.848 E13.35659
G1 X145.585 Y39.019 E13.42237
G1 X144.248 Y39.976 E13.47707
G1 X142.402 Y41.105 E13.54905
G1 X140.473 Y42.080 E13.62094
G1 X138.469 Y42.891 E13.69283
G1 X136.405 Y43.531 E13.76472
G1 X134.295 Y43.997 E13.83659
G1 X132.153 Y44.281 E13.90844
G1 X129.996 Y44.379 E13.98027
G1 X127.837 Y44.288 E14.05213
G1 X125.694 Y44.012 E14.12399
G1 X123.583 Y43.554 E14.19586
G1 X121.518 Y42.916 E14.26772
G1 X119.517 Y42.103 E14.33959
G1 X117.591 Y41.122 E14.41145
G1 X115.751 Y39.983 E14.48343
G1 X114.422 Y39.017 E14.53808
G1 X113.986 Y38.689 E14.55621
G1 X113.540 Y38.373 E14.57442
G1 X112.150 Y37.359 E14.63162
G1 X110.144 Y36.234 E14.70814
G1 X108.027 Y35.338 E14.78459
G1 X105.825 Y34.681 E14.86102
G1 X103.563 Y34.271 E14.93747
G1 X101.269 Y34.115 E15.01394
G1 X98.980 Y34.214 E15.09014
G1 X98.157 Y34.322 E15.11777
G1 X96.717 Y34.573 E15.16637
G1 X96.088 Y34.701 E15.18772
G1 X94.161 Y35.067 E15.25296
G1 X91.605 Y35.492 E15.33914
G1 X89.037 Y35.839 E15.42532
G1 X86.461 Y36.110 E15.51147
G1 X83.356 Y36.332 E15.61502
G1 X81.006 Y36.428 E15.69326
G1 X80.284 Y36.450 E15.71727
G1 X79.601 Y36.380 E15.74012
G1 X78.978 Y36.174 E15.76194
G1 X78.427 Y35.831 E15.78352
G1 X77.980 Y35.374 E15.80477
G1 X77.556 Y34.607 E15.83393
G1 X77.413 Y33.857 E15.85934
G0 F3000 E14.85934
G0 X77.413 Y33.857 F5400
G0 X92.474 Y29.724
G0 X93.395 Y29.570
G0 X96.025 Y29.040
G0 X98.638 Y28.422
G0 X101.227 Y27.718
G0 X103.587 Y26.995
G0 X105.924 Y26.200
G0 X107.577 Y25.581
G0 X110.617 Y24.747
G0 F3000 E15.85934
;segType:HShell
G1 X118.239 Y32.369 E16.21785 F2400
G0 X118.593 Y32.146 F5400
G0 X118.794 Y32.081
;segType:Perimeter
G1 X118.915 Y31.290 E16.24446 F1200
G1 X119.003 Y30.495 E16.27105
G1 X119.008 Y30.309 E16.27723
G1 X119.204 Y29.278 E16.31216
G1 X119.526 Y28.282 E16.34697
G1 X119.965 Y27.332 E16.38176
G1 X120.453 Y26.521 E16.41324
G1 X121.020 Y25.761 E16.44481
G1 X121.660 Y25.057 E16.47644
G1 X122.367 Y24.411 E16.50827
G1 X123.930 Y23.333 E16.57144
G1 X125.660 Y22.527 E16.63493
G1 X127.502 Y22.002 E16.69862
G1 X129.403 Y21.761 E16.76236
G1 X131.319 Y21.809 E16.82610
G1 X133.205 Y22.142 E16.88979
G1 X135.014 Y22.758 E16.95337
G1 X136.699 Y23.658 E17.01690
G1 X138.197 Y24.824 E17.08003
G1 X138.863 Y25.508 E17.11179
G1 X139.456 Y26.249 E17.14336
G1 X139.972 Y27.045 E17.17490
G1 X140.402 Y27.887 E17.20637
G1 X140.742 Y28.768 E17.23776
G1 X140.982 Y29.680 E17.26913
G1 X141.118 Y30.614 E17.30051
G1 X141.146 Y31.556 E17.33185
G1 X141.069 Y32.495 E17.36319
G1 X140.888 Y33.420 E17.39455
G1 X140.610 Y34.312 E17.42564
G1 X140.227 Y35.188 E17.45742
G1 X139.757 Y36.008 E17.48884
G1 X139.206 Y36.777 E17.52031
G1 X138.581 Y37.491 E17.55188
G1 X137.887 Y38.149 E17.58367
G1 X136.344 Y39.262 E17.64698
G1 X134.628 Y40.099 E17.71047
G1 X132.798 Y40.655 E17.77409
G1 X130.901 Y40.925 E17.83782
G1 X128.985 Y40.910 E17.90155
G1 X127.093 Y40.608 E17.96525
G1 X125.273 Y40.022 E18.02886
G1 X123.572 Y39.154 E18.09238
G1 X122.052 Y38.016 E18.15554
G1 X121.371 Y37.345 E18.18732
G1 X120.761 Y36.617 E18.21890
G1 X120.227 Y35.835 E18.25042
G1 X119.777 Y35.002 E18.28191
G1 X119.418 Y34.128 E18.31334
G1 X119.156 Y33.221 E18.34474
G1 X118.996 Y32.287 E18.37625
G1 X118.993 Y32.121 E18.38179
G1 X118.915 Y31.409 E18.40559
G0 X118.915 Y31.290 F5400
G0 X119.003 Y30.495
G0 X119.008 Y30.309
G0 X119.123 Y29.706
G0 F3000 E17.40559
G0 X118.628 Y30.168 F5400
G0 F3000 E18.40559
;segType:Loop
G1 X118.816 Y29.179 E18.43910 F2400
G1 X119.152 Y28.136 E18.47554
G1 X119.611 Y27.145 E18.51186
G1 X120.120 Y26.298 E18.54473
G1 X120.711 Y25.506 E18.57759
G1 X121.376 Y24.774 E18.61049
G1 X122.117 Y24.098 E18.64385
G1 X123.731 Y22.985 E18.70904
G1 X125.520 Y22.151 E18.77471
G1 X127.421 Y21.608 E18.84047
G1 X129.383 Y21.361 E18.90622
G1 X131.359 Y21.410 E18.97197
G1 X133.304 Y21.753 E19.03768
G1 X135.174 Y22.390 E19.10337
G1 X136.918 Y23.321 E19.16911
G1 X138.464 Y24.525 E19.23430
G1 X139.163 Y25.243 E19.26761
G1 X139.781 Y26.015 E19.30051
G1 X140.318 Y26.845 E19.33339
G1 X140.768 Y27.724 E19.36625
G1 X141.123 Y28.645 E19.39907
G1 X141.375 Y29.600 E19.43191
G1 X141.517 Y30.579 E19.46481
G1 X141.547 Y31.566 E19.49767
G1 X141.465 Y32.550 E19.53049
G1 X141.276 Y33.519 E19.56332
G1 X140.985 Y34.453 E19.59587
G1 X140.585 Y35.368 E19.62910
G1 X140.094 Y36.224 E19.66191
G1 X139.520 Y37.026 E19.69471
G1 X138.870 Y37.769 E19.72754
G1 X138.143 Y38.458 E19.76085
G1 X136.550 Y39.607 E19.82618
G1 X134.775 Y40.473 E19.89188
G1 X132.884 Y41.046 E19.95758
G1 X130.928 Y41.326 E20.02333
G1 X128.951 Y41.310 E20.08906
G1 X127.000 Y40.998 E20.15478
G1 X125.120 Y40.393 E20.22049
G1 X123.360 Y39.494 E20.28620
G1 X121.790 Y38.320 E20.35140
G1 X121.077 Y37.617 E20.38473
G1 X120.442 Y36.859 E20.41760
G1 X119.885 Y36.043 E20.45046
G1 X119.415 Y35.174 E20.48333
G1 X119.039 Y34.260 E20.51620
G1 X118.765 Y33.310 E20.54906
G1 X118.597 Y32.325 E20.58233
G1 X118.593 Y32.146 E20.58827
G1 X118.506 Y31.349 E20.61493
G1 X118.604 Y30.468 E20.64443
G0 X118.188 Y31.752 F5400
;segType:HShell
G1 X111.009 Y24.573 E20.98213 F2400
G0 X111.399 Y24.398 F5400
G1 X118.164 Y31.163 E21.30034 F2400
G0 X118.221 Y30.654 F5400
G1 X111.790 Y24.223 E21.60283 F2400
G0 X112.181 Y24.048 F5400
G1 X118.268 Y30.135 E21.88915 F2400
G0 X118.358 Y29.659 F5400
G1 X112.571 Y23.873 E22.16134 F2400
G0 X112.962 Y23.698 F5400
G1 X118.448 Y29.184 E22.41941 F2400
G0 X118.577 Y28.747 F5400
G1 X113.347 Y23.517 E22.66540 F2400
G0 X113.727 Y23.331 F5400
G1 X118.715 Y28.319 E22.90002 F2400
G0 X118.864 Y27.902 F5400
G1 X114.107 Y23.145 E23.12376 F2400
G0 X114.487 Y22.960 F5400
G1 X119.042 Y27.515 E23.33804 F2400
G0 X119.221 Y27.128 F5400
G1 X114.867 Y22.774 E23.54287 F2400
G0 X115.246 Y22.588 F5400
G1 X119.421 Y26.762 E23.73921 F2400
G0 X119.633 Y26.409 F5400
G1 X115.626 Y22.402 E23.92769 F2400
G0 X115.995 Y22.205 F5400
G1 X119.849 Y26.059 E24.10896 F2400
G0 X120.091 Y25.735 F5400
G1 X116.365 Y22.009 E24.28423 F2400
G0 X116.734 Y21.813 F5400
G1 X120.333 Y25.411 E24.45350 F2400
G0 X120.590 Y25.104 F5400
G1 X117.103 Y21.616 E24.61753 F2400
G0 X117.473 Y21.420 F5400
G1 X120.860 Y24.807 E24.77684 F2400
G0 X121.130 Y24.511 F5400
G1 X117.842 Y21.224 E24.93148 F2400
G0 X118.206 Y21.022 F5400
G1 X121.425 Y24.241 E25.08291 F2400
G0 X121.721 Y23.971 F5400
G1 X118.565 Y20.815 E25.23136 F2400
G0 X118.924 Y20.609 F5400
G1 X122.033 Y23.718 E25.37761 F2400
G0 X122.368 Y23.487 F5400
G1 X119.283 Y20.402 E25.52272 F2400
G0 X119.642 Y20.195 F5400
G1 X122.703 Y23.256 E25.66669 F2400
G0 X123.038 Y23.025 F5400
G1 X120.001 Y19.989 E25.80952 F2400
G0 X120.360 Y19.782 F5400
G1 X123.372 Y22.794 E25.95122 F2400
G0 X123.731 Y22.587 F5400
G1 X120.710 Y19.566 E26.09332 F2400
G0 X121.059 Y19.349 F5400
G1 X124.117 Y22.407 E26.23717 F2400
G0 X124.503 Y22.228 F5400
G1 X121.407 Y19.132 E26.38277 F2400
G0 X121.756 Y18.915 F5400
G1 X124.889 Y22.048 E26.53010 F2400
G0 X125.275 Y21.868 F5400
G1 X122.105 Y18.699 E26.67919 F2400
G0 X122.454 Y18.482 F5400
G1 X125.698 Y21.726 E26.83177 F2400
G0 X126.138 Y21.600 F5400
G1 X122.800 Y18.263 E26.98876 F2400
G0 X123.139 Y18.036 F5400
G1 X126.578 Y21.475 E27.15052 F2400
G0 X127.018 Y21.349 F5400
G1 X123.478 Y17.809 E27.31704 F2400
G0 X123.817 Y17.582 F5400
G1 X127.474 Y21.239 E27.48904 F2400
G0 X127.976 Y21.175 F5400
G1 X124.156 Y17.355 E27.66873 F2400
G0 X124.495 Y17.128 F5400
G1 X128.478 Y21.112 E27.85611 F2400
G0 X128.981 Y21.049 F5400
G1 X124.834 Y16.902 E28.05117 F2400
G0 X125.167 Y16.669 F5400
G1 X129.501 Y21.004 E28.25503 F2400
G0 X130.081 Y21.018 F5400
G1 X125.496 Y16.433 E28.47069 F2400
G0 X125.825 Y16.196 F5400
G1 X130.661 Y21.032 E28.69816 F2400
G0 X131.241 Y21.046 F5400
G1 X126.154 Y15.960 E28.93742 F2400
G0 X126.483 Y15.723 F5400
G1 X131.900 Y21.139 E29.19219 F2400
G0 X132.587 Y21.261 F5400
G1 X126.812 Y15.486 E29.46380 F2400
G0 X127.141 Y15.250 F5400
G1 X133.274 Y21.382 E29.75223 F2400
G0 X134.102 Y21.644 F5400
G1 X127.461 Y15.004 E30.06459 F2400
G0 X127.779 Y14.755 F5400
G1 X134.960 Y21.937 E30.40239 F2400
G0 X136.026 Y22.437 F5400
G1 X128.096 Y14.507 E30.77538 F2400
G0 X128.413 Y14.259 F5400
G1 X137.378 Y23.223 E31.19702 F2400
G0 F3000 E30.19702
G0 X154.933 Y26.646 F5400
G0 X154.999 Y26.670
G0 X157.681 Y27.544
G0 X160.390 Y28.322
G0 X163.127 Y29.006
G0 X165.886 Y29.594
G0 X168.662 Y30.085
G0 X171.455 Y30.479
G0 X174.259 Y30.776
G0 X177.074 Y30.974
G0 X177.138 Y30.976
G0 X180.946 Y31.719
G0 F3000 E31.19702
G1 X181.967 Y32.740 E31.24506 F2400
G0 X182.222 Y33.561 F5400
G1 X180.121 Y31.460 E31.34388 F2400
G0 X179.510 Y31.415 F5400
G1 X182.222 Y34.126 E31.47143 F2400
G0 X182.120 Y34.590 F5400
G1 X178.920 Y31.390 E31.62196 F2400
G0 X178.337 Y31.372 F5400
G1 X181.950 Y34.986 E31.79191 F2400
G0 X181.727 Y35.329 F5400
G1 X177.754 Y31.355 E31.97882 F2400
G0 X177.170 Y31.338 F5400
G1 X181.457 Y35.624 E32.18045 F2400
G0 X181.141 Y35.874 F5400
G1 X176.567 Y31.300 E32.39560 F2400
G0 X175.958 Y31.257 F5400
G1 X180.767 Y36.065 E32.62178 F2400
G0 X180.334 Y36.198 F5400
G1 X175.349 Y31.214 E32.85624 F2400
G0 X174.741 Y31.171 F5400
G1 X179.830 Y36.260 E33.09561 F2400
G0 X179.253 Y36.248 F5400
G1 X174.128 Y31.124 E33.33663 F2400
G0 X173.496 Y31.057 F5400
G1 X178.664 Y36.225 E33.57974 F2400
G0 X178.072 Y36.199 F5400
G1 X172.863 Y30.990 E33.82473 F2400
G0 X172.231 Y30.923 F5400
G1 X177.479 Y36.172 E34.07162 F2400
G0 X176.887 Y36.145 F5400
G1 X171.598 Y30.856 E34.32041 F2400
G0 X170.947 Y30.771 F5400
G1 X176.295 Y36.119 E34.57195 F2400
G0 X175.693 Y36.082 F5400
G1 X170.288 Y30.678 E34.82615 F2400
G0 X169.630 Y30.585 F5400
G1 X175.074 Y36.029 E35.08223 F2400
G0 X174.455 Y35.976 F5400
G1 X168.971 Y30.492 E35.34018 F2400
G0 X168.300 Y30.386 F5400
G1 X173.836 Y35.923 E35.60061 F2400
G0 X173.217 Y35.870 F5400
G1 X167.612 Y30.265 E35.86425 F2400
G0 X166.925 Y30.143 F5400
G1 X172.598 Y35.816 E36.13111 F2400
G0 X171.977 Y35.761 F5400
G1 X166.238 Y30.022 E36.40106 F2400
G0 X165.538 Y29.888 F5400
G1 X171.333 Y35.682 E36.67362 F2400
G0 X170.689 Y35.604 F5400
G1 X164.819 Y29.735 E36.94968 F2400
G0 X164.101 Y29.582 F5400
G1 X170.044 Y35.525 E37.22926 F2400
G0 X169.387 Y35.433 F5400
G1 X163.382 Y29.428 E37.51170 F2400
G0 X162.644 Y29.257 F5400
G1 X168.723 Y35.335 E37.79760 F2400
G0 X168.058 Y35.236 F5400
G1 X161.890 Y29.068 E38.08774 F2400
G0 X161.136 Y28.880 F5400
G1 X167.386 Y35.130 E38.38172 F2400
G0 X166.701 Y35.010 F5400
G1 X160.382 Y28.691 E38.67894 F2400
G0 X159.593 Y28.468 F5400
G1 X166.015 Y34.890 E38.98103 F2400
G0 X165.327 Y34.768 F5400
G1 X158.799 Y28.240 E39.28808 F2400
G0 X158.006 Y28.012 F5400
G1 X164.626 Y34.632 E39.59947 F2400
G0 X163.925 Y34.497 F5400
G1 X157.191 Y27.763 E39.91619 F2400
G0 X156.352 Y27.490 F5400
G1 X163.215 Y34.352 E40.23897 F2400
G0 X162.546 Y34.249 F5400
G1 X155.513 Y27.217 E40.56974 F2400
G0 X154.662 Y26.931 F5400
G1 X161.867 Y34.136 E40.90866 F2400
G0 X161.189 Y34.023 F5400
G1 X153.771 Y26.605 E41.25758 F2400
G0 X152.880 Y26.280 F5400
G1 X160.570 Y33.971 E41.61933 F2400
G0 X159.977 Y33.943 F5400
G1 X151.973 Y25.939 E41.99584 F2400
G0 X151.021 Y25.553 F5400
G1 X159.384 Y33.916 E42.38920 F2400
G0 X158.791 Y33.889 F5400
G1 X150.070 Y25.167 E42.79941 F2400
G0 X149.083 Y24.746 F5400
G1 X158.247 Y33.910 E43.23044 F2400
G0 X157.715 Y33.944 F5400
G1 X148.061 Y24.290 E43.68455 F2400
G0 X147.039 Y23.833 F5400
G1 X157.183 Y33.978 E44.16172 F2400
G0 X156.652 Y34.012 F5400
G1 X145.934 Y23.294 E44.66585 F2400
G0 X144.827 Y22.753 F5400
G1 X156.142 Y34.068 E45.19810 F2400
G0 X155.660 Y34.152 F5400
G1 X143.649 Y22.141 E45.76306 F2400
G0 X142.438 Y21.495 F5400
G1 X155.179 Y34.236 E46.36236 F2400
G0 X154.697 Y34.320 F5400
G1 X141.147 Y20.770 E46.99973 F2400
G0 X139.806 Y19.994 F5400
G1 X154.216 Y34.405 E47.67754 F2400
G0 X153.764 Y34.519 F5400
G1 X138.331 Y19.085 E48.40348 F2400
G0 X136.764 Y18.084 F5400
G1 X153.326 Y34.646 E49.18250 F2400
G0 X152.888 Y34.773 F5400
G1 X134.963 Y16.849 E50.02563 F2400
G0 X132.954 Y15.405 F5400
G1 X152.449 Y34.901 E50.94263 F2400
G0 X152.011 Y35.028 F5400
G1 X130.546 Y13.563 E51.95227 F2400
G0 X129.788 Y13.371 F5400
G1 X151.596 Y35.179 E52.97808 F2400
G0 X151.197 Y35.345 F5400
G1 X129.383 Y13.532 E54.00410 F2400
G0 X129.051 Y13.765 F5400
G1 X150.797 Y35.511 E55.02698 F2400
G0 X150.397 Y35.677 F5400
G1 X128.731 Y14.011 E56.04610 F2400
G0 F3000 E55.04610
G0 X140.285 Y26.130 F5400
G0 F3000 E56.04610
G1 X149.998 Y35.843 E56.50295 F2400
G0 X149.607 Y36.018 F5400
G1 X141.026 Y27.437 E56.90657 F2400
G0 X141.409 Y28.385 F5400
G1 X149.242 Y36.219 E57.27502 F2400
G0 X148.877 Y36.420 F5400
G1 X141.636 Y29.178 E57.61563 F2400
G0 X141.781 Y29.889 F5400
G1 X148.512 Y36.621 E57.93226 F2400
G0 X148.148 Y36.822 F5400
G1 X141.877 Y30.551 E58.22723 F2400
G0 X141.894 Y31.134 F5400
G1 X147.783 Y37.023 E58.50423 F2400
G0 X147.437 Y37.242 F5400
G1 X141.897 Y31.702 E58.76481 F2400
G0 X141.854 Y32.225 F5400
G1 X147.098 Y37.469 E59.01150 F2400
G0 X146.767 Y37.704 F5400
G1 X141.796 Y32.733 E59.24531 F2400
G0 X141.704 Y33.207 F5400
G1 X146.441 Y37.944 E59.46812 F2400
G0 X146.115 Y38.183 F5400
G1 X141.605 Y33.673 E59.68024 F2400
G0 X141.471 Y34.105 F5400
G1 X145.789 Y38.423 E59.88335 F2400
G0 X145.463 Y38.662 F5400
G1 X141.336 Y34.536 E60.07745 F2400
G0 X141.168 Y34.933 F5400
G1 X145.134 Y38.899 E60.26401 F2400
G0 X144.804 Y39.135 F5400
G1 X140.996 Y35.327 E60.44315 F2400
G0 X140.807 Y35.704 F5400
G1 X144.475 Y39.371 E60.61565 F2400
G0 X144.145 Y39.607 F5400
G1 X140.601 Y36.063 E60.78232 F2400
G0 X140.395 Y36.423 F5400
G1 X143.800 Y39.828 E60.94248 F2400
G0 X143.449 Y40.043 F5400
G1 X140.159 Y36.752 E61.09725 F2400
G0 X139.923 Y37.082 F5400
G1 X143.098 Y40.257 E61.24661 F2400
G0 X142.747 Y40.472 F5400
G1 X139.673 Y37.398 E61.39121 F2400
G0 X139.409 Y37.699 F5400
G1 X142.396 Y40.687 E61.53173 F2400
G0 X142.032 Y40.889 F5400
G1 X139.145 Y38.001 E61.66754 F2400
G0 X138.856 Y38.278 F5400
G1 X141.656 Y41.078 E61.79927 F2400
G0 X141.281 Y41.268 F5400
G1 X138.566 Y38.553 E61.92697 F2400
G0 X138.262 Y38.816 F5400
G1 X140.905 Y41.458 E62.05126 F2400
G0 X140.529 Y41.648 F5400
G1 X137.934 Y39.053 E62.17333 F2400
G0 X137.605 Y39.290 F5400
G1 X140.141 Y41.826 E62.29261 F2400
G0 X139.738 Y41.989 F5400
G1 X137.276 Y39.527 E62.40840 F2400
G0 X136.948 Y39.764 F5400
G1 X139.335 Y42.152 E62.52070 F2400
G0 X138.933 Y42.314 F5400
G1 X136.601 Y39.983 E62.63038 F2400
G0 X136.221 Y40.168 F5400
G1 X138.530 Y42.477 E62.73900 F2400
G0 X138.111 Y42.625 F5400
G1 X135.841 Y40.354 E62.84582 F2400
G0 X135.460 Y40.539 F5400
G1 X137.680 Y42.759 E62.95021 F2400
G0 X137.248 Y42.893 F5400
G1 X135.080 Y40.725 E63.05218 F2400
G0 X134.671 Y40.881 F5400
G1 X136.816 Y43.027 E63.15311 F2400
G0 X136.385 Y43.161 F5400
G1 X134.237 Y41.013 E63.25415 F2400
G0 X133.803 Y41.144 F5400
G1 X135.927 Y43.268 E63.35406 F2400
G0 X135.463 Y43.370 F5400
G1 X133.369 Y41.276 E63.45258 F2400
G0 X132.931 Y41.403 F5400
G1 X135.000 Y43.473 E63.54991 F2400
G0 X134.536 Y43.575 F5400
G1 X132.436 Y41.474 E63.64872 F2400
G0 X131.941 Y41.545 F5400
G1 X134.060 Y43.665 E63.74843 F2400
G0 X133.561 Y43.731 F5400
G1 X131.446 Y41.616 E63.84794 F2400
G0 X130.950 Y41.686 F5400
G1 X133.062 Y43.797 E63.94724 F2400
G0 X132.562 Y43.863 F5400
G1 X130.380 Y41.681 E64.04988 F2400
G0 X129.810 Y41.677 F5400
G1 X132.058 Y43.925 E64.15561 F2400
G0 X131.517 Y43.949 F5400
G1 X129.239 Y41.672 E64.26272 F2400
G0 X128.624 Y41.622 F5400
G1 X130.975 Y43.974 E64.37335 F2400
G0 X130.434 Y43.998 F5400
G1 X127.951 Y41.515 E64.49018 F2400
G0 X127.277 Y41.407 F5400
G1 X129.884 Y44.014 E64.61277 F2400
G0 X129.294 Y43.989 F5400
G1 X126.530 Y41.225 E64.74278 F2400
G0 X125.695 Y40.956 F5400
G1 X128.703 Y43.964 E64.88426 F2400
G0 X128.113 Y43.940 F5400
G1 X124.814 Y40.641 E65.03940 F2400
G0 X123.659 Y40.051 F5400
G1 X127.488 Y43.880 E65.21951 F2400
G0 X126.838 Y43.797 F5400
G1 X121.876 Y38.834 E65.45293 F2400
G0 X117.399 Y40.580 F5400
G1 X104.040 Y27.221 E66.08127 F2400
G0 X103.183 Y27.495 F5400
G1 X113.814 Y38.126 E66.58132 F2400
G0 X120.340 Y37.298 F5400
G1 X108.611 Y25.569 E67.13303 F2400
G0 X108.206 Y25.730 F5400
G1 X126.189 Y43.713 E67.97891 F2400
G0 X125.515 Y43.605 F5400
G1 X107.794 Y25.884 E68.81246 F2400
G0 X107.383 Y26.038 F5400
G1 X124.793 Y43.448 E69.63138 F2400
G0 X124.070 Y43.291 F5400
G1 X106.971 Y26.192 E70.43566 F2400
G0 X106.560 Y26.346 F5400
G1 X123.304 Y43.091 E71.22328 F2400
G0 X122.486 Y42.838 F5400
G1 X106.148 Y26.501 E71.99173 F2400
G0 X105.729 Y26.647 F5400
G1 X121.667 Y42.585 E72.74141 F2400
G0 X120.719 Y42.202 F5400
G1 X105.307 Y26.790 E73.46633 F2400
G0 X104.885 Y26.934 F5400
G1 X119.766 Y41.815 E74.16629 F2400
G0 X118.634 Y41.249 F5400
G1 X104.463 Y27.078 E74.83287 F2400
G0 X103.616 Y27.363 F5400
G1 X115.899 Y39.645 E75.41061 F2400
G0 X111.964 Y36.842 F5400
G1 X102.750 Y27.628 E75.84400 F2400
G0 X102.317 Y27.761 F5400
G1 X110.676 Y36.119 E76.23718 F2400
G0 X109.606 Y35.615 F5400
G1 X101.884 Y27.893 E76.60040 F2400
G0 X101.451 Y28.026 F5400
G1 X108.626 Y35.201 E76.93788 F2400
G0 X107.735 Y34.875 F5400
G1 X101.010 Y28.150 E77.25421 F2400
G0 X100.565 Y28.271 F5400
G1 X106.929 Y34.635 E77.55353 F2400
G0 X106.122 Y34.394 F5400
G1 X100.120 Y28.392 E77.83585 F2400
G0 X99.676 Y28.513 F5400
G1 X105.401 Y34.238 E78.10514 F2400
G0 X104.710 Y34.113 F5400
G1 X99.231 Y28.634 E78.36286 F2400
G0 X98.786 Y28.755 F5400
G1 X104.019 Y33.988 E78.60898 F2400
G0 X103.362 Y33.896 F5400
G1 X98.330 Y28.865 E78.84564 F2400
G0 X97.873 Y28.973 F5400
G1 X102.755 Y33.855 E79.07527 F2400
G0 X102.148 Y33.814 F5400
G1 X97.415 Y29.081 E79.29787 F2400
G0 X96.958 Y29.189 F5400
G1 X101.541 Y33.772 E79.51344 F2400
G0 X100.970 Y33.767 F5400
G1 X96.500 Y29.298 E79.72368 F2400
G0 X96.041 Y29.404 F5400
G1 X100.428 Y33.791 E79.93002 F2400
G0 X99.885 Y33.814 F5400
G1 X95.570 Y29.499 E80.13299 F2400
G0 X95.100 Y29.594 F5400
G1 X99.343 Y33.838 E80.33260 F2400
G0 X98.812 Y33.873 F5400
G1 X94.629 Y29.689 E80.52938 F2400
G0 X94.158 Y29.784 F5400
G1 X98.312 Y33.938 E80.72479 F2400
G0 X97.823 Y34.014 F5400
G1 X93.687 Y29.879 E80.91933 F2400
G0 X93.209 Y29.967 F5400
G1 X97.341 Y34.098 E81.11368 F2400
G0 X96.860 Y34.182 F5400
G1 X92.725 Y30.048 E81.30817 F2400
G0 X92.240 Y30.129 F5400
G1 X96.384 Y34.273 E81.50310 F2400
G0 X95.913 Y34.367 F5400
G1 X91.755 Y30.210 E81.69866 F2400
G0 X91.271 Y30.291 F5400
G1 X95.438 Y34.458 E81.89466 F2400
G0 X94.962 Y34.548 F5400
G1 X90.786 Y30.371 E82.09113 F2400
G0 X90.286 Y30.438 F5400
G1 X94.487 Y34.638 E82.28871 F2400
G0 X94.010 Y34.727 F5400
G1 X89.787 Y30.504 E82.48734 F2400
G0 X89.288 Y30.571 F5400
G1 X93.525 Y34.808 E82.68663 F2400
G0 X93.040 Y34.888 F5400
G1 X88.789 Y30.637 E82.88659 F2400
G0 X88.290 Y30.704 F5400
G1 X92.555 Y34.969 E83.08721 F2400
G0 X92.070 Y35.050 F5400
G1 X87.780 Y30.760 E83.28899 F2400
G0 X87.266 Y30.811 F5400
G1 X91.585 Y35.130 E83.49214 F2400
G0 X91.088 Y35.199 F5400
G1 X86.751 Y30.862 E83.69611 F2400
G0 X86.237 Y30.914 F5400
G1 X90.589 Y35.266 E83.90083 F2400
G0 X90.091 Y35.333 F5400
G1 X85.722 Y30.965 E84.10632 F2400
G0 X85.200 Y31.009 F5400
G1 X89.593 Y35.401 E84.31293 F2400
G0 X89.094 Y35.468 F5400
G1 X84.670 Y31.044 E84.52106 F2400
G0 X84.139 Y31.079 F5400
G1 X88.585 Y35.525 E84.73019 F2400
G0 X88.073 Y35.578 F5400
G1 X83.608 Y31.114 E84.94021 F2400
G0 X83.078 Y31.149 F5400
G1 X87.561 Y35.632 E85.15109 F2400
G0 X87.049 Y35.686 F5400
G1 X82.539 Y31.176 E85.36324 F2400
G0 X81.988 Y31.190 F5400
G1 X86.537 Y35.739 E85.57722 F2400
G0 X86.013 Y35.781 F5400
G1 X81.437 Y31.204 E85.79247 F2400
G0 X80.885 Y31.219 F5400
G1 X85.485 Y35.818 E86.00880 F2400
G0 X84.957 Y35.856 F5400
G1 X80.339 Y31.238 E86.22602 F2400
G0 X79.832 Y31.297 F5400
G1 X84.429 Y35.894 E86.44225 F2400
G0 X83.901 Y35.932 F5400
G1 X79.377 Y31.408 E86.65503 F2400
G0 X78.979 Y31.575 F5400
G1 X83.373 Y35.969 E86.86172 F2400
G0 X82.831 Y35.993 F5400
G1 X78.649 Y31.811 E87.05840 F2400
G0 X78.364 Y32.092 F5400
G1 X82.287 Y36.015 E87.24294 F2400
G0 X81.744 Y36.037 F5400
G1 X78.125 Y32.419 E87.41314 F2400
G0 F3000 E86.41314
G0 X77.680 Y32.520 F5400
G0 X86.433 Y30.532
G0 X88.086 Y30.368
G0 X90.749 Y30.013
G0 X93.395 Y29.570
G0 X96.025 Y29.040
G0 X98.638 Y28.422
G0 X101.227 Y27.718
G0 X103.587 Y26.995
G0 X105.924 Y26.200
G0 X106.561 Y25.961
G0 X109.012 Y25.405
G0 F3000 E87.41314
G1 X119.269 Y35.662 E87.89561 F2400
G0 X118.801 Y34.628 F5400
G1 X109.413 Y25.240 E88.33720 F2400
G0 X109.814 Y25.076 F5400
G1 X118.529 Y33.790 E88.74711 F2400
G0 X118.356 Y33.051 F5400
G1 X110.216 Y24.911 E89.12999 F2400
; ------------------------------------
; Layer #1
; ------------------------------------
G92 E0 ;reset extr
G0 F3000 E-1.00000
G0 F600 Z1.300
G0 X78.050 Y34.915 F7200
G0 F3000 E0.00000
;segType:HShell
G1 X81.844 Y31.121 E0.08923 F3600
G0 X81.257 Y31.142 F7200
G1 X77.849 Y34.550 E0.16939 F3600
G0 X77.646 Y35.287 F7200
;segType:Perimeter
G1 X77.091 Y34.711 E0.18270 F1800
G1 X76.913 Y33.773 E0.19858
G1 X77.039 Y32.765 E0.21547
G1 X77.472 Y31.843 E0.23242
G1 X77.972 Y31.268 E0.24509
G1 X78.592 Y30.823 E0.25778
G1 X79.298 Y30.537 E0.27046
G1 X80.065 Y30.427 E0.28334
G1 X81.664 Y30.365 E0.30994
G1 X82.715 Y30.336 E0.32743
G1 X85.377 Y30.160 E0.37180
G1 X88.032 Y29.896 E0.41616
G1 X90.677 Y29.543 E0.46054
G1 X93.308 Y29.103 E0.50490
G1 X95.924 Y28.576 E0.54928
G1 X98.520 Y27.962 E0.59364
G1 X101.095 Y27.262 E0.63803
G1 X103.442 Y26.543 E0.67884
G1 X105.765 Y25.752 E0.71965
G1 X108.063 Y24.891 E0.76046
G1 X110.334 Y23.960 E0.80128
G1 X112.802 Y22.854 E0.84626
G1 X115.232 Y21.665 E0.89124
G1 X117.620 Y20.396 E0.93622
G1 X119.964 Y19.046 E0.98120
G1 X122.261 Y17.618 E1.02618
G1 X124.509 Y16.114 E1.07116
G1 X126.706 Y14.534 E1.11616
G1 X127.457 Y13.949 E1.13200
G1 X127.603 Y13.836 E1.13506
G1 X128.836 Y12.896 E1.16085
G1 X129.323 Y12.612 E1.17023
G1 X129.858 Y12.502 E1.17930
G1 X130.401 Y12.563 E1.18840
G1 X130.907 Y12.793 E1.19764
G1 X133.039 Y14.416 E1.24220
G1 X134.284 Y15.370 E1.26829
G1 X137.565 Y17.621 E1.33446
G1 X139.941 Y19.108 E1.38107
G1 X142.370 Y20.513 E1.42773
G1 X144.844 Y21.831 E1.47434
G1 X147.365 Y23.064 E1.52102
G1 X149.920 Y24.206 E1.56756
G1 X152.521 Y25.260 E1.61422
G1 X155.153 Y26.221 E1.66083
G1 X157.819 Y27.090 E1.70746
G1 X160.515 Y27.864 E1.75410
G1 X163.234 Y28.543 E1.80071
G1 X165.977 Y29.127 E1.84734
G1 X168.738 Y29.615 E1.89398
G1 X171.513 Y30.007 E1.94058
G1 X174.301 Y30.302 E1.98722
G1 X177.098 Y30.500 E2.03384
G1 X178.059 Y30.530 E2.04982
G1 X178.241 Y30.537 E2.05286
G1 X179.889 Y30.605 E2.08028
G1 X180.533 Y30.674 E2.09106
G1 X181.139 Y30.868 E2.10164
G1 X181.695 Y31.178 E2.11222
G1 X182.179 Y31.591 E2.12281
G1 X182.575 Y32.091 E2.13340
G1 X182.866 Y32.657 E2.14399
G1 X183.039 Y33.270 E2.15458
G1 X183.090 Y33.905 E2.16518
G1 X183.017 Y34.537 E2.17577
G1 X182.820 Y35.143 E2.18635
G1 X182.510 Y35.700 E2.19695
G1 X182.098 Y36.185 E2.20754
G1 X181.598 Y36.580 E2.21813
G1 X181.031 Y36.870 E2.22872
G1 X180.420 Y37.044 E2.23930
G1 X179.777 Y37.090 E2.25001
G1 X177.419 Y37.003 E2.28926
G1 X175.865 Y36.937 E2.31513
G1 X171.956 Y36.602 E2.38037
G1 X169.729 Y36.330 E2.41768
G1 X167.509 Y36.001 E2.45499
G1 X165.299 Y35.615 E2.49231
G1 X164.436 Y35.444 E2.50694
G1 X163.095 Y35.164 E2.52972
G1 X161.768 Y34.964 E2.55204
G1 X160.901 Y34.822 E2.56665
G1 X158.675 Y34.719 E2.60371
G1 X156.452 Y34.861 E2.64075
G1 X154.258 Y35.245 E2.67779
G1 X152.119 Y35.866 E2.71484
G1 X150.061 Y36.721 E2.75188
G1 X148.110 Y37.796 E2.78894
G1 X147.396 Y38.305 E2.80352
G1 X146.710 Y38.764 E2.81724
G1 X145.222 Y39.860 E2.84797
G1 X144.512 Y40.374 E2.86256
G1 X142.634 Y41.523 E2.89917
G1 X140.670 Y42.515 E2.93576
G1 X138.630 Y43.341 E2.97236
G1 X136.527 Y43.993 E3.00897
G1 X134.377 Y44.467 E3.04558
G1 X132.196 Y44.757 E3.08218
G1 X129.996 Y44.857 E3.11879
G1 X127.797 Y44.764 E3.15540
G1 X125.613 Y44.483 E3.19202
G1 X123.461 Y44.016 E3.22864
G1 X121.358 Y43.366 E3.26525
G1 X119.318 Y42.537 E3.30187
G1 X117.357 Y41.539 E3.33847
G1 X115.485 Y40.380 E3.37508
G1 X114.886 Y39.939 E3.38744
G1 X114.811 Y39.885 E3.38898
G1 X113.712 Y39.060 E3.41182
G1 X112.610 Y38.280 E3.43428
G1 X111.893 Y37.760 E3.44902
G1 X109.934 Y36.661 E3.48637
G1 X107.866 Y35.786 E3.52371
G1 X105.714 Y35.144 E3.56106
G1 X103.505 Y34.743 E3.59841
G1 X101.264 Y34.591 E3.63576
G1 X99.019 Y34.688 E3.67312
G1 X98.147 Y34.827 E3.68781
G1 X97.322 Y34.936 E3.70164
G1 X96.804 Y35.026 E3.71039
G1 X95.316 Y35.328 E3.73564
G1 X95.224 Y35.346 E3.73719
G1 X94.246 Y35.537 E3.75378
G1 X91.676 Y35.964 E3.79710
G1 X89.094 Y36.314 E3.84043
G1 X86.504 Y36.585 E3.88374
G1 X83.383 Y36.808 E3.93577
G1 X82.150 Y36.854 E3.95629
G1 X80.269 Y36.912 E3.98758
G1 X79.499 Y36.848 E4.00044
G1 X78.774 Y36.609 E4.01313
G1 X78.127 Y36.205 E4.02582
G1 X77.595 Y35.662 E4.03845
G1 X77.131 Y34.823 E4.05441
G0 X77.091 Y34.711 F7200
G0 X76.913 Y33.773
G0 X76.993 Y33.133
G0 F3000 E3.05441
G0 X77.330 Y33.661 F7200
G0 F3000 E4.05441
;segType:Loop
G1 X77.428 Y32.878 E4.06753 F3600
G1 X77.810 Y32.063 E4.08250
G1 X78.243 Y31.565 E4.09347
G1 X78.786 Y31.176 E4.10459
G1 X79.403 Y30.926 E4.11566
G1 X80.101 Y30.825 E4.12739
G1 X81.678 Y30.765 E4.15363
G1 X82.734 Y30.735 E4.17119
G1 X85.410 Y30.558 E4.21580
G1 X88.078 Y30.293 E4.26038
G1 X90.736 Y29.939 E4.30498
G1 X93.380 Y29.497 E4.34956
G1 X96.009 Y28.967 E4.39415
G1 X98.618 Y28.350 E4.43873
G1 X101.206 Y27.646 E4.48335
G1 X103.565 Y26.923 E4.52437
G1 X105.900 Y26.129 E4.56538
G1 X108.209 Y25.264 E4.60639
G1 X110.491 Y24.328 E4.64741
G1 X112.972 Y23.216 E4.69262
G1 X115.414 Y22.022 E4.73782
G1 X117.814 Y20.746 E4.78303
G1 X120.170 Y19.389 E4.82824
G1 X122.478 Y17.954 E4.87344
G1 X124.737 Y16.443 E4.91864
G1 X126.945 Y14.855 E4.96387
G1 X127.833 Y14.164 E4.98259
G1 X127.925 Y14.094 E4.98450
G1 X129.058 Y13.229 E5.00821
G1 X129.468 Y12.991 E5.01609
G1 X129.876 Y12.907 E5.02302
G1 X130.294 Y12.954 E5.03001
G1 X130.701 Y13.138 E5.03745
G1 X132.809 Y14.744 E5.08151
G1 X134.049 Y15.694 E5.10750
G1 X137.347 Y17.956 E5.17400
G1 X139.735 Y19.451 E5.22085
G1 X142.177 Y20.863 E5.26776
G1 X144.663 Y22.188 E5.31461
G1 X147.197 Y23.427 E5.36151
G1 X149.762 Y24.573 E5.40825
G1 X152.377 Y25.633 E5.45516
G1 X155.023 Y26.599 E5.50200
G1 X157.702 Y27.472 E5.54887
G1 X160.411 Y28.250 E5.59574
G1 X163.143 Y28.933 E5.64258
G1 X165.900 Y29.520 E5.68945
G1 X168.675 Y30.011 E5.73631
G1 X171.463 Y30.404 E5.78314
G1 X174.266 Y30.701 E5.83002
G1 X177.077 Y30.899 E5.87688
G1 X178.173 Y30.935 E5.89511
G1 X178.287 Y30.939 E5.89701
G1 X179.859 Y31.004 E5.92317
G1 X180.450 Y31.068 E5.93306
G1 X180.979 Y31.237 E5.94230
G1 X181.465 Y31.508 E5.95155
G1 X181.890 Y31.870 E5.96084
G1 X182.237 Y32.308 E5.97013
G1 X182.492 Y32.804 E5.97940
G1 X182.643 Y33.341 E5.98868
G1 X182.688 Y33.898 E5.99797
G1 X182.624 Y34.452 E6.00724
G1 X182.452 Y34.982 E6.01652
G1 X182.180 Y35.471 E6.02581
G1 X181.819 Y35.896 E6.03508
G1 X181.381 Y36.242 E6.04437
G1 X180.884 Y36.496 E6.05365
G1 X180.350 Y36.648 E6.06288
G1 X179.770 Y36.689 E6.07255
G1 X177.487 Y36.605 E6.11054
G1 X177.373 Y36.601 E6.11245
G1 X175.890 Y36.538 E6.13712
G1 X171.997 Y36.204 E6.20211
G1 X169.782 Y35.934 E6.23921
G1 X167.573 Y35.607 E6.27635
G1 X165.372 Y35.222 E6.31350
G1 X164.573 Y35.063 E6.32706
G1 X164.459 Y35.040 E6.32900
G1 X163.165 Y34.771 E6.35096
G1 X161.830 Y34.569 E6.37343
G1 X160.942 Y34.424 E6.38838
G1 X158.671 Y34.319 E6.42619
G1 X156.405 Y34.464 E6.46396
G1 X154.167 Y34.855 E6.50173
G1 X151.986 Y35.489 E6.53951
G1 X149.888 Y36.360 E6.57729
G1 X147.896 Y37.457 E6.61510
G1 X147.168 Y37.976 E6.62997
G1 X146.481 Y38.436 E6.64373
G1 X144.973 Y39.547 E6.67487
G1 X144.880 Y39.614 E6.67679
G1 X144.290 Y40.041 E6.68889
G1 X142.439 Y41.173 E6.72498
G1 X140.504 Y42.150 E6.76102
G1 X138.495 Y42.964 E6.79707
G1 X136.425 Y43.606 E6.83312
G1 X134.308 Y44.073 E6.86917
G1 X132.160 Y44.358 E6.90520
G1 X129.996 Y44.456 E6.94123
G1 X127.831 Y44.365 E6.97726
G1 X125.681 Y44.089 E7.01331
G1 X123.563 Y43.629 E7.04936
G1 X121.492 Y42.989 E7.08540
G1 X119.484 Y42.173 E7.12145
G1 X117.553 Y41.190 E7.15748
G1 X115.709 Y40.048 E7.19355
G1 X115.079 Y39.585 E7.20656
G1 X114.986 Y39.516 E7.20848
G1 X113.948 Y38.737 E7.23006
G1 X112.844 Y37.955 E7.25256
G1 X112.109 Y37.422 E7.26765
G1 X110.110 Y36.301 E7.30577
G1 X108.001 Y35.409 E7.34384
G1 X105.807 Y34.754 E7.38192
G1 X103.554 Y34.345 E7.42001
G1 X101.269 Y34.190 E7.45810
G1 X98.979 Y34.289 E7.49622
G1 X98.089 Y34.432 E7.51120
G1 X97.262 Y34.540 E7.52508
G1 X96.729 Y34.633 E7.53406
G1 X95.201 Y34.943 E7.55999
G1 X95.087 Y34.966 E7.56193
G1 X94.175 Y35.143 E7.57739
G1 X91.617 Y35.568 E7.62051
G1 X89.046 Y35.917 E7.66365
G1 X86.469 Y36.186 E7.70675
G1 X83.361 Y36.409 E7.75856
G1 X82.173 Y36.453 E7.77834
G1 X82.059 Y36.457 E7.78024
G1 X80.279 Y36.511 E7.80984
G1 X79.579 Y36.453 E7.82152
G1 X78.945 Y36.244 E7.83263
G1 X78.379 Y35.891 E7.84373
G1 X77.919 Y35.421 E7.85466
G1 X77.483 Y34.633 E7.86964
G1 X77.336 Y33.858 E7.88275
G0 F3000 E6.88275
G0 X118.690 Y31.954 F7200
G0 X118.330 Y31.970
G0 F3000 E7.88275
;segType:HShell
G1 X112.812 Y37.488 E8.01251 F3600
G0 X113.141 Y37.725 F7200
G1 X118.363 Y32.503 E8.13533 F3600
G0 X118.888 Y32.128 F7200
;segType:Perimeter
G1 X119.082 Y31.352 E8.14863 F1800
G1 X119.107 Y30.322 E8.16575
G1 X119.301 Y29.302 E8.18302
G1 X119.619 Y28.318 E8.20022
G1 X120.053 Y27.379 E8.21742
G1 X120.536 Y26.577 E8.23299
G1 X121.097 Y25.825 E8.24860
G1 X121.730 Y25.127 E8.26426
G1 X122.430 Y24.488 E8.28003
G1 X123.980 Y23.420 E8.31132
G1 X125.695 Y22.621 E8.34279
G1 X127.522 Y22.100 E8.37438
G1 X129.408 Y21.861 E8.40601
G1 X131.309 Y21.908 E8.43762
G1 X133.180 Y22.238 E8.46922
G1 X134.974 Y22.850 E8.50075
G1 X136.645 Y23.742 E8.53223
G1 X138.128 Y24.897 E8.56351
G1 X138.788 Y25.574 E8.57923
G1 X139.375 Y26.308 E8.59485
G1 X139.885 Y27.095 E8.61045
G1 X140.311 Y27.928 E8.62601
G1 X140.646 Y28.799 E8.64153
G1 X140.884 Y29.700 E8.65703
G1 X141.019 Y30.622 E8.67253
G1 X141.046 Y31.553 E8.68801
G1 X140.970 Y32.481 E8.70350
G1 X140.791 Y33.396 E8.71900
G1 X140.516 Y34.278 E8.73436
G1 X140.138 Y35.143 E8.75006
G1 X139.673 Y35.954 E8.76561
G1 X139.128 Y36.715 E8.78118
G1 X138.509 Y37.422 E8.79680
G1 X137.822 Y38.073 E8.81255
G1 X136.293 Y39.177 E8.84390
G1 X134.592 Y40.006 E8.87538
G1 X132.776 Y40.557 E8.90693
G1 X130.894 Y40.826 E8.93854
G1 X128.993 Y40.810 E8.97016
G1 X127.117 Y40.511 E9.00176
G1 X125.311 Y39.929 E9.03331
G1 X123.625 Y39.069 E9.06479
G1 X122.118 Y37.942 E9.09608
G1 X121.445 Y37.277 E9.11181
G1 X120.841 Y36.557 E9.12744
G1 X120.313 Y35.783 E9.14303
G1 X119.867 Y34.959 E9.15860
G1 X119.512 Y34.095 E9.17415
G1 X119.253 Y33.199 E9.18966
G1 X119.095 Y32.276 E9.20522
G1 X119.081 Y31.472 E9.21860
G0 X119.082 Y31.352 F7200
G0 X119.107 Y30.322
G0 X119.214 Y29.762
G0 F3000 E8.21860
G0 X118.708 Y30.302 F7200
G0 F3000 E9.21860
;segType:Loop
G1 X118.708 Y30.280 E9.21897 F3600
G1 X118.913 Y29.203 E9.23719
G1 X119.246 Y28.172 E9.25521
G1 X119.699 Y27.191 E9.27318
G1 X120.204 Y26.353 E9.28944
G1 X120.788 Y25.570 E9.30570
G1 X121.447 Y24.845 E9.32199
G1 X122.181 Y24.175 E9.33852
G1 X123.780 Y23.072 E9.37083
G1 X125.555 Y22.245 E9.40339
G1 X127.441 Y21.706 E9.43601
G1 X129.388 Y21.461 E9.46864
G1 X131.349 Y21.509 E9.50126
G1 X133.280 Y21.850 E9.53387
G1 X135.134 Y22.482 E9.56645
G1 X136.863 Y23.405 E9.59905
G1 X138.396 Y24.598 E9.63135
G1 X139.088 Y25.309 E9.64784
G1 X139.700 Y26.074 E9.66413
G1 X140.232 Y26.895 E9.68040
G1 X140.677 Y27.765 E9.69665
G1 X141.027 Y28.676 E9.71288
G1 X141.277 Y29.620 E9.72912
G1 X141.418 Y30.587 E9.74538
G1 X141.447 Y31.564 E9.76162
G1 X141.367 Y32.536 E9.77785
G1 X141.179 Y33.494 E9.79408
G1 X140.891 Y34.418 E9.81017
G1 X140.495 Y35.323 E9.82660
G1 X140.010 Y36.170 E9.84285
G1 X139.441 Y36.964 E9.85908
G1 X138.798 Y37.699 E9.87533
G1 X138.077 Y38.382 E9.89184
G1 X136.499 Y39.521 E9.92421
G1 X134.738 Y40.380 E9.95678
G1 X132.863 Y40.948 E9.98938
G1 X130.921 Y41.226 E10.02200
G1 X128.960 Y41.210 E10.05461
G1 X127.023 Y40.901 E10.08722
G1 X125.158 Y40.300 E10.11981
G1 X123.413 Y39.409 E10.15240
G1 X121.857 Y38.246 E10.18471
G1 X121.150 Y37.549 E10.20122
G1 X120.522 Y36.799 E10.21749
G1 X119.971 Y35.991 E10.23375
G1 X119.505 Y35.131 E10.25002
G1 X119.134 Y34.226 E10.26628
G1 X118.863 Y33.288 E10.28252
G1 X118.696 Y32.313 E10.29896
G1 X118.680 Y31.410 E10.31399
G1 X118.703 Y30.502 E10.32910
G0 X118.320 Y31.414 F7200
;segType:HShell
G1 X112.485 Y37.250 E10.46634 F3600
G0 X112.141 Y37.027 F7200
G1 X118.334 Y30.834 E10.61199 F3600
G0 X118.349 Y30.254 F7200
G1 X111.779 Y36.824 E10.76650 F3600
G0 X111.416 Y36.621 F7200
G1 X118.479 Y29.558 E10.93260 F3600
G0 X118.661 Y28.810 F7200
G1 X111.054 Y36.417 E11.11151 F3600
G0 X110.692 Y36.214 F7200
G1 X118.948 Y27.958 E11.30569 F3600
G0 X119.475 Y26.865 F7200
G1 X110.329 Y36.011 E11.52079 F3600
G0 X109.937 Y35.837 F7200
G1 X131.542 Y14.232 E12.02891 F3600
G0 X131.221 Y13.987 F7200
G1 X109.540 Y35.669 E12.53882 F3600
G0 X109.142 Y35.501 F7200
G1 X130.900 Y13.743 E13.05054 F3600
G0 X130.579 Y13.498 F7200
G1 X108.745 Y35.332 E13.56405 F3600
G0 X108.347 Y35.164 F7200
G1 X130.203 Y13.308 E14.07807 F3600
G0 X129.619 Y13.327 F7200
G1 X107.933 Y35.013 E14.58808 F3600
G0 X107.497 Y34.883 F7200
G1 X127.503 Y14.877 E15.05859 F3600
G0 X125.418 Y16.397 F7200
G1 X107.062 Y34.753 E15.49030 F3600
G0 X106.626 Y34.623 F7200
G1 X123.636 Y17.613 E15.89034 F3600
G0 X122.020 Y18.663 F7200
G1 X106.190 Y34.493 E16.26262 F3600
G0 X105.741 Y34.376 F7200
G1 X120.525 Y19.593 E16.61030 F3600
G0 X119.173 Y20.379 F7200
G1 X105.262 Y34.289 E16.93747 F3600
G0 X104.784 Y34.202 F7200
G1 X117.854 Y21.132 E17.24486 F3600
G0 X131.864 Y14.476 F7200
G1 X123.540 Y22.800 E17.44061 F3600
G0 X124.625 Y22.281 F7200
G1 X132.185 Y14.721 E17.61841 F3600
G0 X132.506 Y14.966 F7200
G1 X125.619 Y21.852 E17.78037 F3600
G0 X126.411 Y21.626 F7200
G1 X132.826 Y15.211 E17.93125 F3600
G0 X133.147 Y15.456 F7200
G1 X127.203 Y21.400 E18.07104 F3600
G0 X127.880 Y21.288 F7200
G1 X133.467 Y15.702 E18.20242 F3600
G0 X133.787 Y15.947 F7200
G1 X128.528 Y21.206 E18.32612 F3600
G0 X129.175 Y21.125 F7200
G1 X134.120 Y16.180 E18.44242 F3600
G0 X134.456 Y16.410 F7200
G1 X129.756 Y21.110 E18.55295 F3600
G0 X130.308 Y21.123 F7200
G1 X134.791 Y16.640 E18.65840 F3600
G0 X135.127 Y16.870 F7200
G1 X130.860 Y21.137 E18.75875 F3600
G0 X131.408 Y21.154 F7200
G1 X135.462 Y17.100 E18.85409 F3600
G0 X135.798 Y17.330 F7200
G1 X131.889 Y21.239 E18.94601 F3600
G0 X132.370 Y21.324 F7200
G1 X136.133 Y17.561 E19.03451 F3600
G0 X136.469 Y17.791 F7200
G1 X132.851 Y21.408 E19.11959 F3600
G0 X133.332 Y21.493 F7200
G1 X136.804 Y18.021 E19.20125 F3600
G0 X137.140 Y18.251 F7200
G1 X133.758 Y21.632 E19.28078 F3600
G0 X134.180 Y21.776 F7200
G1 X137.487 Y18.469 E19.35856 F3600
G0 X137.835 Y18.687 F7200
G1 X134.602 Y21.920 E19.43460 F3600
G0 X135.024 Y22.064 F7200
G1 X138.183 Y18.905 E19.50891 F3600
G0 X138.531 Y19.122 F7200
G1 X135.425 Y22.229 E19.58197 F3600
G0 X135.794 Y22.426 F7200
G1 X138.879 Y19.340 E19.65454 F3600
G0 X139.227 Y19.558 F7200
G1 X136.162 Y22.623 E19.72662 F3600
G0 X136.531 Y22.820 F7200
G1 X139.576 Y19.775 E19.79824 F3600
G0 X139.934 Y19.982 F7200
G1 X136.900 Y23.017 E19.86960 F3600
G0 X137.240 Y23.242 F7200
G1 X140.293 Y20.189 E19.94140 F3600
G0 X140.651 Y20.397 F7200
G1 X137.558 Y23.490 E20.01415 F3600
G0 X137.876 Y23.737 F7200
G1 X141.010 Y20.604 E20.08785 F3600
G0 X141.368 Y20.811 F7200
G1 X138.194 Y23.985 E20.16249 F3600
G0 X138.512 Y24.233 F7200
G1 X141.726 Y21.018 E20.23809 F3600
G0 X142.087 Y21.223 F7200
G1 X138.807 Y24.504 E20.31524 F3600
G0 X139.086 Y24.790 F7200
G1 X142.456 Y21.420 E20.39451 F3600
G0 X142.825 Y21.617 F7200
G1 X139.364 Y25.078 E20.47591 F3600
G0 X139.616 Y25.392 F7200
G1 X143.194 Y21.813 E20.56007 F3600
G0 X143.563 Y22.010 F7200
G1 X139.867 Y25.706 E20.64700 F3600
G0 X140.104 Y26.035 F7200
G1 X143.932 Y22.207 E20.73703 F3600
G0 X144.301 Y22.403 F7200
G1 X140.327 Y26.378 E20.83051 F3600
G0 X140.548 Y26.722 F7200
G1 X144.675 Y22.595 E20.92757 F3600
G0 X145.055 Y22.781 F7200
G1 X140.740 Y27.096 E21.02907 F3600
G0 X140.931 Y27.471 F7200
G1 X145.435 Y22.967 E21.13501 F3600
G0 X145.815 Y23.152 F7200
G1 X141.102 Y27.866 E21.24586 F3600
G0 X141.259 Y28.274 F7200
G1 X146.195 Y23.338 E21.36195 F3600
G0 X146.575 Y23.524 F7200
G1 X141.405 Y28.694 E21.48355 F3600
G0 X141.523 Y29.142 F7200
G1 X146.955 Y23.710 E21.61130 F3600
G0 X147.343 Y23.887 F7200
G1 X141.637 Y29.593 E21.74550 F3600
G0 X141.709 Y30.087 F7200
G1 X147.734 Y24.062 E21.88721 F3600
G0 X148.125 Y24.236 F7200
G1 X141.778 Y30.584 E22.03649 F3600
G0 X141.794 Y31.133 F7200
G1 X148.516 Y24.411 E22.19457 F3600
G0 X148.907 Y24.586 F7200
G1 X141.797 Y31.696 E22.36179 F3600
G0 X141.746 Y32.312 F7200
G1 X149.298 Y24.760 E22.53939 F3600
G0 X149.691 Y24.933 F7200
G1 X141.647 Y32.977 E22.72857 F3600
G0 X141.494 Y33.696 F7200
G1 X150.094 Y25.096 E22.93083 F3600
G0 X150.496 Y25.259 F7200
G1 X141.237 Y34.518 E23.14859 F3600
G0 X140.793 Y35.529 F7200
G1 X150.899 Y25.423 E23.38627 F3600
G0 X151.301 Y25.586 F7200
G1 X139.786 Y37.101 E23.65709 F3600
G0 X145.612 Y38.629 F7200
G1 X156.713 Y27.528 E23.91816 F3600
G0 X156.286 Y27.389 F7200
G1 X143.689 Y39.987 E24.21443 F3600
G0 X147.533 Y37.273 F7200
G1 X157.139 Y27.667 E24.44035 F3600
G0 X157.566 Y27.806 F7200
G1 X148.855 Y36.518 E24.64523 F3600
G0 F3000 E23.64523
G0 X149.666 Y36.482 F7200
G0 X149.888 Y36.360
G0 X151.986 Y35.489
G0 X154.167 Y34.855
G0 X156.405 Y34.464
G0 X158.671 Y34.319
G0 X160.942 Y34.424
G0 X161.830 Y34.569
G0 X163.165 Y34.771
G0 X164.459 Y35.040
G0 X164.573 Y35.063
G0 X165.372 Y35.222
G0 X167.573 Y35.607
G0 X167.992 Y35.669
G0 X182.427 Y35.028
G0 X182.004 Y35.047
G0 F3000 E24.64523
G1 X181.038 Y36.013 E24.66795 F3600
G0 X180.187 Y36.298 F7200
G1 X182.291 Y34.193 E24.71745 F3600
G0 X182.304 Y33.615 F7200
G1 X179.597 Y36.322 E24.78112 F3600
G0 X179.051 Y36.302 F7200
G1 X182.212 Y33.141 E24.85547 F3600
G0 X182.052 Y32.736 F7200
G1 X178.506 Y36.282 E24.93887 F3600
G0 X177.960 Y36.262 F7200
G1 X181.838 Y32.385 E25.03006 F3600
G0 X181.578 Y32.078 F7200
G1 X177.415 Y36.242 E25.12798 F3600
G0 X176.872 Y36.219 F7200
G1 X181.273 Y31.818 E25.23150 F3600
G0 X180.913 Y31.612 F7200
G1 X176.329 Y36.196 E25.33930 F3600
G0 X175.791 Y36.168 F7200
G1 X180.498 Y31.461 E25.45001 F3600
G0 X180.011 Y31.383 F7200
G1 X175.270 Y36.123 E25.56151 F3600
G0 X174.749 Y36.079 F7200
G1 X179.480 Y31.349 E25.67275 F3600
G0 X178.936 Y31.326 F7200
G1 X174.228 Y36.034 E25.78347 F3600
G0 X173.708 Y35.989 F7200
G1 X178.393 Y31.304 E25.89367 F3600
G0 X177.846 Y31.285 F7200
G1 X173.187 Y35.944 E26.00326 F3600
G0 X172.666 Y35.900 F7200
G1 X177.298 Y31.267 E26.11222 F3600
G0 X176.762 Y31.238 F7200
G1 X172.145 Y35.855 E26.22080 F3600
G0 X171.637 Y35.797 F7200
G1 X176.233 Y31.201 E26.32890 F3600
G0 X175.705 Y31.163 F7200
G1 X171.133 Y35.736 E26.43643 F3600
G0 X170.628 Y35.674 F7200
G1 X175.176 Y31.126 E26.54339 F3600
G0 X174.648 Y31.089 F7200
G1 X170.124 Y35.613 E26.64979 F3600
G0 X169.625 Y35.547 F7200
G1 X174.123 Y31.048 E26.75559 F3600
G0 X173.612 Y30.994 F7200
G1 X169.132 Y35.474 E26.86094 F3600
G0 X168.639 Y35.401 F7200
G1 X173.100 Y30.940 E26.96586 F3600
G0 X172.589 Y30.886 F7200
G1 X168.147 Y35.328 E27.07032 F3600
G0 X167.654 Y35.255 F7200
G1 X172.077 Y30.831 E27.17435 F3600
G0 X171.565 Y30.777 F7200
G1 X167.172 Y35.171 E27.27768 F3600
G0 X166.690 Y35.087 F7200
G1 X171.065 Y30.712 E27.38057 F3600
G0 X170.570 Y30.642 F7200
G1 X166.209 Y35.003 E27.48313 F3600
G0 X165.727 Y34.919 F7200
G1 X170.074 Y30.572 E27.58535 F3600
G0 X169.578 Y30.502 F7200
G1 X165.250 Y34.830 E27.68716 F3600
G0 X164.778 Y34.737 F7200
G1 X169.083 Y30.432 E27.78840 F3600
G0 X168.588 Y30.361 F7200
G1 X164.308 Y34.641 E27.88905 F3600
G0 X163.840 Y34.543 F7200
G1 X168.107 Y30.276 E27.98942 F3600
G0 X167.627 Y30.191 F7200
G1 X163.372 Y34.446 E28.08949 F3600
G0 X162.887 Y34.364 F7200
G1 X167.146 Y30.106 E28.18964 F3600
G0 X166.665 Y30.021 F7200
G1 X162.396 Y34.290 E28.29005 F3600
G0 X161.905 Y34.216 F7200
G1 X166.185 Y29.936 E28.39071 F3600
G0 X165.708 Y29.847 F7200
G1 X161.418 Y34.136 E28.49159 F3600
G0 X160.927 Y34.062 F7200
G1 X165.241 Y29.748 E28.59306 F3600
G0 X164.775 Y29.648 F7200
G1 X160.386 Y34.037 E28.69629 F3600
G0 X159.845 Y34.012 F7200
G1 X164.309 Y29.549 E28.80126 F3600
G0 X163.842 Y29.450 F7200
G1 X159.305 Y33.987 E28.90798 F3600
G0 X158.764 Y33.962 F7200
G1 X163.376 Y29.350 E29.01645 F3600
G0 X162.914 Y29.246 F7200
G1 X158.171 Y33.990 E29.12801 F3600
G0 X157.566 Y34.028 F7200
G1 X162.461 Y29.133 E29.24313 F3600
G0 X162.009 Y29.020 F7200
G1 X156.962 Y34.067 E29.36182 F3600
G0 X156.357 Y34.106 F7200
G1 X161.556 Y28.907 E29.48410 F3600
G0 X161.104 Y28.794 F7200
G1 X155.672 Y34.226 E29.61185 F3600
G0 X154.986 Y34.346 F7200
G1 X160.651 Y28.681 E29.74508 F3600
G0 X160.202 Y28.565 F7200
G1 X154.300 Y34.466 E29.88387 F3600
G0 X153.538 Y34.663 F7200
G1 X159.762 Y28.438 E30.03025 F3600
G0 X159.323 Y28.312 F7200
G1 X152.741 Y34.894 E30.18505 F3600
G0 X151.944 Y35.126 F7200
G1 X158.883 Y28.186 E30.34826 F3600
G0 X158.444 Y28.060 F7200
G1 X150.993 Y35.511 E30.52350 F3600
G0 X150.025 Y35.913 F7200
G1 X158.004 Y27.934 E30.71116 F3600
G0 X151.704 Y25.749 F7200
G1 X133.657 Y43.796 E31.13560 F3600
G0 X134.316 Y43.702 F7200
G1 X152.106 Y25.912 E31.55399 F3600
G0 X152.516 Y26.068 F7200
G1 X135.042 Y43.542 E31.96497 F3600
G0 X135.767 Y43.382 F7200
G1 X152.931 Y26.219 E32.36863 F3600
G0 X153.345 Y26.370 F7200
G1 X136.514 Y43.201 E32.76448 F3600
G0 X137.334 Y42.947 F7200
G1 X153.760 Y26.521 E33.15078 F3600
G0 X154.174 Y26.673 F7200
G1 X138.155 Y42.692 E33.52753 F3600
G0 X139.070 Y42.342 F7200
G1 X154.588 Y26.824 E33.89250 F3600
G0 X155.006 Y26.972 F7200
G1 X140.021 Y41.958 E34.24492 F3600
G0 X141.096 Y41.448 F7200
G1 X155.432 Y27.111 E34.58210 F3600
G0 X155.859 Y27.250 F7200
G1 X142.238 Y40.871 E34.90244 F3600
G0 X138.018 Y38.869 F7200
G1 X133.004 Y43.883 E35.02034 F3600
G0 X132.352 Y43.969 F7200
G1 X136.305 Y40.016 E35.11331 F3600
G0 X135.201 Y40.555 F7200
G1 X131.739 Y44.017 E35.19473 F3600
G0 X131.146 Y44.043 F7200
G1 X134.302 Y40.888 E35.26893 F3600
G0 X133.490 Y41.135 F7200
G1 X130.554 Y44.070 E35.33798 F3600
G0 X129.964 Y44.094 F7200
G1 X132.727 Y41.332 E35.40295 F3600
G0 X132.067 Y41.426 F7200
G1 X129.421 Y44.072 E35.46517 F3600
G0 X128.878 Y44.049 F7200
G1 X131.407 Y41.520 E35.52464 F3600
G0 X130.777 Y41.585 F7200
G1 X128.335 Y44.026 E35.58206 F3600
G0 X127.798 Y43.998 F7200
G1 X130.216 Y41.580 E35.63892 F3600
G0 X129.654 Y41.576 F7200
G1 X127.297 Y43.934 E35.69437 F3600
G0 X126.795 Y43.869 F7200
G1 X129.093 Y41.571 E35.74841 F3600
G0 X128.584 Y41.515 F7200
G1 X126.294 Y43.804 E35.80227 F3600
G0 X125.793 Y43.740 F7200
G1 X128.096 Y41.437 E35.85643 F3600
G0 X127.608 Y41.359 F7200
G1 X125.325 Y43.643 E35.91014 F3600
G0 X124.860 Y43.542 F7200
G1 X127.120 Y41.281 E35.96330 F3600
G0 X126.670 Y41.166 F7200
G1 X124.395 Y43.441 E36.01680 F3600
G0 X123.931 Y43.340 F7200
G1 X126.242 Y41.028 E36.07118 F3600
G0 X125.814 Y40.890 F7200
G1 X123.479 Y43.226 E36.12610 F3600
G0 X123.047 Y43.092 F7200
G1 X125.387 Y40.752 E36.18113 F3600
G0 X124.966 Y40.607 F7200
G1 X122.615 Y42.959 E36.23644 F3600
G0 X122.182 Y42.825 F7200
G1 X124.592 Y40.416 E36.29311 F3600
G0 X124.217 Y40.225 F7200
G1 X121.750 Y42.692 E36.35113 F3600
G0 X121.339 Y42.538 F7200
G1 X123.843 Y40.033 E36.41003 F3600
G0 X123.468 Y39.842 F7200
G1 X120.936 Y42.374 E36.46958 F3600
G0 X120.534 Y42.211 F7200
G1 X123.111 Y39.634 E36.53019 F3600
G0 X122.788 Y39.392 F7200
G1 X120.132 Y42.047 E36.59265 F3600
G0 X119.730 Y41.884 F7200
G1 X122.464 Y39.149 E36.65696 F3600
G0 X122.140 Y38.907 F7200
G1 X119.348 Y41.700 E36.72262 F3600
G0 X118.973 Y41.509 F7200
G1 X121.817 Y38.665 E36.78949 F3600
G0 X121.509 Y38.408 F7200
G1 X118.599 Y41.318 E36.85793 F3600
G0 X118.224 Y41.127 F7200
G1 X121.224 Y38.127 E36.92848 F3600
G0 X120.939 Y37.846 F7200
G1 X117.849 Y40.936 E37.00115 F3600
G0 X117.491 Y40.728 F7200
G1 X120.676 Y37.544 E37.07605 F3600
G0 X120.418 Y37.236 F7200
G1 X117.142 Y40.512 E37.15309 F3600
G0 X116.793 Y40.295 F7200
G1 X120.168 Y36.920 E37.23248 F3600
G0 X119.939 Y36.584 F7200
G1 X116.443 Y40.079 E37.31469 F3600
G0 X116.094 Y39.863 F7200
G1 X119.709 Y36.247 E37.39972 F3600
G0 X119.504 Y35.887 F7200
G1 X115.756 Y39.635 E37.48788 F3600
G0 X115.430 Y39.396 F7200
G1 X119.306 Y35.519 E37.57905 F3600
G0 X119.120 Y35.140 F7200
G1 X115.105 Y39.154 E37.67346 F3600
G0 X114.782 Y38.912 F7200
G1 X118.955 Y34.739 E37.77160 F3600
G0 X118.791 Y34.337 F7200
G1 X114.458 Y38.670 E37.87349 F3600
G0 X114.135 Y38.428 F7200
G1 X118.664 Y33.898 E37.98002 F3600
G0 X118.537 Y33.459 F7200
G1 X113.803 Y38.193 E38.09136 F3600
G0 X113.472 Y37.959 F7200
G1 X118.446 Y32.986 E38.20833 F3600
G0 F3000 E37.20833
G0 X118.814 Y33.001 F7200
G0 X78.623 Y31.293
G0 X78.786 Y31.176
G0 X79.403 Y30.926
G0 X79.377 Y31.325
G0 F3000 E38.20833
G1 X77.828 Y32.874 E38.24477 F3600
G0 X77.705 Y33.562 F7200
G1 X80.074 Y31.193 E38.30049 F3600
G0 X80.669 Y31.164 F7200
G1 X77.746 Y34.087 E38.36924 F3600
G0 X78.267 Y35.263 F7200
G1 X82.426 Y31.104 E38.46704 F3600
G0 X83.019 Y31.077 F7200
G1 X78.547 Y35.548 E38.57220 F3600
G0 X78.882 Y35.780 F7200
G1 X83.624 Y31.037 E38.68374 F3600
G0 X84.230 Y30.997 F7200
G1 X79.259 Y35.968 E38.80066 F3600
G0 X79.692 Y36.101 F7200
G1 X84.836 Y30.957 E38.92164 F3600
G0 X85.442 Y30.917 F7200
G1 X80.214 Y36.145 E39.04458 F3600
G0 X80.789 Y36.135 F7200
G1 X86.070 Y30.855 E39.16878 F3600
G0 X86.698 Y30.792 F7200
G1 X81.373 Y36.117 E39.29402 F3600
G0 X81.956 Y36.100 F7200
G1 X87.326 Y30.730 E39.42031 F3600
G0 X87.954 Y30.667 F7200
G1 X82.542 Y36.079 E39.54759 F3600
G0 X83.130 Y36.057 F7200
G1 X88.600 Y30.587 E39.67624 F3600
G0 X89.253 Y30.500 F7200
G1 X83.732 Y36.021 E39.80610 F3600
G0 X84.341 Y35.978 F7200
G1 X89.906 Y30.413 E39.93698 F3600
G0 X90.558 Y30.326 F7200
G1 X84.950 Y35.934 E40.06888 F3600
G0 X85.559 Y35.891 F7200
G1 X91.228 Y30.222 E40.20220 F3600
G0 X91.907 Y30.108 F7200
G1 X86.169 Y35.847 E40.33717 F3600
G0 X86.791 Y35.791 F7200
G1 X92.587 Y29.994 E40.47349 F3600
G0 X93.266 Y29.881 F7200
G1 X87.422 Y35.725 E40.61092 F3600
G0 X88.054 Y35.658 F7200
G1 X93.967 Y29.746 E40.74998 F3600
G0 X94.675 Y29.603 F7200
G1 X88.686 Y35.592 E40.89084 F3600
G0 X89.329 Y35.515 F7200
G1 X95.384 Y29.460 E41.03324 F3600
