; generated by Slic3r 1.3.0 on 2021-01-27 at 01:01:53

; external perimeters extrusion width = 0.44mm (0.84mm^3/s)
; perimeters extrusion width = 0.56mm (2.15mm^3/s)
; infill extrusion width = 0.50mm (2.87mm^3/s)
; solid infill extrusion width = 0.56mm (1.08mm^3/s)
; top infill extrusion width = 0.56mm (0.81mm^3/s)
; support material extrusion width = 0.44mm (2.51mm^3/s)

M107
M190 S60 ; set bed temperature and wait for it to be reached
M104 S215 ; set temperature
;Craftbot Start Script
G28 X0Y0 ;home xy
G28 Z0 ;home z
G91 ;relative movements
G0 F100 ;speed 100mm/sec
G0 X15 Y15 Z0.4 E12 ;purge nozzle - move to xy15
G90 ;Absolute movements
; Filament gcode

M109 S215 ; set temperature and wait for it to be reached
G21 ; set units to millimeters
G90 ; use absolute coordinates
M82 ; use absolute distances for extrusion
G92 E0
G1 Z0.200 F7800.000
G1 E-2.00000 F2400.00000
G92 E0
G1 X66.544 Y84.919 F7800.000
G1 E2.00000 F2400.00000
G1 F1800
G1 X45.456 Y84.919 E2.23693
G1 X66.544 Y84.919 E2.47385
G1 X66.983 Y84.953 E2.47879
G1 X67.453 Y85.066 E2.48423
G1 X67.901 Y85.251 E2.48967
G1 X68.014 Y85.321 E2.49116
G1 X43.986 Y85.321 E2.76111
G1 X43.687 Y85.504 E2.76506
G1 X43.431 Y85.723 E2.76884
G1 X68.569 Y85.723 E3.05128
G1 X68.681 Y85.819 E3.05293
G1 X68.943 Y86.125 E3.05746
G1 X43.057 Y86.125 E3.34829
G1 X43.004 Y86.187 E3.34920
G1 X42.796 Y86.527 E3.35369
G1 X69.204 Y86.527 E3.65039
G1 X69.385 Y86.929 E3.65535
G1 X42.615 Y86.929 E3.95612
G1 X42.566 Y87.047 E3.95754
G1 X42.498 Y87.332 E3.96084
G1 X69.502 Y87.332 E4.26423
G1 X69.547 Y87.517 E4.26638
G1 X69.564 Y87.734 E4.26882
G1 X42.436 Y87.734 E4.57360
G1 X42.418 Y88.136 E4.57813
G1 X69.582 Y88.136 E4.88331
G1 X69.582 Y88.538 E4.88782
G1 X42.418 Y88.538 E5.19300
G1 X42.418 Y88.940 E5.19752
G1 X69.582 Y88.940 E5.50270
G1 X69.582 Y89.342 E5.50722
G1 X42.418 Y89.342 E5.81240
G1 X42.418 Y89.745 E5.81692
G1 X69.582 Y89.745 E6.12210
G1 X69.582 Y90.147 E6.12661
G1 X42.418 Y90.147 E6.43179
G1 X42.418 Y90.549 E6.43631
G1 X69.582 Y90.549 E6.74149
G1 X69.582 Y90.951 E6.74601
G1 X42.418 Y90.951 E7.05119
G1 X42.418 Y91.353 E7.05571
G1 X69.582 Y91.353 E7.36089
G1 X69.582 Y91.755 E7.36540
G1 X42.418 Y91.755 E7.67058
G1 X42.418 Y92.158 E7.67510
G1 X69.582 Y92.158 E7.98028
G1 X69.582 Y92.560 E7.98480
G1 X42.418 Y92.560 E8.28998
G1 X42.418 Y92.962 E8.29450
G1 X69.582 Y92.962 E8.59968
G1 X69.582 Y93.364 E8.60420
G1 X42.418 Y93.364 E8.90937
G1 X42.418 Y93.766 E8.91389
G1 X69.582 Y93.766 E9.21907
G1 X69.582 Y94.169 E9.22359
G1 X42.418 Y94.169 E9.52877
G1 X42.418 Y94.571 E9.53329
G1 X69.582 Y94.571 E9.83847
G1 X69.582 Y94.973 E9.84299
G1 X42.418 Y94.973 E10.14816
G1 X42.418 Y95.375 E10.15268
G1 X69.582 Y95.375 E10.45786
G1 X69.582 Y95.777 E10.46238
G1 X42.418 Y95.777 E10.76756
G1 X42.418 Y96.179 E10.77208
G1 X69.582 Y96.179 E11.07726
G1 X69.582 Y96.582 E11.08178
G1 X42.418 Y96.582 E11.38695
G1 X42.418 Y96.984 E11.39147
G1 X69.582 Y96.984 E11.69665
G1 X69.582 Y97.386 E11.70117
G1 X42.418 Y97.386 E12.00635
G1 X42.418 Y97.788 E12.01087
G1 X69.582 Y97.788 E12.31605
G1 X69.582 Y98.190 E12.32057
G1 X42.418 Y98.190 E12.62575
G1 X42.418 Y98.592 E12.63026
G1 X69.582 Y98.592 E12.93544
G1 X69.582 Y98.995 E12.93996
G1 X42.418 Y98.995 E13.24514
G1 X42.418 Y99.397 E13.24966
G1 X69.582 Y99.397 E13.55484
G1 X69.582 Y99.799 E13.55936
G1 X42.418 Y99.799 E13.86454
G1 X42.418 Y100.201 E13.86905
G1 X69.582 Y100.201 E14.17423
G1 X69.582 Y100.603 E14.17875
G1 X42.418 Y100.603 E14.48393
G1 X42.418 Y101.005 E14.48845
G1 X69.582 Y101.005 E14.79363
G1 X69.582 Y101.408 E14.79815
G1 X42.418 Y101.408 E15.10333
G1 X42.418 Y101.810 E15.10784
G1 X69.582 Y101.810 E15.41302
G1 X69.582 Y102.212 E15.41754
G1 X42.418 Y102.212 E15.72272
G1 X42.418 Y102.614 E15.72724
G1 X69.582 Y102.614 E16.03242
G1 X69.582 Y103.016 E16.03694
G1 X42.418 Y103.016 E16.34212
G1 X42.418 Y103.418 E16.34663
G1 X69.582 Y103.418 E16.65181
G1 X69.582 Y103.821 E16.65633
G1 X42.418 Y103.821 E16.96151
G1 X42.418 Y104.223 E16.96603
G1 X69.582 Y104.223 E17.27121
G1 X69.582 Y104.625 E17.27573
G1 X42.418 Y104.625 E17.58091
G1 X42.418 Y105.027 E17.58543
G1 X69.582 Y105.027 E17.89060
G1 X69.582 Y105.429 E17.89512
G1 X42.418 Y105.429 E18.20030
G1 X42.418 Y105.832 E18.20482
G1 X69.582 Y105.832 E18.51000
G1 X69.582 Y106.234 E18.51452
G1 X42.418 Y106.234 E18.81970
G1 X42.418 Y106.636 E18.82422
G1 X69.582 Y106.636 E19.12939
G1 X69.582 Y107.038 E19.13391
G1 X42.418 Y107.038 E19.43909
G1 X42.418 Y107.440 E19.44361
G1 X69.582 Y107.440 E19.74879
G1 X69.582 Y107.842 E19.75331
G1 X42.418 Y107.842 E20.05849
G1 X42.418 Y108.245 E20.06301
G1 X69.582 Y108.245 E20.36818
G1 X69.582 Y108.647 E20.37270
G1 X42.418 Y108.647 E20.67788
G1 X42.418 Y109.049 E20.68240
G1 X69.582 Y109.049 E20.98758
G1 X69.582 Y109.451 E20.99210
G1 X42.418 Y109.451 E21.29728
G1 X42.418 Y109.853 E21.30180
G1 X69.582 Y109.853 E21.60698
G1 X69.582 Y110.255 E21.61149
G1 X42.418 Y110.255 E21.91667
G1 X42.418 Y110.658 E21.92119
G1 X69.582 Y110.658 E22.22637
G1 X69.582 Y111.060 E22.23089
G1 X42.418 Y111.060 E22.53607
G1 X42.418 Y111.462 E22.54059
G1 X69.582 Y111.462 E22.84577
G1 X69.582 Y111.864 E22.85028
G1 X42.418 Y111.864 E23.15546
G1 X42.436 Y112.266 E23.15999
G1 X69.564 Y112.266 E23.46477
G1 X69.547 Y112.483 E23.46721
G1 X69.502 Y112.668 E23.46935
G1 X42.498 Y112.668 E23.77275
G1 X42.566 Y112.953 E23.77604
G1 X42.615 Y113.071 E23.77747
G1 X69.385 Y113.071 E24.07824
G1 X69.204 Y113.473 E24.08320
G1 X42.796 Y113.473 E24.37990
G1 X43.057 Y113.875 E24.38529
G1 X68.943 Y113.875 E24.67612
G1 X68.681 Y114.181 E24.68065
G1 X68.569 Y114.277 E24.68230
G1 X43.431 Y114.277 E24.96474
G1 X43.687 Y114.496 E24.96852
G1 X43.986 Y114.679 E24.97246
G1 X68.014 Y114.679 E25.24241
G1 X67.901 Y114.749 E25.24391
G1 X67.453 Y114.934 E25.24935
G1 X66.983 Y115.047 E25.25478
G1 X66.544 Y115.081 E25.25973
G1 X45.456 Y115.081 E25.49665
G1 Z0.200 F7800.000
G1 E23.49665 F2400.00000
G92 E0
G1 X111.456 Y126.081 F7800.000
G1 E2.00000 F2400.00000
G1 F1800
G1 X124.544 Y126.081 E2.14704
G1 X124.983 Y126.047 E2.15198
G1 X125.453 Y125.934 E2.15742
G1 X125.901 Y125.749 E2.16286
G1 X126.007 Y125.683 E2.16427
G1 X109.993 Y125.683 E2.34419
G1 X109.687 Y125.496 E2.34822
G1 X109.440 Y125.285 E2.35187
G1 X126.560 Y125.285 E2.54421
G1 X126.681 Y125.181 E2.54600
G1 X126.933 Y124.887 E2.55036
G1 X109.067 Y124.887 E2.75108
G1 X108.805 Y124.489 E2.75643
G1 X127.195 Y124.489 E2.96304
G1 X127.377 Y124.091 E2.96796
G1 X108.623 Y124.091 E3.17866
G1 X108.566 Y123.953 E3.18033
G1 X108.503 Y123.692 E3.18334
G1 X127.497 Y123.692 E3.39673
G1 X127.547 Y123.483 E3.39916
G1 X127.562 Y123.294 E3.40128
G1 X108.438 Y123.294 E3.61613
G1 X108.418 Y122.896 E3.62061
G1 X127.582 Y122.896 E3.83591
G1 X127.582 Y122.498 E3.84039
G1 X108.418 Y122.498 E4.05568
G1 X108.418 Y122.100 E4.06016
G1 X127.582 Y122.100 E4.27546
G1 X127.582 Y121.701 E4.27993
G1 X108.418 Y121.701 E4.49523
G1 X108.418 Y121.303 E4.49970
G1 X127.582 Y121.303 E4.71500
G1 X127.582 Y120.905 E4.71948
G1 X108.418 Y120.905 E4.93477
G1 X108.418 Y120.507 E4.93925
G1 X127.582 Y120.507 E5.15455
G1 X127.582 Y120.109 E5.15902
G1 X108.418 Y120.109 E5.37432
G1 X108.418 Y119.710 E5.37879
G1 X127.582 Y119.710 E5.59409
G1 X127.582 Y119.312 E5.59857
G1 X108.418 Y119.312 E5.81386
G1 X108.418 Y118.914 E5.81834
G1 X127.582 Y118.914 E6.03364
G1 X127.582 Y118.516 E6.03811
G1 X108.418 Y118.516 E6.25341
G1 X108.418 Y118.118 E6.25788
G1 X127.582 Y118.118 E6.47318
G1 X127.582 Y117.719 E6.47766
G1 X108.418 Y117.719 E6.69295
G1 X108.418 Y117.321 E6.69743
G1 X127.582 Y117.321 E6.91273
G1 X127.582 Y116.923 E6.91720
G1 X108.418 Y116.923 E7.13250
G1 X108.418 Y116.525 E7.13697
G1 X127.582 Y116.525 E7.35227
G1 X127.582 Y116.127 E7.35674
G1 X108.418 Y116.127 E7.57204
G1 X108.418 Y115.729 E7.57652
G1 X127.582 Y115.729 E7.79182
G1 X127.582 Y115.330 E7.79629
G1 X108.418 Y115.330 E8.01159
G1 X108.418 Y114.932 E8.01606
G1 X127.582 Y114.932 E8.23136
G1 X127.582 Y114.534 E8.23583
G1 X108.418 Y114.534 E8.45113
G1 X108.418 Y114.136 E8.45561
G1 X127.582 Y114.136 E8.67091
G1 X127.582 Y113.738 E8.67538
G1 X108.418 Y113.738 E8.89068
G1 X108.418 Y113.339 E8.89515
G1 X127.582 Y113.339 E9.11045
G1 X127.582 Y112.941 E9.11492
G1 X108.418 Y112.941 E9.33022
G1 X108.418 Y112.543 E9.33470
G1 X127.582 Y112.543 E9.54999
G1 X127.582 Y112.145 E9.55447
G1 X108.418 Y112.145 E9.76977
G1 X108.418 Y111.747 E9.77424
G1 X127.582 Y111.747 E9.98954
G1 X127.582 Y111.348 E9.99401
G1 X108.418 Y111.348 E10.20931
G1 X108.418 Y110.950 E10.21379
G1 X127.582 Y110.950 E10.42908
G1 X127.582 Y110.552 E10.43356
G1 X108.418 Y110.552 E10.64886
G1 X108.418 Y110.154 E10.65333
G1 X127.582 Y110.154 E10.86863
G1 X127.582 Y109.756 E10.87310
G1 X108.418 Y109.756 E11.08840
G1 X108.418 Y109.357 E11.09288
G1 X127.582 Y109.357 E11.30817
G1 X127.582 Y108.959 E11.31265
G1 X108.418 Y108.959 E11.52795
G1 X108.418 Y108.561 E11.53242
G1 X127.582 Y108.561 E11.74772
G1 X127.582 Y108.163 E11.75219
G1 X108.418 Y108.163 E11.96749
G1 X108.418 Y107.765 E11.97196
G1 X127.582 Y107.765 E12.18726
G1 X127.582 Y107.367 E12.19174
G1 X108.418 Y107.367 E12.40704
G1 X108.418 Y106.968 E12.41151
G1 X127.582 Y106.968 E12.62681
G1 X127.582 Y106.570 E12.63128
G1 X108.418 Y106.570 E12.84658
G1 X108.418 Y106.172 E12.85105
G1 X127.582 Y106.172 E13.06635
G1 X127.582 Y105.774 E13.07083
G1 X108.418 Y105.774 E13.28613
G1 X108.418 Y105.376 E13.29060
G1 X127.582 Y105.376 E13.50590
G1 X127.582 Y104.977 E13.51037
G1 X108.418 Y104.977 E13.72567
G1 X108.418 Y104.579 E13.73014
G1 X127.582 Y104.579 E13.94544
G1 X127.582 Y104.181 E13.94992
G1 X108.418 Y104.181 E14.16522
G1 X108.418 Y103.783 E14.16969
G1 X127.582 Y103.783 E14.38499
G1 X127.582 Y103.385 E14.38946
G1 X108.418 Y103.385 E14.60476
G1 X108.418 Y102.986 E14.60923
G1 X127.582 Y102.986 E14.82453
G1 X127.582 Y102.588 E14.82901
G1 X108.418 Y102.588 E15.04430
G1 X108.418 Y102.190 E15.04878
G1 X127.582 Y102.190 E15.26408
G1 X127.582 Y101.792 E15.26855
G1 X108.418 Y101.792 E15.48385
G1 X108.418 Y101.394 E15.48832
G1 X127.582 Y101.394 E15.70362
G1 X127.582 Y100.995 E15.70810
G1 X108.418 Y100.995 E15.92339
G1 X108.418 Y100.597 E15.92787
G1 X127.582 Y100.597 E16.14317
G1 X127.582 Y100.199 E16.14764
G1 X108.418 Y100.199 E16.36294
G1 X108.418 Y99.801 E16.36741
G1 X127.582 Y99.801 E16.58271
G1 X127.582 Y99.403 E16.58719
G1 X108.418 Y99.403 E16.80248
G1 X108.418 Y99.005 E16.80696
G1 X127.582 Y99.005 E17.02226
G1 X127.582 Y98.606 E17.02673
G1 X108.418 Y98.606 E17.24203
G1 X108.418 Y98.208 E17.24650
G1 X127.582 Y98.208 E17.46180
G1 X127.582 Y97.810 E17.46627
G1 X108.418 Y97.810 E17.68157
G1 X108.418 Y97.412 E17.68605
G1 X127.582 Y97.412 E17.90135
G1 X127.582 Y97.014 E17.90582
G1 X108.418 Y97.014 E18.12112
G1 X108.418 Y96.615 E18.12559
G1 X127.582 Y96.615 E18.34089
G1 X127.582 Y96.217 E18.34536
G1 X108.418 Y96.217 E18.56066
G1 X108.418 Y95.819 E18.56514
G1 X127.582 Y95.819 E18.78044
G1 X127.582 Y95.421 E18.78491
G1 X108.418 Y95.421 E19.00021
G1 X108.418 Y95.023 E19.00468
G1 X127.582 Y95.023 E19.21998
G1 X127.582 Y94.624 E19.22445
G1 X108.418 Y94.624 E19.43975
G1 X108.418 Y94.226 E19.44423
G1 X127.582 Y94.226 E19.65953
G1 X127.582 Y93.828 E19.66400
G1 X108.418 Y93.828 E19.87930
G1 X108.418 Y93.430 E19.88377
G1 X127.582 Y93.430 E20.09907
G1 X127.582 Y93.032 E20.10354
G1 X108.418 Y93.032 E20.31884
G1 X108.418 Y92.634 E20.32332
G1 X127.582 Y92.634 E20.53861
G1 X127.582 Y92.235 E20.54309
G1 X108.418 Y92.235 E20.75839
G1 X108.418 Y91.837 E20.76286
G1 X127.582 Y91.837 E20.97816
G1 X127.582 Y91.439 E20.98263
G1 X108.418 Y91.439 E21.19793
G1 X108.418 Y91.041 E21.20241
G1 X127.582 Y91.041 E21.41770
G1 X127.582 Y90.643 E21.42218
G1 X108.418 Y90.643 E21.63748
G1 X108.418 Y90.244 E21.64195
G1 X127.582 Y90.244 E21.85725
G1 X127.582 Y89.846 E21.86172
G1 X108.418 Y89.846 E22.07702
G1 X108.418 Y89.448 E22.08150
G1 X127.582 Y89.448 E22.29679
G1 X127.582 Y89.050 E22.30127
G1 X108.418 Y89.050 E22.51657
G1 X108.418 Y88.652 E22.52104
G1 X127.582 Y88.652 E22.73634
G1 X127.582 Y88.253 E22.74081
G1 X108.418 Y88.253 E22.95611
G1 X108.418 Y87.855 E22.96058
G1 X127.582 Y87.855 E23.17588
G1 X127.582 Y87.457 E23.18036
G1 X108.418 Y87.457 E23.39566
G1 X108.418 Y87.059 E23.40013
G1 X127.582 Y87.059 E23.61543
G1 X127.582 Y86.661 E23.61990
G1 X108.418 Y86.661 E23.83520
G1 X108.418 Y86.262 E23.83967
G1 X127.582 Y86.262 E24.05497
G1 X127.582 Y85.864 E24.05945
G1 X108.418 Y85.864 E24.27475
G1 X108.418 Y85.466 E24.27922
G1 X127.582 Y85.466 E24.49452
G1 X127.582 Y85.068 E24.49899
G1 X108.418 Y85.068 E24.71429
G1 X108.418 Y84.670 E24.71876
G1 X127.582 Y84.670 E24.93406
G1 X127.582 Y84.272 E24.93854
G1 X108.418 Y84.272 E25.15384
G1 X108.418 Y83.873 E25.15831
G1 X127.582 Y83.873 E25.37361
G1 X127.582 Y83.475 E25.37808
G1 X108.418 Y83.475 E25.59338
G1 X108.418 Y83.077 E25.59785
G1 X127.582 Y83.077 E25.81315
G1 X127.582 Y82.679 E25.81763
G1 X108.418 Y82.679 E26.03292
G1 X108.418 Y82.281 E26.03740
G1 X127.582 Y82.281 E26.25270
G1 X127.582 Y81.882 E26.25717
G1 X108.418 Y81.882 E26.47247
G1 X108.418 Y81.484 E26.47694
G1 X127.582 Y81.484 E26.69224
G1 X127.582 Y81.086 E26.69672
G1 X108.418 Y81.086 E26.91201
G1 X108.418 Y80.688 E26.91649
G1 X127.582 Y80.688 E27.13179
G1 X127.582 Y80.290 E27.13626
G1 X108.418 Y80.290 E27.35156
G1 X108.418 Y79.891 E27.35603
G1 X127.582 Y79.891 E27.57133
G1 X127.582 Y79.493 E27.57581
G1 X108.418 Y79.493 E27.79110
G1 X108.418 Y79.095 E27.79558
G1 X127.582 Y79.095 E28.01088
G1 X127.582 Y78.697 E28.01535
G1 X108.418 Y78.697 E28.23065
G1 X108.418 Y78.299 E28.23512
G1 X127.582 Y78.299 E28.45042
G1 X127.582 Y77.900 E28.45489
G1 X108.418 Y77.900 E28.67019
G1 X108.418 Y77.502 E28.67467
G1 X127.582 Y77.502 E28.88997
G1 X127.582 Y77.104 E28.89444
G1 X108.418 Y77.104 E29.10974
G1 X108.438 Y76.706 E29.11422
G1 X127.562 Y76.706 E29.32907
G1 X127.547 Y76.517 E29.33120
G1 X127.497 Y76.308 E29.33362
G1 X108.503 Y76.308 E29.54701
G1 X108.566 Y76.047 E29.55002
G1 X108.623 Y75.910 E29.55169
G1 X127.377 Y75.910 E29.76240
G1 X127.195 Y75.511 E29.76732
G1 X108.805 Y75.511 E29.97392
G1 X109.067 Y75.113 E29.97928
G1 X126.933 Y75.113 E30.18000
G1 X126.681 Y74.819 E30.18435
G1 X126.560 Y74.715 E30.18614
G1 X109.440 Y74.715 E30.37849
G1 X109.687 Y74.504 E30.38213
G1 X109.993 Y74.317 E30.38616
G1 X126.007 Y74.317 E30.56609
G1 X125.901 Y74.251 E30.56749
G1 X125.453 Y74.066 E30.57293
G1 X124.983 Y73.953 E30.57837
G1 X124.544 Y73.919 E30.58331
G1 X111.456 Y73.919 E30.73036
G1 X124.544 Y73.919 E30.87741
G1 Z0.200 F7800.000
G1 E28.87741 F2400.00000
G92 E0
G1 X153.544 Y83.419 F7800.000
G1 E2.00000 F2400.00000
G1 F1800
G1 X144.456 Y83.419 E2.10210
G1 X153.544 Y83.419 E2.20421
G1 X153.826 Y83.441 E2.20739
G1 X154.144 Y83.517 E2.21106
G1 X154.446 Y83.642 E2.21474
G1 X154.731 Y83.818 E2.21850
G1 X143.269 Y83.818 E2.34728
G1 X143.026 Y84.026 E2.35087
G1 X142.862 Y84.218 E2.35370
G1 X155.138 Y84.218 E2.49163
G1 X155.384 Y84.617 E2.49690
G1 X142.616 Y84.617 E2.64035
G1 X142.517 Y84.856 E2.64325
G1 X142.478 Y85.017 E2.64511
G1 X155.522 Y85.017 E2.79165
G1 X155.559 Y85.174 E2.79347
G1 X155.578 Y85.416 E2.79620
G1 X142.422 Y85.416 E2.94402
G1 X142.418 Y85.816 E2.94851
G1 X155.582 Y85.816 E3.09639
G1 X155.582 Y86.215 E3.10088
G1 X142.418 Y86.215 E3.24877
G1 X142.418 Y86.615 E3.25326
G1 X155.582 Y86.615 E3.40115
G1 X155.582 Y87.015 E3.40564
G1 X142.418 Y87.015 E3.55353
G1 X142.418 Y87.414 E3.55801
G1 X155.582 Y87.414 E3.70590
G1 X155.582 Y87.814 E3.71039
G1 X142.418 Y87.814 E3.85828
G1 X142.418 Y88.213 E3.86277
G1 X155.582 Y88.213 E4.01066
G1 X155.582 Y88.613 E4.01515
G1 X142.418 Y88.613 E4.16304
G1 X142.418 Y89.012 E4.16752
G1 X155.582 Y89.012 E4.31541
G1 X155.582 Y89.412 E4.31990
G1 X142.418 Y89.412 E4.46779
G1 X142.418 Y89.811 E4.47228
G1 X155.582 Y89.811 E4.62017
G1 X155.582 Y90.211 E4.62466
G1 X142.418 Y90.211 E4.77255
G1 X142.418 Y90.611 E4.77703
G1 X155.582 Y90.611 E4.92492
G1 X155.582 Y91.010 E4.92941
G1 X142.418 Y91.010 E5.07730
G1 X142.418 Y91.410 E5.08179
G1 X155.582 Y91.410 E5.22968
G1 X155.582 Y91.809 E5.23417
G1 X142.418 Y91.809 E5.38205
G1 X142.418 Y92.209 E5.38654
G1 X155.582 Y92.209 E5.53443
G1 X155.582 Y92.608 E5.53892
