; #disp params :
; Printmode:0
; Layer:94
; Zmax:130.136 mm
; Xmax:193.436 mm
; Ymax:10.5 mm
; Xmin:70.117 mm
; Ymin:0.3 mm
; E0diam:0.4 mm
; E0len:3.569 m
; E0temp:215 C
; Bedtemp:215 C
; Time:84.5362 min
; #params end
; GCode generated by CraftWare

G28 X Y ; home horizontally
G28 Z ; home vertically


M104 S215 ;set head temp (no wait)
M190 S60 ;set bed temp (wait)
M109 S215 ;set head temp (wait)

; ------------------------------------
; Raft Layer #0
; ------------------------------------
M106 S0 ;turn off fan
G21 ; mm
G90 ; abs
G92 E0 ;reset extr
G0 F600 Z0.300
;segType:Raft
G0 F3000 E-1.00000
G0 F600 Z2.300
G0 X74.309 Y118.955 F5400
G0 F600 Z0.300
G0 F3000 E0.00000
G1 X73.644 Y118.556 E0.03872 F600
G1 X70.715 Y115.628 E0.24532
G1 X70.316 Y114.962 E0.28404
G1 X70.183 Y114.031 E0.33100
G1 X70.183 Y85.547 E1.75206
G1 X70.316 Y85.414 E1.76145
G1 X70.316 Y84.881 E1.78802
G1 X70.715 Y84.216 E1.82674
G1 X73.377 Y81.554 E2.01456
G1 X73.710 Y81.354 E2.03393
G1 X73.977 Y81.088 E2.05272
G1 X74.376 Y80.955 E2.07372
G1 X74.908 Y80.955 E2.10028
G1 X75.041 Y80.821 E2.10967
G1 X100.597 Y80.821 E3.38464
G1 X100.730 Y80.955 E3.39403
G1 X101.263 Y80.955 E3.42059
G1 X101.928 Y81.354 E3.45931
G1 X105.122 Y84.548 E3.68470
G1 X105.256 Y84.948 E3.70570
G1 X105.322 Y85.414 E3.72919
G1 X105.322 Y114.962 E5.20338
G1 X104.923 Y115.628 E5.24210
G1 X103.525 Y117.026 E5.34072
G1 X101.995 Y118.556 E5.44870
G1 X101.329 Y118.955 E5.48742
G1 X100.863 Y119.022 E5.51091
G1 X74.775 Y119.022 E6.81245
G1 X74.309 Y118.955 E6.83594
G0 X106.254 Y116.959 F5400
G1 X106.254 Y111.102 E7.12812 F600
G1 X106.320 Y110.636 E7.15161
G1 X108.184 Y108.773 E7.28309
G1 X108.250 Y108.307 E7.30655
G1 X108.250 Y82.752 E8.58153
G1 X108.516 Y82.486 E8.60031
G1 X108.716 Y82.153 E8.61969
G1 X111.112 Y79.757 E8.78873
G1 X111.445 Y79.557 E8.80807
G1 X111.844 Y79.424 E8.82907
G1 X112.310 Y79.357 E8.85256
G1 X125.620 Y79.357 E9.51661
G1 X126.019 Y79.490 E9.53761
G1 X126.352 Y79.690 E9.55698
G1 X129.281 Y82.619 E9.76359
G1 X129.414 Y83.018 E9.78459
G1 X129.414 Y108.573 E11.05956
G1 X129.613 Y108.906 E11.07890
G1 X131.210 Y110.503 E11.19159
G1 X131.344 Y110.903 E11.21259
G1 X131.410 Y111.369 E11.23608
G1 X131.410 Y116.959 E11.51498
G1 X131.277 Y117.092 E11.52438
G1 X131.277 Y117.358 E11.53766
G1 X128.349 Y120.286 E11.74426
G1 X128.016 Y120.486 E11.76364
G1 X109.914 Y120.486 E12.66674
G1 X109.448 Y120.420 E12.69024
G1 X108.250 Y119.222 E12.77476
G1 X106.387 Y117.358 E12.90623
G1 X106.254 Y116.959 E12.92723
G0 X136.202 Y125.611 F5400
G1 X136.202 Y74.499 E15.47717 F600
G1 X136.335 Y74.100 E15.49817
G1 X136.335 Y73.834 E15.51145
G1 X136.601 Y73.568 E15.53024
G1 X136.801 Y73.235 E15.54961
G1 X139.729 Y70.306 E15.75622
G1 X140.061 Y70.107 E15.77556
G1 X140.461 Y69.974 E15.79656
G1 X140.927 Y69.907 E15.82005
G1 X159.029 Y69.907 E16.72316
G1 X159.428 Y70.040 E16.74415
G1 X160.094 Y70.440 E16.78288
G1 X163.022 Y73.368 E16.98948
G1 X163.222 Y73.701 E17.00886
G1 X163.222 Y73.967 E17.02214
G1 X163.355 Y74.100 E17.03153
G1 X163.355 Y125.744 E19.60803
G1 X163.222 Y126.143 E19.62903
G1 X162.822 Y126.808 E19.66775
G1 X160.160 Y129.470 E19.85558
G1 X159.495 Y129.870 E19.89430
G1 X159.029 Y129.937 E19.91779
G1 X158.896 Y130.070 E19.92718
G1 X140.794 Y130.070 E20.83028
G1 X139.995 Y129.804 E20.87228
G1 X139.662 Y129.604 E20.89166
G1 X136.734 Y126.675 E21.09826
G1 X136.335 Y126.010 E21.13699
G1 X136.335 Y125.744 E21.15027
G1 X136.202 Y125.611 E21.15966
G0 X168.279 Y117.225 F5400
G1 X168.279 Y110.836 E21.47840 F600
G1 X168.479 Y110.503 E21.49778
G1 X170.076 Y108.906 E21.61047
G1 X170.276 Y108.573 E21.62981
G1 X170.276 Y82.752 E22.91807
G1 X170.476 Y82.419 E22.93745
G1 X173.138 Y79.757 E23.12527
G1 X173.803 Y79.357 E23.16399
G1 X187.646 Y79.357 E23.85460
G1 X188.045 Y79.490 E23.87560
G1 X188.378 Y79.690 E23.89498
G1 X191.306 Y82.619 E24.10158
G1 X191.439 Y83.550 E24.14853
G1 X191.439 Y108.573 E25.39695
G1 X191.639 Y108.906 E25.41629
G1 X193.236 Y110.503 E25.52898
G1 X193.369 Y110.903 E25.54998
G1 X193.436 Y111.369 E25.57347
G1 X193.436 Y116.959 E25.85237
G1 X193.303 Y117.092 E25.86176
G1 X193.303 Y117.358 E25.87505
G1 X190.375 Y120.286 E26.08165
G1 X190.041 Y120.486 E26.10103
G1 X171.540 Y120.486 E27.02405
G1 X171.274 Y120.353 E27.03890
G1 X168.612 Y117.691 E27.22672
G1 X168.279 Y117.225 E27.25530
G0 X169.010 Y117.491 F5400
G1 X169.010 Y110.703 E27.59397 F600
G0 X171.676 Y120.020 F5400
G1 X171.676 Y81.953 E29.49314 F600
G0 X174.343 Y79.823 F5400
G1 X174.343 Y120.153 E31.50521 F600
G0 X177.010 Y120.153 F5400
G1 X177.010 Y79.823 E33.51727 F600
G0 X179.676 Y79.823 F5400
G1 X179.676 Y120.153 E35.52934 F600
G0 X182.343 Y120.153 F5400
G1 X182.343 Y79.823 E37.54141 F600
G0 X185.010 Y79.823 F5400
G1 X185.010 Y120.153 E39.55347 F600
G0 X187.676 Y120.153 F5400
G1 X187.676 Y79.957 E41.55890 F600
G0 X190.343 Y82.352 F5400
G1 X190.343 Y119.754 E43.42487 F600
G0 X193.010 Y116.826 F5400
G1 X193.010 Y111.236 E43.70377 F600
G0 X161.010 Y128.006 F5400
G1 X161.010 Y72.104 E46.49277 F600
G0 X158.343 Y70.373 F5400
G1 X158.343 Y129.737 E49.45443 F600
G0 X155.676 Y129.737 F5400
G1 X155.676 Y70.373 E52.41608 F600
G0 X153.010 Y70.373 F5400
G1 X153.010 Y129.737 E55.37774 F600
G0 X150.343 Y129.737 F5400
G1 X150.343 Y70.373 E58.33939 F600
G0 X147.676 Y70.373 F5400
G1 X147.676 Y129.737 E61.30105 F600
G0 X145.010 Y129.737 F5400
G1 X145.010 Y70.373 E64.26270 F600
G0 X142.343 Y70.373 F5400
G1 X142.343 Y129.737 E67.22435 F600
G0 X139.676 Y129.071 F5400
G1 X139.676 Y71.039 E70.11960 F600
G0 X137.010 Y73.701 F5400
G1 X137.010 Y126.409 E72.74923 F600
G0 X129.010 Y119.089 F5400
G1 X129.010 Y83.151 E74.54216 F600
G0 X126.343 Y80.356 F5400
G1 X126.343 Y120.153 E76.52767 F600
G0 X123.676 Y120.153 F5400
G1 X123.676 Y79.823 E78.53974 F600
G0 X121.010 Y79.823 F5400
G1 X121.010 Y120.153 E80.55181 F600
G0 X118.343 Y120.153 F5400
G1 X118.343 Y79.823 E82.56388 F600
G0 X115.676 Y79.823 F5400
G1 X115.676 Y120.153 E84.57594 F600
G0 X113.010 Y120.153 F5400
G1 X113.010 Y79.823 E86.58801 F600
G0 X110.343 Y81.288 F5400
G1 X110.343 Y120.153 E88.52703 F600
G0 X107.676 Y118.024 F5400
G1 X107.676 Y110.038 E88.92546 F600
G0 X102.343 Y117.624 F5400
G1 X102.343 Y82.486 E90.67855 F600
G0 X99.676 Y81.288 F5400
G1 X99.676 Y118.689 E92.54453 F600
G0 X97.010 Y118.689 F5400
G1 X97.010 Y81.288 E94.41050 F600
G0 X94.343 Y81.288 F5400
G1 X94.343 Y118.689 E96.27647 F600
G0 X91.676 Y118.689 F5400
G1 X91.676 Y81.288 E98.14245 F600
G0 X89.010 Y81.288 F5400
G1 X89.010 Y118.689 E100.00842 F600
G0 X86.343 Y118.689 F5400
G1 X86.343 Y81.288 E101.87440 F600
G0 X83.676 Y81.288 F5400
G1 X83.676 Y118.689 E103.74037 F600
G0 X81.010 Y118.689 F5400
G1 X81.010 Y81.288 E105.60635 F600
G0 X78.343 Y81.288 F5400
G1 X78.343 Y118.689 E107.47232 F600
G0 X75.676 Y118.689 F5400
G1 X75.676 Y81.288 E109.33829 F600
G0 X73.010 Y82.619 F5400
G1 X73.010 Y117.358 E111.07146 F600



; ------------------------------------
; Raft Layer #1
; ------------------------------------
G92 E0 ;reset extr
G0 F600 Z0.600
;segType:Raft
G0 X72.712 Y117.669 F7200
G1 X105.321 Y85.059 E2.30079 F1800
G0 X104.523 Y83.972 F7200
G1 X71.780 Y116.715 E4.61097 F1800
G0 X70.849 Y115.761 F7200
G1 X103.591 Y83.018 E6.92116 F1800
G0 X102.659 Y82.064 F7200
G1 X70.316 Y114.407 E9.20317 F1800
G0 X70.316 Y112.522 F7200
G1 X101.728 Y81.110 E11.41944 F1800
G0 X99.997 Y80.955 F7200
G1 X70.316 Y110.636 E13.51363 F1800
G0 X70.316 Y108.751 F7200
G1 X98.134 Y80.932 E15.47635 F1800
G0 X96.271 Y80.910 F7200
G1 X70.316 Y106.865 E17.30759 F1800
G0 X70.316 Y104.979 F7200
G1 X94.407 Y80.888 E19.00736 F1800
G0 X92.544 Y80.866 F7200
G1 X70.316 Y103.094 E20.57565 F1800
G0 X70.316 Y101.208 F7200
G1 X90.680 Y80.844 E22.01247 F1800
G0 X88.684 Y80.954 F7200
G1 X70.316 Y99.323 E23.30843 F1800
G0 X70.316 Y97.437 F7200
G1 X86.821 Y80.932 E24.47291 F1800
G0 X84.957 Y80.910 F7200
G1 X70.316 Y95.551 E25.50592 F1800
G0 X70.316 Y93.666 F7200
G1 X83.094 Y80.888 E26.40745 F1800
G0 X81.230 Y80.866 F7200
G1 X70.316 Y91.780 E27.17751 F1800
G0 X70.316 Y89.894 F7200
G1 X79.367 Y80.844 E27.81610 F1800
G0 X77.370 Y80.954 F7200
G1 X70.316 Y88.009 E28.31382 F1800
G0 X70.316 Y86.123 F7200
G1 X75.507 Y80.932 E28.68007 F1800
G0 X105.455 Y86.811 F7200
G1 X73.644 Y118.622 E30.92452 F1800
G0 X75.108 Y119.044 F7200
G1 X105.455 Y88.697 E33.06566 F1800
G0 X105.455 Y90.582 F7200
G1 X76.971 Y119.066 E35.07533 F1800
G0 X78.835 Y119.088 F7200
G1 X105.455 Y92.468 E36.95353 F1800
G0 X105.455 Y94.354 F7200
G1 X80.698 Y119.111 E38.70025 F1800
G0 X82.561 Y119.133 F7200
G1 X105.455 Y96.239 E40.31550 F1800
G0 X105.388 Y98.192 F7200
G1 X84.491 Y119.089 E41.78989 F1800
G0 X86.377 Y119.089 F7200
G1 X105.410 Y100.055 E43.13280 F1800
G0 X105.432 Y101.918 F7200
G1 X88.262 Y119.089 E44.34424 F1800
G0 X90.148 Y119.089 F7200
G1 X105.454 Y103.782 E45.42420 F1800
G0 X105.344 Y105.778 F7200
G1 X92.034 Y119.089 E46.36330 F1800
G0 X93.919 Y119.089 F7200
G1 X105.366 Y107.642 E47.17092 F1800
G0 X105.388 Y109.505 F7200
G1 X95.805 Y119.089 E47.84708 F1800
G0 X97.690 Y119.089 F7200
G1 X105.410 Y111.369 E48.39175 F1800
G0 X106.364 Y112.300 F7200
G1 X129.524 Y89.141 E50.02579 F1800
G0 X129.501 Y87.277 F7200
G1 X108.338 Y108.440 E51.51895 F1800
G0 X108.316 Y106.577 F7200
G1 X129.479 Y85.414 E53.01212 F1800
G0 X129.457 Y83.550 F7200
G1 X108.294 Y104.714 E54.50529 F1800
G0 X108.272 Y102.850 F7200
G1 X128.902 Y82.219 E55.96089 F1800
G0 X127.948 Y81.288 F7200
G1 X108.383 Y100.854 E57.34137 F1800
G0 X108.360 Y98.990 F7200
G1 X126.994 Y80.356 E58.65611 F1800
G0 X125.907 Y79.557 F7200
G1 X108.338 Y97.127 E59.89572 F1800
G0 X108.316 Y95.263 F7200
G1 X124.155 Y79.424 E61.01324 F1800
G0 X122.225 Y79.468 F7200
G1 X108.383 Y93.311 E61.98990 F1800
G0 X108.383 Y91.425 F7200
G1 X120.362 Y79.446 E62.83509 F1800
G0 X118.498 Y79.424 F7200
G1 X108.383 Y89.540 E63.54881 F1800
G0 X108.383 Y87.654 F7200
G1 X116.635 Y79.402 E64.13104 F1800
G0 X114.772 Y79.380 F7200
G1 X108.383 Y85.768 E64.58181 F1800
G0 X108.383 Y83.883 F7200
G1 X112.775 Y79.490 E64.89172 F1800
G0 X129.546 Y91.004 F7200
G1 X106.386 Y114.164 E66.52575 F1800
G0 X105.432 Y113.232 F7200
G1 X99.576 Y119.089 E66.93895 F1800
G0 X101.595 Y118.955 F7200
G1 X105.322 Y115.229 E67.20190 F1800
G0 X106.276 Y116.160 F7200
G1 X129.435 Y93.001 E68.83593 F1800
G0 X129.457 Y94.864 F7200
G1 X106.697 Y117.624 E70.44179 F1800
G0 X107.651 Y118.556 F7200
G1 X129.479 Y96.727 E71.98191 F1800
G0 X129.502 Y98.591 F7200
G1 X108.605 Y119.488 E73.45630 F1800
G0 X109.559 Y120.420 F7200
G1 X129.524 Y100.454 E74.86495 F1800
G0 X129.546 Y102.318 F7200
G1 X111.311 Y120.553 E76.15151 F1800
G0 X113.197 Y120.553 F7200
G1 X129.435 Y104.314 E77.29721 F1800
G0 X129.457 Y106.178 F7200
G1 X115.083 Y120.553 E78.31144 F1800
G0 X116.968 Y120.553 F7200
G1 X129.480 Y108.041 E79.19419 F1800
G0 X130.034 Y109.372 F7200
G1 X118.854 Y120.553 E79.98303 F1800
G0 X120.739 Y120.553 F7200
G1 X130.988 Y110.304 E80.70614 F1800
G0 X131.543 Y111.635 F7200
G1 X122.625 Y120.553 E81.33534 F1800
G0 X124.511 Y120.553 F7200
G1 X131.432 Y113.631 E81.82367 F1800
G0 X131.454 Y115.495 F7200
G1 X126.396 Y120.553 E82.18053 F1800
G0 X136.224 Y120.153 F7200
G1 X163.376 Y93.001 E84.09629 F1800
G0 X163.398 Y94.864 F7200
G1 X136.246 Y122.017 E86.01205 F1800
G0 X136.268 Y123.880 F7200
G1 X163.420 Y96.727 E87.92782 F1800
G0 X163.443 Y98.591 F7200
G1 X136.290 Y125.744 E89.84358 F1800
G0 X136.978 Y126.942 F7200
G1 X163.465 Y100.454 E91.71239 F1800
G0 X163.487 Y102.318 F7200
G1 X137.932 Y127.873 E93.51546 F1800
G0 X138.819 Y128.738 F7200
G1 X163.310 Y104.248 E95.24341 F1800
G0 X163.332 Y106.111 F7200
G1 X139.773 Y129.670 E96.90562 F1800
G0 X141.260 Y130.069 F7200
G1 X163.222 Y108.108 E98.45515 F1800
G0 X163.244 Y109.971 F7200
G1 X143.145 Y130.069 E99.87320 F1800
G0 X145.164 Y129.936 F7200
G1 X163.266 Y111.835 E101.15038 F1800
G0 X163.288 Y113.698 F7200
G1 X147.050 Y129.936 E102.29607 F1800
G0 X148.935 Y129.936 F7200
G1 X163.310 Y115.562 E103.31030 F1800
G0 X163.332 Y117.425 F7200
G1 X150.688 Y130.069 E104.20245 F1800
G0 X152.573 Y130.069 F7200
G1 X163.222 Y119.421 E104.95374 F1800
G0 X163.244 Y121.285 F7200
G1 X154.592 Y129.936 E105.56415 F1800
G0 X156.345 Y130.069 F7200
G1 X163.266 Y123.148 E106.05248 F1800
G0 X163.288 Y125.012 F7200
G1 X158.230 Y130.069 E106.40934 F1800
G0 X169.544 Y118.756 F7200
G1 X191.373 Y96.927 E107.94947 F1800
G0 X191.395 Y98.791 F7200
G1 X170.498 Y119.687 E109.42387 F1800
G0 X171.585 Y120.486 F7200
G1 X191.417 Y100.654 E110.82314 F1800
G0 X191.306 Y102.650 F7200
G1 X173.470 Y120.486 E112.08154 F1800
G0 X175.356 Y120.486 F7200
G1 X191.328 Y104.514 E113.20847 F1800
G0 X191.351 Y106.377 F7200
G1 X177.242 Y120.486 E114.20392 F1800
G0 X179.127 Y120.486 F7200
G1 X191.373 Y108.241 E115.06789 F1800
G0 X192.060 Y109.439 F7200
G1 X181.013 Y120.486 E115.84735 F1800
G0 X182.965 Y120.553 F7200
G1 X193.080 Y110.437 E116.56107 F1800
G0 X193.303 Y111.968 F7200
G1 X184.784 Y120.486 E117.16209 F1800
G0 X186.670 Y120.486 F7200
G1 X193.325 Y113.831 E117.63165 F1800
G0 X193.347 Y115.695 F7200
G1 X188.689 Y120.353 E117.96033 F1800
G0 X168.590 Y117.824 F7200
G1 X191.350 Y95.064 E119.56620 F1800
G0 X191.328 Y93.201 F7200
G1 X168.169 Y116.360 E121.20023 F1800
G0 X168.146 Y114.497 F7200
G1 X191.306 Y91.337 E122.83427 F1800
G0 X191.417 Y89.340 F7200
G1 X168.257 Y112.500 E124.46832 F1800
G0 X168.235 Y110.637 F7200
G1 X191.395 Y87.478 E126.10235 F1800
G0 X191.373 Y85.614 F7200
G1 X170.209 Y106.777 E127.59551 F1800
G0 X170.187 Y104.914 F7200
G1 X191.350 Y83.751 E129.08868 F1800
G0 X190.929 Y82.286 F7200
G1 X170.165 Y103.050 E130.55370 F1800
G0 X170.143 Y101.186 F7200
G1 X189.975 Y81.354 E131.95296 F1800
G0 X189.021 Y80.422 F7200
G1 X170.254 Y99.190 E133.27710 F1800
G0 X170.232 Y97.326 F7200
G1 X188.067 Y79.491 E134.53551 F1800
G0 X186.380 Y79.424 F7200
G1 X170.408 Y95.396 E135.66243 F1800
G0 X170.386 Y93.533 F7200
G1 X184.495 Y79.424 E136.65787 F1800
G0 X182.609 Y79.424 F7200
G1 X170.364 Y91.670 E137.52184 F1800
G0 X170.342 Y89.806 F7200
G1 X180.723 Y79.424 E138.25433 F1800
G0 X178.838 Y79.424 F7200
G1 X170.319 Y87.943 E138.85536 F1800
G0 X170.297 Y86.079 F7200
G1 X176.952 Y79.424 E139.32491 F1800
G0 X175.067 Y79.424 F7200
G1 X170.408 Y84.083 E139.65359 F1800
G0 X163.398 Y83.550 F7200
G1 X136.246 Y110.703 E141.56935 F1800
G0 X136.223 Y108.840 F7200
G1 X163.376 Y81.687 E143.48511 F1800
G0 X163.487 Y79.690 F7200
G1 X136.334 Y106.843 E145.40086 F1800
G0 X136.312 Y104.980 F7200
G1 X163.464 Y77.827 E147.31662 F1800
G0 X163.442 Y75.964 F7200
G1 X136.290 Y103.116 E149.23238 F1800
G0 X136.268 Y101.253 F7200
G1 X163.420 Y74.100 E151.14813 F1800
G0 X162.599 Y73.035 F7200
G1 X136.245 Y99.389 E153.00755 F1800
G0 X136.223 Y97.526 F7200
G1 X161.645 Y72.104 E154.80122 F1800
G0 X160.824 Y71.039 F7200
G1 X136.334 Y95.529 E156.52916 F1800
G0 X136.312 Y93.666 F7200
G1 X159.737 Y70.240 E158.18198 F1800
G0 X158.118 Y69.974 F7200
G1 X136.290 Y91.803 E159.72209 F1800
G0 X136.267 Y89.939 F7200
G1 X156.232 Y69.974 E161.13074 F1800
G0 X154.347 Y69.974 F7200
G1 X136.245 Y88.076 E162.40791 F1800
G0 X136.223 Y86.212 F7200
G1 X152.461 Y69.974 E163.55362 F1800
G0 X150.576 Y69.974 F7200
G1 X136.334 Y84.216 E164.55846 F1800
G0 X136.312 Y82.352 F7200
G1 X148.690 Y69.974 E165.43182 F1800
G0 X146.804 Y69.974 F7200
G1 X136.289 Y80.489 E166.17371 F1800
G0 X136.267 Y78.626 F7200
G1 X144.919 Y69.974 E166.78412 F1800
G0 X143.033 Y69.974 F7200
G1 X136.245 Y76.762 E167.26306 F1800
G0 X136.223 Y74.899 F7200
G1 X141.147 Y69.974 E167.61053 F1800
G0 X163.420 Y85.414 F7200
G1 X136.268 Y112.567 E169.52630 F1800
G0 X136.290 Y114.430 F7200
G1 X163.442 Y87.277 E171.44204 F1800
G0 X163.465 Y89.141 F7200
G1 X136.312 Y116.293 E173.35780 F1800
G0 X136.335 Y118.157 F7200
G1 X163.487 Y91.004 E175.27356 F1800



; ------------------------------------
; Raft Layer #2
; ------------------------------------
G92 E0 ;reset extr
G0 F600 Z0.800
;segType:Raft
G0 F3000 E-1.00000
G0 F600 Z2.800
G0 X173.138 Y79.721 F7200
G0 F600 Z0.800
G0 F3000 E0.00000
G1 X188.311 Y79.721 E0.50468 F2400
G1 X188.710 Y80.121 E0.52348
G1 X172.738 Y80.121 E1.05471
G1 X172.339 Y80.521 E1.07351
G1 X189.110 Y80.521 E1.63131
G1 X189.509 Y80.921 E1.65011
G1 X171.940 Y80.921 E2.23447
G1 X171.540 Y81.321 E2.25327
G1 X189.908 Y81.321 E2.86420
G1 X190.308 Y81.721 E2.88299
G1 X171.141 Y81.721 E3.52048
G1 X170.742 Y82.121 E3.53928
G1 X190.707 Y82.121 E4.20333
G1 X191.106 Y82.521 E4.22213
G1 X170.342 Y82.521 E4.91274
G1 X170.209 Y82.921 E4.92676
G1 X191.239 Y82.921 E5.62622
G1 X191.373 Y83.321 E5.64024
G1 X170.209 Y83.321 E6.34413
G1 X170.209 Y83.721 E6.35744
G1 X191.373 Y83.721 E7.06133
G1 X191.373 Y84.121 E7.07463
G1 X170.209 Y84.121 E7.77852
G1 X170.209 Y84.521 E7.79183
G1 X191.373 Y84.521 E8.49572
G1 X191.373 Y84.921 E8.50902
G1 X170.209 Y84.921 E9.21291
G1 X170.209 Y85.321 E9.22622
G1 X191.373 Y85.321 E9.93011
G1 X191.373 Y85.721 E9.94341
G1 X170.209 Y85.721 E10.64730
G1 X170.209 Y86.121 E10.66061
G1 X191.373 Y86.121 E11.36450
G1 X191.373 Y86.521 E11.37780
G1 X170.209 Y86.521 E12.08169
G1 X170.209 Y86.921 E12.09500
G1 X191.373 Y86.921 E12.79889
G1 X191.373 Y87.321 E12.81219
G1 X170.209 Y87.321 E13.51608
G1 X170.209 Y87.721 E13.52938
G1 X191.373 Y87.721 E14.23328
G1 X191.373 Y88.121 E14.24658
G1 X170.209 Y88.121 E14.95047
G1 X170.209 Y88.521 E14.96377
G1 X191.373 Y88.521 E15.66767
G1 X191.373 Y88.921 E15.68097
G1 X170.209 Y88.921 E16.38486
G1 X170.209 Y89.321 E16.39816
G1 X191.373 Y89.321 E17.10205
G1 X191.373 Y89.721 E17.11536
G1 X170.209 Y89.721 E17.81925
G1 X170.209 Y90.121 E17.83255
G1 X191.373 Y90.121 E18.53644
G1 X191.373 Y90.521 E18.54974
G1 X170.209 Y90.521 E19.25363
G1 X170.209 Y90.921 E19.26694
G1 X191.373 Y90.921 E19.97083
G1 X191.373 Y91.321 E19.98413
G1 X170.209 Y91.321 E20.68802
G1 X170.209 Y91.721 E20.70133
G1 X191.373 Y91.721 E21.40522
G1 X191.373 Y92.121 E21.41852
G1 X170.209 Y92.121 E22.12241
G1 X170.209 Y92.521 E22.13571
G1 X191.373 Y92.521 E22.83960
G1 X191.373 Y92.921 E22.85291
G1 X170.209 Y92.921 E23.55680
G1 X170.209 Y93.321 E23.57010
G1 X191.373 Y93.321 E24.27399
G1 X191.373 Y93.721 E24.28729
G1 X170.209 Y93.721 E24.99118
G1 X170.209 Y94.121 E25.00449
G1 X191.373 Y94.121 E25.70838
G1 X191.373 Y94.521 E25.72168
G1 X170.209 Y94.521 E26.42557
G1 X170.209 Y94.921 E26.43887
G1 X191.373 Y94.921 E27.14276
G1 X191.373 Y95.321 E27.15607
G1 X170.209 Y95.321 E27.85996
G1 X170.209 Y95.721 E27.87326
G1 X191.373 Y95.721 E28.57715
G1 X191.373 Y96.121 E28.59046
G1 X170.209 Y96.121 E29.29435
G1 X170.209 Y96.521 E29.30765
G1 X191.373 Y96.521 E30.01154
G1 X191.373 Y96.921 E30.02484
G1 X170.209 Y96.921 E30.72873
G1 X170.209 Y97.321 E30.74204
G1 X191.373 Y97.321 E31.44593
G1 X191.373 Y97.721 E31.45923
G1 X170.209 Y97.721 E32.16312
G1 X170.209 Y98.121 E32.17643
G1 X191.373 Y98.121 E32.88032
G1 X191.373 Y98.521 E32.89362
G1 X170.209 Y98.521 E33.59752
G1 X170.209 Y98.921 E33.61082
G1 X191.373 Y98.921 E34.31471
G1 X191.373 Y99.321 E34.32802
G1 X170.209 Y99.321 E35.03191
G1 X170.209 Y99.721 E35.04522
G1 X191.373 Y99.721 E35.74911
G1 X191.373 Y100.121 E35.76241
G1 X170.209 Y100.121 E36.46631
G1 X170.209 Y100.521 E36.47961
G1 X191.373 Y100.521 E37.18350
G1 X191.373 Y100.921 E37.19681
G1 X170.209 Y100.921 E37.90070
G1 X170.209 Y101.321 E37.91401
G1 X191.373 Y101.321 E38.61790
G1 X191.373 Y101.721 E38.63120
G1 X170.209 Y101.721 E39.33510
G1 X170.209 Y102.121 E39.34840
G1 X191.373 Y102.121 E40.05229
G1 X191.373 Y102.521 E40.06560
G1 X170.209 Y102.521 E40.76949
G1 X170.209 Y102.921 E40.78280
G1 X191.373 Y102.921 E41.48669
G1 X191.373 Y103.321 E41.49999
G1 X170.209 Y103.321 E42.20389
G1 X170.209 Y103.721 E42.21719
G1 X191.373 Y103.721 E42.92108
G1 X191.373 Y104.121 E42.93439
G1 X170.209 Y104.121 E43.63828
G1 X170.209 Y104.521 E43.65159
G1 X191.373 Y104.521 E44.35548
G1 X191.373 Y104.921 E44.36878
G1 X170.209 Y104.921 E45.07268
G1 X170.209 Y105.321 E45.08598
G1 X191.373 Y105.321 E45.78987
G1 X191.373 Y105.721 E45.80318
G1 X170.209 Y105.721 E46.50707
G1 X170.209 Y106.121 E46.52038
G1 X191.373 Y106.121 E47.22427
G1 X191.373 Y106.521 E47.23757
G1 X170.209 Y106.521 E47.94147
G1 X170.209 Y106.921 E47.95477
G1 X191.373 Y106.921 E48.65866
G1 X191.373 Y107.321 E48.67197
G1 X170.209 Y107.321 E49.37586
G1 X170.209 Y107.721 E49.38917
G1 X191.373 Y107.721 E50.09306
G1 X191.373 Y108.121 E50.10636
G1 X170.209 Y108.121 E50.81026
G1 X170.209 Y108.521 E50.82356
G1 X191.373 Y108.521 E51.52745
G1 X191.639 Y108.921 E51.54343
G1 X169.943 Y108.921 E52.26503
G1 X169.544 Y109.321 E52.28383
G1 X192.038 Y109.321 E53.03199
G1 X192.437 Y109.721 E53.05079
G1 X169.144 Y109.721 E53.82551
G1 X168.745 Y110.121 E53.84431
G1 X192.837 Y110.121 E54.64560
G1 X193.236 Y110.521 E54.66440
G1 X168.346 Y110.521 E55.49224
G1 X168.213 Y110.921 E55.50627
G1 X193.369 Y110.921 E56.34297
G1 X193.369 Y111.321 E56.35627
G1 X168.213 Y111.321 E57.19297
G1 X168.213 Y111.721 E57.20628
G1 X193.369 Y111.721 E58.04298
G1 X193.369 Y112.121 E58.05628
G1 X168.213 Y112.121 E58.89298
G1 X168.213 Y112.521 E58.90629
G1 X193.369 Y112.521 E59.74299
G1 X193.369 Y112.921 E59.75630
G1 X168.213 Y112.921 E60.59300
G1 X168.213 Y113.321 E60.60630
G1 X193.369 Y113.321 E61.44300
G1 X193.369 Y113.721 E61.45631
G1 X168.213 Y113.721 E62.29301
G1 X168.213 Y114.121 E62.30632
G1 X193.369 Y114.121 E63.14302
G1 X193.369 Y114.521 E63.15632
G1 X168.213 Y114.521 E63.99302
G1 X168.213 Y114.921 E64.00633
G1 X193.369 Y114.921 E64.84303
G1 X193.369 Y115.321 E64.85633
G1 X168.213 Y115.321 E65.69303
G1 X168.213 Y115.721 E65.70634
G1 X193.369 Y115.721 E66.54304
G1 X193.369 Y116.121 E66.55635
G1 X168.213 Y116.121 E67.39305
G1 X168.213 Y116.521 E67.40635
G1 X193.369 Y116.521 E68.24305
G1 X193.369 Y116.921 E68.25636
G1 X168.213 Y116.921 E69.09306
G1 X168.346 Y117.321 E69.10708
G1 X193.236 Y117.321 E69.93492
G1 X192.837 Y117.721 E69.95372
G1 X168.612 Y117.721 E70.75943
G1 X169.011 Y118.121 E70.77823
G1 X192.437 Y118.121 E71.55738
G1 X192.038 Y118.521 E71.57618
G1 X169.411 Y118.521 E72.32877
G1 X169.810 Y118.921 E72.34757
G1 X191.639 Y118.921 E73.07360
G1 X191.239 Y119.321 E73.09239
G1 X170.209 Y119.321 E73.79186
G1 X170.609 Y119.721 E73.81066
G1 X190.840 Y119.721 E74.48356
G1 X190.441 Y120.121 E74.50236
G1 X171.008 Y120.121 E75.14870
G0 X159.694 Y129.722 F7200
G1 X139.862 Y129.722 E75.80832 F2400
G1 X139.330 Y129.321 E75.83047
G1 X160.227 Y129.321 E76.52551
G1 X160.626 Y128.921 E76.54431
G1 X138.930 Y128.921 E77.26590
G1 X138.531 Y128.521 E77.28470
G1 X161.025 Y128.521 E78.03286
G1 X161.425 Y128.121 E78.05166
G1 X138.132 Y128.121 E78.82638
G1 X137.732 Y127.721 E78.84518
G1 X161.824 Y127.721 E79.64646
G1 X162.223 Y127.321 E79.66526
G1 X137.333 Y127.321 E80.49311
G1 X136.934 Y126.921 E80.51191
G1 X162.623 Y126.921 E81.36632
G1 X162.889 Y126.521 E81.38230
G1 X136.535 Y126.521 E82.25884
G1 X136.401 Y126.121 E82.27287
G1 X163.155 Y126.121 E83.16269
G1 X163.288 Y125.721 E83.17671
G1 X136.268 Y125.721 E84.07539
G1 X136.135 Y125.321 E84.08942
G1 X163.288 Y125.321 E84.99252
G1 X163.288 Y124.921 E85.00583
G1 X136.135 Y124.921 E85.90894
G1 X136.135 Y124.521 E85.92224
G1 X163.288 Y124.521 E86.82535
G1 X163.288 Y124.121 E86.83865
G1 X136.135 Y124.121 E87.74176
G1 X136.135 Y123.721 E87.75507
G1 X163.288 Y123.721 E88.65817
G1 X163.288 Y123.321 E88.67148
G1 X136.135 Y123.321 E89.57458
G1 X136.135 Y122.921 E89.58789
G1 X163.288 Y122.921 E90.49100
G1 X163.288 Y122.521 E90.50430
G1 X136.135 Y122.521 E91.40741
G1 X136.135 Y122.121 E91.42072
G1 X163.288 Y122.121 E92.32382
G1 X163.288 Y121.721 E92.33713
G1 X136.135 Y121.721 E93.24023
G1 X136.135 Y121.321 E93.25354
G1 X163.288 Y121.321 E94.15665
G1 X163.288 Y120.921 E94.16995
G1 X136.135 Y120.921 E95.07306
G1 X136.135 Y120.521 E95.08636
G1 X163.288 Y120.521 E95.98947
G1 X163.288 Y120.121 E96.00278
G1 X136.135 Y120.121 E96.90588
G1 X136.135 Y119.721 E96.91919
G1 X163.288 Y119.721 E97.82230
G1 X163.288 Y119.321 E97.83560
G1 X136.135 Y119.321 E98.73871
G1 X136.135 Y118.921 E98.75201
G1 X163.288 Y118.921 E99.65512
G1 X163.288 Y118.521 E99.66843
G1 X136.135 Y118.521 E100.57153
G1 X136.135 Y118.121 E100.58484
G1 X163.288 Y118.121 E101.48795
G1 X163.288 Y117.721 E101.50125
G1 X136.135 Y117.721 E102.40436
G1 X136.135 Y117.321 E102.41766
G1 X163.288 Y117.321 E103.32077
G1 X163.288 Y116.921 E103.33408
G1 X136.135 Y116.921 E104.23718
G1 X136.135 Y116.521 E104.25049
G1 X163.288 Y116.521 E105.15359
G1 X163.288 Y116.121 E105.16690
G1 X136.135 Y116.121 E106.07001
G1 X136.135 Y115.721 E106.08331
G1 X163.288 Y115.721 E106.98642
G1 X163.288 Y115.321 E106.99973
G1 X136.135 Y115.321 E107.90283
G1 X136.135 Y114.921 E107.91614
G1 X163.288 Y114.921 E108.81924
G1 X163.288 Y114.521 E108.83255
G1 X136.135 Y114.521 E109.73566
G1 X136.135 Y114.121 E109.74896
G1 X163.288 Y114.121 E110.65207
G1 X163.288 Y113.721 E110.66537
G1 X136.135 Y113.721 E111.56848
G1 X136.135 Y113.321 E111.58179
G1 X163.288 Y113.321 E112.48489
G1 X163.288 Y112.921 E112.49820
G1 X136.135 Y112.921 E113.40131
G1 X136.135 Y112.521 E113.41461
G1 X163.288 Y112.521 E114.31772
G1 X163.288 Y112.121 E114.33102
G1 X136.135 Y112.121 E115.23413
G1 X136.135 Y111.721 E115.24744
G1 X163.288 Y111.721 E116.15054
G1 X163.288 Y111.321 E116.16385
G1 X136.135 Y111.321 E117.06696
G1 X136.135 Y110.921 E117.08026
G1 X163.288 Y110.921 E117.98337
G1 X163.288 Y110.521 E117.99667
G1 X136.135 Y110.521 E118.89978
G1 X136.135 Y110.121 E118.91309
G1 X163.288 Y110.121 E119.81619
G1 X163.288 Y109.721 E119.82950
G1 X136.135 Y109.721 E120.73260
G1 X136.135 Y109.321 E120.74591
G1 X163.288 Y109.321 E121.64902
G1 X163.288 Y108.921 E121.66232
G1 X136.135 Y108.921 E122.56543
G1 X136.135 Y108.521 E122.57874
G1 X163.288 Y108.521 E123.48184
G1 X163.288 Y108.121 E123.49515
G1 X136.135 Y108.121 E124.39825
G1 X136.135 Y107.721 E124.41156
G1 X163.288 Y107.721 E125.31467
G1 X163.288 Y107.321 E125.32797
G1 X136.135 Y107.321 E126.23108
G1 X136.135 Y106.921 E126.24438
G1 X163.288 Y106.921 E127.14749
G1 X163.288 Y106.521 E127.16080
G1 X136.135 Y106.521 E128.06390
G1 X136.135 Y106.121 E128.07721
G1 X163.288 Y106.121 E128.98032
G1 X163.288 Y105.721 E128.99362
G1 X136.135 Y105.721 E129.89673
G1 X136.135 Y105.321 E129.91003
G1 X163.288 Y105.321 E130.81314
G1 X163.288 Y104.921 E130.82645
G1 X136.135 Y104.921 E131.72955
G1 X136.135 Y104.521 E131.74286
G1 X163.288 Y104.521 E132.64597
G1 X163.288 Y104.121 E132.65927
G1 X136.135 Y104.121 E133.56238
G1 X136.135 Y103.721 E133.57568
G1 X163.288 Y103.721 E134.47879
G1 X163.288 Y103.321 E134.49210
G1 X136.135 Y103.321 E135.39520
G1 X136.135 Y102.921 E135.40851
G1 X163.288 Y102.921 E136.31161
G1 X163.288 Y102.521 E136.32492
G1 X136.135 Y102.521 E137.22803
G1 X136.135 Y102.121 E137.24133
G1 X163.288 Y102.121 E138.14444
G1 X163.288 Y101.721 E138.15775
G1 X136.135 Y101.721 E139.06085
G1 X136.135 Y101.321 E139.07416
G1 X163.288 Y101.321 E139.97726
G1 X163.288 Y100.921 E139.99057
G1 X136.135 Y100.921 E140.89368
G1 X136.135 Y100.521 E140.90698
G1 X163.288 Y100.521 E141.81009
G1 X163.288 Y100.121 E141.82339
G1 X136.135 Y100.121 E142.72650
G1 X136.135 Y99.721 E142.73981
G1 X163.288 Y99.721 E143.64291
G1 X163.288 Y99.321 E143.65622
G1 X136.135 Y99.321 E144.55933
G1 X136.135 Y98.921 E144.57263
G1 X163.288 Y98.921 E145.47574
G1 X163.288 Y98.521 E145.48904
G1 X136.135 Y98.521 E146.39215
G1 X136.135 Y98.121 E146.40546
G1 X163.288 Y98.121 E147.30856
G1 X163.288 Y97.721 E147.32187
G1 X136.135 Y97.721 E148.22498
G1 X136.135 Y97.321 E148.23828
G1 X163.288 Y97.321 E149.14139
G1 X163.288 Y96.921 E149.15469
G1 X136.135 Y96.921 E150.05780
G1 X136.135 Y96.521 E150.07111
G1 X163.288 Y96.521 E150.97421
G1 X163.288 Y96.121 E150.98752
G1 X136.135 Y96.121 E151.89062
G1 X136.135 Y95.721 E151.90393
G1 X163.288 Y95.721 E152.80704
G1 X163.288 Y95.321 E152.82034
G1 X136.135 Y95.321 E153.72345
G1 X136.135 Y94.921 E153.73676
G1 X163.288 Y94.921 E154.63986
G1 X163.288 Y94.521 E154.65317
G1 X136.135 Y94.521 E155.55627
G1 X136.135 Y94.121 E155.56958
G1 X163.288 Y94.121 E156.47269
G1 X163.288 Y93.721 E156.48599
G1 X136.135 Y93.721 E157.38910
G1 X136.135 Y93.321 E157.40240
G1 X163.288 Y93.321 E158.30551
G1 X163.288 Y92.921 E158.31882
G1 X136.135 Y92.921 E159.22192
G1 X136.135 Y92.521 E159.23523
G1 X163.288 Y92.521 E160.13834
G1 X163.288 Y92.121 E160.15164
G1 X136.135 Y92.121 E161.05475
G1 X136.135 Y91.721 E161.06805
G1 X163.288 Y91.721 E161.97116
G1 X163.288 Y91.321 E161.98447
G1 X136.135 Y91.321 E162.88757
G1 X136.135 Y90.921 E162.90088
G1 X163.288 Y90.921 E163.80399
G1 X163.288 Y90.521 E163.81729
G1 X136.135 Y90.521 E164.72040
G1 X136.135 Y90.121 E164.73370
G1 X163.288 Y90.121 E165.63681
G1 X163.288 Y89.721 E165.65012
G1 X136.135 Y89.721 E166.55322
G1 X136.135 Y89.321 E166.56653
G1 X163.288 Y89.321 E167.46964
G1 X163.288 Y88.921 E167.48294
G1 X136.135 Y88.921 E168.38604
G1 X136.135 Y88.521 E168.39936
G1 X163.288 Y88.521 E169.30246
G1 X163.288 Y88.121 E169.31576
G1 X136.135 Y88.121 E170.21888
G1 X136.135 Y87.721 E170.23218
G1 X163.288 Y87.721 E171.13528
G1 X163.288 Y87.321 E171.14860
G1 X136.135 Y87.321 E172.05170
G1 X136.135 Y86.921 E172.06500
G1 X163.288 Y86.921 E172.96810
G1 X163.288 Y86.521 E172.98142
G1 X136.135 Y86.521 E173.88452
G1 X136.135 Y86.121 E173.89782
G1 X163.288 Y86.121 E174.80094
G1 X163.288 Y85.721 E174.81424
G1 X136.135 Y85.721 E175.71734
G1 X136.135 Y85.321 E175.73066
G1 X163.288 Y85.321 E176.63376
G1 X163.288 Y84.921 E176.64706
G1 X136.135 Y84.921 E177.55018
G1 X136.135 Y84.521 E177.56348
G1 X163.288 Y84.521 E178.46658
G1 X163.288 Y84.121 E178.47988
G1 X136.135 Y84.121 E179.38300
G1 X136.135 Y83.721 E179.39630
G1 X163.288 Y83.721 E180.29940
G1 X163.288 Y83.321 E180.31272
G1 X136.135 Y83.321 E181.21582
G1 X136.135 Y82.921 E181.22912
G1 X163.288 Y82.921 E182.13224
G1 X163.288 Y82.521 E182.14554
G1 X136.135 Y82.521 E183.04864
G1 X136.135 Y82.121 E183.06196
G1 X163.288 Y82.121 E183.96506
G1 X163.288 Y81.721 E183.97836
G1 X136.135 Y81.721 E184.88146
G1 X136.135 Y81.321 E184.89478
G1 X163.288 Y81.321 E185.79788
G1 X163.288 Y80.921 E185.81118
G1 X136.135 Y80.921 E186.71430
G1 X136.135 Y80.521 E186.72760
G1 X163.288 Y80.521 E187.63070
G1 X163.288 Y80.121 E187.64402
G1 X136.135 Y80.121 E188.54712
G1 X136.135 Y79.721 E188.56042
G1 X163.288 Y79.721 E189.46354
G1 X163.288 Y79.321 E189.47684
G1 X136.135 Y79.321 E190.37994
G1 X136.135 Y78.921 E190.39324
G1 X163.288 Y78.921 E191.29636
G1 X163.288 Y78.521 E191.30966
G1 X136.135 Y78.521 E192.21276
G1 X136.135 Y78.121 E192.22608
G1 X163.288 Y78.121 E193.12918
G1 X163.288 Y77.721 E193.14248
G1 X136.135 Y77.721 E194.04560
G1 X136.135 Y77.321 E194.05890
G1 X163.288 Y77.321 E194.96200
G1 X163.288 Y76.921 E194.97532
G1 X136.135 Y76.921 E195.87842
G1 X136.135 Y76.521 E195.89172
G1 X163.288 Y76.521 E196.79484
G1 X163.288 Y76.121 E196.80814
G1 X136.135 Y76.121 E197.71124
G1 X136.135 Y75.721 E197.72454
G1 X163.288 Y75.721 E198.62766
G1 X163.288 Y75.321 E198.64096
G1 X136.135 Y75.321 E199.54406
G1 X136.135 Y74.921 E199.55738
G1 X163.288 Y74.921 E200.46048
G1 X163.288 Y74.521 E200.47378
G1 X136.135 Y74.521 E201.37690
G1 X136.268 Y74.121 E201.39092
G1 X163.288 Y74.121 E202.28960
G1 X163.155 Y73.721 E202.30362
G1 X136.401 Y73.721 E203.19346
G1 X136.668 Y73.321 E203.20942
G1 X162.889 Y73.321 E204.08154
G1 X162.489 Y72.921 E204.10034
G1 X137.067 Y72.921 E204.94590
G1 X137.466 Y72.521 E204.96470
G1 X162.090 Y72.521 E205.78370
G1 X161.691 Y72.121 E205.80250
G1 X137.866 Y72.121 E206.59492
G1 X138.265 Y71.721 E206.61372
G1 X161.291 Y71.721 E207.37960
G1 X160.892 Y71.321 E207.39840
G1 X138.664 Y71.321 E208.13770
G1 X139.063 Y70.921 E208.15650
G1 X160.493 Y70.921 E208.86924
G1 X160.094 Y70.521 E208.88804
G1 X139.463 Y70.521 E209.57422
G1 X139.995 Y70.121 E209.59638
G1 X159.561 Y70.121 E210.24714
G0 X111.112 Y79.721 F7200
G1 X126.286 Y79.721 E210.75182 F2400
G1 X126.685 Y80.121 E210.77062
G1 X110.713 Y80.121 E211.30184
G1 X110.313 Y80.521 E211.32064
G1 X127.084 Y80.521 E211.87844
G1 X127.484 Y80.921 E211.89724
G1 X109.914 Y80.921 E212.48162
G1 X109.515 Y81.321 E212.50042
G1 X127.883 Y81.321 E213.11134
G1 X128.282 Y81.721 E213.13014
G1 X109.116 Y81.721 E213.76762
G1 X108.716 Y82.121 E213.78642
G1 X128.682 Y82.121 E214.45046
G1 X129.081 Y82.521 E214.46926
G1 X108.450 Y82.521 E215.15546
G1 X108.184 Y82.921 E215.17144
G1 X129.347 Y82.921 E215.87532
G1 X129.347 Y83.321 E215.88862
G1 X108.184 Y83.321 E216.59252
G1 X108.184 Y83.721 E216.60582
G1 X129.347 Y83.721 E217.30970
G1 X129.347 Y84.121 E217.32302
G1 X108.184 Y84.121 E218.02690
G1 X108.184 Y84.521 E218.04020
G1 X129.347 Y84.521 E218.74410
G1 X129.347 Y84.921 E218.75740
G1 X108.184 Y84.921 E219.46128
G1 X108.184 Y85.321 E219.47460
G1 X129.347 Y85.321 E220.17848
G1 X129.347 Y85.721 E220.19178
G1 X108.184 Y85.721 E220.89568
G1 X108.184 Y86.121 E220.90898
G1 X129.347 Y86.121 E221.61286
G1 X129.347 Y86.521 E221.62618
G1 X108.184 Y86.521 E222.33006
G1 X108.184 Y86.921 E222.34336
G1 X129.347 Y86.921 E223.04726
G1 X129.347 Y87.321 E223.06056
G1 X108.184 Y87.321 E223.76446
G1 X108.184 Y87.721 E223.77776
G1 X129.347 Y87.721 E224.48164
G1 X129.347 Y88.121 E224.49494
G1 X108.184 Y88.121 E225.19884
G1 X108.184 Y88.521 E225.21214
G1 X129.347 Y88.521 E225.91604
G1 X129.347 Y88.921 E225.92934
G1 X108.184 Y88.921 E226.63322
G1 X108.184 Y89.321 E226.64654
G1 X129.347 Y89.321 E227.35042
G1 X129.347 Y89.721 E227.36372
G1 X108.184 Y89.721 E228.06762
G1 X108.184 Y90.121 E228.08092
G1 X129.347 Y90.121 E228.78480
G1 X129.347 Y90.521 E228.79812
G1 X108.184 Y90.521 E229.50200
G1 X108.184 Y90.921 E229.51530
G1 X129.347 Y90.921 E230.21920
G1 X129.347 Y91.321 E230.23250
G1 X108.184 Y91.321 E230.93638
G1 X108.184 Y91.721 E230.94970
G1 X129.347 Y91.721 E231.65358
G1 X129.347 Y92.121 E231.66688
G1 X108.184 Y92.121 E232.37078
G1 X108.184 Y92.521 E232.38408
G1 X129.347 Y92.521 E233.08796
G1 X129.347 Y92.921 E233.10128
G1 X108.184 Y92.921 E233.80516
G1 X108.184 Y93.321 E233.81846
G1 X129.347 Y93.321 E234.52236
G1 X129.347 Y93.721 E234.53566
G1 X108.184 Y93.721 E235.23954
G1 X108.184 Y94.121 E235.25286
G1 X129.347 Y94.121 E235.95674
G1 X129.347 Y94.521 E235.97004
G1 X108.184 Y94.521 E236.67394
G1 X108.184 Y94.921 E236.68724
G1 X129.347 Y94.921 E237.39112
G1 X129.347 Y95.321 E237.40444
G1 X108.184 Y95.321 E238.10832
G1 X108.184 Y95.721 E238.12162
G1 X129.347 Y95.721 E238.82552
G1 X129.347 Y96.121 E238.83882
G1 X108.184 Y96.121 E239.54270
G1 X108.184 Y96.521 E239.55602
G1 X129.347 Y96.521 E240.25990
G1 X129.347 Y96.921 E240.27320
G1 X108.184 Y96.921 E240.97710
G1 X108.184 Y97.321 E240.99040
G1 X129.347 Y97.321 E241.69430
G1 X129.347 Y97.721 E241.70760
G1 X108.184 Y97.721 E242.41148
G1 X108.184 Y98.121 E242.42478
G1 X129.347 Y98.121 E243.12868
G1 X129.347 Y98.521 E243.14198
G1 X108.184 Y98.521 E243.84588
G1 X108.184 Y98.921 E243.85918
G1 X129.347 Y98.921 E244.56306
G1 X129.347 Y99.321 E244.57638
G1 X108.184 Y99.321 E245.28026
G1 X108.184 Y99.721 E245.29356
G1 X129.347 Y99.721 E245.99746
G1 X129.347 Y100.121 E246.01076
G1 X108.184 Y100.121 E246.71464
G1 X108.184 Y100.521 E246.72796
G1 X129.347 Y100.521 E247.43184
G1 X129.347 Y100.921 E247.44514
G1 X108.184 Y100.921 E248.14904
G1 X108.184 Y101.321 E248.16234
G1 X129.347 Y101.321 E248.86622
G1 X129.347 Y101.721 E248.87954
G1 X108.184 Y101.721 E249.58342
G1 X108.184 Y102.121 E249.59672
G1 X129.347 Y102.121 E250.30062
G1 X129.347 Y102.521 E250.31392
G1 X108.184 Y102.521 E251.01780
G1 X108.184 Y102.921 E251.03112
G1 X129.347 Y102.921 E251.73500
G1 X129.347 Y103.321 E251.74830
G1 X108.184 Y103.321 E252.45220
G1 X108.184 Y103.721 E252.46550
G1 X129.347 Y103.721 E253.16938
G1 X129.347 Y104.121 E253.18270
G1 X108.184 Y104.121 E253.88658
G1 X108.184 Y104.521 E253.89988
G1 X129.347 Y104.521 E254.60378
G1 X129.347 Y104.921 E254.61708
G1 X108.184 Y104.921 E255.32096
G1 X108.184 Y105.321 E255.33428
G1 X129.347 Y105.321 E256.03818
G1 X129.347 Y105.721 E256.05148
G1 X108.184 Y105.721 E256.75538
G1 X108.184 Y106.121 E256.76868
G1 X129.347 Y106.121 E257.47256
G1 X129.347 Y106.521 E257.48588
G1 X108.184 Y106.521 E258.18976
G1 X108.184 Y106.921 E258.20306
G1 X129.347 Y106.921 E258.90696
G1 X129.347 Y107.321 E258.92026
G1 X108.184 Y107.321 E259.62414
G1 X108.184 Y107.721 E259.63746
G1 X129.347 Y107.721 E260.34134
G1 X129.347 Y108.121 E260.35464
G1 X108.184 Y108.121 E261.05854
G1 X108.184 Y108.521 E261.07184
G1 X129.347 Y108.521 E261.77572
G1 X129.613 Y108.921 E261.79172
G1 X107.918 Y108.921 E262.51330
G1 X107.518 Y109.321 E262.53210
G1 X130.013 Y109.321 E263.28028
G1 X130.412 Y109.721 E263.29908
G1 X107.119 Y109.721 E264.07380
G1 X106.720 Y110.121 E264.09260
G1 X130.811 Y110.121 E264.89386
G1 X131.210 Y110.521 E264.91266
G1 X106.320 Y110.521 E265.74050
G1 X106.187 Y110.921 E265.75452
G1 X131.344 Y110.921 E266.59122
G1 X131.344 Y111.321 E266.60452
G1 X106.187 Y111.321 E267.44122
G1 X106.187 Y111.721 E267.45452
G1 X131.344 Y111.721 E268.29122
G1 X131.344 Y112.121 E268.30454
G1 X106.187 Y112.121 E269.14124
G1 X106.187 Y112.521 E269.15454
G1 X131.344 Y112.521 E269.99124
G1 X131.344 Y112.921 E270.00454
G1 X106.187 Y112.921 E270.84124
G1 X106.187 Y113.321 E270.85456
G1 X131.344 Y113.321 E271.69126
G1 X131.344 Y113.721 E271.70456
G1 X106.187 Y113.721 E272.54126
G1 X106.187 Y114.121 E272.55456
G1 X131.344 Y114.121 E273.39126
G1 X131.344 Y114.521 E273.40458
G1 X106.187 Y114.521 E274.24128
G1 X106.187 Y114.921 E274.25458
G1 X131.344 Y114.921 E275.09128
G1 X131.344 Y115.321 E275.10458
G1 X106.187 Y115.321 E275.94128
G1 X106.187 Y115.721 E275.95458
G1 X131.344 Y115.721 E276.79130
G1 X131.344 Y116.121 E276.80460
G1 X106.187 Y116.121 E277.64130
G1 X106.187 Y116.521 E277.65460
G1 X131.344 Y116.521 E278.49130
G1 X131.344 Y116.921 E278.50460
G1 X106.187 Y116.921 E279.34130
G1 X106.320 Y117.321 E279.35532
G1 X131.210 Y117.321 E280.18316
G1 X130.811 Y117.721 E280.20196
G1 X106.720 Y117.721 E281.00324
G1 X107.119 Y118.121 E281.02204
G1 X130.412 Y118.121 E281.79676
G1 X130.013 Y118.521 E281.81556
G1 X107.518 Y118.521 E282.56372
G1 X107.918 Y118.921 E282.58252
G1 X129.613 Y118.921 E283.30410
G1 X129.214 Y119.321 E283.32290
G1 X108.317 Y119.321 E284.01794
G1 X108.716 Y119.721 E284.03674
G1 X128.815 Y119.721 E284.70524
G1 X128.415 Y120.121 E284.72402
G1 X109.116 Y120.121 E285.36594
G0 X101.263 Y118.921 F7200
G1 X74.243 Y118.921 E286.26462 F2400
G1 X73.577 Y118.521 E286.29044
G1 X101.928 Y118.521 E287.23340
G1 X102.327 Y118.121 E287.25220
G1 X73.178 Y118.121 E288.22172
G1 X72.779 Y117.721 E288.24050
G1 X102.727 Y117.721 E289.23658
G1 X103.126 Y117.321 E289.25538
G1 X72.379 Y117.321 E290.27802
G1 X71.980 Y116.921 E290.29682
G1 X103.525 Y116.921 E291.34600
G1 X103.925 Y116.521 E291.36480
G1 X71.581 Y116.521 E292.44056
G1 X71.181 Y116.121 E292.45936
G1 X104.324 Y116.121 E293.56168
G1 X104.723 Y115.721 E293.58048
G1 X70.782 Y115.721 E294.70936
G1 X70.516 Y115.321 E294.72534
G1 X104.989 Y115.321 E295.87192
G1 X105.256 Y114.921 E295.88790
G1 X70.250 Y114.921 E297.05222
G1 X70.250 Y114.521 E297.06552
G1 X105.256 Y114.521 E298.22982
G1 X105.256 Y114.121 E298.24314
G1 X70.117 Y114.121 E299.41186
G1 X70.117 Y113.721 E299.42518
G1 X105.256 Y113.721 E300.59390
G1 X105.256 Y113.321 E300.60720
G1 X70.117 Y113.321 E301.77594
G1 X70.117 Y112.921 E301.78924
G1 X105.256 Y112.921 E302.95798
G1 X105.256 Y112.521 E302.97128
G1 X70.117 Y112.521 E304.14002
G1 X70.117 Y112.121 E304.15332
G1 X105.256 Y112.121 E305.32206
G1 X105.256 Y111.721 E305.33536
G1 X70.117 Y111.721 E306.50408
G1 X70.117 Y111.321 E306.51740
G1 X105.256 Y111.321 E307.68612
G1 X105.256 Y110.921 E307.69944
G1 X70.117 Y110.921 E308.86816
G1 X70.117 Y110.521 E308.88146
G1 X105.256 Y110.521 E310.05020
G1 X105.256 Y110.121 E310.06350
G1 X70.117 Y110.121 E311.23224
G1 X70.117 Y109.721 E311.24554
G1 X105.256 Y109.721 E312.41428
G1 X105.256 Y109.321 E312.42758
G1 X70.117 Y109.321 E313.59632
G1 X70.117 Y108.921 E313.60962
G1 X105.256 Y108.921 E314.77836
G1 X105.256 Y108.521 E314.79166
G1 X70.117 Y108.521 E315.96038
G1 X70.117 Y108.121 E315.97370
G1 X105.256 Y108.121 E317.14242
G1 X105.256 Y107.721 E317.15574
G1 X70.117 Y107.721 E318.32446
G1 X70.117 Y107.321 E318.33776
G1 X105.256 Y107.321 E319.50650
G1 X105.256 Y106.921 E319.51980
G1 X70.117 Y106.921 E320.68854
G1 X70.117 Y106.521 E320.70184
G1 X105.256 Y106.521 E321.87058
G1 X105.256 Y106.121 E321.88388
G1 X70.117 Y106.121 E323.05262
G1 X70.117 Y105.721 E323.06592
G1 X105.256 Y105.721 E324.23464
G1 X105.256 Y105.321 E324.24796
G1 X70.117 Y105.321 E325.41668
G1 X70.117 Y104.921 E325.43000
G1 X105.256 Y104.921 E326.59872
G1 X105.256 Y104.521 E326.61204
G1 X70.117 Y104.521 E327.78076
G1 X70.117 Y104.121 E327.79406
G1 X105.256 Y104.121 E328.96280
G1 X105.256 Y103.721 E328.97610
G1 X70.117 Y103.721 E330.14484
G1 X70.117 Y103.321 E330.15814
G1 X105.256 Y103.321 E331.32688
G1 X105.256 Y102.921 E331.34018
G1 X70.117 Y102.921 E332.50892
G1 X70.117 Y102.521 E332.52222
G1 X105.256 Y102.521 E333.69094
G1 X105.256 Y102.121 E333.70426
G1 X70.117 Y102.121 E334.87298
G1 X70.117 Y101.721 E334.88630
G1 X105.256 Y101.721 E336.05504
G1 X105.256 Y101.321 E336.06832
G1 X70.117 Y101.321 E337.23708
G1 X70.117 Y100.921 E337.25036
G1 X105.256 Y100.921 E338.41908
G1 X105.256 Y100.521 E338.43240
G1 X70.117 Y100.521 E339.60112
G1 X70.117 Y100.121 E339.61444
G1 X105.256 Y100.121 E340.78316
G1 X105.256 Y99.721 E340.79648
G1 X70.117 Y99.721 E341.96520
G1 X70.117 Y99.321 E341.97852
G1 X105.256 Y99.321 E343.14724
G1 X105.256 Y98.921 E343.16056
G1 X70.117 Y98.921 E344.32928
G1 X70.117 Y98.521 E344.34260
G1 X105.256 Y98.521 E345.51132
G1 X105.256 Y98.121 E345.52464
G1 X70.117 Y98.121 E346.69336
G1 X70.117 Y97.721 E346.70668
G1 X105.256 Y97.721 E347.87540
G1 X105.256 Y97.321 E347.88872
G1 X70.117 Y97.321 E349.05744
G1 X70.117 Y96.921 E349.07072
G1 X105.256 Y96.921 E350.23948
G1 X105.256 Y96.521 E350.25276
G1 X70.117 Y96.521 E351.42152
G1 X70.117 Y96.121 E351.43480
G1 X105.256 Y96.121 E352.60356
G1 X105.256 Y95.721 E352.61684
G1 X70.117 Y95.721 E353.78560
G1 X70.117 Y95.321 E353.79888
G1 X105.256 Y95.321 E354.96764
G1 X105.256 Y94.921 E354.98092
G1 X70.117 Y94.921 E356.14964
G1 X70.117 Y94.521 E356.16296
G1 X105.256 Y94.521 E357.33168
G1 X105.256 Y94.121 E357.34500
G1 X70.117 Y94.121 E358.51372
G1 X70.117 Y93.721 E358.52704
G1 X105.256 Y93.721 E359.69576
G1 X105.256 Y93.321 E359.70908
G1 X70.117 Y93.321 E360.87780
G1 X70.117 Y92.921 E360.89112
G1 X105.256 Y92.921 E362.05984
G1 X105.256 Y92.521 E362.07316
G1 X70.117 Y92.521 E363.24188
G1 X70.117 Y92.121 E363.25520
G1 X105.256 Y92.121 E364.42392
G1 X105.256 Y91.721 E364.43724
G1 X70.117 Y91.721 E365.60596
G1 X70.117 Y91.321 E365.61928
G1 X105.256 Y91.321 E366.78800
G1 X105.256 Y90.921 E366.80132
G1 X70.117 Y90.921 E367.97004
G1 X70.117 Y90.521 E367.98332
G1 X105.256 Y90.521 E369.15208
G1 X105.256 Y90.121 E369.16536
G1 X70.117 Y90.121 E370.33412
G1 X70.117 Y89.721 E370.34740
G1 X105.256 Y89.721 E371.51616
G1 X105.256 Y89.321 E371.52944
G1 X70.117 Y89.321 E372.69820
G1 X70.117 Y88.921 E372.71148
G1 X105.256 Y88.921 E373.88020
G1 X105.256 Y88.521 E373.89352
G1 X70.117 Y88.521 E375.06224
G1 X70.117 Y88.121 E375.07556
G1 X105.256 Y88.121 E376.24428
G1 X105.256 Y87.721 E376.25760
G1 X70.117 Y87.721 E377.42632
G1 X70.117 Y87.321 E377.43964
G1 X105.256 Y87.321 E378.60836
G1 X105.256 Y86.921 E378.62168
G1 X70.117 Y86.921 E379.79040
G1 X70.117 Y86.521 E379.80372
G1 X105.256 Y86.521 E380.97244
G1 X105.256 Y86.121 E380.98576
G1 X70.117 Y86.121 E382.15448
G1 X70.117 Y85.721 E382.16780
G1 X105.256 Y85.721 E383.33652
G1 X105.256 Y85.321 E383.34984
G1 X70.250 Y85.321 E384.51412
G1 X70.250 Y84.921 E384.52744
G1 X105.122 Y84.921 E385.68732
G1 X104.989 Y84.521 E385.70132
G1 X70.516 Y84.521 E386.84792
G1 X70.782 Y84.121 E386.86388
G1 X104.590 Y84.121 E387.98836
G1 X104.191 Y83.721 E388.00716
G1 X71.181 Y83.721 E389.10504
G1 X71.581 Y83.321 E389.12384
G1 X103.791 Y83.321 E390.19516
G1 X103.392 Y82.921 E390.21396
G1 X71.980 Y82.921 E391.25872
G1 X72.379 Y82.521 E391.27752
G1 X102.993 Y82.521 E392.29576
G1 X102.594 Y82.121 E392.31456
G1 X72.779 Y82.121 E393.30620
G1 X73.178 Y81.721 E393.32500
G1 X102.194 Y81.721 E394.29008
G1 X101.795 Y81.321 E394.30888
G1 X73.710 Y81.321 E395.24296
G0 X74.908 Y80.921 F7200
G1 X100.597 Y80.921 E396.09736 F2400



; ------------------------------------
; Raft Layer #3
; ------------------------------------
M106 S255 ;set fan speed
G92 E0 ;reset extr
G0 F600 Z1.000
;segType:Raft
G0 F3000 E-1.00000
G0 F600 Z3.000
G0 X105.277 Y85.014 F7200
G0 F600 Z1.000
G0 F3000 E0.00000
G1 X105.277 Y115.095 E1.00050 F2400
G1 X104.877 Y115.761 E1.02632
G1 X104.877 Y84.349 E2.07109
G1 X104.477 Y83.950 E2.08989
G1 X104.477 Y116.160 E3.16122
G1 X104.077 Y116.560 E3.18002
G1 X104.077 Y83.550 E4.27791
G1 X103.677 Y83.151 E4.29671
G1 X103.677 Y116.959 E5.42117
G1 X103.277 Y117.358 E5.43997
G1 X103.277 Y82.752 E6.59098
G1 X102.877 Y82.352 E6.60978
G1 X102.877 Y117.758 E7.78736
G1 X102.477 Y118.157 E7.80616
G1 X102.477 Y81.953 E9.01030
G1 X102.077 Y81.554 E9.02910
G1 X102.077 Y118.556 E10.25980
G1 X101.677 Y118.822 E10.27578
G1 X101.677 Y81.288 E11.52419
G1 X101.277 Y81.021 E11.54017
G1 X101.277 Y119.089 E12.80629
G1 X100.877 Y119.089 E12.81959
G1 X100.877 Y81.021 E14.08571
G1 X100.477 Y80.888 E14.09973
G1 X100.477 Y119.089 E15.37028
G1 X100.077 Y119.089 E15.38358
G1 X100.077 Y80.888 E16.65413
G1 X99.677 Y80.888 E16.66743
G1 X99.677 Y119.089 E17.93798
G1 X99.277 Y119.089 E17.95128
G1 X99.277 Y80.888 E19.22183
G1 X98.877 Y80.888 E19.23513
G1 X98.877 Y119.089 E20.50568
G1 X98.477 Y119.089 E20.51898
G1 X98.477 Y80.888 E21.78953
G1 X98.077 Y80.888 E21.80283
G1 X98.077 Y119.089 E23.07338
G1 X97.677 Y119.089 E23.08668
G1 X97.677 Y80.888 E24.35723
G1 X97.277 Y80.888 E24.37053
G1 X97.277 Y119.089 E25.64108
G1 X96.877 Y119.089 E25.65438
G1 X96.877 Y80.888 E26.92493
G1 X96.477 Y80.888 E26.93823
G1 X96.477 Y119.089 E28.20878
G1 X96.077 Y119.089 E28.22208
G1 X96.077 Y80.888 E29.49263
G1 X95.677 Y80.888 E29.50593
G1 X95.677 Y119.089 E30.77648
G1 X95.277 Y119.089 E30.78978
G1 X95.277 Y80.888 E32.06032
G1 X94.877 Y80.888 E32.07363
G1 X94.877 Y119.089 E33.34417
G1 X94.477 Y119.089 E33.35748
G1 X94.477 Y80.888 E34.62803
G1 X94.077 Y80.888 E34.64133
G1 X94.077 Y119.089 E35.91188
G1 X93.677 Y119.089 E35.92518
G1 X93.677 Y80.888 E37.19573
G1 X93.277 Y80.888 E37.20904
G1 X93.277 Y119.089 E38.47958
G1 X92.877 Y119.089 E38.49289
G1 X92.877 Y80.888 E39.76343
G1 X92.477 Y80.888 E39.77674
G1 X92.477 Y119.089 E41.04728
G1 X92.077 Y119.089 E41.06059
G1 X92.077 Y80.888 E42.33114
G1 X91.677 Y80.888 E42.34444
G1 X91.677 Y119.089 E43.61499
G1 X91.277 Y119.089 E43.62829
G1 X91.277 Y80.888 E44.89884
G1 X90.877 Y80.888 E44.91215
G1 X90.877 Y119.089 E46.18269
G1 X90.477 Y119.089 E46.19600
G1 X90.477 Y80.888 E47.46654
G1 X90.077 Y80.888 E47.47985
G1 X90.077 Y119.089 E48.75040
G1 X89.677 Y119.089 E48.76370
G1 X89.677 Y80.888 E50.03425
G1 X89.277 Y80.888 E50.04755
G1 X89.277 Y119.089 E51.31810
G1 X88.877 Y119.089 E51.33140
G1 X88.877 Y80.888 E52.60195
G1 X88.477 Y80.888 E52.61526
G1 X88.477 Y119.089 E53.88580
G1 X88.077 Y119.089 E53.89911
G1 X88.077 Y80.888 E55.16965
G1 X87.677 Y80.888 E55.18296
G1 X87.677 Y119.089 E56.45351
G1 X87.277 Y119.089 E56.46681
G1 X87.277 Y80.888 E57.73736
G1 X86.877 Y80.888 E57.75066
G1 X86.877 Y119.089 E59.02121
G1 X86.477 Y119.089 E59.03451
G1 X86.477 Y80.888 E60.30506
G1 X86.077 Y80.888 E60.31837
G1 X86.077 Y119.089 E61.58891
G1 X85.677 Y119.089 E61.60222
G1 X85.677 Y80.888 E62.87276
G1 X85.277 Y80.888 E62.88607
G1 X85.277 Y119.089 E64.15661
G1 X84.877 Y119.089 E64.16992
G1 X84.877 Y80.888 E65.44046
G1 X84.477 Y80.888 E65.45377
G1 X84.477 Y119.089 E66.72431
G1 X84.077 Y119.089 E66.73762
G1 X84.077 Y80.888 E68.00817
G1 X83.677 Y80.888 E68.02147
G1 X83.677 Y119.089 E69.29202
G1 X83.277 Y119.089 E69.30532
G1 X83.277 Y80.888 E70.57587
G1 X82.877 Y80.888 E70.58917
G1 X82.877 Y119.089 E71.85972
G1 X82.477 Y119.089 E71.87303
G1 X82.477 Y80.888 E73.14357
G1 X82.077 Y80.888 E73.15688
G1 X82.077 Y119.089 E74.42742
G1 X81.677 Y119.089 E74.44073
G1 X81.677 Y80.888 E75.71128
G1 X81.277 Y80.888 E75.72458
G1 X81.277 Y119.089 E76.99513
G1 X80.877 Y119.089 E77.00843
G1 X80.877 Y80.888 E78.27898
G1 X80.477 Y80.888 E78.29228
G1 X80.477 Y119.089 E79.56283
G1 X80.077 Y119.089 E79.57614
G1 X80.077 Y80.888 E80.84668
G1 X79.677 Y80.888 E80.85999
G1 X79.677 Y119.089 E82.13053
G1 X79.277 Y119.089 E82.14384
G1 X79.277 Y80.888 E83.41439
G1 X78.877 Y80.888 E83.42769
G1 X78.877 Y119.089 E84.69823
G1 X78.477 Y119.089 E84.71154
G1 X78.477 Y80.888 E85.98209
G1 X78.077 Y80.888 E85.99539
G1 X78.077 Y119.089 E87.26594
G1 X77.677 Y119.089 E87.27924
G1 X77.677 Y80.888 E88.54979
G1 X77.277 Y80.888 E88.56310
G1 X77.277 Y119.089 E89.83364
G1 X76.877 Y119.089 E89.84695
G1 X76.877 Y80.888 E91.11749
G1 X76.477 Y80.888 E91.13080
G1 X76.477 Y119.089 E92.40134
G1 X76.077 Y119.089 E92.41465
G1 X76.077 Y80.888 E93.68520
G1 X75.677 Y80.888 E93.69850
G1 X75.677 Y119.089 E94.96905
G1 X75.277 Y119.089 E94.98235
G1 X75.277 Y80.888 E96.25290
G1 X74.877 Y81.021 E96.26692
G1 X74.877 Y119.089 E97.53304
G1 X74.477 Y119.089 E97.54635
G1 X74.477 Y81.021 E98.81247
G1 X74.077 Y81.154 E98.82649
G1 X74.077 Y118.955 E100.08376
G1 X73.677 Y118.689 E100.09974
G1 X73.677 Y81.421 E101.33929
G1 X73.277 Y81.687 E101.35528
G1 X73.277 Y118.290 E102.57270
G1 X72.877 Y117.891 E102.59150
G1 X72.877 Y82.086 E103.78236
G1 X72.477 Y82.486 E103.80116
G1 X72.477 Y117.491 E104.96545
G1 X72.077 Y117.092 E104.98425
G1 X72.077 Y82.885 E106.12199
G1 X71.677 Y83.284 E106.14079
G1 X71.677 Y116.693 E107.25196
G1 X71.277 Y116.293 E107.27076
G1 X71.277 Y83.683 E108.35537
G1 X70.877 Y84.083 E108.37417
G1 X70.877 Y115.894 E109.43222
G1 X70.477 Y115.362 E109.45437
G1 X70.477 Y84.615 E110.47701
G0 X108.477 Y82.619 F7200
G1 X108.477 Y119.488 E111.70328 F2400
G1 X108.877 Y119.887 E111.72208
G1 X108.877 Y82.086 E112.97934
G1 X109.277 Y81.687 E112.99814
G1 X109.277 Y120.286 E114.28197
G1 X109.677 Y120.553 E114.29795
G1 X109.677 Y81.288 E115.60391
G1 X110.077 Y80.888 E115.62271
G1 X110.077 Y120.553 E116.94196
G1 X110.477 Y120.553 E116.95526
G1 X110.477 Y80.489 E118.28778
G1 X110.877 Y80.090 E118.30658
G1 X110.877 Y120.553 E119.65238
G1 X111.277 Y120.553 E119.66569
G1 X111.277 Y79.690 E121.02477
G1 X111.677 Y79.557 E121.03880
G1 X111.677 Y120.553 E122.40231
G1 X112.077 Y120.553 E122.41561
G1 X112.077 Y79.424 E123.78355
G1 X112.477 Y79.424 E123.79686
G1 X112.477 Y120.553 E125.16480
G1 X112.877 Y120.553 E125.17811
G1 X112.877 Y79.424 E126.54605
G1 X113.277 Y79.424 E126.55936
G1 X113.277 Y120.553 E127.92730
G1 X113.677 Y120.553 E127.94061
G1 X113.677 Y79.424 E129.30855
G1 X114.077 Y79.424 E129.32185
G1 X114.077 Y120.553 E130.68979
G1 X114.477 Y120.553 E130.70309
G1 X114.477 Y79.424 E132.07103
G1 X114.877 Y79.424 E132.08434
G1 X114.877 Y120.553 E133.45227
G1 X115.277 Y120.553 E133.46558
G1 X115.277 Y79.424 E134.83351
G1 X115.677 Y79.424 E134.84682
G1 X115.677 Y120.553 E136.21475
G1 X116.077 Y120.553 E136.22806
G1 X116.077 Y79.424 E137.59599
G1 X116.477 Y79.424 E137.60930
G1 X116.477 Y120.553 E138.97723
G1 X116.877 Y120.553 E138.99054
G1 X116.877 Y79.424 E140.35847
G1 X117.277 Y79.424 E140.37178
G1 X117.277 Y120.553 E141.73972
G1 X117.677 Y120.553 E141.75302
G1 X117.677 Y79.424 E143.12096
G1 X118.077 Y79.424 E143.13426
G1 X118.077 Y120.553 E144.50220
G1 X118.477 Y120.553 E144.51550
G1 X118.477 Y79.424 E145.88344
G1 X118.877 Y79.424 E145.89674
G1 X118.877 Y120.553 E147.26468
G1 X119.277 Y120.553 E147.27798
G1 X119.277 Y79.424 E148.64592
G1 X119.677 Y79.424 E148.65923
G1 X119.677 Y120.553 E150.02716
G1 X120.077 Y120.553 E150.04047
G1 X120.077 Y79.424 E151.40840
G1 X120.477 Y79.424 E151.42171
G1 X120.477 Y120.553 E152.78964
G1 X120.877 Y120.553 E152.80295
G1 X120.877 Y79.424 E154.17088
G1 X121.277 Y79.424 E154.18419
G1 X121.277 Y120.553 E155.55212
G1 X121.677 Y120.553 E155.56543
G1 X121.677 Y79.424 E156.93336
G1 X122.077 Y79.424 E156.94667
G1 X122.077 Y120.553 E158.31461
G1 X122.477 Y120.553 E158.32791
G1 X122.477 Y79.424 E159.69585
G1 X122.877 Y79.424 E159.70915
G1 X122.877 Y120.553 E161.07709
G1 X123.277 Y120.553 E161.09039
G1 X123.277 Y79.424 E162.45833
G1 X123.677 Y79.424 E162.47163
G1 X123.677 Y120.553 E163.83957
G1 X124.077 Y120.553 E163.85287
G1 X124.077 Y79.424 E165.22081
G1 X124.477 Y79.424 E165.23412
G1 X124.477 Y120.553 E166.60205
G1 X124.877 Y120.553 E166.61536
G1 X124.877 Y79.424 E167.98330
G1 X125.277 Y79.424 E167.99660
G1 X125.277 Y120.553 E169.36454
G1 X125.677 Y120.553 E169.37784
G1 X125.677 Y79.424 E170.74578
G1 X126.077 Y79.557 E170.75980
G1 X126.077 Y120.553 E172.12330
G1 X126.477 Y120.553 E172.13662
G1 X126.477 Y79.823 E173.49128
G1 X126.877 Y80.223 E173.51008
G1 X126.877 Y120.553 E174.85146
G1 X127.277 Y120.553 E174.86476
G1 X127.277 Y80.622 E176.19286
G1 X127.677 Y81.021 E176.21166
G1 X127.677 Y120.553 E177.52648
G1 X128.077 Y120.553 E177.53978
G1 X128.077 Y81.421 E178.84130
G1 X128.477 Y81.820 E178.86010
G1 X128.477 Y120.286 E180.13952
G1 X128.877 Y119.887 E180.15830
G1 X128.877 Y82.219 E181.41114
G1 X129.277 Y82.619 E181.42994
G1 X129.277 Y119.488 E182.65622
G1 X129.677 Y119.089 E182.67502
G1 X129.677 Y108.973 E183.01148
G1 X130.077 Y109.372 E183.03028
G1 X130.077 Y118.689 E183.34016
G1 X130.477 Y118.290 E183.35896
G1 X130.477 Y109.771 E183.64228
G1 X130.877 Y110.171 E183.66108
G1 X130.877 Y117.891 E183.91784
G1 X131.277 Y117.491 E183.93664
G1 X131.277 Y110.570 E184.16686
G0 X108.077 Y108.973 F7200
G1 X108.077 Y119.089 E184.50332 F2400
G1 X107.677 Y118.689 E184.52210
G1 X107.677 Y109.372 E184.83200
G1 X107.277 Y109.771 E184.85080
G1 X107.277 Y118.290 E185.13412
G1 X106.877 Y117.891 E185.15292
G1 X106.877 Y110.171 E185.40968
G1 X106.477 Y110.570 E185.42848
G1 X106.477 Y117.491 E185.65870
G0 X136.477 Y73.701 F7200
G1 X136.477 Y126.409 E187.41178 F2400
G1 X136.877 Y126.942 E187.43392
G1 X136.877 Y73.168 E189.22242
G1 X137.277 Y72.769 E189.24122
G1 X137.277 Y127.341 E191.05628
G1 X137.677 Y127.740 E191.07508
G1 X137.677 Y72.370 E192.91672
G1 X138.077 Y71.970 E192.93552
G1 X138.077 Y128.139 E194.80372
G1 X138.477 Y128.539 E194.82250
G1 X138.477 Y71.571 E196.71726
G1 X138.877 Y71.172 E196.73606
G1 X138.877 Y128.938 E198.65736
G1 X139.277 Y129.337 E198.67616
G1 X139.277 Y70.773 E200.62404
G1 X139.677 Y70.373 E200.64284
G1 X139.677 Y129.737 E202.61728
G1 X140.077 Y129.870 E202.63130
G1 X140.077 Y70.107 E204.61902
G1 X140.477 Y69.974 E204.63304
G1 X140.477 Y130.003 E206.62960
G1 X140.877 Y130.136 E206.64364
G1 X140.877 Y69.974 E208.64462
G1 X141.277 Y69.974 E208.65792
G1 X141.277 Y130.136 E210.65892
G1 X141.677 Y130.136 E210.67222
G1 X141.677 Y69.974 E212.67322
G1 X142.077 Y69.974 E212.68652
G1 X142.077 Y130.136 E214.68752
G1 X142.477 Y130.136 E214.70082
G1 X142.477 Y69.974 E216.70182
G1 X142.877 Y69.974 E216.71512
G1 X142.877 Y130.136 E218.71612
G1 X143.277 Y130.136 E218.72942
G1 X143.277 Y69.974 E220.73040
G1 X143.677 Y69.974 E220.74372
G1 X143.677 Y130.136 E222.74470
G1 X144.077 Y130.136 E222.75802
G1 X144.077 Y69.974 E224.75900
G1 X144.477 Y69.974 E224.77230
G1 X144.477 Y130.136 E226.77330
G1 X144.877 Y130.136 E226.78660
G1 X144.877 Y69.974 E228.78760
G1 X145.277 Y69.974 E228.80090
G1 X145.277 Y130.136 E230.80190
G1 X145.677 Y130.136 E230.81520
G1 X145.677 Y69.974 E232.81620
G1 X146.077 Y69.974 E232.82950
G1 X146.077 Y130.136 E234.83050
G1 X146.477 Y130.136 E234.84380
G1 X146.477 Y69.974 E236.84478
G1 X146.877 Y69.974 E236.85810
G1 X146.877 Y130.136 E238.85908
G1 X147.277 Y130.136 E238.87240
G1 X147.277 Y69.974 E240.87338
G1 X147.677 Y69.974 E240.88668
G1 X147.677 Y130.136 E242.88768
G1 X148.077 Y130.136 E242.90098
G1 X148.077 Y69.974 E244.90198
G1 X148.477 Y69.974 E244.91528
G1 X148.477 Y130.136 E246.91628
G1 X148.877 Y130.136 E246.92958
G1 X148.877 Y69.974 E248.93058
G1 X149.277 Y69.974 E248.94388
G1 X149.277 Y130.136 E250.94486
G1 X149.677 Y130.136 E250.95818
G1 X149.677 Y69.974 E252.95916
G1 X150.077 Y69.974 E252.97248
G1 X150.077 Y130.136 E254.97346
G1 X150.477 Y130.136 E254.98678
G1 X150.477 Y69.974 E256.98776
G1 X150.877 Y69.974 E257.00106
G1 X150.877 Y130.136 E259.00208
G1 X151.277 Y130.136 E259.01538
G1 X151.277 Y69.974 E261.01638
G1 X151.677 Y69.974 E261.02970
G1 X151.677 Y130.136 E263.03070
G1 X152.077 Y130.136 E263.04400
G1 X152.077 Y69.974 E265.04502
G1 X152.477 Y69.974 E265.05832
G1 X152.477 Y130.136 E267.05932
G1 X152.877 Y130.136 E267.07264
G1 X152.877 Y69.974 E269.07364
G1 X153.277 Y69.974 E269.08694
G1 X153.277 Y130.136 E271.08796
G1 X153.677 Y130.136 E271.10126
G1 X153.677 Y69.974 E273.10226
G1 X154.077 Y69.974 E273.11558
G1 X154.077 Y130.136 E275.11658
G1 X154.477 Y130.136 E275.12988
G1 X154.477 Y69.974 E277.13088
G1 X154.877 Y69.974 E277.14420
G1 X154.877 Y130.136 E279.14520
G1 X155.277 Y130.136 E279.15850
G1 X155.277 Y69.974 E281.15952
G1 X155.677 Y69.974 E281.17282
G1 X155.677 Y130.136 E283.17382
G1 X156.077 Y130.136 E283.18714
G1 X156.077 Y69.974 E285.18814
G1 X156.477 Y69.974 E285.20144
G1 X156.477 Y130.136 E287.20246
G1 X156.877 Y130.136 E287.21576
G1 X156.877 Y69.974 E289.21676
G1 X157.277 Y69.974 E289.23008
G1 X157.277 Y130.136 E291.23108
G1 X157.677 Y130.136 E291.24438
G1 X157.677 Y69.974 E293.24540
G1 X158.077 Y69.974 E293.25870
G1 X158.077 Y130.136 E295.25970
G1 X158.477 Y130.136 E295.27302
G1 X158.477 Y69.974 E297.27402
G1 X158.877 Y69.974 E297.28732
G1 X158.877 Y130.136 E299.28834
G1 X159.276 Y130.003 E299.30234
G1 X159.276 Y70.107 E301.29450
G1 X159.676 Y70.240 E301.30850
G1 X159.676 Y129.870 E303.29178
G1 X160.077 Y129.604 E303.30776
G1 X160.077 Y70.506 E305.27334
G1 X160.476 Y70.906 E305.29214
G1 X160.476 Y129.204 E307.23118
G1 X160.876 Y128.805 E307.24996
G1 X160.876 Y71.305 E309.16242
G1 X161.276 Y71.704 E309.18122
G1 X161.276 Y128.406 E311.06710
G1 X161.676 Y128.006 E311.08590
G1 X161.676 Y72.104 E312.94526
G1 X162.076 Y72.503 E312.96406
G1 X162.076 Y127.607 E314.79682
G1 X162.476 Y127.208 E314.81562
G1 X162.476 Y72.902 E316.62182
G1 X162.876 Y73.301 E316.64062
G1 X162.876 Y126.675 E318.41584
G1 X163.276 Y126.010 E318.44166
G1 X163.276 Y74.100 E320.16818
G0 X170.476 Y82.486 F7200
G1 X170.476 Y119.621 E321.40332 F2400
G1 X170.876 Y120.020 E321.42212
G1 X170.876 Y82.086 E322.68380
G1 X171.276 Y81.687 E322.70260
G1 X171.276 Y120.420 E323.99084
G1 X171.676 Y120.553 E324.00486
G1 X171.676 Y81.288 E325.31082
G1 X172.076 Y80.888 E325.32962
G1 X172.076 Y120.553 E326.64886
G1 X172.476 Y120.553 E326.66218
G1 X172.476 Y80.489 E327.99468
G1 X172.876 Y80.090 E328.01348
G1 X172.876 Y120.553 E329.35928
G1 X173.276 Y120.553 E329.37258
G1 X173.276 Y79.690 E330.73168
G1 X173.676 Y79.557 E330.74570
G1 X173.676 Y120.553 E332.10922
G1 X174.076 Y120.553 E332.12252
G1 X174.076 Y79.424 E333.49048
G1 X174.476 Y79.424 E333.50378
G1 X174.476 Y120.553 E334.87174
G1 X174.876 Y120.553 E334.88504
G1 X174.876 Y79.424 E336.25300
G1 X175.276 Y79.424 E336.26628
G1 X175.276 Y120.553 E337.63424
G1 X175.676 Y120.553 E337.64756
G1 X175.676 Y79.424 E339.01552
G1 X176.076 Y79.424 E339.02880
G1 X176.076 Y120.553 E340.39676
G1 X176.476 Y120.553 E340.41008
G1 X176.476 Y79.424 E341.77800
G1 X176.876 Y79.424 E341.79132
G1 X176.876 Y120.553 E343.15928
G1 X177.276 Y120.553 E343.17256
G1 X177.276 Y79.424 E344.54052
G1 X177.676 Y79.424 E344.55384
G1 X177.676 Y120.553 E345.92180
G1 X178.076 Y120.553 E345.93508
G1 X178.076 Y79.424 E347.30304
G1 X178.476 Y79.424 E347.31636
G1 X178.476 Y120.553 E348.68428
G1 X178.876 Y120.553 E348.69760
G1 X178.876 Y79.424 E350.06556
G1 X179.276 Y79.424 E350.07884
G1 X179.276 Y120.553 E351.44680
G1 X179.676 Y120.553 E351.46012
G1 X179.676 Y79.424 E352.82808
G1 X180.076 Y79.424 E352.84136
G1 X180.076 Y120.553 E354.20932
G1 X180.476 Y120.553 E354.22264
G1 X180.476 Y79.424 E355.59056
G1 X180.876 Y79.424 E355.60388
G1 X180.876 Y120.553 E356.97184
G1 X181.276 Y120.553 E356.98512
G1 X181.276 Y79.424 E358.35308
G1 X181.676 Y79.424 E358.36640
G1 X181.676 Y120.553 E359.73436
G1 X182.076 Y120.553 E359.74764
G1 X182.076 Y79.424 E361.11560
G1 X182.476 Y79.424 E361.12892
G1 X182.476 Y120.553 E362.49684
G1 X182.876 Y120.553 E362.51016
G1 X182.876 Y79.424 E363.87812
G1 X183.276 Y79.424 E363.89140
G1 X183.276 Y120.553 E365.25936
G1 X183.676 Y120.553 E365.27268
G1 X183.676 Y79.424 E366.64064
G1 X184.076 Y79.424 E366.65392
G1 X184.076 Y120.553 E368.02188
G1 X184.476 Y120.553 E368.03520
G1 X184.476 Y79.424 E369.40312
G1 X184.876 Y79.424 E369.41644
G1 X184.876 Y120.553 E370.78440
G1 X185.276 Y120.553 E370.79768
G1 X185.276 Y79.424 E372.16564
G1 X185.676 Y79.424 E372.17896
G1 X185.676 Y120.553 E373.54692
G1 X186.076 Y120.553 E373.56020
G1 X186.076 Y79.424 E374.92816
G1 X186.476 Y79.424 E374.94148
G1 X186.476 Y120.553 E376.30940
G1 X186.876 Y120.553 E376.32272
G1 X186.876 Y79.424 E377.69068
G1 X187.276 Y79.424 E377.70396
G1 X187.276 Y120.553 E379.07192
G1 X187.676 Y120.553 E379.08524
G1 X187.676 Y79.424 E380.45320
G1 X188.076 Y79.557 E380.46720
G1 X188.076 Y120.553 E381.83072
G1 X188.476 Y120.553 E381.84404
G1 X188.476 Y79.823 E383.19868
G1 X188.876 Y80.223 E383.21748
G1 X188.876 Y120.553 E384.55884
G1 X189.276 Y120.553 E384.57216
G1 X189.276 Y80.622 E385.90024
G1 X189.676 Y81.021 E385.91904
G1 X189.676 Y120.553 E387.23384
G1 X190.076 Y120.553 E387.24716
G1 X190.076 Y81.421 E388.54872
G1 X190.476 Y81.820 E388.56752
G1 X190.476 Y120.286 E389.84688
G1 X190.876 Y119.887 E389.86568
G1 X190.876 Y82.219 E391.11852
G1 X191.276 Y82.619 E391.13732
G1 X191.276 Y119.488 E392.36360
G1 X191.676 Y119.089 E392.38240
G1 X191.676 Y108.973 E392.71888
G1 X192.076 Y109.372 E392.73768
G1 X192.076 Y118.689 E393.04756
G1 X192.476 Y118.290 E393.06636
G1 X192.476 Y109.771 E393.34968
G1 X192.876 Y110.171 E393.36848
G1 X192.876 Y117.891 E393.62524
G1 X193.276 Y117.491 E393.64404
G1 X193.276 Y110.570 E393.87424
G0 X170.076 Y108.973 F7200
G1 X170.076 Y119.222 E394.21512 F2400
G1 X169.676 Y118.822 E394.23392
G1 X169.676 Y109.372 E394.54824
G1 X169.276 Y109.771 E394.56704
G1 X169.276 Y118.423 E394.85480
G1 X168.876 Y118.024 E394.87360
G1 X168.876 Y110.171 E395.13480
G1 X168.476 Y110.570 E395.15360
G1 X168.476 Y117.624 E395.38820


; ------------------------------------
; Layer #0
; ------------------------------------
G21 ; mm
G90 ; abs
G92 E0 ;reset extr
G0 F600 Z1.450
;segType:HShell
G0 F3000 E-1.00000
G0 X123.415 Y111.027 F5400
G0 F3000 E0.00000
G1 X121.336 Y108.948 E0.09779 F2400
G0 X121.336 Y109.514 F5400
G1 X123.415 Y111.593 E0.19558 F2400
G0 X123.415 Y112.158 F5400
G1 X121.327 Y110.070 E0.29379 F2400
G0 X121.248 Y110.557 F5400
G1 X123.415 Y112.724 E0.39574 F2400
G0 X123.436 Y112.622 F5400
;segType:Perimeter
G1 X124.236 Y112.622 E0.42234 F1200
G1 X125.360 Y112.622 E0.45975
G1 X125.622 Y112.664 E0.46857
G1 X125.845 Y112.777 E0.47687
G1 X126.021 Y112.953 E0.48517
G1 X126.134 Y113.175 E0.49346
G1 X126.175 Y113.438 E0.50228
G1 X126.175 Y114.406 E0.53450
G1 X126.134 Y114.668 E0.54333
G1 X126.021 Y114.890 E0.55162
G1 X125.845 Y115.067 E0.55991
G1 X125.622 Y115.180 E0.56821
G1 X125.360 Y115.221 E0.57703
G1 X112.392 Y115.221 E1.00837
G1 X112.130 Y115.180 E1.01719
G1 X111.907 Y115.067 E1.02548
G1 X111.731 Y114.890 E1.03378
G1 X111.618 Y114.668 E1.04207
G1 X111.576 Y114.406 E1.05090
G1 X111.576 Y113.438 E1.08312
G1 X111.618 Y113.175 E1.09194
G1 X111.731 Y112.953 E1.10024
G1 X111.907 Y112.777 E1.10853
G1 X112.130 Y112.664 E1.11682
G1 X112.392 Y112.622 E1.12565
G1 X113.576 Y112.622 E1.16505
G1 X113.576 Y85.438 E2.06921
G1 X113.618 Y85.175 E2.07804
G1 X113.731 Y84.953 E2.08633
G1 X113.907 Y84.777 E2.09462
G1 X114.130 Y84.664 E2.10292
G1 X114.392 Y84.622 E2.11175
G1 X123.360 Y84.622 E2.41003
G1 X123.622 Y84.664 E2.41886
G1 X123.844 Y84.777 E2.42716
G1 X124.021 Y84.953 E2.43545
G1 X124.134 Y85.175 E2.44375
G1 X124.176 Y85.438 E2.45257
G1 X124.176 Y112.562 E3.35474
G0 X124.236 Y112.622 F5400
G0 X125.360 Y112.622
G0 X125.622 Y112.664
G0 X125.809 Y112.759
G0 X125.607 Y113.105
G0 X125.497 Y113.049
G0 X125.329 Y113.022
G0 X125.276 Y113.022
;segType:Loop
G1 X125.329 Y113.022 E3.35650 F2400
G1 X125.497 Y113.049 E3.36217
G1 X125.607 Y113.105 E3.36627
G1 X125.693 Y113.191 E3.37034
G1 X125.749 Y113.300 E3.37441
G1 X125.776 Y113.469 E3.38009
G1 X125.776 Y114.375 E3.41021
G1 X125.749 Y114.543 E3.41589
G1 X125.693 Y114.652 E3.41996
G1 X125.607 Y114.739 E3.42404
G1 X125.497 Y114.795 E3.42812
G1 X125.329 Y114.821 E3.43379
G1 X112.423 Y114.821 E3.86303
G1 X112.140 Y114.733 E3.87290
G1 X112.059 Y114.653 E3.87670
G1 X111.976 Y114.375 E3.88635
G1 X111.976 Y113.469 E3.91647
G1 X112.003 Y113.301 E3.92214
G1 X112.059 Y113.191 E3.92622
G1 X112.145 Y113.105 E3.93030
G1 X112.255 Y113.049 E3.93438
G1 X112.423 Y113.022 E3.94006
G1 X113.976 Y113.022 E3.99171
G1 X113.976 Y85.469 E4.90812
G1 X114.003 Y85.301 E4.91380
G1 X114.059 Y85.191 E4.91788
G1 X114.145 Y85.105 E4.92196
G1 X114.255 Y85.049 E4.92604
G1 X114.423 Y85.022 E4.93172
G1 X123.328 Y85.022 E5.22790
G1 X123.497 Y85.049 E5.23358
G1 X123.606 Y85.105 E5.23766
G1 X123.693 Y85.191 E5.24174
G1 X123.749 Y85.301 E5.24582
G1 X123.776 Y85.469 E5.25149
G1 X123.776 Y113.022 E6.16791
G1 X125.076 Y113.022 E6.21115
G0 F3000 E5.21115
G0 X119.979 Y112.117 F5400
G0 F3000 E6.21115
;segType:HShell
G1 X122.324 Y114.461 E6.32143 F2400
G0 X121.758 Y114.461 F5400
G1 X119.575 Y112.278 E6.42413 F2400
G0 X119.105 Y112.373 F5400
G1 X121.193 Y114.461 E6.52235 F2400
G0 X120.627 Y114.461 F5400
G1 X118.517 Y112.351 E6.62159 F2400
G0 X118.804 Y111.897 F5400
;segType:Perimeter
G1 X118.140 Y111.451 E6.64820 F1200
G1 X117.945 Y111.346 E6.65555
G1 X117.724 Y111.173 E6.66489
G1 X117.534 Y110.967 E6.67423
G1 X117.380 Y110.731 E6.68358
G1 X117.267 Y110.474 E6.69292
G1 X117.198 Y110.202 E6.70227
G1 X117.176 Y109.930 E6.71133
G1 X117.176 Y102.914 E6.94471
G1 X117.198 Y102.642 E6.95378
G1 X117.267 Y102.370 E6.96312
G1 X117.380 Y102.112 E6.97246
G1 X117.534 Y101.877 E6.98180
G1 X117.724 Y101.670 E6.99115
G1 X117.945 Y101.498 E7.00049
G1 X118.193 Y101.364 E7.00984
G1 X118.458 Y101.273 E7.01919
G1 X118.736 Y101.227 E7.02853
G1 X119.017 Y101.227 E7.03787
G1 X119.294 Y101.273 E7.04722
G1 X119.559 Y101.364 E7.05656
G1 X119.806 Y101.498 E7.06590
G1 X120.028 Y101.670 E7.07524
G1 X120.218 Y101.877 E7.08459
G1 X120.372 Y102.112 E7.09394
G1 X120.485 Y102.370 E7.10329
G1 X120.554 Y102.642 E7.11263
G1 X120.576 Y102.914 E7.12170
G1 X120.576 Y109.930 E7.35507
G1 X120.554 Y110.202 E7.36413
G1 X120.485 Y110.474 E7.37348
G1 X120.372 Y110.731 E7.38282
G1 X120.218 Y110.967 E7.39217
G1 X120.028 Y111.173 E7.40152
G1 X119.806 Y111.346 E7.41086
G1 X119.559 Y111.480 E7.42020
G1 X119.294 Y111.571 E7.42954
G1 X119.017 Y111.617 E7.43889
G1 X118.736 Y111.617 E7.44823
G1 X118.458 Y111.571 E7.45758
G1 X118.249 Y111.499 E7.46493
G0 X118.140 Y111.451 F5400
G0 X117.945 Y111.346
G0 X117.724 Y111.173
G0 X117.534 Y110.967
G0 X117.380 Y110.731
G0 X117.267 Y110.474
G0 X117.204 Y110.227
G0 X116.802 Y110.268
G0 X116.887 Y110.604
G0 X117.027 Y110.922
G0 X117.058 Y110.970
;segType:Loop
G1 X117.027 Y110.922 E7.46682 F2400
G1 X116.887 Y110.604 E7.47837
G1 X116.802 Y110.268 E7.48992
G1 X116.776 Y109.947 E7.50063
G1 X116.776 Y102.897 E7.73511
G1 X116.802 Y102.576 E7.74584
G1 X116.888 Y102.239 E7.75738
G1 X117.027 Y101.921 E7.76893
G1 X117.217 Y101.631 E7.78047
G1 X117.452 Y101.375 E7.79202
G1 X117.726 Y101.162 E7.80357
G1 X118.031 Y100.996 E7.81512
G1 X118.360 Y100.884 E7.82668
G1 X118.702 Y100.827 E7.83822
G1 X119.050 Y100.827 E7.84978
G1 X119.392 Y100.884 E7.86132
G1 X119.721 Y100.996 E7.87287
G1 X120.026 Y101.162 E7.88442
G1 X120.300 Y101.375 E7.89596
G1 X120.535 Y101.630 E7.90752
G1 X120.725 Y101.921 E7.91907
G1 X120.865 Y102.239 E7.93062
G1 X120.950 Y102.576 E7.94217
G1 X120.976 Y102.897 E7.95289
G1 X120.976 Y109.947 E8.18736
G1 X120.950 Y110.268 E8.19807
G1 X120.865 Y110.604 E8.20962
G1 X120.725 Y110.922 E8.22118
G1 X120.535 Y111.213 E8.23273
G1 X120.300 Y111.469 E8.24429
G1 X120.026 Y111.682 E8.25582
G1 X119.721 Y111.847 E8.26737
G1 X119.392 Y111.960 E8.27892
G1 X119.050 Y112.017 E8.29047
G1 X118.702 Y112.017 E8.30202
G1 X118.360 Y111.960 E8.31357
G1 X118.031 Y111.847 E8.32512
G1 X117.726 Y111.682 E8.33668
G1 X117.452 Y111.469 E8.34822
G1 X117.217 Y111.213 E8.35977
G1 X117.167 Y111.137 E8.36278
G0 F3000 E7.36278
G0 X117.167 Y111.137 F5400
G0 X117.027 Y110.922
G0 X116.887 Y110.604
G0 X116.802 Y110.268
G0 X116.776 Y109.947
G0 X116.776 Y102.897
G0 X116.802 Y102.576
G0 X116.888 Y102.239
G0 X117.027 Y101.921
G0 X117.217 Y101.631
G0 X117.452 Y101.375
G0 X117.726 Y101.162
G0 X118.031 Y100.996
G0 X118.360 Y100.884
G0 X118.702 Y100.827
G0 X119.050 Y100.827
G0 X119.392 Y100.884
G0 X119.721 Y100.996
G0 X119.809 Y101.045
G0 X123.415 Y87.268
G0 F3000 E8.36278
;segType:HShell
G1 X121.529 Y85.382 E8.45149 F2400
G0 X120.964 Y85.382 F5400
G1 X123.415 Y87.834 E8.56681 F2400
G0 X123.415 Y88.400 F5400
G1 X120.545 Y85.530 E8.70181 F2400
G0 X119.976 Y85.309 F5400
;segType:InnerHair
G1 X120.090 Y85.338 E8.70408 F2400
G1 X120.205 Y85.366 E8.70690
G1 X120.319 Y85.405 E8.71057
G1 X120.433 Y85.444 E8.71504
G0 X119.585 Y85.577 F5400
;segType:Perimeter
G1 X120.068 Y86.214 E8.74165 F1200
G1 X120.217 Y86.377 E8.74900
G1 X120.371 Y86.612 E8.75833
G1 X120.484 Y86.870 E8.76768
G1 X120.553 Y87.142 E8.77702
G1 X120.576 Y87.414 E8.78609
G1 X120.576 Y91.430 E8.91968
G1 X120.553 Y91.702 E8.92875
G1 X120.484 Y91.974 E8.93810
G1 X120.371 Y92.231 E8.94744
G1 X120.217 Y92.467 E8.95678
G1 X120.027 Y92.673 E8.96612
G1 X119.806 Y92.846 E8.97547
G1 X119.558 Y92.980 E8.98481
G1 X119.293 Y93.071 E8.99416
G1 X119.016 Y93.117 E9.00351
G1 X118.734 Y93.117 E9.01285
G1 X118.457 Y93.071 E9.02220
G1 X118.192 Y92.980 E9.03154
G1 X117.945 Y92.846 E9.04088
G1 X117.723 Y92.673 E9.05023
G1 X117.533 Y92.467 E9.05958
G1 X117.379 Y92.231 E9.06892
G1 X117.266 Y91.974 E9.07826
G1 X117.197 Y91.702 E9.08761
G1 X117.175 Y91.430 E9.09668
G1 X117.175 Y87.414 E9.23026
G1 X117.197 Y87.142 E9.23933
G1 X117.266 Y86.870 E9.24868
G1 X117.379 Y86.612 E9.25803
G1 X117.533 Y86.377 E9.26736
G1 X117.723 Y86.170 E9.27672
G1 X117.945 Y85.998 E9.28606
G1 X118.192 Y85.864 E9.29540
G1 X118.457 Y85.773 E9.30474
G1 X118.734 Y85.727 E9.31409
G1 X119.016 Y85.727 E9.32344
G1 X119.293 Y85.773 E9.33278
G1 X119.558 Y85.864 E9.34213
G1 X119.805 Y85.998 E9.35147
G1 X119.980 Y86.133 E9.35882
G0 X120.068 Y86.214 F5400
G0 X120.217 Y86.377
G0 X120.371 Y86.612
G0 X120.484 Y86.870
G0 X120.553 Y87.142
G0 X120.576 Y87.414
G0 X120.576 Y87.677
G0 X120.976 Y87.397
G0 X120.949 Y87.076
G0 X120.935 Y87.021
;segType:Loop
G1 X120.949 Y87.076 E9.36071 F2400
G1 X120.976 Y87.397 E9.37143
G1 X120.976 Y91.447 E9.50613
G1 X120.949 Y91.768 E9.51685
G1 X120.864 Y92.105 E9.52840
G1 X120.724 Y92.422 E9.53995
G1 X120.534 Y92.713 E9.55149
G1 X120.299 Y92.968 E9.56303
G1 X120.025 Y93.182 E9.57459
G1 X119.720 Y93.347 E9.58614
G1 X119.391 Y93.460 E9.59769
G1 X119.049 Y93.517 E9.60924
G1 X118.701 Y93.517 E9.62079
G1 X118.359 Y93.460 E9.63235
G1 X118.030 Y93.347 E9.64389
G1 X117.725 Y93.182 E9.65544
G1 X117.451 Y92.969 E9.66699
G1 X117.216 Y92.713 E9.67854
G1 X117.026 Y92.422 E9.69009
G1 X116.886 Y92.105 E9.70163
G1 X116.801 Y91.768 E9.71319
G1 X116.775 Y91.447 E9.72391
G1 X116.775 Y87.397 E9.85859
G1 X116.801 Y87.076 E9.86931
G1 X116.886 Y86.739 E9.88087
G1 X117.026 Y86.421 E9.89242
G1 X117.216 Y86.131 E9.90396
G1 X117.451 Y85.875 E9.91552
G1 X117.725 Y85.662 E9.92707
G1 X118.030 Y85.497 E9.93861
G1 X118.359 Y85.384 E9.95015
G1 X118.701 Y85.327 E9.96171
G1 X119.049 Y85.327 E9.97326
G1 X119.391 Y85.384 E9.98481
G1 X119.720 Y85.497 E9.99637
G1 X120.025 Y85.662 E10.00790
G1 X120.299 Y85.875 E10.01947
G1 X120.534 Y86.131 E10.03102
G1 X120.724 Y86.421 E10.04255
G1 X120.864 Y86.739 E10.05411
G1 X120.886 Y86.827 E10.05711
G0 X121.251 Y86.800 F5400
;segType:HShell
G1 X123.415 Y88.965 E10.15894 F2400
G0 X123.415 Y89.531 F5400
G1 X121.336 Y87.451 E10.25677 F2400
G0 X121.336 Y88.017 F5400
G1 X123.415 Y90.097 E10.35460 F2400
G0 X123.415 Y90.662 F5400
G1 X121.336 Y88.583 E10.45242 F2400
G0 X121.336 Y89.148 F5400
G1 X123.415 Y91.228 E10.55025 F2400
G0 X123.415 Y91.794 F5400
G1 X121.336 Y89.714 E10.64808 F2400
G0 X121.336 Y90.280 F5400
G1 X123.415 Y92.359 E10.74590 F2400
G0 X123.415 Y92.925 F5400
G1 X121.336 Y90.845 E10.84373 F2400
G0 X121.336 Y91.411 F5400
G1 X123.415 Y93.491 E10.94156 F2400
G0 X123.415 Y94.056 F5400
G1 X121.281 Y91.922 E11.04195 F2400
G0 X121.147 Y92.354 F5400
G1 X123.415 Y94.622 E11.14863 F2400
G0 X123.415 Y95.188 F5400
G1 X120.955 Y92.727 E11.26436 F2400
G0 X120.713 Y93.051 F5400
G1 X123.415 Y95.754 E11.39149 F2400
G0 X123.415 Y96.319 F5400
G1 X120.424 Y93.328 E11.53220 F2400
G0 X120.088 Y93.557 F5400
G1 X123.415 Y96.885 E11.68871 F2400
G0 X123.415 Y97.451 F5400
G1 X119.700 Y93.735 E11.86349 F2400
G0 X119.248 Y93.849 F5400
G1 X123.415 Y98.016 E12.05950 F2400
G0 X123.415 Y98.582 F5400
G1 X118.711 Y93.877 E12.28079 F2400
G0 X117.978 Y93.710 F5400
G1 X123.415 Y99.148 E12.53657 F2400
G0 X123.415 Y99.713 F5400
G1 X114.336 Y90.634 E12.96363 F2400
G0 X114.336 Y91.200 F5400
G1 X123.415 Y100.279 E13.39068 F2400
G0 X123.415 Y100.845 F5400
G1 X114.336 Y91.766 E13.81773 F2400
G0 X114.336 Y92.331 F5400
G1 X123.415 Y101.410 E14.24478 F2400
G0 X123.415 Y101.976 F5400
G1 X114.336 Y92.897 E14.67184 F2400
G0 X114.336 Y93.463 F5400
G1 X123.415 Y102.542 E15.09889 F2400
G0 X123.415 Y103.107 F5400
G1 X114.336 Y94.028 E15.52594 F2400
G0 X114.336 Y94.594 F5400
G1 X123.415 Y103.673 E15.95300 F2400
G0 X123.415 Y104.239 F5400
G1 X121.134 Y101.958 E16.06029 F2400
G0 X121.322 Y102.711 F5400
G1 X123.415 Y104.805 E16.15875 F2400
G0 X123.415 Y105.370 F5400
G1 X121.336 Y103.291 E16.25654 F2400
G0 X121.336 Y103.857 F5400
G1 X123.415 Y105.936 E16.35433 F2400
G0 X123.415 Y106.502 F5400
G1 X121.336 Y104.423 E16.45212 F2400
G0 X121.336 Y104.988 F5400
G1 X123.415 Y107.067 E16.54991 F2400
G0 X123.415 Y107.633 F5400
G1 X121.336 Y105.554 E16.64770 F2400
G0 X121.336 Y106.120 F5400
G1 X123.415 Y108.199 E16.74550 F2400
G0 X123.415 Y108.764 F5400
G1 X121.336 Y106.685 E16.84329 F2400
G0 X121.336 Y107.251 F5400
G1 X123.415 Y109.330 E16.94108 F2400
G0 X123.415 Y109.896 F5400
G1 X121.336 Y107.817 E17.03887 F2400
G0 X121.336 Y108.382 F5400
G1 X123.415 Y110.461 E17.13666 F2400
G0 F3000 E16.13666
G0 X123.776 Y110.382 F5400
G0 X120.626 Y111.075
G0 X120.725 Y110.922
G0 X121.097 Y110.971
G0 F3000 E17.13666
G1 X123.415 Y113.290 E17.24572 F2400
G0 X125.415 Y113.593 F5400
G1 X125.205 Y113.382 E17.25561 F2400
G0 X124.639 Y113.382 F5400
G1 X125.415 Y114.158 E17.29212 F2400
G0 X125.153 Y114.461 F5400
G1 X124.074 Y113.382 E17.34287 F2400
G0 X123.508 Y113.382 F5400
G1 X124.587 Y114.461 E17.39361 F2400
G0 X124.021 Y114.461 F5400
G1 X120.889 Y111.329 E17.54092 F2400
G0 X120.633 Y111.639 F5400
G1 X123.455 Y114.461 E17.67368 F2400
G0 X122.890 Y114.461 F5400
G1 X120.330 Y111.902 E17.79409 F2400
G0 F3000 E16.79409
G0 X112.336 Y114.090 F5400
G0 F3000 E17.79409
G1 X112.707 Y114.461 E17.81154 F2400
G0 X113.273 Y114.461 F5400
G1 X112.336 Y113.525 E17.85560 F2400
G0 X112.760 Y113.382 F5400
G1 X113.839 Y114.461 E17.90634 F2400
G0 X114.405 Y114.461 F5400
G1 X113.326 Y113.382 E17.95709 F2400
G0 X113.891 Y113.382 F5400
G1 X114.970 Y114.461 E18.00784 F2400
G0 X115.536 Y114.461 F5400
G1 X114.336 Y113.262 E18.06426 F2400
G0 X114.336 Y112.696 F5400
G1 X116.102 Y114.461 E18.14729 F2400
G0 X116.667 Y114.461 F5400
G1 X114.336 Y112.130 E18.25693 F2400
G0 X114.336 Y111.565 F5400
G1 X117.233 Y114.461 E18.39318 F2400
G0 X117.799 Y114.461 F5400
G1 X114.336 Y110.999 E18.55603 F2400
G0 X114.336 Y110.433 F5400
G1 X118.364 Y114.461 E18.74550 F2400
G0 X118.930 Y114.461 F5400
G1 X114.336 Y109.868 E18.96157 F2400
G0 X114.336 Y109.302 F5400
G1 X119.496 Y114.461 E19.20425 F2400
G0 X120.061 Y114.461 F5400
G1 X117.651 Y112.051 E19.31762 F2400
G0 X114.336 Y108.736 F5400
G1 X116.737 Y111.136 E19.43051 F2400
G0 X116.442 Y110.276 F5400
G1 X114.336 Y108.171 E19.52953 F2400
G0 X114.336 Y107.605 F5400
G1 X116.415 Y109.684 E19.62733 F2400
G0 X116.415 Y109.118 F5400
G1 X114.336 Y107.039 E19.72512 F2400
G0 X114.336 Y106.473 F5400
G1 X116.415 Y108.552 E19.82291 F2400
G0 X116.415 Y107.987 F5400
G1 X114.336 Y105.908 E19.92070 F2400
G0 X114.336 Y105.342 F5400
G1 X116.415 Y107.421 E20.01849 F2400
G0 X116.415 Y106.855 F5400
G1 X114.336 Y104.776 E20.11628 F2400
G0 X114.336 Y104.211 F5400
G1 X116.415 Y106.290 E20.21408 F2400
G0 X116.415 Y105.724 F5400
G1 X114.336 Y103.645 E20.31187 F2400
G0 X114.336 Y103.079 F5400
G1 X116.415 Y105.158 E20.40966 F2400
G0 X116.415 Y104.593 F5400
G1 X114.336 Y102.514 E20.50745 F2400
G0 X114.336 Y101.948 F5400
G1 X116.415 Y104.027 E20.60524 F2400
G0 X116.415 Y103.461 F5400
G1 X114.336 Y101.382 E20.70303 F2400
G0 X114.336 Y100.817 F5400
G1 X116.415 Y102.896 E20.80083 F2400
G0 X116.477 Y102.392 F5400
G1 X114.336 Y100.251 E20.90153 F2400
G0 X114.336 Y99.685 F5400
G1 X116.615 Y101.964 E21.00871 F2400
G0 X116.811 Y101.594 F5400
G1 X114.336 Y99.120 E21.12509 F2400
G0 X114.336 Y98.554 F5400
G1 X117.056 Y101.273 E21.25302 F2400
G0 X117.348 Y101.000 F5400
G1 X114.336 Y97.988 E21.39467 F2400
G0 X114.336 Y97.422 F5400
G1 X117.687 Y100.773 E21.55228 F2400
G0 X118.079 Y100.599 F5400
G1 X114.336 Y96.857 E21.72833 F2400
G0 X114.336 Y96.291 F5400
G1 X118.535 Y100.490 E21.92581 F2400
G0 X119.077 Y100.467 F5400
G1 X114.336 Y95.725 E22.14881 F2400
G0 X114.336 Y95.160 F5400
G1 X119.830 Y100.653 E22.40721 F2400
G0 F3000 E21.40721
G0 X123.415 Y86.703 F5400
G0 F3000 E22.40721
G1 X122.095 Y85.382 E22.46932 F2400
G0 X122.661 Y85.382 F5400
G1 X123.415 Y86.137 E22.50481 F2400
G0 X123.415 Y85.571 F5400
G1 X123.226 Y85.382 E22.51370 F2400
G0 F3000 E21.51370
G0 X117.690 Y85.330 F5400
G0 F3000 E22.51370
;segType:InnerHair
G1 X117.576 Y85.355 E22.51629 F2400
G1 X117.462 Y85.395 E22.51976
G1 X117.347 Y85.434 E22.52402
G1 X117.233 Y85.462 E22.52871
G0 X117.004 Y85.382 F5400
;segType:HShell
G0 X117.322 Y85.417
G1 X116.693 Y85.637 E22.56684 F2400
G0 X115.873 Y85.382 F5400
G1 X116.721 Y86.230 E22.60673 F2400
G0 X116.545 Y86.621 F5400
G1 X115.307 Y85.382 E22.66497 F2400
G0 X114.741 Y85.382 F5400
G1 X116.439 Y87.080 E22.74485 F2400
G0 X116.415 Y87.621 F5400
G1 X114.336 Y85.543 E22.84260 F2400
G0 X114.336 Y86.109 F5400
G1 X116.415 Y88.187 E22.94036 F2400
G0 X116.415 Y88.753 F5400
G1 X114.336 Y86.674 E23.03811 F2400
G0 X114.336 Y87.240 F5400
G1 X116.415 Y89.318 E23.13587 F2400
G0 X116.415 Y89.884 F5400
G1 X114.336 Y87.806 E23.23362 F2400
G0 X114.336 Y88.372 F5400
G1 X116.415 Y90.450 E23.33138 F2400
G0 X116.415 Y91.015 F5400
G1 X114.336 Y88.937 E23.42913 F2400
G0 X114.336 Y89.503 F5400
G1 X116.425 Y91.592 E23.52739 F2400
G0 X116.588 Y92.320 F5400
G1 X114.336 Y90.069 E23.63328 F2400
G0 F3000 E22.63328
G0 X113.976 Y113.022 F5400
G0 X112.423 Y113.022
G0 X112.255 Y113.049
G0 X112.145 Y113.105
G0 X112.059 Y113.191
G0 X112.003 Y113.301
G0 X100.153 Y112.203
G0 X100.176 Y111.914
G0 X99.416 Y111.352
G0 F3000 E23.63328
G1 X76.337 Y88.273 E24.71885 F2400
G0 X75.723 Y88.172 F5400
;segType:Perimeter
G1 X75.613 Y87.582 E24.73880 F1200
G1 X75.665 Y87.366 E24.74620
G1 X75.773 Y87.105 E24.75558
G1 X75.921 Y86.865 E24.76497
G1 X76.104 Y86.650 E24.77436
G1 X76.319 Y86.466 E24.78375
G1 X76.559 Y86.319 E24.79314
G1 X76.820 Y86.211 E24.80253
G1 X77.095 Y86.145 E24.81192
G1 X77.384 Y86.122 E24.82157
G1 X98.368 Y86.122 E25.51951
G1 X98.657 Y86.145 E25.52916
G1 X98.932 Y86.211 E25.53855
G1 X99.193 Y86.319 E25.54794
G1 X99.433 Y86.466 E25.55733
G1 X99.648 Y86.650 E25.56672
G1 X99.831 Y86.864 E25.57610
G1 X99.979 Y87.105 E25.58549
G1 X100.087 Y87.366 E25.59488
G1 X100.153 Y87.640 E25.60427
G1 X100.176 Y87.930 E25.61393
G1 X100.176 Y111.914 E26.41164
G1 X100.153 Y112.203 E26.42130
G1 X100.087 Y112.478 E26.43069
G1 X99.979 Y112.739 E26.44007
G1 X99.831 Y112.979 E26.44946
G1 X99.648 Y113.194 E26.45885
G1 X99.433 Y113.377 E26.46824
G1 X99.193 Y113.525 E26.47763
G1 X98.932 Y113.633 E26.48702
G1 X98.657 Y113.699 E26.49640
G1 X98.368 Y113.721 E26.50606
G1 X77.384 Y113.721 E27.20400
G1 X77.095 Y113.699 E27.21365
G1 X76.820 Y113.633 E27.22304
G1 X76.559 Y113.525 E27.23243
G1 X76.319 Y113.377 E27.24181
G1 X76.104 Y113.194 E27.25120
G1 X75.921 Y112.979 E27.26059
G1 X75.773 Y112.739 E27.26998
G1 X75.665 Y112.478 E27.27937
G1 X75.599 Y112.203 E27.28875
G1 X75.576 Y111.914 E27.29841
G1 X75.576 Y87.930 E28.09613
G1 X75.594 Y87.700 E28.10379
G0 X75.613 Y87.582 F5400
G0 X75.665 Y87.366
G0 X75.773 Y87.105
G0 X75.921 Y86.865
G0 X76.104 Y86.650
G0 X76.319 Y86.466
G0 X76.531 Y86.337
G0 F3000 E27.10379
G0 X76.741 Y86.676 F5400
G0 X76.577 Y86.777
G0 X77.273 Y93.321
G0 X79.976 Y93.321
G0 X79.976 Y106.522
G0 X78.676 Y106.522
G0 X78.676 Y106.522
G0 F3000 E28.10379
;segType:Loop
G1 X79.976 Y106.522 E28.14703 F2400
G1 X79.976 Y93.321 E28.58609
G1 X76.090 Y93.321 E28.71534
G1 X75.976 Y93.321 E28.71912
G1 X75.976 Y87.945 E28.89793
G1 X75.995 Y87.703 E28.90601
G1 X76.047 Y87.490 E28.91330
G1 X76.130 Y87.287 E28.92060
G1 X76.245 Y87.100 E28.92789
G1 X76.388 Y86.934 E28.93519
G1 X76.554 Y86.791 E28.94249
G1 X76.741 Y86.676 E28.94978
G1 X76.944 Y86.593 E28.95708
G1 X77.157 Y86.541 E28.96437
G1 X77.399 Y86.522 E28.97245
G1 X98.352 Y86.522 E29.66935
G1 X98.595 Y86.541 E29.67743
G1 X98.808 Y86.593 E29.68472
G1 X99.010 Y86.676 E29.69201
G1 X99.197 Y86.791 E29.69931
G1 X99.364 Y86.934 E29.70661
G1 X99.507 Y87.100 E29.71390
G1 X99.621 Y87.287 E29.72120
G1 X99.757 Y87.703 E29.73574
G1 X99.776 Y87.946 E29.74383
G1 X99.776 Y93.436 E29.92643
G1 X99.747 Y93.321 E29.93034
G1 X95.776 Y93.321 E30.06244
G1 X95.776 Y106.522 E30.50150
G1 X99.747 Y106.522 E30.63361
G1 X99.776 Y106.350 E30.63941
G1 X99.776 Y111.898 E30.82395
G1 X99.757 Y112.141 E30.83203
G1 X99.705 Y112.354 E30.83933
G1 X99.621 Y112.556 E30.84662
G1 X99.507 Y112.743 E30.85392
G1 X99.364 Y112.910 E30.86121
G1 X99.197 Y113.053 E30.86851
G1 X99.010 Y113.167 E30.87581
G1 X98.808 Y113.251 E30.88310
G1 X98.595 Y113.302 E30.89039
G1 X98.352 Y113.321 E30.89847
G1 X77.399 Y113.321 E31.59538
G1 X77.157 Y113.302 E31.60345
G1 X76.944 Y113.251 E31.61074
G1 X76.741 Y113.167 E31.61804
G1 X76.554 Y113.053 E31.62534
G1 X76.388 Y112.910 E31.63263
G1 X76.245 Y112.743 E31.63993
G1 X76.130 Y112.556 E31.64723
G1 X76.047 Y112.354 E31.65452
G1 X75.995 Y112.141 E31.66181
G1 X75.976 Y111.898 E31.66989
G1 X75.976 Y106.578 E31.84683
G1 X76.090 Y106.522 E31.85106
G1 X78.476 Y106.522 E31.93042
G0 X80.336 Y106.415 F5400
;segType:HShell
G1 X86.883 Y112.961 E32.23835 F2400
G0 X86.317 Y112.961 F5400
G1 X80.238 Y106.882 E32.52428 F2400
G0 X80.316 Y106.122 F5400
;segType:Perimeter
G1 X79.516 Y106.122 E32.55089 F1200
G1 X76.175 Y106.122 E32.66200
G1 X76.175 Y93.721 E33.07445
G1 X79.576 Y93.721 E33.18756
G1 X79.576 Y106.062 E33.59802
G0 X79.516 Y106.122 F5400
G0 X77.916 Y106.122
G0 F3000 E32.59802
G0 X76.090 Y106.522 F5400
G0 X79.976 Y106.522
G0 X79.976 Y106.461
G0 X99.776 Y109.714
G0 X99.416 Y109.655
G0 F3000 E33.59802
;segType:HShell
G1 X96.643 Y106.882 E33.72841 F2400
G0 X97.209 Y106.882 F5400
G1 X99.416 Y109.089 E33.83220 F2400
G0 X99.416 Y108.523 F5400
G1 X97.775 Y106.882 E33.90938 F2400
G0 X98.340 Y106.882 F5400
G1 X99.416 Y107.957 E33.95994 F2400
G0 X99.416 Y107.392 F5400
G1 X98.906 Y106.882 E33.98390 F2400
G0 X99.516 Y106.122 F5400
;segType:Perimeter
G1 X96.176 Y106.122 E34.09502 F1200
G1 X96.176 Y93.721 E34.50747
G1 X99.576 Y93.721 E34.62058
G1 X99.576 Y106.062 E35.03103
G0 X99.516 Y106.122 F5400
G0 X97.916 Y106.122
G0 F3000 E34.03103
G0 X99.416 Y110.786 F5400
G0 F3000 E35.03103
;segType:HShell
G1 X95.512 Y106.882 E35.21464 F2400
G0 X96.078 Y106.882 F5400
G1 X99.416 Y110.220 E35.37164 F2400
G0 F3000 E34.37164
G0 X99.309 Y106.122 F5400
G0 X96.176 Y106.122
G0 X96.176 Y93.721
G0 X98.988 Y93.721
G0 X98.814 Y86.991
G0 F3000 E35.37164
G1 X99.307 Y87.484 E35.39481 F2400
G0 X99.416 Y88.158 F5400
G1 X98.140 Y86.883 E35.45483 F2400
G0 X97.574 Y86.883 F5400
G1 X99.416 Y88.724 E35.54146 F2400
G0 X99.416 Y89.290 F5400
G1 X97.008 Y86.883 E35.65469 F2400
G0 X96.442 Y86.883 F5400
G1 X99.416 Y89.856 E35.79453 F2400
G0 X99.416 Y90.421 F5400
G1 X95.877 Y86.883 E35.96098 F2400
G0 X95.311 Y86.883 F5400
G1 X99.416 Y90.987 E36.15404 F2400
G0 X99.416 Y91.553 F5400
G1 X94.745 Y86.883 E36.37371 F2400
G0 X94.180 Y86.883 F5400
G1 X99.416 Y92.118 E36.61998 F2400
G0 X99.416 Y92.684 F5400
G1 X93.614 Y86.883 E36.89286 F2400
G0 X93.048 Y86.883 F5400
G1 X99.127 Y92.961 E37.17879 F2400
G0 X98.562 Y92.961 F5400
G1 X92.483 Y86.883 E37.46472 F2400
G0 X91.917 Y86.883 F5400
G1 X97.996 Y92.961 E37.75065 F2400
G0 X97.430 Y92.961 F5400
G1 X91.351 Y86.883 E38.03658 F2400
G0 X90.786 Y86.883 F5400
G1 X96.864 Y92.961 E38.32251 F2400
G0 X96.299 Y92.961 F5400
G1 X90.220 Y86.883 E38.60845 F2400
G0 X89.654 Y86.883 F5400
G1 X95.733 Y92.961 E38.89438 F2400
G0 X95.415 Y93.209 F5400
G1 X89.089 Y86.883 E39.19197 F2400
G0 X88.523 Y86.883 F5400
G1 X95.415 Y93.775 E39.51618 F2400
G0 X95.415 Y94.341 F5400
G1 X87.957 Y86.883 E39.86699 F2400
G0 X87.392 Y86.883 F5400
G1 X95.415 Y94.906 E40.24441 F2400
G0 X95.415 Y95.472 F5400
G1 X86.826 Y86.883 E40.64844 F2400
G0 X86.260 Y86.883 F5400
G1 X95.415 Y96.038 E41.07908 F2400
G0 X95.415 Y96.603 F5400
G1 X85.694 Y86.883 E41.53632 F2400
G0 X85.129 Y86.883 F5400
G1 X95.415 Y97.169 E42.02017 F2400
G0 X95.415 Y97.735 F5400
G1 X84.563 Y86.883 E42.53063 F2400
G0 X83.997 Y86.883 F5400
G1 X95.415 Y98.301 E43.06771 F2400
G0 X95.415 Y98.866 F5400
G1 X83.432 Y86.883 E43.63138 F2400
G0 X82.866 Y86.883 F5400
G1 X95.415 Y99.432 E44.22167 F2400
G0 X95.415 Y99.998 F5400
G1 X82.300 Y86.883 E44.83856 F2400
G0 X81.735 Y86.883 F5400
G1 X95.415 Y100.563 E45.48207 F2400
G0 X95.415 Y101.129 F5400
G1 X81.169 Y86.883 E46.15217 F2400
G0 X80.603 Y86.883 F5400
G1 X95.415 Y101.695 E46.84889 F2400
G0 X95.415 Y102.260 F5400
G1 X80.038 Y86.883 E47.57222 F2400
G0 X79.472 Y86.883 F5400
G1 X95.415 Y102.826 E48.32215 F2400
G0 X95.415 Y103.392 F5400
G1 X78.906 Y86.883 E49.09870 F2400
G0 X78.341 Y86.883 F5400
G1 X95.415 Y103.957 E49.90185 F2400
G0 X95.415 Y104.523 F5400
G1 X77.775 Y86.883 E50.73160 F2400
G0 X77.225 Y86.898 F5400
G1 X95.415 Y105.089 E51.58724 F2400
G0 X95.415 Y105.654 F5400
G1 X76.823 Y87.062 E52.46176 F2400
G0 X76.537 Y87.341 F5400
G1 X95.415 Y106.220 E53.34977 F2400
G0 X95.415 Y106.786 F5400
G1 X76.364 Y87.734 E54.24590 F2400
G0 X79.894 Y92.961 F5400
G1 X76.337 Y89.404 E54.41323 F2400
G0 X76.337 Y89.970 F5400
G1 X79.328 Y92.961 E54.55395 F2400
G0 X78.762 Y92.961 F5400
G1 X76.337 Y90.535 E54.66806 F2400
G0 X76.337 Y91.101 F5400
G1 X78.197 Y92.961 E54.75555 F2400
G0 X77.631 Y92.961 F5400
G1 X76.337 Y91.667 E54.81644 F2400
G0 X76.337 Y92.232 F5400
G1 X77.065 Y92.961 E54.85073 F2400
G0 X76.500 Y92.961 F5400
G1 X76.337 Y92.798 E54.85840 F2400
G0 X76.337 Y88.838 F5400
G1 X99.413 Y111.915 E55.94385 F2400
G0 X99.303 Y112.371 F5400
G1 X80.336 Y93.404 E56.83598 F2400
G0 X80.336 Y93.970 F5400
G1 X99.056 Y112.689 E57.71649 F2400
G0 X98.693 Y112.892 F5400
G1 X80.336 Y94.535 E58.57993 F2400
G0 X80.336 Y95.101 F5400
G1 X98.197 Y112.961 E59.42003 F2400
G0 X97.631 Y112.961 F5400
G1 X80.336 Y95.667 E60.23352 F2400
G0 X80.336 Y96.232 F5400
G1 X97.065 Y112.961 E61.02040 F2400
G0 X96.500 Y112.961 F5400
G1 X80.336 Y96.798 E61.78067 F2400
G0 X80.336 Y97.364 F5400
G1 X95.934 Y112.961 E62.51433 F2400
G0 X95.368 Y112.961 F5400
G1 X80.336 Y97.929 E63.22138 F2400
G0 X80.336 Y98.495 F5400
G1 X94.803 Y112.961 E63.90183 F2400
G0 X94.237 Y112.961 F5400
G1 X80.336 Y99.061 E64.55567 F2400
G0 X80.336 Y99.626 F5400
G1 X93.671 Y112.961 E65.18289 F2400
G0 X93.106 Y112.961 F5400
G1 X80.336 Y100.192 E65.78352 F2400
G0 X80.336 Y100.758 F5400
G1 X92.540 Y112.961 E66.35753 F2400
G0 X91.974 Y112.961 F5400
G1 X80.336 Y101.323 E66.90494 F2400
G0 X80.336 Y101.889 F5400
G1 X91.408 Y112.961 E67.42574 F2400
G0 X90.843 Y112.961 F5400
G1 X80.336 Y102.455 E67.91992 F2400
G0 X80.336 Y103.020 F5400
G1 X90.277 Y112.961 E68.38751 F2400
G0 X89.711 Y112.961 F5400
G1 X80.336 Y103.586 E68.82848 F2400
G0 X80.336 Y104.152 F5400
G1 X89.146 Y112.961 E69.24285 F2400
G0 X88.580 Y112.961 F5400
G1 X80.336 Y104.718 E69.63060 F2400
G0 X80.336 Y105.283 F5400
G1 X88.014 Y112.961 E69.99176 F2400
G0 X87.449 Y112.961 F5400
G1 X80.336 Y105.849 E70.32630 F2400
G0 X79.673 Y106.882 F5400
G1 X85.752 Y112.961 E70.61222 F2400
G0 X85.186 Y112.961 F5400
G1 X79.107 Y106.882 E70.89815 F2400
G0 X78.541 Y106.882 F5400
G1 X84.620 Y112.961 E71.18408 F2400
G0 X84.055 Y112.961 F5400
G1 X77.976 Y106.882 E71.47000 F2400
G0 X77.410 Y106.882 F5400
G1 X83.489 Y112.961 E71.75593 F2400
G0 X82.923 Y112.961 F5400
G1 X76.844 Y106.882 E72.04186 F2400
G0 X76.337 Y106.940 F5400
G1 X82.358 Y112.961 E72.32506 F2400
G0 X81.792 Y112.961 F5400
G1 X76.337 Y107.506 E72.58166 F2400
G0 X76.337 Y108.072 F5400
G1 X81.226 Y112.961 E72.81165 F2400
G0 X80.660 Y112.961 F5400
G1 X76.337 Y108.637 E73.01503 F2400
G0 X76.337 Y109.203 F5400
G1 X80.095 Y112.961 E73.19181 F2400
G0 X79.529 Y112.961 F5400
G1 X76.337 Y109.769 E73.34197 F2400
G0 X76.337 Y110.334 F5400
G1 X78.963 Y112.961 E73.46553 F2400
G0 X78.398 Y112.961 F5400
G1 X76.337 Y110.900 E73.56248 F2400
G0 X76.337 Y111.466 F5400
G1 X77.832 Y112.961 E73.63282 F2400
G0 X77.254 Y112.949 F5400
G1 X76.349 Y112.044 E73.67539 F2400
G0 F3000 E72.67539
G0 X75.578 Y111.936 F5400
G0 X88.308 Y113.721
G0 X98.368 Y113.721
G0 X98.657 Y113.699
G0 X98.932 Y113.633
G0 X99.193 Y113.525
G0 X99.433 Y113.377
G0 X99.648 Y113.194
G0 X99.831 Y112.979
G0 X99.979 Y112.739
G0 X100.087 Y112.478
G0 X100.153 Y112.203
G0 X141.976 Y120.397
G0 X147.705 Y121.520
G0 X147.925 Y121.792
G0 X148.269 Y122.095
G0 X148.659 Y122.335
G0 X149.085 Y122.506
G0 X149.533 Y122.603
G0 X149.991 Y122.622
G0 X150.445 Y122.564
G0 X150.884 Y122.430
G0 X151.293 Y122.223
G0 X151.294 Y122.223
G0 X157.657 Y123.469
G0 X157.621 Y123.557
G0 X157.280 Y123.395
G0 F3000 E73.67539
G1 X152.748 Y118.864 E73.88854 F2400
G0 X152.912 Y119.593 F5400
G1 X157.030 Y123.711 E74.08224 F2400
G0 X157.705 Y123.354 F5400
G0 X157.962 Y123.450
;segType:Perimeter
G1 X157.792 Y124.025 E74.10220 F1200
G1 X157.648 Y124.194 E74.10959
G1 X157.434 Y124.377 E74.11898
G1 X157.193 Y124.525 E74.12837
G1 X156.932 Y124.633 E74.13777
G1 X156.657 Y124.699 E74.14716
G1 X156.368 Y124.721 E74.15680
G1 X143.384 Y124.721 E74.58866
G1 X143.095 Y124.699 E74.59831
G1 X142.820 Y124.633 E74.60771
G1 X142.559 Y124.525 E74.61710
G1 X142.319 Y124.377 E74.62647
G1 X142.104 Y124.194 E74.63586
G1 X141.921 Y123.979 E74.64525
G1 X141.773 Y123.738 E74.65464
G1 X141.665 Y123.478 E74.66403
G1 X141.599 Y123.203 E74.67342
G1 X141.576 Y122.914 E74.68307
G1 X141.576 Y76.930 E76.21252
G1 X141.599 Y76.640 E76.22217
G1 X141.665 Y76.366 E76.23156
G1 X141.773 Y76.105 E76.24095
G1 X141.921 Y75.864 E76.25035
G1 X142.104 Y75.650 E76.25973
G1 X142.319 Y75.466 E76.26911
G1 X142.559 Y75.319 E76.27850
G1 X142.820 Y75.211 E76.28788
G1 X143.095 Y75.145 E76.29727
G1 X143.384 Y75.122 E76.30693
G1 X156.368 Y75.122 E76.73879
G1 X156.657 Y75.145 E76.74844
G1 X156.932 Y75.211 E76.75783
G1 X157.193 Y75.319 E76.76722
G1 X157.433 Y75.466 E76.77661
G1 X157.648 Y75.650 E76.78600
G1 X157.831 Y75.864 E76.79538
G1 X157.979 Y76.105 E76.80477
G1 X158.087 Y76.366 E76.81416
G1 X158.153 Y76.641 E76.82355
G1 X158.176 Y76.930 E76.83319
G1 X158.176 Y122.914 E78.36264
G1 X158.153 Y123.203 E78.37229
G1 X158.087 Y123.478 E78.38168
G1 X157.979 Y123.739 E78.39107
G1 X157.863 Y123.928 E78.39846
G0 X157.792 Y124.025 F5400
G0 X157.648 Y124.194
G0 X157.434 Y124.377
G0 X157.193 Y124.525
G0 X156.932 Y124.633
G0 X156.657 Y124.699
G0 X156.410 Y124.718
G0 X156.352 Y124.321
G0 X156.594 Y124.302
G0 X156.808 Y124.251
G0 X156.918 Y124.205
;segType:Loop
G1 X156.808 Y124.251 E78.40244 F2400
G1 X156.594 Y124.302 E78.40974
G1 X156.352 Y124.321 E78.41782
G1 X143.400 Y124.321 E78.84863
G1 X143.157 Y124.302 E78.85671
G1 X142.944 Y124.251 E78.86401
G1 X142.741 Y124.167 E78.87131
G1 X142.554 Y124.053 E78.87860
G1 X142.388 Y123.910 E78.88589
G1 X142.245 Y123.744 E78.89318
G1 X142.131 Y123.556 E78.90048
G1 X142.047 Y123.354 E78.90778
G1 X141.995 Y123.140 E78.91508
G1 X141.976 Y122.898 E78.92316
G1 X141.976 Y76.946 E80.45156
G1 X141.995 Y76.703 E80.45964
G1 X142.047 Y76.490 E80.46694
G1 X142.131 Y76.287 E80.47422
G1 X142.245 Y76.100 E80.48153
G1 X142.388 Y75.933 E80.48883
G1 X142.554 Y75.791 E80.49611
G1 X142.741 Y75.677 E80.50341
G1 X142.944 Y75.593 E80.51070
G1 X143.157 Y75.541 E80.51799
G1 X143.400 Y75.522 E80.52608
G1 X156.352 Y75.522 E80.95688
G1 X156.594 Y75.541 E80.96496
G1 X156.808 Y75.593 E80.97225
G1 X157.011 Y75.677 E80.97956
G1 X157.198 Y75.791 E80.98686
G1 X157.364 Y75.933 E80.99415
G1 X157.507 Y76.100 E81.00144
G1 X157.621 Y76.287 E81.00873
G1 X157.756 Y76.703 E81.02329
G1 X157.776 Y76.945 E81.03136
G1 X157.776 Y122.899 E82.55977
G1 X157.756 Y123.140 E82.56784
G1 X157.705 Y123.354 E82.57514
G1 X157.621 Y123.557 E82.58244
G1 X157.507 Y123.744 E82.58974
G1 X157.364 Y123.910 E82.59703
G1 X157.198 Y124.053 E82.60431
G0 F3000 E81.60431
G0 X157.198 Y124.053 F5400
G0 X152.398 Y120.880
G0 X152.424 Y120.822
G0 X152.540 Y120.379
G0 X152.578 Y119.922
G0 X152.540 Y119.465
G0 X152.424 Y119.021
G0 X152.235 Y118.604
G0 X151.979 Y118.224
G0 X151.662 Y117.893
G0 X151.293 Y117.621
G0 X150.884 Y117.414
G0 X150.445 Y117.280
G0 X149.991 Y117.222
G0 X149.533 Y117.241
G0 X149.085 Y117.338
G0 X148.659 Y117.508
G0 X148.269 Y117.749
G0 X148.008 Y117.978
G0 X147.697 Y117.772
G0 F3000 E82.60431
;segType:HShell
G1 X142.336 Y112.412 E82.85646 F2400
G0 X142.336 Y111.846 F5400
G1 X147.998 Y117.508 E83.12277 F2400
G0 X148.129 Y118.074 F5400
;segType:Perimeter
G1 X148.896 Y117.845 E83.14939 F1200
G1 X149.202 Y117.722 E83.16037
G1 X149.584 Y117.639 E83.17335
G1 X149.974 Y117.623 E83.18634
G1 X150.361 Y117.672 E83.19931
G1 X150.734 Y117.787 E83.21229
G1 X151.083 Y117.962 E83.22528
G1 X151.396 Y118.195 E83.23825
G1 X151.666 Y118.476 E83.25123
G1 X151.885 Y118.800 E83.26421
G1 X152.046 Y119.155 E83.27719
G1 X152.144 Y119.533 E83.29017
G1 X152.177 Y119.922 E83.30316
G1 X152.144 Y120.311 E83.31613
G1 X152.046 Y120.689 E83.32912
G1 X151.885 Y121.044 E83.34210
G1 X151.666 Y121.367 E83.35507
G1 X151.396 Y121.649 E83.36806
G1 X151.083 Y121.881 E83.38104
G1 X150.734 Y122.057 E83.39402
G1 X150.361 Y122.171 E83.40700
G1 X149.974 Y122.221 E83.41998
G1 X149.584 Y122.204 E83.43296
G1 X149.202 Y122.122 E83.44594
G1 X148.840 Y121.977 E83.45893
G1 X148.508 Y121.772 E83.47190
G1 X148.215 Y121.514 E83.48489
G1 X147.969 Y121.210 E83.49787
G1 X147.779 Y120.870 E83.51085
G1 X147.649 Y120.502 E83.52384
G1 X147.583 Y120.117 E83.53681
G1 X147.583 Y119.727 E83.54981
G1 X147.649 Y119.342 E83.56278
G1 X147.779 Y118.974 E83.57576
G1 X147.969 Y118.633 E83.58874
G1 X148.215 Y118.330 E83.60173
G1 X148.508 Y118.072 E83.61470
G1 X148.789 Y117.898 E83.62569
G0 X148.896 Y117.845 F5400
G0 X149.202 Y117.722
G0 X149.584 Y117.639
G0 X149.974 Y117.623
G0 X150.361 Y117.672
G0 X150.455 Y117.701
G0 X150.445 Y117.280
G0 X149.991 Y117.222
G0 X149.886 Y117.226
;segType:Loop
G1 X149.991 Y117.222 E83.62918 F2400
G1 X150.445 Y117.280 E83.64442
G1 X150.884 Y117.414 E83.65966
G1 X151.293 Y117.621 E83.67491
G1 X151.662 Y117.893 E83.69016
G1 X151.979 Y118.224 E83.70539
G1 X152.235 Y118.604 E83.72064
G1 X152.424 Y119.021 E83.73588
G1 X152.540 Y119.465 E83.75113
G1 X152.578 Y119.922 E83.76638
G1 X152.540 Y120.379 E83.78163
G1 X152.424 Y120.822 E83.79688
G1 X152.235 Y121.240 E83.81212
G1 X151.979 Y121.619 E83.82736
G1 X151.662 Y121.951 E83.84261
G1 X151.293 Y122.223 E83.85785
G1 X150.884 Y122.430 E83.87310
G1 X150.445 Y122.564 E83.88834
G1 X149.991 Y122.622 E83.90359
G1 X149.533 Y122.603 E83.91884
G1 X149.085 Y122.506 E83.93407
G1 X148.659 Y122.335 E83.94933
G1 X148.269 Y122.095 E83.96458
G1 X147.925 Y121.792 E83.97981
G1 X147.637 Y121.435 E83.99506
G1 X147.413 Y121.035 E84.01031
G1 X147.261 Y120.603 E84.02555
G1 X147.183 Y120.151 E84.04079
G1 X147.183 Y119.692 E84.05605
G1 X147.261 Y119.241 E84.07129
G1 X147.413 Y118.809 E84.08652
G1 X147.637 Y118.408 E84.10178
G1 X147.925 Y118.052 E84.11703
G1 X148.269 Y117.749 E84.13226
G1 X148.659 Y117.508 E84.14751
G1 X149.085 Y117.338 E84.16277
G1 X149.533 Y117.241 E84.17800
G1 X149.686 Y117.235 E84.18311
G0 F3000 E83.18312
G0 X149.772 Y82.613 F5400
G0 X149.533 Y82.603
G0 X149.085 Y82.506
G0 X148.659 Y82.335
G0 X148.269 Y82.095
G0 X147.925 Y81.792
G0 X147.637 Y81.435
G0 X147.413 Y81.035
G0 X147.261 Y80.603
G0 X147.183 Y80.151
G0 X147.183 Y79.692
G0 X147.261 Y79.241
G0 X147.413 Y78.809
G0 X147.637 Y78.408
G0 X147.925 Y78.052
G0 X148.269 Y77.749
G0 X148.659 Y77.509
G0 X149.085 Y77.338
G0 X149.533 Y77.241
G0 X149.786 Y77.230
G0 X149.787 Y76.870
G0 F3000 E84.18311
;segType:HShell
G1 X148.799 Y75.882 E84.22957 F2400
G0 X148.233 Y75.882 F5400
G1 X149.279 Y76.928 E84.27873 F2400
G0 X148.835 Y77.050 F5400
G1 X147.668 Y75.882 E84.33365 F2400
G0 X147.102 Y75.882 F5400
G1 X148.440 Y77.220 E84.39659 F2400
G0 X148.090 Y77.436 F5400
G1 X146.536 Y75.882 E84.46968 F2400
G0 X145.971 Y75.882 F5400
G1 X147.784 Y77.696 E84.55499 F2400
G0 X148.129 Y78.074 F5400
;segType:Perimeter
G1 X148.896 Y77.845 E84.58160 F1200
G1 X149.202 Y77.722 E84.59258
G1 X149.584 Y77.639 E84.60556
G1 X149.974 Y77.623 E84.61854
G1 X150.361 Y77.672 E84.63152
G1 X150.734 Y77.787 E84.64450
G1 X151.083 Y77.962 E84.65749
G1 X151.396 Y78.194 E84.67046
G1 X151.666 Y78.476 E84.68345
G1 X151.885 Y78.800 E84.69643
G1 X152.046 Y79.155 E84.70941
G1 X152.144 Y79.533 E84.72240
G1 X152.177 Y79.922 E84.73537
G1 X152.144 Y80.311 E84.74836
G1 X152.046 Y80.689 E84.76134
G1 X151.885 Y81.044 E84.77432
G1 X151.666 Y81.367 E84.78730
G1 X151.396 Y81.649 E84.80028
G1 X151.083 Y81.881 E84.81326
G1 X150.734 Y82.057 E84.82624
G1 X150.361 Y82.171 E84.83922
G1 X149.974 Y82.221 E84.85220
G1 X149.584 Y82.204 E84.86518
G1 X149.202 Y82.122 E84.87816
G1 X148.840 Y81.977 E84.89114
G1 X148.508 Y81.772 E84.90412
G1 X148.215 Y81.514 E84.91711
G1 X147.969 Y81.210 E84.93009
G1 X147.779 Y80.870 E84.94307
G1 X147.649 Y80.502 E84.95605
G1 X147.583 Y80.117 E84.96903
G1 X147.583 Y79.727 E84.98203
G1 X147.649 Y79.342 E84.99500
G1 X147.779 Y78.974 E85.00798
G1 X147.969 Y78.633 E85.02096
G1 X148.215 Y78.330 E85.03394
G1 X148.508 Y78.072 E85.04692
G1 X148.789 Y77.899 E85.05791
G0 X148.896 Y77.845 F5400
G0 X149.202 Y77.722
G0 X149.584 Y77.639
G0 X149.974 Y77.623
G0 X150.361 Y77.672
G0 X150.455 Y77.701
G0 X150.445 Y77.280
G0 X149.991 Y77.222
G0 X149.886 Y77.226
;segType:Loop
G1 X149.991 Y77.222 E85.06139 F2400
G1 X150.445 Y77.280 E85.07664
G1 X150.883 Y77.414 E85.09189
G1 X151.293 Y77.621 E85.10715
G1 X151.662 Y77.893 E85.12239
G1 X151.979 Y78.224 E85.13764
G1 X152.235 Y78.604 E85.15288
G1 X152.424 Y79.021 E85.16813
G1 X152.540 Y79.465 E85.18338
G1 X152.578 Y79.922 E85.19862
G1 X152.540 Y80.379 E85.21387
G1 X152.424 Y80.822 E85.22912
G1 X152.235 Y81.240 E85.24436
G1 X151.979 Y81.620 E85.25961
G1 X151.662 Y81.950 E85.27484
G1 X151.293 Y82.223 E85.29008
G1 X150.884 Y82.430 E85.30534
G1 X150.445 Y82.564 E85.32058
G1 X149.991 Y82.622 E85.33583
G1 X149.533 Y82.603 E85.35107
G1 X149.085 Y82.506 E85.36632
G1 X148.659 Y82.335 E85.38157
G1 X148.269 Y82.095 E85.39681
G1 X147.925 Y81.792 E85.41206
G1 X147.637 Y81.435 E85.42731
G1 X147.413 Y81.035 E85.44255
G1 X147.261 Y80.603 E85.45780
G1 X147.183 Y80.151 E85.47304
G1 X147.183 Y79.692 E85.48830
G1 X147.261 Y79.241 E85.50353
G1 X147.413 Y78.809 E85.51878
G1 X147.637 Y78.408 E85.53403
G1 X147.925 Y78.052 E85.54928
G1 X148.269 Y77.749 E85.56451
G1 X148.659 Y77.509 E85.57977
G1 X149.085 Y77.338 E85.59502
G1 X149.533 Y77.241 E85.61026
G1 X149.686 Y77.235 E85.61536
G0 X151.237 Y77.189 F5400
;segType:HShell
G1 X149.930 Y75.882 E85.67683 F2400
G0 X149.365 Y75.882 F5400
G1 X150.393 Y76.910 E85.72518 F2400
G0 X147.512 Y77.990 F5400
G1 X145.405 Y75.882 E85.82430 F2400
G0 X144.839 Y75.882 F5400
G1 X147.275 Y78.318 E85.93886 F2400
G0 X147.075 Y78.684 F5400
G1 X144.274 Y75.882 E86.07064 F2400
G0 X143.708 Y75.882 F5400
G1 X146.928 Y79.102 E86.22209 F2400
G0 X146.837 Y79.578 F5400
G1 X143.169 Y75.909 E86.39465 F2400
G0 X142.776 Y76.082 F5400
G1 X146.823 Y80.129 E86.58498 F2400
G0 X146.959 Y80.831 F5400
G1 X142.507 Y76.379 E86.79438 F2400
G0 X150.939 Y117.054 F5400
G1 X142.336 Y108.452 E87.19902 F2400
G0 X142.336 Y109.018 F5400
G1 X150.205 Y116.886 E87.56913 F2400
G0 X149.630 Y116.877 F5400
G1 X142.336 Y109.583 E87.91219 F2400
G0 X142.336 Y110.149 F5400
G1 X149.144 Y116.957 E88.23240 F2400
G0 X148.718 Y117.097 F5400
G1 X142.336 Y110.715 E88.53259 F2400
G0 X142.336 Y111.280 F5400
G1 X148.339 Y117.283 E88.81493 F2400
G0 X147.439 Y118.080 F5400
G1 X142.336 Y112.977 E89.05495 F2400
G0 X142.336 Y113.543 F5400
G1 X147.216 Y118.423 E89.28448 F2400
G0 X147.033 Y118.805 F5400
G1 X142.336 Y114.109 E89.50537 F2400
G0 X142.336 Y114.674 F5400
G1 X146.896 Y119.234 E89.71986 F2400
G0 X146.823 Y119.727 F5400
G1 X142.336 Y115.240 E89.93089 F2400
G0 X142.336 Y115.806 F5400
G1 X146.846 Y120.315 E90.14301 F2400
G0 X147.048 Y121.084 F5400
G1 X142.336 Y116.372 E90.36465 F2400
G0 X142.336 Y116.937 F5400
G1 X149.361 Y123.961 E90.69504 F2400
