; #disp params :
; Printmode:0
; Layer:135
; Zmax:130.152 mm
; Xmax:151.437 mm
; Ymax:28 mm
; Xmin:108.482 mm
; Ymin:0.3 mm
; E0diam:0.4 mm
; E0len:2.24337 m
; E0temp:215 C
; Bedtemp:215 C
; Time:35.793 min
; #params end
; GCode generated by CraftWare

G28 X Y ; home horizontally
G28 Z ; home vertically


M104 S215 ;set head temp (no wait)
M190 S60 ;set bed temp (wait)
M109 S215 ;set head temp (wait)

; ------------------------------------
; Raft Layer #0
; ------------------------------------
M106 S0 ;turn off fan
G21 ; mm
G90 ; abs
G92 E0 ;reset extr
G0 F600 Z0.300
;segType:Raft
G0 F3000 E-1.00000
G0 F600 Z2.300
G0 X111.445 Y121.197 F5400
G0 F600 Z0.300
G0 F3000 E0.00000
G1 X111.252 Y120.874 E0.01876 F600
G1 X110.994 Y120.617 E0.03694
G1 X110.607 Y119.972 E0.07443
G1 X110.350 Y119.715 E0.09261
G1 X109.963 Y119.070 E0.13009
G1 X109.834 Y118.684 E0.15042
G1 X109.448 Y118.039 E0.18791
G1 X109.448 Y117.782 E0.20076
G1 X109.319 Y117.653 E0.20985
G1 X109.319 Y117.395 E0.22271
G1 X109.126 Y117.073 E0.24144
G1 X109.061 Y116.622 E0.26418
G1 X108.932 Y116.493 E0.27327
G1 X108.803 Y115.591 E0.31873
G1 X108.803 Y115.334 E0.33158
G1 X108.675 Y115.205 E0.34068
G1 X108.675 Y114.174 E0.39210
G1 X108.546 Y113.272 E0.43756
G1 X108.546 Y103.994 E0.90041
G1 X108.675 Y103.608 E0.92074
G1 X108.675 Y102.319 E0.98503
G1 X108.803 Y102.191 E0.99412
G1 X108.803 Y101.675 E1.01983
G1 X108.932 Y101.546 E1.02892
G1 X109.061 Y100.644 E1.07438
G1 X109.190 Y100.515 E1.08347
G1 X109.190 Y100.258 E1.09633
G1 X109.319 Y100.129 E1.10542
G1 X109.319 Y99.871 E1.11828
G1 X109.512 Y99.549 E1.13704
G1 X109.641 Y99.162 E1.15736
G1 X109.834 Y98.840 E1.17609
G1 X109.963 Y98.454 E1.19642
G1 X110.221 Y98.196 E1.21460
G1 X110.350 Y97.809 E1.23493
G1 X110.607 Y97.552 E1.25311
G1 X110.994 Y96.908 E1.29060
G1 X112.025 Y95.877 E1.36333
G1 X111.123 Y94.975 E1.42696
G1 X111.123 Y80.285 E2.15982
G1 X113.700 Y77.708 E2.34164
G1 X113.700 Y71.523 E2.65021
G1 X113.893 Y71.201 E2.66897
G1 X118.919 Y66.176 E3.02353
G1 X140.566 Y66.176 E4.10352
G1 X141.017 Y66.240 E4.12626
G1 X146.171 Y71.395 E4.48991
G1 X146.171 Y77.580 E4.79848
G1 X146.364 Y77.901 E4.81721
G1 X148.684 Y80.221 E4.98085
G1 X148.748 Y80.672 E5.00359
G1 X148.748 Y94.588 E5.69787
G1 X148.684 Y95.039 E5.72061
G1 X147.911 Y95.813 E5.77516
G1 X148.039 Y96.070 E5.78951
G1 X148.555 Y96.585 E5.82588
G1 X148.748 Y96.908 E5.84464
G1 X149.264 Y97.423 E5.88100
G1 X149.650 Y98.067 E5.91849
G1 X149.779 Y98.454 E5.93882
G1 X150.037 Y98.711 E5.95700
G1 X150.166 Y99.098 E5.97733
G1 X150.359 Y99.420 E5.99605
G1 X150.874 Y100.966 E6.07737
G1 X150.939 Y101.417 E6.10011
G1 X151.068 Y101.546 E6.10920
G1 X151.068 Y102.062 E6.13492
G1 X151.197 Y102.448 E6.15524
G1 X151.197 Y103.479 E6.20667
G1 X151.325 Y104.381 E6.25213
G1 X151.325 Y113.658 E6.71498
G1 X151.197 Y114.045 E6.73531
G1 X151.197 Y115.334 E6.79960
G1 X151.068 Y115.462 E6.80869
G1 X151.068 Y115.978 E6.83440
G1 X150.939 Y116.107 E6.84349
G1 X150.874 Y116.558 E6.86623
G1 X150.359 Y118.104 E6.94755
G1 X150.166 Y118.426 E6.96627
G1 X150.037 Y118.813 E6.98660
G1 X149.264 Y120.101 E7.06157
G1 X149.006 Y120.359 E7.07975
G1 X148.813 Y120.681 E7.09851
G1 X148.555 Y120.939 E7.11670
G1 X148.362 Y121.261 E7.13542
G1 X142.435 Y127.188 E7.55362
G1 X142.112 Y127.382 E7.57238
G1 X141.597 Y127.897 E7.60874
G1 X139.664 Y129.057 E7.72120
G1 X138.891 Y129.314 E7.76185
G1 X138.762 Y129.443 E7.77095
G1 X138.504 Y129.443 E7.78380
G1 X138.375 Y129.572 E7.79290
G1 X138.118 Y129.572 E7.80575
G1 X137.989 Y129.701 E7.81484
G1 X137.087 Y129.830 E7.86030
G1 X136.958 Y129.959 E7.86939
G1 X136.443 Y129.959 E7.89511
G1 X136.056 Y130.087 E7.91543
G1 X124.202 Y130.087 E8.50686
G1 X122.398 Y129.830 E8.59777
G1 X122.269 Y129.701 E8.60686
G1 X122.011 Y129.701 E8.61972
G1 X121.882 Y129.572 E8.62881
G1 X121.496 Y129.572 E8.64810
G1 X121.238 Y129.443 E8.66247
G1 X120.851 Y129.314 E8.68280
G1 X120.723 Y129.185 E8.69189
G1 X120.465 Y129.185 E8.70475
G1 X118.210 Y127.832 E8.83596
G1 X117.694 Y127.317 E8.87233
G1 X117.372 Y127.124 E8.89105
G1 X111.445 Y121.197 E9.30925
G0 X111.140 Y120.101 F5400
G1 X111.140 Y97.552 E10.43424 F600
G0 X113.807 Y78.353 F5400
G1 X113.807 Y122.936 E12.65850 F600
G0 X116.473 Y125.642 F5400
G1 X116.473 Y69.333 E15.46776 F600
G0 X119.140 Y66.627 F5400
G1 X119.140 Y127.961 E18.52773 F600
G0 X121.807 Y129.250 F5400
G1 X121.807 Y66.627 E21.65199 F600
G0 X124.473 Y66.627 F5400
G1 X124.473 Y129.765 E24.80196 F600
G0 X127.140 Y129.765 F5400
G1 X127.140 Y66.627 E27.95192 F600
G0 X129.807 Y66.627 F5400
G1 X129.807 Y129.765 E31.10189 F600
G0 X132.473 Y129.765 F5400
G1 X132.473 Y66.627 E34.25186 F600
G0 X135.140 Y66.627 F5400
G1 X135.140 Y129.765 E37.40183 F600
G0 X137.807 Y129.250 F5400
G1 X137.807 Y66.627 E40.52609 F600
G0 X140.473 Y66.627 F5400
G1 X140.473 Y128.090 E43.59249 F600
G0 X143.140 Y125.899 F5400
G1 X143.140 Y69.075 E46.42746 F600
G0 X145.807 Y78.095 F5400
G1 X145.807 Y123.194 E48.67744 F600
G0 X148.473 Y120.488 F5400
G1 X148.473 Y97.294 E49.83457 F600



; ------------------------------------
; Raft Layer #1
; ------------------------------------
G92 E0 ;reset extr
G0 F600 Z0.600
;segType:Raft
G0 X148.499 Y96.650 F7200
G1 X117.703 Y127.446 E2.17280 F1800
G0 X116.720 Y126.544 F7200
G1 X148.804 Y94.459 E4.43651 F1800
G0 X148.851 Y92.527 F7200
G1 X115.865 Y125.513 E6.76386 F1800
G0 X114.881 Y124.611 F7200
G1 X148.769 Y90.723 E9.15485 F1800
G0 X148.816 Y88.790 F7200
G1 X113.898 Y123.709 E11.61857 F1800
G0 X113.043 Y122.678 F7200
G1 X148.863 Y86.857 E14.14593 F1800
G0 X148.782 Y85.053 F7200
G1 X112.059 Y121.776 E16.73693 F1800
G0 X111.252 Y120.698 F7200
G1 X148.876 Y83.073 E19.39156 F1800
G0 X148.876 Y81.187 F7200
G1 X110.478 Y119.586 E22.10074 F1800
G0 X109.705 Y118.473 F7200
G1 X148.361 Y79.817 E24.82811 F1800
G0 X147.459 Y78.834 F7200
G1 X109.190 Y117.103 E27.52820 F1800
G0 X108.932 Y115.475 F7200
G1 X146.428 Y77.979 E30.17374 F1800
G0 X146.299 Y76.222 F7200
G1 X108.675 Y113.847 E32.82838 F1800
G0 X108.675 Y111.962 F7200
G1 X146.299 Y74.336 E35.48301 F1800
G0 X146.299 Y72.451 F7200
G1 X108.675 Y110.076 E38.13765 F1800
G0 X108.675 Y108.190 F7200
G1 X145.913 Y70.952 E40.76501 F1800
G0 X144.882 Y70.097 F7200
G1 X108.675 Y106.305 E43.31964 F1800
G0 X108.675 Y104.419 F7200
G1 X143.980 Y69.113 E45.81064 F1800
G0 X143.078 Y68.130 F7200
G1 X108.803 Y102.405 E48.22890 F1800
G0 X109.577 Y99.746 F7200
G1 X142.047 Y67.275 E50.51988 F1800
G0 X141.145 Y66.291 F7200
G1 X111.767 Y95.670 E52.59268 F1800
G0 X111.252 Y94.299 F7200
G1 X139.341 Y66.210 E54.57456 F1800
G0 X137.408 Y66.257 F7200
G1 X111.252 Y92.414 E56.42008 F1800
G0 X111.252 Y90.528 F7200
G1 X135.476 Y66.304 E58.12923 F1800
G0 X133.672 Y66.222 F7200
G1 X111.252 Y88.643 E59.71110 F1800
G0 X111.252 Y86.757 F7200
G1 X131.739 Y66.269 E61.15660 F1800
G0 X129.935 Y66.188 F7200
G1 X111.252 Y84.871 E62.47483 F1800
G0 X111.252 Y82.986 F7200
G1 X128.002 Y66.235 E63.65669 F1800
G0 X126.069 Y66.282 F7200
G1 X111.252 Y81.100 E64.70217 F1800
G0 X113.829 Y76.637 F7200
G1 X124.266 Y66.200 E65.43856 F1800
G0 X122.333 Y66.248 F7200
G1 X113.829 Y74.752 E66.03858 F1800
G0 X113.829 Y72.866 F7200
G1 X120.400 Y66.295 E66.50224 F1800
G0 X149.354 Y97.681 F7200
G1 X118.816 Y128.219 E68.65686 F1800
G0 X119.928 Y128.992 F7200
G1 X150.080 Y98.840 E70.78420 F1800
G0 X150.677 Y100.129 F7200
G1 X121.299 Y129.507 E72.85700 F1800
G0 X122.798 Y129.894 F7200
G1 X151.145 Y101.546 E74.85707 F1800
G0 X151.227 Y103.350 F7200
G1 X124.426 Y130.152 E76.74804 F1800
G0 X126.311 Y130.152 F7200
G1 X151.437 Y105.025 E78.52083 F1800
G0 X151.390 Y106.958 F7200
G1 X128.197 Y130.152 E80.15725 F1800
G0 X130.083 Y130.152 F7200
G1 X151.343 Y108.891 E81.65731 F1800
G0 X151.425 Y110.695 F7200
G1 X131.968 Y130.152 E83.03008 F1800
G0 X133.854 Y130.152 F7200
G1 X151.378 Y112.628 E84.26648 F1800
G0 X151.202 Y114.689 F7200
G1 X135.739 Y130.152 E85.35742 F1800
G0 X138.012 Y129.765 F7200
G1 X150.897 Y116.880 E86.26654 F1800
G0 X148.401 Y121.261 F7200
G1 X142.345 Y127.317 E86.69382 F1800



; ------------------------------------
; Raft Layer #2
; ------------------------------------
G92 E0 ;reset extr
G0 F600 Z0.800
;segType:Raft
G0 F3000 E-1.00000
G0 F600 Z2.800
G0 X137.473 Y129.793 F7200
G0 F600 Z0.800
G0 F3000 E0.00000
G1 X122.269 Y129.793 E0.50571 F2400
G0 X120.980 Y129.393 F7200
G1 X138.762 Y129.393 E1.09713 F2400
G1 X139.664 Y128.993 E1.12995
G1 X120.078 Y128.993 E1.78137
G1 X119.434 Y128.593 E1.80659
G1 X140.308 Y128.593 E2.50087
G1 X140.953 Y128.193 E2.52609
G1 X118.790 Y128.193 E3.26323
G1 X118.146 Y127.793 E3.28845
G1 X141.597 Y127.793 E4.06845
G1 X141.983 Y127.393 E4.08695
G1 X117.759 Y127.393 E4.89265
G1 X117.115 Y126.993 E4.91788
G1 X142.628 Y126.993 E5.76644
G1 X143.014 Y126.593 E5.78494
G1 X116.728 Y126.593 E6.65922
G1 X116.342 Y126.193 E6.67772
G1 X143.401 Y126.193 E7.57771
G1 X143.787 Y125.793 E7.59621
G1 X115.955 Y125.793 E8.52192
G1 X115.568 Y125.393 E8.54042
G1 X144.174 Y125.393 E9.49184
G1 X144.560 Y124.993 E9.51034
G1 X115.182 Y124.993 E10.48747
G1 X114.795 Y124.593 E10.50597
G1 X144.947 Y124.593 E11.50882
G1 X145.334 Y124.193 E11.52732
G1 X114.409 Y124.193 E12.55588
G1 X114.022 Y123.793 E12.57438
G1 X145.720 Y123.793 E13.62866
G1 X146.107 Y123.393 E13.64716
G1 X113.636 Y123.393 E14.72715
G1 X113.120 Y122.993 E14.74885
G1 X146.622 Y122.993 E15.86313
G1 X147.009 Y122.593 E15.88163
G1 X112.734 Y122.593 E17.02161
G1 X112.347 Y122.193 E17.04012
G1 X147.395 Y122.193 E18.20582
G1 X147.782 Y121.793 E18.22432
G1 X111.961 Y121.793 E19.41574
G1 X111.574 Y121.393 E19.43424
G1 X148.168 Y121.393 E20.65137
G1 X148.426 Y120.993 E20.66719
G1 X111.316 Y120.993 E21.90147
G1 X110.930 Y120.593 E21.91997
G1 X148.813 Y120.593 E23.17996
G1 X149.070 Y120.193 E23.19578
G1 X110.672 Y120.193 E24.47291
G1 X110.414 Y119.793 E24.48874
G1 X149.328 Y119.793 E25.78301
G1 X149.586 Y119.393 E25.79884
G1 X110.157 Y119.393 E27.11026
G1 X109.899 Y118.993 E27.12608
G1 X149.843 Y118.993 E28.45464
G1 X150.101 Y118.593 E28.47046
G1 X109.641 Y118.593 E29.81617
G1 X109.512 Y118.193 E29.83014
G1 X150.230 Y118.193 E31.18442
G1 X150.359 Y117.793 E31.19839
G1 X109.384 Y117.793 E32.56123
G1 X109.255 Y117.393 E32.57521
G1 X150.488 Y117.393 E33.94663
G1 X150.617 Y116.993 E33.96060
G1 X108.997 Y116.993 E35.34488
G1 X108.997 Y116.593 E35.35818
G1 X150.745 Y116.593 E36.74674
G1 X150.874 Y116.193 E36.76072
G1 X108.868 Y116.193 E38.15785
G1 X108.739 Y115.793 E38.17182
G1 X151.003 Y115.793 E39.57752
G1 X151.132 Y115.393 E39.59150
G1 X108.739 Y115.393 E41.00149
G1 X108.610 Y114.993 E41.01546
G1 X151.132 Y114.993 E42.42974
G1 X151.132 Y114.593 E42.44304
G1 X108.610 Y114.593 E43.85731
G1 X108.610 Y114.193 E43.87062
G1 X151.132 Y114.193 E45.28489
G1 X151.261 Y113.793 E45.29887
G1 X108.610 Y113.793 E46.71742
G1 X108.482 Y113.393 E46.73140
G1 X151.261 Y113.393 E48.15425
G1 X151.261 Y112.993 E48.16755
G1 X108.482 Y112.993 E49.59040
G1 X108.482 Y112.593 E49.60370
G1 X151.261 Y112.593 E51.02655
G1 X151.261 Y112.193 E51.03985
G1 X108.482 Y112.193 E52.46269
G1 X108.482 Y111.793 E52.47600
G1 X151.261 Y111.793 E53.89884
G1 X151.261 Y111.393 E53.91215
G1 X108.482 Y111.393 E55.33499
G1 X108.482 Y110.993 E55.34830
G1 X151.261 Y110.993 E56.77114
G1 X151.261 Y110.593 E56.78445
G1 X108.482 Y110.593 E58.20729
G1 X108.482 Y110.193 E58.22060
G1 X151.261 Y110.193 E59.64344
G1 X151.261 Y109.793 E59.65675
G1 X108.482 Y109.793 E61.07959
G1 X108.482 Y109.393 E61.09290
G1 X151.261 Y109.393 E62.51574
G1 X151.261 Y108.993 E62.52905
G1 X108.482 Y108.993 E63.95189
G1 X108.482 Y108.593 E63.96520
G1 X151.261 Y108.593 E65.38804
G1 X151.261 Y108.193 E65.40135
G1 X108.482 Y108.193 E66.82419
G1 X108.482 Y107.793 E66.83750
G1 X151.261 Y107.793 E68.26034
G1 X151.261 Y107.393 E68.27365
G1 X108.482 Y107.393 E69.69649
G1 X108.482 Y106.993 E69.70980
G1 X151.261 Y106.993 E71.13264
G1 X151.261 Y106.593 E71.14595
G1 X108.482 Y106.593 E72.56879
G1 X108.482 Y106.193 E72.58209
G1 X151.261 Y106.193 E74.00494
G1 X151.261 Y105.793 E74.01824
G1 X108.482 Y105.793 E75.44109
G1 X108.482 Y105.393 E75.45439
G1 X151.261 Y105.393 E76.87724
G1 X151.261 Y104.993 E76.89054
G1 X108.482 Y104.993 E78.31339
G1 X108.482 Y104.593 E78.32669
G1 X151.261 Y104.593 E79.74954
G1 X151.261 Y104.193 E79.76284
G1 X108.482 Y104.193 E81.18569
G1 X108.610 Y103.793 E81.19966
G1 X151.132 Y103.793 E82.61393
G1 X151.132 Y103.393 E82.62724
G1 X108.610 Y103.393 E84.04150
G1 X108.610 Y102.993 E84.05481
G1 X151.132 Y102.993 E85.46908
G1 X151.132 Y102.593 E85.48238
G1 X108.610 Y102.593 E86.89665
G1 X108.739 Y102.193 E86.91063
G1 X151.003 Y102.193 E88.31633
G1 X151.003 Y101.793 E88.32964
G1 X108.739 Y101.793 E89.73534
G1 X108.868 Y101.393 E89.74931
G1 X150.874 Y101.393 E91.14645
G1 X150.874 Y100.993 E91.15975
G1 X108.997 Y100.993 E92.55260
G1 X108.997 Y100.593 E92.56590
G1 X150.745 Y100.593 E93.95446
G1 X150.617 Y100.193 E93.96844
G1 X109.126 Y100.193 E95.34843
G1 X109.384 Y99.793 E95.36425
G1 X150.359 Y99.793 E96.72710
G1 X150.230 Y99.393 E96.74107
G1 X109.512 Y99.393 E98.09534
G1 X109.641 Y98.993 E98.10932
G1 X150.101 Y98.993 E99.45502
G1 X149.843 Y98.593 E99.47085
G1 X109.899 Y98.593 E100.79941
G1 X110.157 Y98.193 E100.81523
G1 X149.586 Y98.193 E102.12665
G1 X149.457 Y97.793 E102.14062
G1 X110.285 Y97.793 E103.44347
G1 X110.672 Y97.393 E103.46197
G1 X149.199 Y97.393 E104.74339
G1 X148.813 Y96.993 E104.76189
G1 X110.930 Y96.993 E106.02187
G1 X111.187 Y96.593 E106.03770
G1 X148.555 Y96.593 E107.28054
G1 X148.039 Y96.193 E107.30224
G1 X111.703 Y96.193 E108.51080
G1 X111.832 Y95.793 E108.52477
G1 X147.911 Y95.793 E109.72476
G1 X148.297 Y95.393 E109.74326
G1 X111.445 Y95.393 E110.96896
G1 X111.059 Y94.993 E110.98746
G1 X148.684 Y94.993 E112.23888
G1 X148.684 Y94.593 E112.25219
G1 X111.059 Y94.593 E113.50361
G1 X111.059 Y94.193 E113.51691
G1 X148.684 Y94.193 E114.76833
G1 X148.684 Y93.793 E114.78164
G1 X111.059 Y93.793 E116.03306
G1 X111.059 Y93.393 E116.04636
G1 X148.684 Y93.393 E117.29778
G1 X148.684 Y92.993 E117.31109
G1 X111.059 Y92.993 E118.56251
G1 X111.059 Y92.593 E118.57581
G1 X148.684 Y92.593 E119.82723
G1 X148.684 Y92.193 E119.84054
G1 X111.059 Y92.193 E121.09196
G1 X111.059 Y91.793 E121.10526
G1 X148.684 Y91.793 E122.35668
G1 X148.684 Y91.393 E122.36999
G1 X111.059 Y91.393 E123.62141
G1 X111.059 Y90.993 E123.63471
G1 X148.684 Y90.993 E124.88613
G1 X148.684 Y90.593 E124.89944
G1 X111.059 Y90.593 E126.15086
G1 X111.059 Y90.193 E126.16416
G1 X148.684 Y90.193 E127.41558
G1 X148.684 Y89.793 E127.42889
G1 X111.059 Y89.793 E128.68030
G1 X111.059 Y89.393 E128.69360
G1 X148.684 Y89.393 E129.94502
G1 X148.684 Y88.993 E129.95833
G1 X111.059 Y88.993 E131.20975
G1 X111.059 Y88.593 E131.22305
G1 X148.684 Y88.593 E132.47447
G1 X148.684 Y88.193 E132.48778
G1 X111.059 Y88.193 E133.73920
G1 X111.059 Y87.793 E133.75250
G1 X148.684 Y87.793 E135.00392
G1 X148.684 Y87.393 E135.01723
G1 X111.059 Y87.393 E136.26865
G1 X111.059 Y86.993 E136.28195
G1 X148.684 Y86.993 E137.53337
G1 X148.684 Y86.593 E137.54668
G1 X111.059 Y86.593 E138.79810
G1 X111.059 Y86.193 E138.81140
G1 X148.684 Y86.193 E140.06282
G1 X148.684 Y85.793 E140.07613
G1 X111.059 Y85.793 E141.32755
G1 X111.059 Y85.393 E141.34085
G1 X148.684 Y85.393 E142.59227
G1 X148.684 Y84.993 E142.60558
G1 X111.059 Y84.993 E143.85699
G1 X111.059 Y84.593 E143.87030
G1 X148.684 Y84.593 E145.12172
G1 X148.684 Y84.193 E145.13503
G1 X111.059 Y84.193 E146.38644
G1 X111.059 Y83.793 E146.39975
G1 X148.684 Y83.793 E147.65117
G1 X148.684 Y83.393 E147.66447
G1 X111.059 Y83.393 E148.91589
G1 X111.059 Y82.993 E148.92920
G1 X148.684 Y82.993 E150.18062
G1 X148.684 Y82.593 E150.19392
G1 X111.059 Y82.593 E151.44534
G1 X111.059 Y82.193 E151.45865
G1 X148.684 Y82.193 E152.71007
G1 X148.684 Y81.793 E152.72337
G1 X111.059 Y81.793 E153.97479
G1 X111.059 Y81.393 E153.98810
G1 X148.684 Y81.393 E155.23952
G1 X148.684 Y80.993 E155.25282
G1 X111.059 Y80.993 E156.50424
G1 X111.059 Y80.593 E156.51755
G1 X148.684 Y80.593 E157.76897
G1 X148.555 Y80.193 E157.78294
G1 X111.187 Y80.193 E159.02579
G1 X111.574 Y79.793 E159.04428
G1 X148.168 Y79.793 E160.26141
G1 X147.782 Y79.393 E160.27992
G1 X111.961 Y79.393 E161.47134
G1 X112.347 Y78.993 E161.48985
G1 X147.395 Y78.993 E162.65556
G1 X147.009 Y78.593 E162.67406
G1 X112.734 Y78.593 E163.81404
G1 X113.120 Y78.193 E163.83255
G1 X146.622 Y78.193 E164.94682
G1 X146.236 Y77.793 E164.96532
G1 X113.507 Y77.793 E166.05388
G1 X113.636 Y77.393 E166.06786
G1 X146.107 Y77.393 E167.14784
G1 X146.107 Y76.993 E167.16115
G1 X113.636 Y76.993 E168.24114
G1 X113.636 Y76.593 E168.25444
G1 X146.107 Y76.593 E169.33442
G1 X146.107 Y76.193 E169.34774
G1 X113.636 Y76.193 E170.42772
G1 X113.636 Y75.793 E170.44102
G1 X146.107 Y75.793 E171.52102
G1 X146.107 Y75.393 E171.53432
G1 X113.636 Y75.393 E172.61430
G1 X113.636 Y74.993 E172.62760
G1 X146.107 Y74.993 E173.70760
G1 X146.107 Y74.593 E173.72090
G1 X113.636 Y74.593 E174.80088
G1 X113.636 Y74.193 E174.81420
G1 X146.107 Y74.193 E175.89418
G1 X146.107 Y73.793 E175.90748
G1 X113.636 Y73.793 E176.98748
G1 X113.636 Y73.393 E177.00078
G1 X146.107 Y73.393 E178.08076
G1 X146.107 Y72.993 E178.09408
G1 X113.636 Y72.993 E179.17406
G1 X113.636 Y72.593 E179.18736
G1 X146.107 Y72.593 E180.26734
G1 X146.107 Y72.193 E180.28066
G1 X113.636 Y72.193 E181.36064
G1 X113.636 Y71.793 E181.37394
G1 X146.107 Y71.793 E182.45394
G1 X146.107 Y71.393 E182.46724
G1 X113.636 Y71.393 E183.54722
G1 X114.022 Y70.993 E183.56572
G1 X145.720 Y70.993 E184.62000
G1 X145.334 Y70.593 E184.63850
G1 X114.409 Y70.593 E185.66706
G1 X114.795 Y70.193 E185.68558
G1 X144.947 Y70.193 E186.68844
G1 X144.560 Y69.793 E186.70692
G1 X115.182 Y69.793 E187.68406
G1 X115.697 Y69.393 E187.70574
G1 X144.045 Y69.393 E188.64860
G1 X143.658 Y68.993 E188.66710
G1 X116.084 Y68.993 E189.58422
G1 X116.470 Y68.593 E189.60274
G1 X143.272 Y68.593 E190.49416
G1 X142.885 Y68.193 E190.51266
G1 X116.857 Y68.193 E191.37838
G1 X117.244 Y67.793 E191.39686
G1 X142.499 Y67.793 E192.23686
G1 X142.112 Y67.393 E192.25538
G1 X117.630 Y67.393 E193.06966
G1 X118.017 Y66.993 E193.08816
G1 X141.726 Y66.993 E193.87670
G1 X141.339 Y66.593 E193.89522
G1 X118.403 Y66.593 E194.65806
G1 X118.790 Y66.193 E194.67658
G1 X140.953 Y66.193 E195.41372



; ------------------------------------
; Raft Layer #3
; ------------------------------------
M106 S255 ;set fan speed
G92 E0 ;reset extr
G0 F600 Z1.000
;segType:Raft
G0 F3000 E-1.00000
G0 F600 Z3.000
G0 X145.807 Y71.137 F7200
G0 F600 Z1.000
G0 F3000 E0.00000
G1 X145.807 Y123.838 E1.75284 F2400
G1 X145.407 Y124.224 E1.77134
G1 X145.407 Y70.750 E3.54990
G1 X145.007 Y70.235 E3.57160
G1 X145.007 Y124.740 E5.38444
G1 X144.607 Y125.126 E5.40294
G1 X144.607 Y69.848 E7.24149
G1 X144.207 Y69.462 E7.25999
G1 X144.207 Y125.513 E9.12426
G1 X143.807 Y125.899 E9.14276
G1 X143.807 Y69.075 E11.03274
G1 X143.407 Y68.689 E11.05124
G1 X143.407 Y126.286 E12.96694
G1 X143.007 Y126.673 E12.98544
G1 X143.007 Y68.302 E14.92685
G1 X142.607 Y67.916 E14.94535
G1 X142.607 Y127.059 E16.91247
G1 X142.207 Y127.317 E16.92830
G1 X142.207 Y67.529 E18.91685
G1 X141.807 Y67.142 E18.93535
G1 X141.807 Y127.703 E20.94962
G1 X141.407 Y127.961 E20.96545
G1 X141.407 Y66.756 E23.00114
G1 X141.007 Y66.240 E23.02284
G1 X141.007 Y128.348 E25.08853
G1 X140.607 Y128.605 E25.10436
G1 X140.607 Y66.240 E27.17862
G1 X140.207 Y66.240 E27.19193
G1 X140.207 Y128.863 E29.27476
G1 X139.807 Y128.992 E29.28874
G1 X139.807 Y66.240 E31.37586
G1 X139.407 Y66.240 E31.38917
G1 X139.407 Y129.250 E33.48486
G1 X139.007 Y129.379 E33.49884
G1 X139.007 Y66.240 E35.59882
G1 X138.607 Y66.240 E35.61212
G1 X138.607 Y129.507 E37.71639
G1 X138.207 Y129.636 E37.73037
G1 X138.207 Y66.240 E39.83892
G1 X137.807 Y66.240 E39.85222
G1 X137.807 Y129.765 E41.96506
G1 X137.407 Y129.894 E41.97904
G1 X137.407 Y66.240 E44.09616
G1 X137.007 Y66.240 E44.10947
G1 X137.007 Y130.023 E46.23087
G1 X136.607 Y130.023 E46.24418
G1 X136.607 Y66.240 E48.36558
G1 X136.207 Y66.240 E48.37889
G1 X136.207 Y130.152 E50.50458
G1 X135.807 Y130.152 E50.51789
G1 X135.807 Y66.240 E52.64358
G1 X135.407 Y66.240 E52.65689
G1 X135.407 Y130.152 E54.78258
G1 X135.007 Y130.152 E54.79589
G1 X135.007 Y66.240 E56.92158
G1 X134.607 Y66.240 E56.93489
G1 X134.607 Y130.152 E59.06058
G1 X134.207 Y130.152 E59.07389
G1 X134.207 Y66.240 E61.19958
G1 X133.807 Y66.240 E61.21289
G1 X133.807 Y130.152 E63.33858
G1 X133.407 Y130.152 E63.35189
G1 X133.407 Y66.240 E65.47758
G1 X133.007 Y66.240 E65.49089
G1 X133.007 Y130.152 E67.61658
G1 X132.607 Y130.152 E67.62989
G1 X132.607 Y66.240 E69.75558
G1 X132.207 Y66.240 E69.76889
G1 X132.207 Y130.152 E71.89458
G1 X131.807 Y130.152 E71.90789
G1 X131.807 Y66.240 E74.03358
G1 X131.407 Y66.240 E74.04689
G1 X131.407 Y130.152 E76.17258
G1 X131.007 Y130.152 E76.18589
G1 X131.007 Y66.240 E78.31158
G1 X130.607 Y66.240 E78.32489
G1 X130.607 Y130.152 E80.45058
G1 X130.207 Y130.152 E80.46388
G1 X130.207 Y66.240 E82.58958
G1 X129.807 Y66.240 E82.60288
G1 X129.807 Y130.152 E84.72858
G1 X129.407 Y130.152 E84.74188
G1 X129.407 Y66.240 E86.86758
G1 X129.007 Y66.240 E86.88088
G1 X129.007 Y130.152 E89.00658
G1 X128.607 Y130.152 E89.01988
G1 X128.607 Y66.240 E91.14558
G1 X128.207 Y66.240 E91.15888
G1 X128.207 Y130.152 E93.28458
G1 X127.807 Y130.152 E93.29788
G1 X127.807 Y66.240 E95.42358
G1 X127.407 Y66.240 E95.43688
G1 X127.407 Y130.152 E97.56258
G1 X127.007 Y130.152 E97.57588
G1 X127.007 Y66.240 E99.70158
G1 X126.607 Y66.240 E99.71488
G1 X126.607 Y130.152 E101.84058
G1 X126.207 Y130.152 E101.85388
G1 X126.207 Y66.240 E103.97958
G1 X125.807 Y66.240 E103.99288
G1 X125.807 Y130.152 E106.11858
G1 X125.407 Y130.152 E106.13188
G1 X125.407 Y66.240 E108.25758
G1 X125.007 Y66.240 E108.27088
G1 X125.007 Y130.152 E110.39658
G1 X124.607 Y130.152 E110.40988
G1 X124.607 Y66.240 E112.53558
G1 X124.207 Y66.240 E112.54888
G1 X124.207 Y130.152 E114.67458
G1 X123.807 Y130.152 E114.68788
G1 X123.807 Y66.240 E116.81358
G1 X123.407 Y66.240 E116.82688
G1 X123.407 Y130.023 E118.94829
G1 X123.007 Y130.023 E118.96159
G1 X123.007 Y66.240 E121.08300
G1 X122.607 Y66.240 E121.09631
G1 X122.607 Y129.894 E123.21342
G1 X122.207 Y129.765 E123.22740
G1 X122.207 Y66.240 E125.34024
G1 X121.807 Y66.240 E125.35355
G1 X121.807 Y129.636 E127.46210
G1 X121.407 Y129.507 E127.47607
G1 X121.407 Y66.240 E129.58034
G1 X121.007 Y66.240 E129.59364
G1 X121.007 Y129.379 E131.69362
G1 X120.607 Y129.250 E131.70760
G1 X120.607 Y66.240 E133.80328
G1 X120.207 Y66.240 E133.81659
G1 X120.207 Y129.121 E135.90800
G1 X119.807 Y128.863 E135.92383
G1 X119.807 Y66.240 E138.00667
G1 X119.407 Y66.240 E138.01997
G1 X119.407 Y128.605 E140.09424
G1 X119.007 Y128.477 E140.10822
G1 X119.007 Y66.240 E142.17819
G1 X118.607 Y66.498 E142.19402
G1 X118.607 Y128.219 E144.24686
G1 X118.207 Y127.832 E144.26537
G1 X118.207 Y67.014 E146.28821
G1 X117.807 Y67.400 E146.30672
G1 X117.807 Y127.446 E148.30383
G1 X117.407 Y127.188 E148.31966
G1 X117.407 Y67.787 E150.29535
G1 X117.007 Y68.173 E150.31386
G1 X117.007 Y126.801 E152.26384
G1 X116.607 Y126.415 E152.28235
G1 X116.607 Y68.560 E154.20662
G1 X116.207 Y68.946 E154.22513
G1 X116.207 Y126.028 E156.12369
G1 X115.807 Y125.642 E156.14220
G1 X115.807 Y69.333 E158.01503
G1 X115.407 Y69.720 E158.03354
G1 X115.407 Y125.255 E159.88066
G1 X115.007 Y124.869 E159.89917
G1 X115.007 Y70.106 E161.72058
G1 X114.607 Y70.493 E161.73907
G1 X114.607 Y124.482 E163.53477
G1 X114.207 Y123.967 E163.55647
G1 X114.207 Y71.008 E165.31789
G1 X113.807 Y71.395 E165.33640
G1 X113.807 Y123.580 E167.07210
G1 X113.407 Y123.194 E167.09061
G1 X113.407 Y78.095 E168.59060
G1 X113.007 Y78.482 E168.60908
G1 X113.007 Y122.807 E170.08336
G1 X112.607 Y122.420 E170.10186
G1 X112.607 Y78.868 E171.55042
G0 X111.407 Y80.028 F7200
G1 X111.407 Y95.361 E172.06040 F2400
G1 X111.807 Y95.748 E172.07892
G1 X111.807 Y79.641 E172.61462
G1 X112.207 Y79.255 E172.63314
G1 X112.207 Y122.034 E174.05596
G1 X111.807 Y121.647 E174.07448
G1 X111.807 Y96.134 E174.92304
G1 X111.407 Y96.521 E174.94154
G1 X111.407 Y121.261 E175.76438
G1 X111.007 Y120.745 E175.78608
G1 X111.007 Y96.908 E176.57894
G1 X110.607 Y97.681 E176.60788
G1 X110.607 Y119.972 E177.34930
G1 X110.207 Y119.457 E177.37100
G1 X110.207 Y98.325 E178.07386
G1 X109.807 Y98.969 E178.09908
G1 X109.807 Y118.684 E178.75478
G1 X109.407 Y117.782 E178.78760
G1 X109.407 Y99.871 E179.38330
G0 X109.007 Y101.160 F7200
G1 X109.007 Y116.622 E179.89758 F2400
G0 X108.607 Y113.787 F7200
G1 X108.607 Y103.866 E180.22758 F2400
G0 X148.607 Y95.232 F7200
G1 X148.607 Y80.157 E180.72900 F2400
G0 X150.207 Y99.227 F7200
G1 X150.207 Y118.426 E181.36756 F2400
G1 X149.807 Y119.199 E181.39652
G1 X149.807 Y98.583 E182.08222
G1 X149.407 Y97.809 E182.11118
G1 X149.407 Y119.843 E182.84402
G1 X149.007 Y120.359 E182.86572
G1 X149.007 Y97.294 E183.63286
G1 X148.607 Y96.650 E183.65808
G1 X148.607 Y121.003 E184.46808
G1 X148.207 Y121.518 E184.48978
G1 X148.207 Y96.263 E185.32978
G1 X148.207 Y95.619 E185.35120
G1 X148.207 Y79.770 E185.87832
G1 X147.807 Y79.384 E185.89682
G1 X147.807 Y121.905 E187.31110
G1 X147.407 Y122.292 E187.32958
G1 X147.407 Y78.997 E188.76958
G1 X147.007 Y78.610 E188.78808
G1 X147.007 Y122.678 E190.25378
G1 X146.607 Y123.065 E190.27230
G1 X146.607 Y78.224 E191.76370
G1 X146.207 Y77.837 E191.78220
G1 X146.207 Y123.451 E193.29934
G0 X150.607 Y117.395 F7200
G1 X150.607 Y100.258 E193.86932 F2400
G0 X151.007 Y101.546 F7200
G1 X151.007 Y116.107 E194.35360 F2400


; ------------------------------------
; Layer #0
; ------------------------------------
G21 ; mm
G90 ; abs
G92 E0 ;reset extr
G0 F600 Z1.450
;segType:HShell
G0 F3000 E-1.00000
G0 X124.766 Y89.540 F5400
G0 F3000 E0.00000
G1 X135.245 Y89.540 E0.34853 F2400
G0 X136.005 Y89.192 F5400
;segType:Perimeter
G1 X136.005 Y89.992 E0.37514 F1200
G1 X136.005 Y99.454 E0.68987
G1 X136.554 Y99.834 E0.71208
G1 X136.976 Y100.162 E0.72983
G1 X137.371 Y100.500 E0.74712
G1 X137.921 Y101.024 E0.77239
G1 X138.358 Y101.500 E0.79390
G1 X138.704 Y101.922 E0.81203
G1 X139.128 Y102.497 E0.83580
G1 X139.520 Y103.118 E0.86023
G1 X139.839 Y103.693 E0.88211
G1 X140.247 Y104.580 E0.91457
G1 X140.567 Y105.478 E0.94626
G1 X140.808 Y106.395 E0.97782
G1 X140.972 Y107.362 E1.01043
G1 X141.032 Y108.018 E1.03234
G1 X141.059 Y108.847 E1.05993
G1 X141.028 Y109.508 E1.08194
G1 X140.937 Y110.372 E1.11082
G1 X140.824 Y111.005 E1.13223
G1 X140.612 Y111.840 E1.16087
G1 X140.445 Y112.366 E1.17923
G1 X140.132 Y113.167 E1.20784
G1 X139.889 Y113.688 E1.22694
G1 X139.490 Y114.413 E1.25448
G1 X139.168 Y114.922 E1.27451
G1 X138.825 Y115.402 E1.29414
G1 X138.267 Y116.080 E1.32334
G1 X137.878 Y116.496 E1.34229
G1 X137.375 Y116.980 E1.36550
G1 X136.798 Y117.461 E1.39047
G1 X136.330 Y117.804 E1.40979
G1 X135.572 Y118.292 E1.43976
G1 X135.051 Y118.575 E1.45950
G1 X134.192 Y118.973 E1.49098
G1 X133.337 Y119.284 E1.52124
G1 X132.458 Y119.523 E1.55151
G1 X131.566 Y119.687 E1.58170
G1 X130.675 Y119.777 E1.61149
G1 X129.737 Y119.793 E1.64267
G1 X129.224 Y119.772 E1.65976
G1 X128.293 Y119.663 E1.69092
G1 X127.807 Y119.578 E1.70735
G1 X127.278 Y119.458 E1.72538
G1 X126.730 Y119.300 E1.74435
G1 X125.923 Y119.017 E1.77278
G1 X125.448 Y118.817 E1.78993
G1 X124.968 Y118.586 E1.80765
G1 X124.490 Y118.327 E1.82574
G1 X124.028 Y118.046 E1.84371
G1 X123.369 Y117.588 E1.87041
G1 X122.940 Y117.249 E1.88860
G1 X122.539 Y116.898 E1.90633
G1 X122.079 Y116.456 E1.92756
G1 X121.740 Y116.091 E1.94411
G1 X121.225 Y115.464 E1.97109
G1 X120.848 Y114.949 E1.99233
G1 X120.423 Y114.262 E2.01920
G1 X120.124 Y113.715 E2.03994
G1 X119.742 Y112.873 E2.07069
G1 X119.433 Y112.002 E2.10143
G1 X119.204 Y111.138 E2.13116
G1 X119.049 Y110.270 E2.16049
G1 X118.961 Y109.346 E2.19135
G1 X118.941 Y108.713 E2.21242
G1 X118.980 Y107.855 E2.24098
G1 X119.075 Y107.032 E2.26854
G1 X119.176 Y106.474 E2.28740
G1 X119.326 Y105.861 E2.30839
G1 X119.592 Y105.008 E2.33809
G1 X119.797 Y104.479 E2.35697
G1 X120.150 Y103.715 E2.38496
G1 X120.432 Y103.196 E2.40460
G1 X120.881 Y102.488 E2.43248
G1 X121.234 Y102.001 E2.45251
G1 X121.598 Y101.553 E2.47168
G1 X121.964 Y101.148 E2.48986
G1 X122.627 Y100.499 E2.52071
G1 X123.085 Y100.111 E2.54066
G1 X124.006 Y99.444 E2.57850
G1 X124.006 Y89.932 E2.89488
G1 X121.506 Y89.932 E2.97803
G1 X121.506 Y85.248 E3.13381
G1 X124.006 Y85.248 E3.21696
G1 X124.006 Y76.461 E3.50923
G1 X136.005 Y76.461 E3.90833
G1 X136.005 Y85.248 E4.20060
G1 X138.506 Y85.248 E4.28375
G1 X138.506 Y89.932 E4.43953
G1 X136.065 Y89.932 E4.52069
G0 X136.005 Y89.992 F5400
G0 X136.005 Y91.592
G0 X135.605 Y91.032
;segType:Loop
G1 X135.605 Y99.664 E4.80780 F2400
G1 X136.318 Y100.157 E4.83662
G1 X136.723 Y100.472 E4.85368
G1 X137.103 Y100.797 E4.87030
G1 X137.636 Y101.304 E4.89478
G1 X138.056 Y101.762 E4.91545
G1 X138.388 Y102.168 E4.93288
G1 X138.797 Y102.723 E4.95582
G1 X139.176 Y103.322 E4.97940
G1 X139.482 Y103.874 E5.00040
G1 X139.876 Y104.731 E5.03177
G1 X140.185 Y105.596 E5.06230
G1 X140.417 Y106.480 E5.09270
G1 X140.575 Y107.414 E5.12421
G1 X140.632 Y108.043 E5.14521
G1 X140.658 Y108.845 E5.17190
G1 X140.629 Y109.478 E5.19299
G1 X140.541 Y110.315 E5.22099
G1 X140.432 Y110.921 E5.24146
G1 X140.227 Y111.730 E5.26922
G1 X140.068 Y112.233 E5.28676
G1 X139.764 Y113.010 E5.31451
G1 X139.532 Y113.507 E5.33274
G1 X139.146 Y114.210 E5.35943
G1 X138.836 Y114.699 E5.37868
G1 X138.507 Y115.158 E5.39748
G1 X137.966 Y115.816 E5.42580
G1 X137.593 Y116.215 E5.44397
G1 X137.108 Y116.682 E5.46637
G1 X136.552 Y117.146 E5.49046
G1 X136.103 Y117.475 E5.50895
G1 X135.368 Y117.948 E5.53802
G1 X134.871 Y118.217 E5.55683
G1 X134.039 Y118.603 E5.58733
G1 X133.216 Y118.902 E5.61647
G1 X132.369 Y119.132 E5.64564
G1 X131.509 Y119.291 E5.67473
G1 X130.651 Y119.377 E5.70342
G1 X129.742 Y119.393 E5.73365
G1 X129.256 Y119.373 E5.74985
G1 X128.351 Y119.267 E5.78015
G1 X127.885 Y119.186 E5.79586
G1 X127.378 Y119.070 E5.81317
G1 X126.852 Y118.919 E5.83139
G1 X126.067 Y118.644 E5.85903
G1 X125.613 Y118.452 E5.87544
G1 X125.150 Y118.230 E5.89252
G1 X124.689 Y117.981 E5.90994
G1 X124.247 Y117.711 E5.92717
G1 X123.608 Y117.266 E5.95306
G1 X123.196 Y116.941 E5.97051
G1 X122.809 Y116.603 E5.98760
G1 X122.364 Y116.175 E6.00814
G1 X122.041 Y115.828 E6.02391
G1 X121.541 Y115.219 E6.05010
G1 X121.180 Y114.725 E6.07045
G1 X120.769 Y114.060 E6.09645
G1 X120.482 Y113.536 E6.11634
G1 X120.113 Y112.723 E6.14604
G1 X119.815 Y111.884 E6.17566
G1 X119.595 Y111.051 E6.20429
G1 X119.446 Y110.215 E6.23254
G1 X119.360 Y109.321 E6.26242
G1 X119.342 Y108.716 E6.28256
G1 X119.379 Y107.887 E6.31015
G1 X119.471 Y107.091 E6.33681
G1 X119.568 Y106.557 E6.35484
G1 X119.712 Y105.968 E6.37502
G1 X119.970 Y105.140 E6.40386
G1 X120.165 Y104.635 E6.42187
G1 X120.508 Y103.895 E6.44901
G1 X120.777 Y103.399 E6.46777
G1 X121.212 Y102.713 E6.49479
G1 X121.551 Y102.244 E6.51403
G1 X121.901 Y101.813 E6.53249
G1 X122.253 Y101.425 E6.54992
G1 X122.896 Y100.795 E6.57987
G1 X123.331 Y100.426 E6.59883
G1 X124.406 Y99.648 E6.64297
G1 X124.406 Y89.532 E6.97944
G1 X121.906 Y89.532 E7.06259
G1 X121.906 Y85.648 E7.19176
G1 X124.406 Y85.648 E7.27492
G1 X124.406 Y76.861 E7.56719
G1 X135.605 Y76.861 E7.93968
G1 X135.605 Y85.648 E8.23195
G1 X138.106 Y85.648 E8.31510
G1 X138.106 Y89.532 E8.44427
G1 X135.605 Y89.532 E8.52742
G1 X135.605 Y90.832 E8.57066
G0 F3000 E7.57066
G0 X126.074 Y99.945 F5400
G0 X125.750 Y100.093
G0 X124.948 Y100.533
G0 X124.366 Y100.924
G0 X123.720 Y101.432
G0 X123.236 Y101.875
G0 X122.704 Y102.443
G0 X122.250 Y103.015
G0 X121.843 Y103.614
G0 X121.482 Y104.239
G0 X121.395 Y104.419
G0 X119.693 Y106.046
G0 X119.712 Y105.968
G0 X119.970 Y105.140
G0 X120.223 Y105.540
G0 F3000 E8.57066
;segType:HShell
G0 X120.306 Y105.740 F5400
G1 X120.519 Y105.140 E8.60919 F2400
G1 X120.677 Y104.740 E8.63627
G1 X120.866 Y104.340 E8.66348
G1 X121.066 Y103.940 E8.69133
G1 X121.292 Y103.540 E8.72008
G1 X121.549 Y103.140 E8.74967
G1 X121.823 Y102.740 E8.77981
G1 X122.132 Y102.340 E8.81076
G1 X122.477 Y101.940 E8.84310
G1 X122.859 Y101.540 E8.87714
G1 X123.283 Y101.140 E8.91196
G1 X123.768 Y100.740 E8.94939
G1 X124.327 Y100.340 E8.99089
G1 X124.949 Y99.940 E9.03447
G0 X127.228 Y99.140 F5400
G1 X124.766 Y99.140 E9.11635 F2400
G0 X124.766 Y99.540 F5400
G1 X126.096 Y99.540 E9.16056 F2400
G0 X126.792 Y99.933 F5400
;segType:Perimeter
G1 X127.389 Y99.883 E9.18052 F1200
G1 X128.239 Y99.673 E9.20963
G1 X129.130 Y99.546 E9.23957
G1 X129.831 Y99.507 E9.26291
G1 X130.572 Y99.521 E9.28756
G1 X131.285 Y99.595 E9.31141
G1 X131.921 Y99.707 E9.33288
G1 X132.635 Y99.886 E9.35738
G1 X133.203 Y100.076 E9.37729
G1 X133.785 Y100.317 E9.39825
G1 X134.345 Y100.592 E9.41899
G1 X134.883 Y100.903 E9.43967
G1 X135.402 Y101.250 E9.46041
G1 X135.901 Y101.634 E9.48137
G1 X136.349 Y102.030 E9.50124
G1 X136.700 Y102.385 E9.51785
G1 X137.276 Y103.054 E9.54720
G1 X137.697 Y103.635 E9.57107
G1 X137.987 Y104.108 E9.58953
G1 X138.198 Y104.491 E9.60409
G1 X138.397 Y104.896 E9.61909
G1 X138.672 Y105.561 E9.64301
G1 X138.949 Y106.453 E9.67408
G1 X139.127 Y107.332 E9.70391
G1 X139.214 Y108.120 E9.73028
G1 X139.233 Y109.003 E9.75964
G1 X139.188 Y109.669 E9.78185
G1 X139.075 Y110.454 E9.80824
G1 X138.912 Y111.171 E9.83271
G1 X138.723 Y111.779 E9.85386
G1 X138.466 Y112.428 E9.87710
G1 X138.164 Y113.053 E9.90018
G1 X137.818 Y113.653 E9.92323
G1 X137.427 Y114.227 E9.94632
G1 X136.993 Y114.775 E9.96956
G1 X136.521 Y115.283 E9.99263
G1 X136.108 Y115.667 E10.01140
G1 X135.398 Y116.232 E10.04156
G1 X134.773 Y116.648 E10.06653
G1 X134.070 Y117.029 E10.09313
G1 X133.456 Y117.304 E10.11552
G1 X132.757 Y117.553 E10.14020
G1 X132.404 Y117.655 E10.15240
G1 X131.851 Y117.787 E10.17133
G1 X131.491 Y117.852 E10.18350
G1 X130.986 Y117.920 E10.20043
G1 X130.170 Y117.973 E10.22765
G1 X129.345 Y117.954 E10.25508
G1 X128.714 Y117.884 E10.27620
G1 X127.963 Y117.748 E10.30158
G1 X127.417 Y117.609 E10.32031
G1 X126.797 Y117.403 E10.34204
G1 X126.215 Y117.163 E10.36300
G1 X125.655 Y116.887 E10.38374
G1 X125.117 Y116.576 E10.40442
G1 X124.598 Y116.229 E10.42517
G1 X124.098 Y115.845 E10.44613
G1 X123.610 Y115.411 E10.46786
G1 X123.218 Y115.008 E10.48658
G1 X122.724 Y114.426 E10.51197
G1 X122.348 Y113.914 E10.53309
G1 X121.920 Y113.211 E10.56047
G1 X121.653 Y112.692 E10.57990
G1 X121.297 Y111.835 E10.61076
G1 X121.028 Y110.939 E10.64187
G1 X120.855 Y110.030 E10.67263
G1 X120.786 Y109.360 E10.69505
G1 X120.765 Y108.560 E10.72165
G1 X120.812 Y107.812 E10.74658
G1 X120.904 Y107.144 E10.76903
G1 X121.073 Y106.363 E10.79560
G1 X121.277 Y105.701 E10.81862
G1 X121.534 Y105.051 E10.84187
G1 X121.836 Y104.426 E10.86496
G1 X122.182 Y103.826 E10.88799
G1 X122.573 Y103.253 E10.91108
G1 X123.008 Y102.705 E10.93434
G1 X123.517 Y102.159 E10.95917
G1 X123.979 Y101.737 E10.97997
G1 X124.602 Y101.247 E11.00633
G1 X125.156 Y100.875 E11.02854
G1 X125.929 Y100.451 E11.05786
G1 X126.435 Y100.220 E11.07636
G1 X127.275 Y99.918 E11.10605
G0 X127.389 Y99.883 F5400
G0 X128.239 Y99.673
G0 X128.957 Y99.570
G0 X129.091 Y99.147
G0 X128.346 Y99.253
;segType:Loop
G1 X129.091 Y99.147 E11.13108 F2400
G1 X129.824 Y99.107 E11.15549
G1 X130.597 Y99.121 E11.18120
G1 X131.340 Y99.199 E11.20608
G1 X132.004 Y99.315 E11.22849
G1 X132.748 Y99.502 E11.25399
G1 X133.343 Y99.701 E11.27488
G1 X133.950 Y99.952 E11.29672
G1 X134.533 Y100.239 E11.31834
G1 X135.095 Y100.563 E11.33990
G1 X135.635 Y100.925 E11.36152
G1 X136.156 Y101.325 E11.38337
G1 X136.624 Y101.739 E11.40415
G1 X136.995 Y102.113 E11.42167
G1 X137.590 Y102.805 E11.45203
G1 X138.030 Y103.412 E11.47698
G1 X138.333 Y103.907 E11.49625
G1 X138.553 Y104.306 E11.51143
G1 X138.762 Y104.732 E11.52718
G1 X139.048 Y105.425 E11.55214
G1 X139.337 Y106.354 E11.58448
G1 X139.522 Y107.270 E11.61558
G1 X139.614 Y108.093 E11.64313
G1 X139.634 Y109.012 E11.67369
G1 X139.586 Y109.711 E11.69699
G1 X139.469 Y110.527 E11.72441
G1 X139.298 Y111.275 E11.74994
G1 X139.100 Y111.912 E11.77211
G1 X138.832 Y112.589 E11.79633
G1 X138.518 Y113.240 E11.82039
G1 X138.157 Y113.866 E11.84442
G1 X137.750 Y114.464 E11.86849
G1 X137.296 Y115.035 E11.89273
G1 X136.804 Y115.566 E11.91681
G1 X136.369 Y115.971 E11.93658
G1 X135.634 Y116.556 E11.96782
G1 X134.980 Y116.991 E11.99396
G1 X134.248 Y117.388 E12.02166
G1 X133.605 Y117.676 E12.04508
G1 X132.879 Y117.934 E12.07070
G1 X132.506 Y118.042 E12.08361
G1 X131.933 Y118.179 E12.10321
G1 X131.553 Y118.248 E12.11605
G1 X131.026 Y118.318 E12.13375
G1 X130.178 Y118.373 E12.16201
G1 X129.318 Y118.353 E12.19061
G1 X128.656 Y118.280 E12.21277
G1 X127.878 Y118.139 E12.23908
G1 X127.305 Y117.993 E12.25874
G1 X126.658 Y117.779 E12.28142
G1 X126.050 Y117.528 E12.30330
G1 X125.467 Y117.240 E12.32491
G1 X124.905 Y116.916 E12.34648
G1 X124.365 Y116.555 E12.36809
G1 X123.843 Y116.154 E12.38998
G1 X123.334 Y115.701 E12.41266
G1 X122.921 Y115.277 E12.43231
G1 X122.410 Y114.674 E12.45862
G1 X122.015 Y114.137 E12.48079
G1 X121.571 Y113.407 E12.50921
G1 X121.289 Y112.860 E12.52967
G1 X120.920 Y111.969 E12.56175
G1 X120.639 Y111.034 E12.59423
G1 X120.459 Y110.088 E12.62625
G1 X120.386 Y109.385 E12.64975
G1 X120.365 Y108.553 E12.67744
G1 X120.414 Y107.772 E12.70347
G1 X120.510 Y107.074 E12.72691
G1 X120.686 Y106.261 E12.75456
G1 X120.900 Y105.569 E12.77867
G1 X121.168 Y104.891 E12.80292
G1 X121.482 Y104.239 E12.82698
G1 X121.843 Y103.614 E12.85100
G1 X122.250 Y103.015 E12.87507
G1 X122.704 Y102.443 E12.89936
G1 X123.236 Y101.875 E12.92524
G1 X123.720 Y101.432 E12.94706
G1 X124.366 Y100.924 E12.97441
G1 X124.948 Y100.533 E12.99771
G1 X125.750 Y100.093 E13.02813
G1 X126.284 Y99.850 E13.04767
G1 X127.215 Y99.514 E13.08058
G1 X128.148 Y99.283 E13.11255
G0 F3000 E12.11255
G0 X124.766 Y85.940 F5400
G0 F3000 E13.11255
;segType:HShell
G1 X135.245 Y85.940 E13.46109 F2400
G0 X135.245 Y85.540 F5400
G1 X124.766 Y85.540 E13.80962 F2400
G0 X124.766 Y85.140 F5400
G1 X135.245 Y85.140 E14.15816 F2400
G0 X135.245 Y84.740 F5400
G1 X124.766 Y84.740 E14.50669 F2400
G0 X124.766 Y84.340 F5400
G1 X135.245 Y84.340 E14.85523 F2400
G0 X135.245 Y83.940 F5400
G1 X124.766 Y83.940 E15.20376 F2400
G0 X124.766 Y83.540 F5400
G1 X135.245 Y83.540 E15.55229 F2400
G0 X135.245 Y83.140 F5400
G1 X124.766 Y83.140 E15.90083 F2400
G0 X124.766 Y82.740 F5400
G1 X135.245 Y82.740 E16.24936 F2400
G0 X135.245 Y82.340 F5400
G1 X124.766 Y82.340 E16.59790 F2400
G0 X124.766 Y81.940 F5400
G1 X135.245 Y81.940 E16.94643 F2400
G0 X135.245 Y81.540 F5400
G1 X124.766 Y81.540 E17.29496 F2400
G0 X124.766 Y81.140 F5400
G1 X135.245 Y81.140 E17.64350 F2400
G0 X135.245 Y80.740 F5400
G1 X124.766 Y80.740 E17.99203 F2400
G0 X124.766 Y80.340 F5400
G1 X135.245 Y80.340 E18.34057 F2400
G0 X135.245 Y79.940 F5400
G1 X124.766 Y79.940 E18.68910 F2400
G0 X124.766 Y79.540 F5400
G1 X135.245 Y79.540 E19.03763 F2400
G0 X135.245 Y79.140 F5400
G1 X124.766 Y79.140 E19.38617 F2400
G0 X124.766 Y78.740 F5400
G1 X135.245 Y78.740 E19.73470 F2400
G0 X135.245 Y78.340 F5400
G1 X124.766 Y78.340 E20.08323 F2400
G0 X124.766 Y77.940 F5400
G1 X135.245 Y77.940 E20.43177 F2400
G0 X135.245 Y77.540 F5400
G1 X124.766 Y77.540 E20.78030 F2400
G0 F3000 E19.78030
G0 X124.959 Y76.861 F5400
G0 X124.406 Y78.807
G0 X124.406 Y85.648
G0 X122.463 Y85.648
G0 X122.266 Y86.340
G0 F3000 E20.78030
G1 X137.745 Y86.340 E21.29514 F2400
G0 X137.745 Y86.740 F5400
G1 X122.266 Y86.740 E21.80998 F2400
G0 X122.266 Y87.140 F5400
G1 X137.745 Y87.140 E22.32482 F2400
G0 X137.745 Y87.540 F5400
G1 X122.266 Y87.540 E22.83966 F2400
G0 X122.266 Y87.940 F5400
G1 X137.745 Y87.940 E23.35450 F2400
G0 X137.745 Y88.340 F5400
G1 X122.266 Y88.340 E23.86934 F2400
G0 X122.266 Y88.740 F5400
G1 X137.745 Y88.740 E24.38418 F2400
G0 X137.745 Y89.140 F5400
G1 X122.266 Y89.140 E24.89901 F2400
G0 F3000 E23.89901
G0 X121.906 Y89.025 F5400
G0 X123.491 Y89.532
G0 X124.406 Y89.532
G0 X124.406 Y89.825
G0 X124.766 Y89.940
G0 F3000 E24.89901
G1 X135.245 Y89.940 E25.24755 F2400
G0 X135.245 Y90.340 F5400
G1 X124.766 Y90.340 E25.59608 F2400
G0 X124.766 Y90.740 F5400
G1 X135.245 Y90.740 E25.94462 F2400
G0 X135.245 Y91.140 F5400
G1 X124.766 Y91.140 E26.29315 F2400
G0 X124.766 Y91.540 F5400
G1 X135.245 Y91.540 E26.64168 F2400
G0 X135.245 Y91.940 F5400
G1 X124.766 Y91.940 E26.99022 F2400
G0 X124.766 Y92.340 F5400
G1 X135.245 Y92.340 E27.33875 F2400
G0 X135.245 Y92.740 F5400
G1 X124.766 Y92.740 E27.68728 F2400
G0 X124.766 Y93.140 F5400
G1 X135.245 Y93.140 E28.03582 F2400
G0 X135.245 Y93.540 F5400
G1 X124.766 Y93.540 E28.38435 F2400
G0 X124.766 Y93.940 F5400
G1 X135.245 Y93.940 E28.73288 F2400
G0 X135.245 Y94.340 F5400
G1 X124.766 Y94.340 E29.08142 F2400
G0 X124.766 Y94.740 F5400
G1 X135.245 Y94.740 E29.42995 F2400
G0 X135.245 Y95.140 F5400
G1 X124.766 Y95.140 E29.77849 F2400
G0 X124.766 Y95.540 F5400
G1 X135.245 Y95.540 E30.12702 F2400
G0 X135.245 Y95.940 F5400
G1 X124.766 Y95.940 E30.47555 F2400
G0 X124.766 Y96.340 F5400
G1 X135.245 Y96.340 E30.82409 F2400
G0 X135.245 Y96.740 F5400
G1 X124.766 Y96.740 E31.17262 F2400
G0 X124.766 Y97.140 F5400
G1 X135.245 Y97.140 E31.52115 F2400
G0 X135.245 Y97.540 F5400
G1 X124.766 Y97.540 E31.86969 F2400
G0 X124.766 Y97.940 F5400
G1 X135.245 Y97.940 E32.21822 F2400
G0 X135.245 Y98.340 F5400
G1 X124.766 Y98.340 E32.56675 F2400
G0 X124.766 Y98.740 F5400
G1 X135.245 Y98.740 E32.91529 F2400
G0 X135.245 Y99.140 F5400
G1 X132.785 Y99.140 E32.99713 F2400
G0 X133.895 Y99.540 F5400
G1 X135.245 Y99.540 E33.04204 F2400
G0 X134.740 Y99.740 F5400
G1 X135.678 Y100.340 E33.12142 F2400
G1 X136.233 Y100.740 E33.16640
G1 X136.715 Y101.140 E33.20768
G1 X137.147 Y101.540 E33.24518
G1 X137.525 Y101.940 E33.28073
G1 X137.864 Y102.340 E33.31482
G1 X138.175 Y102.740 E33.34798
G1 X138.456 Y103.140 E33.37917
G1 X138.707 Y103.540 E33.40889
G1 X138.934 Y103.940 E33.43833
G1 X139.135 Y104.340 E33.46695
G1 X139.319 Y104.740 E33.49430
G1 X139.480 Y105.140 E33.52163
G1 X139.622 Y105.540 E33.54817
G1 X139.744 Y105.940 E33.57488
G1 X139.854 Y106.340 E33.60127
G1 X139.939 Y106.740 E33.62674
G1 X140.013 Y107.140 E33.65277
G1 X140.070 Y107.540 E33.67769
G1 X140.110 Y107.940 E33.70348
G1 X140.130 Y108.340 E33.72863
G1 X140.141 Y108.740 E33.75378
G1 X140.135 Y109.140 E33.77927
G1 X140.110 Y109.540 E33.80409
G1 X140.068 Y109.940 E33.82922
G1 X140.015 Y110.340 E33.85429
G1 X139.944 Y110.740 E33.88015
G1 X139.852 Y111.140 E33.90587
G1 X139.748 Y111.540 E33.93139
G1 X139.626 Y111.940 E33.95723
G1 X139.479 Y112.340 E33.98337
G1 X139.321 Y112.740 E34.01008
G1 X139.136 Y113.140 E34.03696
G1 X138.932 Y113.540 E34.06519
G1 X138.706 Y113.940 E34.09362
G1 X138.453 Y114.340 E34.12296
G1 X138.177 Y114.740 E34.15348
G1 X137.865 Y115.140 E34.18451
G1 X137.524 Y115.540 E34.21637
G1 X137.144 Y115.940 E34.25025
G1 X136.713 Y116.340 E34.28569
G1 X136.229 Y116.740 E34.32397
G1 X135.679 Y117.140 E34.36512
G1 X135.030 Y117.540 E34.41040
G1 X134.255 Y117.940 E34.46140
G0 X133.708 Y118.340 F5400
G1 X132.773 Y118.340 E34.49249 F2400
G0 X132.440 Y118.740 F5400
G1 X127.548 Y118.740 E34.65520 F2400
G0 F3000 E33.65520
G0 X127.796 Y119.166 F5400
G0 X127.067 Y117.914
G0 X126.658 Y117.779
G0 X126.050 Y117.528
G0 X125.467 Y117.240
G0 X124.905 Y116.916
G0 X124.365 Y116.555
G0 X123.843 Y116.154
G0 X123.334 Y115.701
G0 X122.921 Y115.277
G0 X122.410 Y114.674
G0 X122.015 Y114.137
G0 X121.571 Y113.407
G0 X121.289 Y112.860
G0 X120.920 Y111.969
G0 X120.639 Y111.034
G0 X120.459 Y110.088
G0 X120.386 Y109.385
G0 X120.365 Y108.553
G0 X120.414 Y107.772
G0 X120.510 Y107.074
G0 X120.577 Y106.763
G0 X119.852 Y105.518
G0 X119.712 Y105.968
G0 X120.098 Y105.940
G0 F3000 E34.65520
G0 X120.307 Y105.740 F5400
G1 X120.146 Y106.340 E34.69388 F2400
G1 X120.057 Y106.740 E34.71954
G1 X119.983 Y107.140 E34.74559
G1 X119.932 Y107.540 E34.77132
G1 X119.890 Y107.940 E34.79635
G1 X119.868 Y108.340 E34.82177
G1 X119.856 Y108.740 E34.84657
G1 X119.867 Y109.140 E34.87205
G1 X119.892 Y109.540 E34.89740
G1 X119.931 Y109.940 E34.92214
G1 X119.987 Y110.340 E34.94714
G1 X120.061 Y110.740 E34.97263
G1 X120.143 Y111.140 E34.99853
G1 X120.256 Y111.540 E35.02382
G1 X120.376 Y111.940 E35.05029
G1 X120.521 Y112.340 E35.07670
G1 X120.683 Y112.740 E35.10364
G1 X120.863 Y113.140 E35.13132
G1 X121.065 Y113.540 E35.15878
G1 X121.296 Y113.940 E35.18701
G1 X121.542 Y114.340 E35.21659
G1 X121.824 Y114.740 E35.24587
G1 X122.137 Y115.140 E35.27699
G1 X122.472 Y115.540 E35.30946
G1 X122.851 Y115.940 E35.34303
G1 X123.283 Y116.340 E35.37842
G1 X123.769 Y116.740 E35.41626
G1 X124.324 Y117.140 E35.45722
G1 X124.961 Y117.540 E35.50174
G1 X125.741 Y117.940 E35.55225
G0 X127.207 Y118.340 F5400
G1 X126.289 Y118.340 E35.58277 F2400
; ------------------------------------
; Layer #1
; ------------------------------------
G92 E0 ;reset extr
G0 F3000 E-1.00000
G0 F600 Z1.400
G0 X126.052 Y118.993 F7200
G0 X126.379 Y118.092
G0 X125.841 Y117.870
G0 X125.263 Y117.586
G0 X124.708 Y117.265
G0 X124.173 Y116.907
G0 X123.658 Y116.511
G0 X123.164 Y116.078
G0 X122.688 Y115.605
G0 X122.237 Y115.097
G0 X121.792 Y114.503
G0 X121.379 Y113.877
G0 X120.994 Y113.154
G0 X120.648 Y112.364
G0 X120.447 Y111.795
G0 X120.343 Y111.448
G0 X120.196 Y110.857
G0 X120.047 Y109.981
G0 X119.972 Y109.126
G0 X119.979 Y108.325
G0 X120.037 Y107.543
G0 X120.161 Y106.790
G0 X120.333 Y106.067
G0 X120.553 Y105.367
G0 X120.821 Y104.690
G0 X121.135 Y104.038
G0 X121.496 Y103.413
G0 X121.903 Y102.815
G0 X122.356 Y102.245
G0 X122.852 Y101.705
G0 X123.392 Y101.194
G0 X123.982 Y100.710
G0 X124.630 Y100.269
G0 X125.320 Y99.862
G0 X126.098 Y99.500
G0 X126.931 Y99.191
G0 X127.517 Y99.023
G0 X127.869 Y98.938
G0 X128.463 Y98.829
G0 X129.320 Y98.733
G0 X130.132 Y98.705
G0 X130.887 Y98.750
G0 X131.606 Y98.835
G0 X132.289 Y98.974
G0 X132.937 Y99.150
G0 X133.220 Y99.246
G0 X135.605 Y92.675
G0 X135.605 Y89.409
G0 X136.791 Y89.409
G0 X136.922 Y89.049
G0 F3000 E0.00000
;segType:HShell
G1 X136.922 Y86.109 E0.09778 F3600
G0 X136.522 Y86.109 F7200
G1 X136.522 Y89.049 E0.19556 F3600
G0 X136.122 Y89.049 F7200
G1 X136.122 Y86.109 E0.29334 F3600
G0 X135.722 Y86.109 F7200
G1 X135.722 Y89.049 E0.39112 F3600
G0 X136.005 Y89.069 F7200
;segType:Perimeter
G1 X136.005 Y89.869 E0.41773 F1800
G1 X136.005 Y99.058 E0.72336
G1 X136.684 Y99.523 E0.75073
G1 X137.160 Y99.885 E0.77059
G1 X137.603 Y100.263 E0.78999
G1 X138.067 Y100.708 E0.81137
G1 X138.503 Y101.171 E0.83251
G1 X138.922 Y101.663 E0.85400
G1 X139.330 Y102.218 E0.87690
G1 X139.720 Y102.805 E0.90035
G1 X140.089 Y103.467 E0.92556
G1 X140.435 Y104.191 E0.95224
G1 X140.752 Y104.996 E0.98103
G1 X141.028 Y105.910 E1.01279
G1 X141.176 Y106.570 E1.03527
G1 X141.305 Y107.401 E1.06326
G1 X141.376 Y108.210 E1.09026
G1 X141.381 Y108.979 E1.11583
G1 X141.345 Y109.732 E1.14093
G1 X141.253 Y110.464 E1.16545
G1 X141.120 Y111.177 E1.18956
G1 X140.957 Y111.835 E1.21212
G1 X140.734 Y112.541 E1.23673
G1 X140.480 Y113.190 E1.25994
G1 X140.188 Y113.821 E1.28307
G1 X139.859 Y114.432 E1.30613
G1 X139.494 Y115.022 E1.32919
G1 X139.094 Y115.590 E1.35232
G1 X138.658 Y116.136 E1.37555
G1 X138.182 Y116.659 E1.39906
G1 X137.670 Y117.152 E1.42271
G1 X137.120 Y117.623 E1.44680
G1 X136.540 Y118.063 E1.47101
G1 X135.897 Y118.477 E1.49644
G1 X135.218 Y118.862 E1.52241
G1 X134.494 Y119.200 E1.54900
G1 X133.709 Y119.503 E1.57696
G1 X132.862 Y119.760 E1.60643
G1 X131.931 Y119.961 E1.63808
G1 X131.279 Y120.052 E1.65999
G1 X130.478 Y120.113 E1.68671
G1 X129.720 Y120.125 E1.71192
G1 X129.017 Y120.081 E1.73536
G1 X128.342 Y120.006 E1.75794
G1 X127.697 Y119.889 E1.77975
G1 X127.078 Y119.742 E1.80089
G1 X126.435 Y119.554 E1.82319
G1 X125.911 Y119.368 E1.84167
G1 X125.360 Y119.137 E1.86154
G1 X124.826 Y118.880 E1.88125
G1 X124.308 Y118.599 E1.90086
G1 X123.805 Y118.291 E1.92047
G1 X123.316 Y117.957 E1.94018
G1 X122.840 Y117.595 E1.96005
G1 X122.381 Y117.202 E1.98015
G1 X121.933 Y116.772 E2.00082
G1 X121.497 Y116.309 E2.02197
G1 X121.074 Y115.813 E2.04364
G1 X120.670 Y115.262 E2.06636
G1 X120.280 Y114.675 E2.08980
G1 X119.911 Y114.013 E2.11502
G1 X119.565 Y113.289 E2.14170
G1 X119.248 Y112.484 E2.17049
G1 X118.972 Y111.570 E2.20224
G1 X118.824 Y110.910 E2.22473
G1 X118.695 Y110.078 E2.25272
G1 X118.624 Y109.270 E2.27971
G1 X118.619 Y108.501 E2.30527
G1 X118.662 Y107.684 E2.33249
G1 X118.747 Y107.016 E2.35490
G1 X118.880 Y106.304 E2.37899
G1 X119.065 Y105.566 E2.40427
G1 X119.266 Y104.940 E2.42616
G1 X119.521 Y104.289 E2.44940
G1 X119.812 Y103.658 E2.47252
G1 X120.141 Y103.048 E2.49558
G1 X120.506 Y102.458 E2.51865
G1 X120.906 Y101.890 E2.54177
G1 X121.342 Y101.344 E2.56501
G1 X121.791 Y100.849 E2.58721
G1 X122.330 Y100.328 E2.61217
G1 X122.880 Y99.857 E2.63626
G1 X123.466 Y99.412 E2.66072
G1 X124.006 Y99.052 E2.68231
G1 X124.006 Y89.809 E2.98973
G1 X121.506 Y89.809 E3.07288
G1 X121.506 Y85.349 E3.22123
G1 X124.006 Y85.349 E3.30438
G1 X124.006 Y76.461 E3.60000
G1 X136.005 Y76.461 E3.99910
G1 X136.005 Y85.349 E4.29472
G1 X138.506 Y85.349 E4.37787
G1 X138.506 Y89.809 E4.52621
G1 X136.065 Y89.809 E4.60737
G0 X136.005 Y89.869 F7200
G0 X136.005 Y91.469
G0 X135.605 Y90.909
;segType:Loop
G1 X135.605 Y99.269 E4.88542 F3600
G1 X136.450 Y99.847 E4.91946
G1 X136.908 Y100.196 E4.93862
G1 X137.335 Y100.560 E4.95727
G1 X137.783 Y100.990 E4.97793
G1 X138.205 Y101.437 E4.99838
G1 X138.608 Y101.911 E5.01907
G1 X139.002 Y102.447 E5.04117
G1 X139.378 Y103.013 E5.06379
G1 X139.734 Y103.651 E5.08808
G1 X140.068 Y104.350 E5.11387
G1 X140.374 Y105.127 E5.14163
G1 X140.640 Y106.012 E5.17237
G1 X140.782 Y106.645 E5.19394
G1 X140.908 Y107.450 E5.22104
G1 X140.976 Y108.229 E5.24704
G1 X140.981 Y108.970 E5.27171
G1 X140.946 Y109.698 E5.29593
G1 X140.858 Y110.402 E5.31955
G1 X140.729 Y111.092 E5.34288
G1 X140.572 Y111.727 E5.36463
G1 X140.357 Y112.407 E5.38837
G1 X140.112 Y113.033 E5.41073
G1 X139.830 Y113.642 E5.43306
G1 X139.512 Y114.232 E5.45532
G1 X139.161 Y114.801 E5.47758
G1 X138.774 Y115.350 E5.49991
G1 X138.354 Y115.876 E5.52231
G1 X137.895 Y116.380 E5.54496
G1 X137.401 Y116.856 E5.56777
G1 X136.869 Y117.311 E5.59109
G1 X136.310 Y117.735 E5.61440
G1 X135.690 Y118.135 E5.63894
G1 X135.035 Y118.506 E5.66400
G1 X134.337 Y118.832 E5.68961
G1 X133.579 Y119.125 E5.71663
G1 X132.761 Y119.372 E5.74505
G1 X131.861 Y119.566 E5.77567
G1 X131.236 Y119.654 E5.79668
G1 X130.459 Y119.714 E5.82258
G1 X129.729 Y119.725 E5.84686
G1 X129.051 Y119.682 E5.86946
G1 X128.400 Y119.610 E5.89126
G1 X127.779 Y119.497 E5.91226
G1 X127.180 Y119.355 E5.93271
G1 X126.558 Y119.173 E5.95428
G1 X126.056 Y118.995 E5.97201
G1 X125.524 Y118.772 E5.99118
G1 X125.008 Y118.524 E6.01022
G1 X124.508 Y118.252 E6.02915
G1 X124.022 Y117.955 E6.04808
G1 X123.550 Y117.632 E6.06711
G1 X123.092 Y117.283 E6.08627
G1 X122.650 Y116.906 E6.10560
G1 X122.217 Y116.490 E6.12557
G1 X121.795 Y116.042 E6.14604
G1 X121.388 Y115.564 E6.16690
G1 X120.998 Y115.033 E6.18883
G1 X120.622 Y114.467 E6.21144
G1 X120.267 Y113.829 E6.23572
G1 X119.932 Y113.130 E6.26151
G1 X119.626 Y112.352 E6.28929
G1 X119.360 Y111.468 E6.32001
G1 X119.218 Y110.835 E6.34158
G1 X119.092 Y110.030 E6.36868
G1 X119.024 Y109.251 E6.39469
G1 X119.019 Y108.511 E6.41932
G1 X119.061 Y107.720 E6.44565
G1 X119.143 Y107.078 E6.46719
G1 X119.271 Y106.389 E6.49049
G1 X119.450 Y105.676 E6.51493
G1 X119.643 Y105.074 E6.53597
G1 X119.889 Y104.447 E6.55838
G1 X120.170 Y103.837 E6.58070
G1 X120.488 Y103.248 E6.60297
G1 X120.839 Y102.678 E6.62523
G1 X121.226 Y102.130 E6.64756
G1 X121.647 Y101.603 E6.66997
G1 X122.078 Y101.128 E6.69132
G1 X122.599 Y100.624 E6.71544
G1 X123.131 Y100.168 E6.73874
G1 X123.699 Y99.738 E6.76241
G1 X124.406 Y99.266 E6.79071
G1 X124.406 Y89.409 E7.11854
G1 X121.906 Y89.409 E7.20170
G1 X121.906 Y85.749 E7.32343
G1 X124.406 Y85.749 E7.40659
G1 X124.406 Y76.861 E7.70221
G1 X135.605 Y76.861 E8.07470
G1 X135.605 Y85.749 E8.37031
G1 X138.106 Y85.749 E8.45347
G1 X138.106 Y89.409 E8.57520
G1 X135.605 Y89.409 E8.65836
G1 X135.605 Y90.709 E8.70160
G0 F3000 E7.70160
G0 X135.605 Y90.709 F7200
G0 X125.869 Y76.861
G0 X126.122 Y77.221
G0 F3000 E8.70160
;segType:HShell
G1 X126.122 Y99.107 E9.42952 F3600
G0 X126.517 Y99.610 F7200
;segType:Perimeter
G1 X127.114 Y99.555 E9.44948 F1800
G1 X127.619 Y99.410 E9.46694
G1 X127.952 Y99.330 E9.47834
G1 X128.521 Y99.225 E9.49760
G1 X129.349 Y99.132 E9.52529
G1 X130.127 Y99.106 E9.55119
G1 X130.852 Y99.149 E9.57533
G1 X131.543 Y99.230 E9.59848
G1 X132.196 Y99.364 E9.62066
G1 X132.820 Y99.533 E9.64216
G1 X133.419 Y99.737 E9.66320
G1 X133.995 Y99.975 E9.68392
G1 X134.548 Y100.247 E9.70444
G1 X135.081 Y100.555 E9.72490
G1 X135.594 Y100.898 E9.74542
G1 X136.088 Y101.277 E9.76613
G1 X136.563 Y101.694 E9.78718
G1 X137.022 Y102.150 E9.80867
G1 X137.464 Y102.649 E9.83085
G1 X137.881 Y103.207 E9.85401
G1 X138.277 Y103.808 E9.87796
G1 X138.646 Y104.500 E9.90404
G1 X138.979 Y105.263 E9.93175
G1 X139.173 Y105.808 E9.95099
G1 X139.271 Y106.137 E9.96239
G1 X139.412 Y106.705 E9.98185
G1 X139.556 Y107.550 E10.01039
G1 X139.628 Y108.370 E10.03774
G1 X139.621 Y109.138 E10.06330
G1 X139.565 Y109.889 E10.08835
G1 X139.447 Y110.611 E10.11266
G1 X139.281 Y111.306 E10.13645
G1 X139.069 Y111.979 E10.15991
G1 X138.813 Y112.629 E10.18313
G1 X138.511 Y113.254 E10.20622
G1 X138.165 Y113.854 E10.22926
G1 X137.774 Y114.428 E10.25235
G1 X137.340 Y114.975 E10.27558
G1 X136.863 Y115.494 E10.29905
G1 X136.343 Y115.986 E10.32283
G1 X135.779 Y116.449 E10.34713
G1 X135.156 Y116.873 E10.37219
G1 X134.494 Y117.263 E10.39775
G1 X133.748 Y117.610 E10.42511
G1 X132.944 Y117.909 E10.45364
G1 X132.381 Y118.070 E10.47310
G1 X132.048 Y118.150 E10.48450
G1 X131.479 Y118.255 E10.50375
G1 X130.651 Y118.347 E10.53145
G1 X129.873 Y118.374 E10.55735
G1 X129.148 Y118.331 E10.58149
G1 X128.457 Y118.250 E10.60464
G1 X127.804 Y118.116 E10.62682
G1 X127.180 Y117.947 E10.64832
G1 X126.581 Y117.743 E10.66935
G1 X126.005 Y117.505 E10.69007
G1 X125.452 Y117.233 E10.71059
G1 X124.919 Y116.925 E10.73105
G1 X124.406 Y116.582 E10.75158
G1 X123.912 Y116.202 E10.77230
G1 X123.437 Y115.785 E10.79333
G1 X122.978 Y115.330 E10.81482
G1 X122.547 Y114.844 E10.83642
G1 X122.120 Y114.273 E10.86016
G1 X121.723 Y113.672 E10.88411
G1 X121.354 Y112.980 E10.91019
G1 X121.021 Y112.217 E10.93790
G1 X120.827 Y111.671 E10.95714
G1 X120.729 Y111.343 E10.96855
G1 X120.588 Y110.775 E10.98801
G1 X120.444 Y109.930 E11.01652
G1 X120.372 Y109.110 E11.04390
G1 X120.379 Y108.342 E11.06945
G1 X120.435 Y107.590 E11.09450
G1 X120.553 Y106.869 E11.11881
G1 X120.719 Y106.173 E11.14260
G1 X120.931 Y105.501 E11.16606
G1 X121.187 Y104.851 E11.18929
G1 X121.489 Y104.226 E11.21238
G1 X121.835 Y103.626 E11.23541
G1 X122.226 Y103.052 E11.25850
G1 X122.660 Y102.505 E11.28173
G1 X123.137 Y101.986 E11.30519
G1 X123.657 Y101.494 E11.32899
G1 X124.222 Y101.031 E11.35329
G1 X124.845 Y100.607 E11.37835
G1 X125.507 Y100.217 E11.40390
G1 X126.252 Y99.869 E11.43126
G1 X127.000 Y99.592 E11.45779
G0 X127.114 Y99.555 F7200
G0 X127.619 Y99.410
G0 X127.952 Y99.330
G0 X128.521 Y99.225
G0 X128.674 Y99.208
G0 X128.463 Y98.829
G0 X127.968 Y98.920
;segType:Loop
G1 X128.463 Y98.829 E11.47453 F3600
G1 X129.320 Y98.733 E11.50321
G1 X130.132 Y98.705 E11.53025
G1 X130.887 Y98.750 E11.55540
G1 X131.606 Y98.835 E11.57949
G1 X132.289 Y98.974 E11.60265
G1 X132.937 Y99.150 E11.62499
G1 X133.560 Y99.362 E11.64688
G1 X134.160 Y99.610 E11.66846
G1 X134.737 Y99.894 E11.68986
G1 X135.292 Y100.215 E11.71120
G1 X135.827 Y100.573 E11.73259
G1 X136.341 Y100.968 E11.75417
G1 X136.836 Y101.402 E11.77606
G1 X137.313 Y101.875 E11.79839
G1 X137.775 Y102.396 E11.82155
G1 X138.208 Y102.977 E11.84566
G1 X138.621 Y103.603 E11.87062
G1 X139.006 Y104.325 E11.89783
G1 X139.352 Y105.116 E11.92653
G1 X139.553 Y105.684 E11.94659
G1 X139.657 Y106.031 E11.95863
G1 X139.804 Y106.623 E11.97889
G1 X139.953 Y107.499 E12.00847
G1 X140.028 Y108.354 E12.03702
G1 X140.021 Y109.155 E12.06364
G1 X139.963 Y109.937 E12.08972
G1 X139.839 Y110.689 E12.11509
G1 X139.667 Y111.413 E12.13983
G1 X139.447 Y112.113 E12.16423
G1 X139.179 Y112.789 E12.18842
G1 X138.865 Y113.441 E12.21249
G1 X138.504 Y114.066 E12.23651
G1 X138.097 Y114.665 E12.26059
G1 X137.644 Y115.235 E12.28478
G1 X137.148 Y115.775 E12.30919
G1 X136.608 Y116.286 E12.33391
G1 X136.018 Y116.770 E12.35928
G1 X135.370 Y117.211 E12.38537
G1 X134.680 Y117.617 E12.41200
G1 X133.902 Y117.980 E12.44055
G1 X133.069 Y118.289 E12.47011
G1 X132.483 Y118.457 E12.49037
G1 X132.131 Y118.541 E12.50242
G1 X131.537 Y118.651 E12.52249
G1 X130.680 Y118.747 E12.55118
G1 X129.868 Y118.774 E12.57821
G1 X129.113 Y118.730 E12.60336
G1 X128.394 Y118.645 E12.62746
G1 X127.711 Y118.505 E12.65063
G1 X127.063 Y118.329 E12.67296
G1 X126.440 Y118.118 E12.69483
G1 X125.841 Y117.870 E12.71642
G1 X125.263 Y117.586 E12.73782
G1 X124.708 Y117.265 E12.75916
G1 X124.173 Y116.907 E12.78056
G1 X123.658 Y116.511 E12.80215
G1 X123.164 Y116.078 E12.82402
G1 X122.688 Y115.605 E12.84634
G1 X122.237 Y115.097 E12.86892
G1 X121.792 Y114.503 E12.89361
G1 X121.379 Y113.877 E12.91857
G1 X120.994 Y113.154 E12.94579
G1 X120.648 Y112.364 E12.97449
G1 X120.447 Y111.795 E12.99455
G1 X120.343 Y111.448 E13.00661
G1 X120.196 Y110.857 E13.02686
G1 X120.047 Y109.981 E13.05642
G1 X119.972 Y109.126 E13.08498
G1 X119.979 Y108.325 E13.11160
G1 X120.037 Y107.543 E13.13768
G1 X120.161 Y106.790 E13.16306
G1 X120.333 Y106.067 E13.18779
G1 X120.553 Y105.367 E13.21219
G1 X120.821 Y104.690 E13.23639
G1 X121.135 Y104.038 E13.26047
G1 X121.496 Y103.413 E13.28448
G1 X121.903 Y102.815 E13.30854
G1 X122.356 Y102.245 E13.33275
G1 X122.852 Y101.705 E13.35716
G1 X123.392 Y101.194 E13.38189
G1 X123.982 Y100.710 E13.40725
G1 X124.630 Y100.269 E13.43334
G1 X125.320 Y99.862 E13.45997
G1 X126.098 Y99.500 E13.48851
G1 X126.931 Y99.191 E13.51807
G1 X127.517 Y99.023 E13.53833
G0 X125.722 Y99.278 F7200
;segType:HShell
G1 X125.722 Y77.221 E14.27195 F3600
G0 X125.322 Y77.221 F7200
G1 X125.322 Y99.464 E15.01176 F3600
G0 X124.922 Y99.679 F7200
G1 X124.922 Y77.221 E15.75873 F3600
G0 X126.522 Y77.221 F7200
G1 X126.522 Y98.959 E16.48173 F3600
G0 X126.922 Y98.819 F7200
G1 X126.922 Y77.221 E17.20008 F3600
G0 X127.322 Y77.221 F7200
G1 X127.322 Y98.704 E17.91461 F3600
G0 X127.722 Y98.603 F7200
G1 X127.722 Y77.221 E18.62580 F3600
G0 X128.122 Y77.221 F7200
G1 X128.122 Y98.526 E19.33440 F3600
G0 X128.522 Y98.460 F7200
G1 X128.522 Y77.221 E20.04082 F3600
G0 X128.922 Y77.221 F7200
G1 X128.922 Y98.415 E20.74575 F3600
G0 X129.322 Y98.373 F7200
G1 X129.322 Y77.221 E21.44926 F3600
G0 X129.722 Y77.221 F7200
G1 X129.722 Y98.359 E22.15232 F3600
G0 X130.122 Y98.345 F7200
G1 X130.122 Y77.221 E22.85491 F3600
G0 X130.522 Y77.221 F7200
G1 X130.522 Y98.368 E23.55826 F3600
G0 X130.922 Y98.392 F7200
G1 X130.922 Y77.221 E24.26240 F3600
G0 X131.322 Y77.221 F7200
G1 X131.322 Y98.439 E24.96811 F3600
G0 X131.722 Y98.491 F7200
G1 X131.722 Y77.221 E25.67556 F3600
G0 X132.122 Y77.221 F7200
G1 X132.122 Y98.573 E26.38572 F3600
G0 X132.522 Y98.664 F7200
G1 X132.522 Y77.221 E27.09894 F3600
G0 X132.922 Y77.221 F7200
G1 X132.922 Y98.773 E27.81576 F3600
G0 X133.322 Y98.901 F7200
G1 X133.322 Y77.221 E28.53684 F3600
G0 X133.722 Y77.221 F7200
G1 X133.722 Y99.039 E29.26252 F3600
G0 X134.122 Y99.205 F7200
G1 X134.122 Y77.221 E29.99371 F3600
G0 X134.522 Y77.221 F7200
G1 X134.522 Y99.387 E30.73096 F3600
G0 X134.922 Y99.585 F7200
G1 X134.922 Y77.221 E31.47480 F3600
G0 F3000 E30.47480
G0 X135.322 Y86.109 F7200
G0 F3000 E31.47480
G1 X135.322 Y89.049 E31.57258 F3600
G0 X137.322 Y89.049 F7200
G1 X137.322 Y86.109 E31.67036 F3600
G0 X137.722 Y86.109 F7200
G1 X137.722 Y89.049 E31.76814 F3600
G0 F3000 E30.76814
G0 X137.639 Y89.409 F7200
G0 X135.605 Y89.409
G0 X135.605 Y98.275
G0 X135.176 Y100.148
G0 X135.322 Y99.511
G0 F3000 E31.76814
G0 X135.122 Y99.532 F7200
G1 X135.722 Y99.927 E31.80619 F3600
G1 X136.122 Y100.202 E31.82979
G1 X136.522 Y100.503 E31.85356
G1 X136.922 Y100.839 E31.87831
G1 X137.322 Y101.211 E31.90462
G1 X137.722 Y101.622 E31.93203
G1 X138.122 Y102.077 E31.96060
G1 X138.522 Y102.600 E31.99086
G1 X138.922 Y103.191 E32.02387
G1 X139.322 Y103.902 E32.05944
G1 X139.722 Y104.771 E32.10104
G0 X140.122 Y105.539 F7200
G1 X140.122 Y106.408 E32.12993 F3600
G0 X140.522 Y107.310 F7200
G1 X140.522 Y110.185 E32.22555 F3600
G0 X140.122 Y111.057 F7200
G1 X140.122 Y111.956 E32.25544 F3600
G0 X139.922 Y112.273 F7200
G1 X139.322 Y113.574 E32.33295 F3600
G1 X138.922 Y114.282 E32.37483
G1 X138.522 Y114.881 E32.41140
G1 X138.122 Y115.401 E32.44484
G1 X137.722 Y115.859 E32.47622
G1 X137.322 Y116.269 E32.50554
G1 X136.922 Y116.638 E32.53262
G1 X136.522 Y116.972 E32.55813
G1 X136.122 Y117.280 E32.58305
G1 X135.722 Y117.546 E32.60727
G1 X135.322 Y117.793 E32.63045
G1 X134.922 Y118.025 E32.65310
G1 X134.522 Y118.218 E32.67503
G1 X134.122 Y118.402 E32.69663
G1 X133.722 Y118.557 E32.71773
G1 X133.322 Y118.703 E32.73873
G1 X132.922 Y118.827 E32.75927
G1 X132.522 Y118.937 E32.77937
G1 X132.122 Y119.025 E32.79911
G1 X131.722 Y119.103 E32.81846
G1 X131.322 Y119.158 E32.83837
G1 X130.922 Y119.199 E32.85840
G1 X130.522 Y119.230 E32.87792
G1 X130.122 Y119.242 E32.89748
G1 X129.722 Y119.245 E32.91683
G1 X129.322 Y119.221 E32.93654
G1 X128.922 Y119.188 E32.95614
G1 X128.522 Y119.142 E32.97575
G1 X128.122 Y119.075 E32.99562
G1 X127.722 Y118.994 E33.01529
G1 X127.322 Y118.896 E33.03511
G1 X126.922 Y118.783 E33.05556
G1 X126.522 Y118.652 E33.07574
G1 X126.122 Y118.504 E33.09672
G1 X125.722 Y118.337 E33.11801
G1 X125.322 Y118.146 E33.13911
G1 X124.922 Y117.936 E33.16068
G1 X124.522 Y117.706 E33.18257
G1 X124.122 Y117.447 E33.20464
G1 X123.722 Y117.162 E33.22800
G1 X123.322 Y116.851 E33.25261
G1 X122.922 Y116.505 E33.27842
G1 X122.522 Y116.116 E33.30497
G1 X122.122 Y115.687 E33.33285
G1 X121.722 Y115.205 E33.36223
G1 X121.322 Y114.655 E33.39468
G1 X120.922 Y114.025 E33.42970
G1 X120.522 Y113.251 E33.46963
G1 X120.122 Y112.293 E33.51575
G0 X119.722 Y111.422 F7200
G1 X119.722 Y110.218 E33.55581 F3600
G0 X119.722 Y106.071 F7200
G1 X119.722 Y107.241 E33.59474 F3600
G0 X120.122 Y104.838 F7200
G0 X119.922 Y105.677
G1 X120.522 Y104.212 E33.68215 F3600
G1 X120.922 Y103.459 E33.72676
G1 X121.322 Y102.824 E33.76484
G1 X121.722 Y102.275 E33.79898
G1 X122.122 Y101.791 E33.83044
G1 X122.522 Y101.366 E33.85970
G1 X122.922 Y100.982 E33.88732
G1 X123.322 Y100.632 E33.91403
G1 X123.722 Y100.315 E33.93950
G1 X124.122 Y100.034 E33.96322
G1 X124.522 Y99.768 E33.98738
G0 F3000 E32.98738
G0 X124.619 Y100.277 F7200
G0 X124.406 Y98.840
G0 X124.406 Y89.409
G0 X123.010 Y89.409
G0 X122.469 Y85.749
G0 X122.522 Y86.109
G0 F3000 E33.98738
G1 X122.522 Y89.049 E34.08516 F3600
G0 X122.922 Y89.049 F7200
G1 X122.922 Y86.109 E34.18295 F3600
G0 X123.322 Y86.109 F7200
G1 X123.322 Y89.049 E34.28073 F3600
G0 X123.722 Y89.049 F7200
G1 X123.722 Y86.109 E34.37851 F3600
G0 X124.122 Y86.109 F7200
G1 X124.122 Y89.049 E34.47629 F3600
G0 X124.522 Y89.049 F7200
G1 X124.522 Y86.109 E34.57408 F3600
; ------------------------------------
; Layer #2
; ------------------------------------
G92 E0 ;reset extr
G0 F3000 E-1.00000
G0 F600 Z1.600
G0 X124.766 Y89.140 F7200
G0 F3000 E0.00000
;segType:HShell
G1 X135.245 Y89.140 E0.34853 F3600
G0 X136.005 Y88.946 F7200
;segType:Perimeter
G1 X136.005 Y89.746 E0.37514 F1800
G1 X136.005 Y98.696 E0.67283
G1 X136.323 Y98.892 E0.68523
G1 X136.833 Y99.240 E0.70577
G1 X137.303 Y99.599 E0.72545
G1 X137.763 Y99.985 E0.74541
G1 X138.210 Y100.401 E0.76573
G1 X138.645 Y100.850 E0.78652
G1 X139.064 Y101.341 E0.80798
G1 X139.576 Y102.013 E0.83608
G1 X139.865 Y102.448 E0.85346
G1 X140.263 Y103.113 E0.87925
G1 X140.595 Y103.774 E0.90384
G1 X140.924 Y104.549 E0.93183
G1 X141.100 Y105.037 E0.94910
G1 X141.357 Y105.924 E0.97982
G1 X141.535 Y106.775 E1.00871
G1 X141.649 Y107.595 E1.03627
G1 X141.696 Y108.386 E1.06262
G1 X141.696 Y109.157 E1.08826
G1 X141.642 Y109.904 E1.11316
G1 X141.549 Y110.634 E1.13764
G1 X141.409 Y111.340 E1.16159
G1 X141.229 Y112.029 E1.18525
G1 X141.010 Y112.699 E1.20870
G1 X140.755 Y113.349 E1.23194
G1 X140.463 Y113.980 E1.25507
G1 X140.135 Y114.591 E1.27813
G1 X139.770 Y115.181 E1.30120
G1 X139.369 Y115.749 E1.32433
G1 X138.934 Y116.296 E1.34757
G1 X138.463 Y116.820 E1.37101
G1 X137.957 Y117.320 E1.39467
G1 X137.415 Y117.795 E1.41863
G1 X136.830 Y118.240 E1.44310
G1 X136.209 Y118.660 E1.46800
G1 X135.541 Y119.046 E1.49366
G1 X134.833 Y119.400 E1.52001
G1 X134.066 Y119.712 E1.54756
G1 X133.241 Y119.983 E1.57644
G1 X132.344 Y120.204 E1.60716
G1 X131.832 Y120.296 E1.62444
G1 X130.997 Y120.398 E1.65243
G1 X130.259 Y120.441 E1.67701
G1 X129.484 Y120.429 E1.70279
G1 X128.787 Y120.380 E1.72604
G1 X128.126 Y120.289 E1.74825
G1 X127.490 Y120.171 E1.76975
G1 X126.884 Y120.019 E1.79054
G1 X126.300 Y119.840 E1.81086
G1 X125.735 Y119.635 E1.83082
G1 X125.189 Y119.407 E1.85051
G1 X124.661 Y119.153 E1.87000
G1 X124.149 Y118.875 E1.88939
G1 X123.651 Y118.570 E1.90880
G1 X123.168 Y118.239 E1.92828
G1 X122.697 Y117.881 E1.94796
G1 X122.238 Y117.494 E1.96793
G1 X121.790 Y117.078 E1.98825
G1 X121.355 Y116.629 E2.00904
G1 X120.936 Y116.139 E2.03049
G1 X120.424 Y115.467 E2.05860
G1 X120.135 Y115.031 E2.07598
G1 X119.737 Y114.366 E2.10177
G1 X119.405 Y113.705 E2.12636
G1 X119.076 Y112.931 E2.15435
G1 X118.900 Y112.442 E2.17163
G1 X118.643 Y111.555 E2.20234
G1 X118.465 Y110.706 E2.23120
G1 X118.347 Y109.816 E2.26106
G1 X118.304 Y109.094 E2.28512
G1 X118.304 Y108.322 E2.31077
G1 X118.358 Y107.576 E2.33567
G1 X118.451 Y106.846 E2.36015
G1 X118.591 Y106.139 E2.38411
G1 X118.771 Y105.451 E2.40777
G1 X118.990 Y104.781 E2.43121
G1 X119.245 Y104.130 E2.45445
G1 X119.537 Y103.499 E2.47758
G1 X119.865 Y102.889 E2.50064
G1 X120.230 Y102.299 E2.52371
G1 X120.631 Y101.730 E2.54683
G1 X121.066 Y101.184 E2.57008
G1 X121.538 Y100.660 E2.59352
G1 X122.043 Y100.159 E2.61718
G1 X122.585 Y99.685 E2.64114
G1 X123.170 Y99.240 E2.66558
G1 X124.006 Y98.685 E2.69897
G1 X124.006 Y89.686 E2.99827
G1 X121.506 Y89.686 E3.08143
G1 X121.506 Y85.449 E3.22234
G1 X124.006 Y85.449 E3.30549
G1 X124.006 Y76.461 E3.60445
G1 X136.005 Y76.461 E4.00355
G1 X136.005 Y85.449 E4.30251
G1 X138.506 Y85.449 E4.38566
G1 X138.506 Y89.686 E4.52657
G1 X136.065 Y89.686 E4.60773
G0 X136.005 Y89.746 F7200
G0 X136.005 Y91.346
G0 X135.605 Y90.786
;segType:Loop
G1 X135.605 Y98.920 E4.87825 F3600
G1 X136.105 Y99.227 E4.89777
G1 X136.598 Y99.565 E4.91765
G1 X137.053 Y99.911 E4.93667
G1 X137.497 Y100.285 E4.95597
G1 X137.930 Y100.687 E4.97562
G1 X138.349 Y101.120 E4.99565
G1 X138.752 Y101.592 E5.01632
G1 X139.250 Y102.245 E5.04362
G1 X139.527 Y102.662 E5.06024
G1 X139.912 Y103.306 E5.08523
G1 X140.232 Y103.942 E5.10890
G1 X140.551 Y104.695 E5.13610
G1 X140.719 Y105.161 E5.15258
G1 X140.969 Y106.021 E5.18236
G1 X141.141 Y106.843 E5.21029
G1 X141.250 Y107.635 E5.23688
G1 X141.296 Y108.398 E5.26231
G1 X141.296 Y109.143 E5.28709
G1 X141.244 Y109.864 E5.31113
G1 X141.154 Y110.570 E5.33480
G1 X141.020 Y111.251 E5.35788
G1 X140.845 Y111.916 E5.38075
G1 X140.634 Y112.564 E5.40341
G1 X140.387 Y113.192 E5.42587
G1 X140.105 Y113.801 E5.44820
G1 X139.788 Y114.391 E5.47047
G1 X139.436 Y114.960 E5.49273
G1 X139.049 Y115.509 E5.51506
G1 X138.628 Y116.037 E5.53752
G1 X138.173 Y116.544 E5.56017
G1 X137.685 Y117.027 E5.58304
G1 X137.162 Y117.485 E5.60614
G1 X136.596 Y117.915 E5.62978
G1 X135.997 Y118.321 E5.65384
G1 X135.352 Y118.693 E5.67863
G1 X134.668 Y119.036 E5.70406
G1 X133.928 Y119.336 E5.73063
G1 X133.130 Y119.598 E5.75855
G1 X132.261 Y119.812 E5.78834
G1 X131.773 Y119.900 E5.80483
G1 X130.961 Y119.999 E5.83202
G1 X130.251 Y120.041 E5.85569
G1 X129.502 Y120.029 E5.88061
G1 X128.828 Y119.982 E5.90306
G1 X128.189 Y119.894 E5.92451
G1 X127.575 Y119.780 E5.94529
G1 X126.991 Y119.634 E5.96531
G1 X126.427 Y119.460 E5.98495
G1 X125.881 Y119.263 E6.00426
G1 X125.353 Y119.042 E6.02328
G1 X124.843 Y118.797 E6.04210
G1 X124.349 Y118.528 E6.06082
G1 X123.869 Y118.234 E6.07955
G1 X123.402 Y117.915 E6.09836
G1 X122.947 Y117.569 E6.11737
G1 X122.503 Y117.195 E6.13668
G1 X122.070 Y116.793 E6.15633
G1 X121.651 Y116.360 E6.17635
G1 X121.248 Y115.888 E6.19701
G1 X120.750 Y115.235 E6.22432
G1 X120.473 Y114.818 E6.24096
G1 X120.087 Y114.173 E6.26594
G1 X119.768 Y113.537 E6.28962
G1 X119.449 Y112.785 E6.31681
G1 X119.281 Y112.319 E6.33329
G1 X119.031 Y111.458 E6.36308
G1 X118.860 Y110.639 E6.39093
G1 X118.746 Y109.778 E6.41982
G1 X118.704 Y109.082 E6.44300
G1 X118.704 Y108.337 E6.46779
G1 X118.756 Y107.615 E6.49184
G1 X118.846 Y106.910 E6.51549
G1 X118.981 Y106.229 E6.53858
G1 X119.155 Y105.564 E6.56146
G1 X119.366 Y104.916 E6.58412
G1 X119.613 Y104.288 E6.60657
G1 X119.895 Y103.678 E6.62890
G1 X120.212 Y103.089 E6.65116
G1 X120.564 Y102.519 E6.67343
G1 X120.951 Y101.971 E6.69576
G1 X121.372 Y101.443 E6.71822
G1 X121.827 Y100.936 E6.74088
G1 X122.316 Y100.452 E6.76374
G1 X122.838 Y99.995 E6.78684
G1 X123.402 Y99.566 E6.81039
G1 X124.406 Y98.900 E6.85048
G1 X124.406 Y89.286 E7.17024
G1 X121.906 Y89.286 E7.25339
G1 X121.906 Y85.849 E7.36769
G1 X124.406 Y85.849 E7.45084
G1 X124.406 Y76.861 E7.74980
G1 X135.605 Y76.861 E8.12229
G1 X135.605 Y85.849 E8.42125
G1 X138.106 Y85.849 E8.50440
G1 X138.106 Y89.286 E8.61871
G1 X135.605 Y89.286 E8.70186
G1 X135.605 Y90.586 E8.74510
G0 F3000 E7.74510
G0 X131.395 Y98.432 F7200
G0 X131.156 Y98.397
G0 X130.415 Y98.341
G0 X129.477 Y98.344
G0 X128.803 Y98.403
G0 X128.354 Y98.465
G0 X127.900 Y98.548
G0 X127.363 Y98.673
G0 X126.484 Y98.945
G0 X125.674 Y99.272
G0 X124.935 Y99.649
G0 X124.253 Y100.063
G0 X123.626 Y100.514
G0 X123.041 Y100.997
G0 X122.508 Y101.515
G0 X122.021 Y102.060
G0 X121.576 Y102.631
G0 X121.174 Y103.228
G0 X120.814 Y103.852
G0 X120.498 Y104.499
G0 X120.225 Y105.170
G0 X119.997 Y105.864
G0 X119.815 Y106.585
G0 X119.690 Y107.333
G0 X119.612 Y108.101
G0 X119.594 Y108.902
G0 X119.656 Y109.893
G0 X119.760 Y110.594
G0 X119.963 Y111.490
G0 X120.124 Y112.017
G0 X120.278 Y112.452
G0 X120.451 Y112.874
G0 X120.809 Y113.626
G0 X121.204 Y114.301
G0 X121.620 Y114.912
G0 X122.059 Y115.464
G0 X122.182 Y115.602
G0 X121.731 Y116.442
G0 X121.651 Y116.360
G0 X122.000 Y115.940
G0 F3000 E8.74510
;segType:HShell
G0 X122.051 Y116.140 F7200
G1 X121.547 Y115.540 E8.77432 F3600
G1 X121.236 Y115.140 E8.79290
G1 X120.960 Y114.740 E8.81040
G1 X120.708 Y114.340 E8.82812
G1 X120.474 Y113.940 E8.84495
G1 X120.271 Y113.540 E8.86177
G1 X120.085 Y113.140 E8.87813
G1 X119.914 Y112.740 E8.89376
G1 X119.764 Y112.340 E8.90925
G1 X119.635 Y111.940 E8.92468
G1 X119.518 Y111.540 E8.93951
G1 X119.424 Y111.140 E8.95411
G1 X119.336 Y110.740 E8.96926
G1 X119.271 Y110.340 E8.98382
G1 X119.215 Y109.940 E8.99836
G1 X119.183 Y109.540 E9.01236
G1 X119.158 Y109.140 E9.02739
G1 X119.151 Y108.740 E9.04231
G1 X119.156 Y108.340 E9.05669
G1 X119.180 Y107.940 E9.07176
G1 X119.218 Y107.540 E9.08610
G1 X119.268 Y107.140 E9.10092
G1 X119.335 Y106.740 E9.11566
G1 X119.416 Y106.340 E9.13040
G1 X119.518 Y105.940 E9.14535
G1 X119.633 Y105.540 E9.16014
G1 X119.764 Y105.140 E9.17535
G1 X119.917 Y104.740 E9.19067
G1 X120.080 Y104.340 E9.20640
G1 X120.270 Y103.940 E9.22213
G1 X120.478 Y103.540 E9.23871
G1 X120.706 Y103.140 E9.25533
G1 X120.960 Y102.740 E9.27239
G1 X121.239 Y102.340 E9.29049
G1 X121.547 Y101.940 E9.30841
G1 X121.886 Y101.540 E9.32691
G1 X122.255 Y101.140 E9.34641
G1 X122.663 Y100.740 E9.36672
G1 X123.131 Y100.340 E9.38766
G1 X123.656 Y99.940 E9.41100
G1 X124.256 Y99.540 E9.43615
G1 X124.918 Y99.140 E9.46340
G0 X124.766 Y98.740 F7200
G1 X126.031 Y98.740 E9.50547 F3600
G0 X125.882 Y99.402 F7200
;segType:Perimeter
G1 X126.676 Y99.305 E9.53207 F1800
G1 X127.468 Y99.059 E9.55966
G1 X127.982 Y98.940 E9.57722
G1 X128.417 Y98.860 E9.59193
G1 X128.848 Y98.801 E9.60638
G1 X129.495 Y98.744 E9.62799
G1 X130.401 Y98.741 E9.65812
G1 X131.112 Y98.795 E9.68183
G1 X131.783 Y98.894 E9.70440
G1 X132.427 Y99.028 E9.72628
G1 X133.040 Y99.205 E9.74750
G1 X133.627 Y99.415 E9.76823
G1 X134.192 Y99.655 E9.78867
G1 X134.737 Y99.927 E9.80893
G1 X135.264 Y100.231 E9.82913
G1 X135.772 Y100.567 E9.84940
G1 X136.262 Y100.936 E9.86982
G1 X136.737 Y101.340 E9.89057
G1 X137.197 Y101.782 E9.91178
G1 X137.635 Y102.273 E9.93365
G1 X138.057 Y102.805 E9.95623
G1 X138.458 Y103.393 E9.97990
G1 X138.837 Y104.041 E10.00489
G1 X139.183 Y104.768 E10.03165
G1 X139.348 Y105.171 E10.04613
G1 X139.496 Y105.588 E10.06085
G1 X139.650 Y106.093 E10.07840
G1 X139.847 Y106.959 E10.10796
G1 X139.946 Y107.629 E10.13048
G1 X140.006 Y108.586 E10.16237
G1 X139.989 Y109.354 E10.18794
G1 X139.914 Y110.094 E10.21266
G1 X139.793 Y110.813 E10.23690
G1 X139.618 Y111.504 E10.26062
G1 X139.399 Y112.172 E10.28400
G1 X139.137 Y112.817 E10.30717
G1 X138.833 Y113.440 E10.33021
G1 X138.487 Y114.039 E10.35323
G1 X138.100 Y114.614 E10.37628
G1 X137.671 Y115.163 E10.39944
G1 X137.203 Y115.687 E10.42283
G1 X136.692 Y116.185 E10.44655
G1 X136.130 Y116.648 E10.47079
G1 X135.527 Y117.083 E10.49550
G1 X134.871 Y117.482 E10.52103
G1 X134.161 Y117.843 E10.54754
G1 X133.382 Y118.157 E10.57547
G1 X132.532 Y118.420 E10.60505
G1 X132.018 Y118.540 E10.62260
G1 X131.583 Y118.620 E10.63733
G1 X131.153 Y118.679 E10.65177
G1 X130.505 Y118.735 E10.67339
G1 X129.599 Y118.738 E10.70351
G1 X128.889 Y118.685 E10.72722
G1 X128.217 Y118.585 E10.74980
G1 X127.573 Y118.452 E10.77167
G1 X126.960 Y118.274 E10.79289
G1 X126.373 Y118.065 E10.81362
G1 X125.808 Y117.825 E10.83406
G1 X125.263 Y117.553 E10.85432
G1 X124.737 Y117.249 E10.87452
G1 X124.228 Y116.913 E10.89479
G1 X123.738 Y116.543 E10.91522
G1 X123.263 Y116.140 E10.93595
G1 X122.803 Y115.697 E10.95717
G1 X122.365 Y115.207 E10.97904
G1 X121.943 Y114.675 E11.00162
G1 X121.542 Y114.087 E11.02530
G1 X121.163 Y113.438 E11.05028
G1 X120.817 Y112.712 E11.07704
G1 X120.652 Y112.309 E11.09151
G1 X120.504 Y111.892 E11.10623
G1 X120.350 Y111.387 E11.12379
G1 X120.154 Y110.521 E11.15334
G1 X120.054 Y109.851 E11.17587
G1 X119.994 Y108.894 E11.20776
G1 X120.012 Y108.125 E11.23333
G1 X120.086 Y107.386 E11.25804
G1 X120.207 Y106.667 E11.28228
G1 X120.382 Y105.976 E11.30601
G1 X120.601 Y105.308 E11.32939
G1 X120.863 Y104.662 E11.35256
G1 X121.167 Y104.040 E11.37560
G1 X121.513 Y103.440 E11.39862
G1 X121.900 Y102.866 E11.42167
G1 X122.329 Y102.316 E11.44484
G1 X122.797 Y101.792 E11.46821
G1 X123.309 Y101.295 E11.49195
G1 X123.871 Y100.831 E11.51618
G1 X124.474 Y100.397 E11.54090
G1 X125.130 Y99.998 E11.56642
G1 X125.840 Y99.637 E11.59293
G1 X126.563 Y99.345 E11.61886
G0 X126.676 Y99.305 F7200
G0 X127.468 Y99.059
G0 X127.982 Y98.940
G0 X128.221 Y98.896
G0 X128.354 Y98.465
G0 X127.900 Y98.548
G0 X127.583 Y98.622
;segType:Loop
G1 X127.900 Y98.548 E11.62972 F3600
G1 X128.354 Y98.465 E11.64505
G1 X128.803 Y98.403 E11.66013
G1 X129.477 Y98.344 E11.68262
G1 X130.415 Y98.341 E11.71383
G1 X131.156 Y98.397 E11.73855
G1 X131.853 Y98.500 E11.76198
G1 X132.523 Y98.640 E11.78475
G1 X133.163 Y98.824 E11.80688
G1 X133.772 Y99.042 E11.82842
G1 X134.360 Y99.292 E11.84965
G1 X134.927 Y99.574 E11.87072
G1 X135.474 Y99.890 E11.89174
G1 X136.002 Y100.240 E11.91281
G1 X136.512 Y100.624 E11.93404
G1 X137.006 Y101.043 E11.95559
G1 X137.485 Y101.504 E11.97771
G1 X137.941 Y102.015 E12.00047
G1 X138.380 Y102.567 E12.02392
G1 X138.796 Y103.179 E12.04854
G1 X139.191 Y103.854 E12.07455
G1 X139.549 Y104.606 E12.10225
G1 X139.722 Y105.028 E12.11742
G1 X139.876 Y105.462 E12.13275
G1 X140.037 Y105.990 E12.15109
G1 X140.240 Y106.885 E12.18164
G1 X140.344 Y107.587 E12.20523
G1 X140.406 Y108.578 E12.23824
G1 X140.388 Y109.379 E12.26490
G1 X140.310 Y110.147 E12.29058
G1 X140.185 Y110.895 E12.31579
G1 X140.003 Y111.616 E12.34052
G1 X139.774 Y112.310 E12.36482
G1 X139.502 Y112.980 E12.38889
G1 X139.186 Y113.628 E12.41287
G1 X138.826 Y114.251 E12.43680
G1 X138.424 Y114.849 E12.46077
G1 X137.979 Y115.420 E12.48485
G1 X137.492 Y115.965 E12.50914
G1 X136.959 Y116.483 E12.53388
G1 X136.374 Y116.965 E12.55909
G1 X135.748 Y117.417 E12.58476
G1 X135.066 Y117.831 E12.61132
G1 X134.326 Y118.207 E12.63890
G1 X133.516 Y118.534 E12.66797
G1 X132.637 Y118.807 E12.69858
G1 X132.100 Y118.931 E12.71692
G1 X131.646 Y119.015 E12.73226
G1 X131.197 Y119.076 E12.74734
G1 X130.523 Y119.135 E12.76983
G1 X129.585 Y119.138 E12.80104
G1 X128.844 Y119.083 E12.82575
G1 X128.147 Y118.979 E12.84919
G1 X127.477 Y118.840 E12.87195
G1 X126.837 Y118.655 E12.89409
G1 X126.228 Y118.438 E12.91562
G1 X125.640 Y118.188 E12.93686
G1 X125.073 Y117.905 E12.95793
G1 X124.526 Y117.589 E12.97894
G1 X123.998 Y117.240 E13.00002
G1 X123.488 Y116.856 E13.02125
G1 X122.994 Y116.436 E13.04279
G1 X122.515 Y115.975 E13.06492
G1 X122.059 Y115.464 E13.08768
G1 X121.620 Y114.912 E13.11113
G1 X121.204 Y114.301 E13.13575
G1 X120.809 Y113.626 E13.16176
G1 X120.451 Y112.874 E13.18946
G1 X120.278 Y112.452 E13.20462
G1 X120.124 Y112.017 E13.21995
G1 X119.963 Y111.490 E13.23829
G1 X119.760 Y110.594 E13.26883
G1 X119.656 Y109.893 E13.29242
G1 X119.594 Y108.902 E13.32544
G1 X119.612 Y108.101 E13.35210
G1 X119.690 Y107.333 E13.37777
G1 X119.815 Y106.585 E13.40300
G1 X119.997 Y105.864 E13.42772
G1 X120.225 Y105.170 E13.45202
G1 X120.498 Y104.499 E13.47610
G1 X120.814 Y103.852 E13.50007
G1 X121.174 Y103.228 E13.52400
G1 X121.576 Y102.631 E13.54797
G1 X122.021 Y102.060 E13.57206
G1 X122.508 Y101.515 E13.59634
G1 X123.041 Y100.997 E13.62109
G1 X123.626 Y100.514 E13.64630
G1 X124.253 Y100.063 E13.67197
G1 X124.935 Y99.649 E13.69852
G1 X125.674 Y99.272 E13.72611
G1 X126.484 Y98.945 E13.75517
G1 X127.363 Y98.673 E13.78579
G1 X127.388 Y98.667 E13.78662
G0 X127.222 Y98.340 F7200
;segType:HShell
G1 X124.766 Y98.340 E13.86831 F3600
G0 X124.766 Y97.940 F7200
G1 X135.245 Y97.940 E14.21684 F3600
G0 X135.245 Y97.540 F7200
G1 X124.766 Y97.540 E14.56538 F3600
G0 X124.766 Y97.140 F7200
G1 X135.245 Y97.140 E14.91391 F3600
G0 X135.245 Y96.740 F7200
G1 X124.766 Y96.740 E15.26245 F3600
G0 X124.766 Y96.340 F7200
G1 X135.245 Y96.340 E15.61098 F3600
G0 X135.245 Y95.940 F7200
G1 X124.766 Y95.940 E15.95952 F3600
G0 X124.766 Y95.540 F7200
G1 X135.245 Y95.540 E16.30805 F3600
G0 X135.245 Y95.140 F7200
G1 X124.766 Y95.140 E16.65658 F3600
G0 X124.766 Y94.740 F7200
G1 X135.245 Y94.740 E17.00512 F3600
G0 X135.245 Y94.340 F7200
G1 X124.766 Y94.340 E17.35365 F3600
G0 X124.766 Y93.940 F7200
G1 X135.245 Y93.940 E17.70218 F3600
G0 X135.245 Y93.540 F7200
G1 X124.766 Y93.540 E18.05072 F3600
G0 X124.766 Y93.140 F7200
G1 X135.245 Y93.140 E18.39925 F3600
G0 X135.245 Y92.740 F7200
G1 X124.766 Y92.740 E18.74778 F3600
G0 X124.766 Y92.340 F7200
G1 X135.245 Y92.340 E19.09632 F3600
G0 X135.245 Y91.940 F7200
G1 X124.766 Y91.940 E19.44485 F3600
G0 X124.766 Y91.540 F7200
G1 X135.245 Y91.540 E19.79339 F3600
G0 X135.245 Y91.140 F7200
G1 X124.766 Y91.140 E20.14192 F3600
G0 X124.766 Y90.740 F7200
G1 X135.245 Y90.740 E20.49045 F3600
G0 X135.245 Y90.340 F7200
G1 X124.766 Y90.340 E20.83899 F3600
G0 X124.766 Y89.940 F7200
G1 X135.245 Y89.940 E21.18752 F3600
G0 X135.245 Y89.540 F7200
G1 X124.766 Y89.540 E21.53605 F3600
G0 F3000 E20.53605
G0 X124.406 Y89.425 F7200
G0 X124.406 Y89.286
G0 X123.973 Y89.286
G0 X121.906 Y88.625
G0 X122.266 Y88.740
G0 F3000 E21.53605
G1 X137.745 Y88.740 E22.05089 F3600
G0 X137.745 Y88.340 F7200
G1 X122.266 Y88.340 E22.56573 F3600
G0 X122.266 Y87.940 F7200
G1 X137.745 Y87.940 E23.08057 F3600
G0 X137.745 Y87.540 F7200
G1 X122.266 Y87.540 E23.59541 F3600
G0 X122.266 Y87.140 F7200
G1 X137.745 Y87.140 E24.11025 F3600
G0 X137.745 Y86.740 F7200
G1 X122.266 Y86.740 E24.62509 F3600
G0 X122.266 Y86.340 F7200
G1 X137.745 Y86.340 E25.13993 F3600
G0 F3000 E24.13993
G0 X137.606 Y85.849 F7200
G0 X135.605 Y85.849
G0 X135.605 Y78.807
G0 X135.052 Y76.861
G0 X135.245 Y77.540
G0 F3000 E25.13993
G1 X124.766 Y77.540 E25.48846 F3600
G0 X124.766 Y77.940 F7200
G1 X135.245 Y77.940 E25.83700 F3600
G0 X135.245 Y78.340 F7200
G1 X124.766 Y78.340 E26.18553 F3600
G0 X124.766 Y78.740 F7200
G1 X135.245 Y78.740 E26.53406 F3600
G0 X135.245 Y79.140 F7200
G1 X124.766 Y79.140 E26.88260 F3600
G0 X124.766 Y79.540 F7200
G1 X135.245 Y79.540 E27.23113 F3600
G0 X135.245 Y79.940 F7200
G1 X124.766 Y79.940 E27.57966 F3600
G0 X124.766 Y80.340 F7200
G1 X135.245 Y80.340 E27.92820 F3600
G0 X135.245 Y80.740 F7200
G1 X124.766 Y80.740 E28.27673 F3600
G0 X124.766 Y81.140 F7200
G1 X135.245 Y81.140 E28.62526 F3600
G0 X135.245 Y81.540 F7200
G1 X124.766 Y81.540 E28.97380 F3600
G0 X124.766 Y81.940 F7200
G1 X135.245 Y81.940 E29.32233 F3600
G0 X135.245 Y82.340 F7200
G1 X124.766 Y82.340 E29.67087 F3600
G0 X124.766 Y82.740 F7200
G1 X135.245 Y82.740 E30.01940 F3600
G0 X135.245 Y83.140 F7200
G1 X124.766 Y83.140 E30.36793 F3600
G0 X124.766 Y83.540 F7200
G1 X135.245 Y83.540 E30.71647 F3600
G0 X135.245 Y83.940 F7200
G1 X124.766 Y83.940 E31.06500 F3600
G0 X124.766 Y84.340 F7200
G1 X135.245 Y84.340 E31.41353 F3600
G0 X135.245 Y84.740 F7200
G1 X124.766 Y84.740 E31.76207 F3600
G0 X124.766 Y85.140 F7200
G1 X135.245 Y85.140 E32.11060 F3600
G0 X135.245 Y85.540 F7200
G1 X124.766 Y85.540 E32.45913 F3600
G0 X124.766 Y85.940 F7200
G1 X135.245 Y85.940 E32.80767 F3600
G0 X135.245 Y98.340 F7200
G1 X132.783 Y98.340 E32.88957 F3600
G0 X133.982 Y98.740 F7200
G1 X135.245 Y98.740 E32.93158 F3600
G0 X134.726 Y98.940 F7200
G1 X135.756 Y99.540 E32.98321 F3600
G1 X136.349 Y99.940 E33.01122
G1 X136.869 Y100.340 E33.03577
G1 X137.331 Y100.740 E33.05818
G1 X137.746 Y101.140 E33.07921
G1 X138.117 Y101.540 E33.09928
G1 X138.453 Y101.940 E33.11876
G1 X138.764 Y102.340 E33.13733
G1 X139.040 Y102.740 E33.15484
G1 X139.292 Y103.140 E33.17257
G1 X139.526 Y103.540 E33.18940
G1 X139.729 Y103.940 E33.20622
G1 X139.915 Y104.340 E33.22258
G1 X140.086 Y104.740 E33.23820
G1 X140.236 Y105.140 E33.25368
G1 X140.365 Y105.540 E33.26909
G1 X140.482 Y105.940 E33.28390
G1 X140.576 Y106.340 E33.29851
G1 X140.664 Y106.740 E33.31365
G1 X140.730 Y107.140 E33.32821
G1 X140.787 Y107.540 E33.34289
G1 X140.817 Y107.940 E33.35724
G1 X140.842 Y108.340 E33.37227
G1 X140.849 Y108.740 E33.38719
G1 X140.844 Y109.140 E33.40158
G1 X140.820 Y109.540 E33.41667
G1 X140.782 Y109.940 E33.43102
G1 X140.732 Y110.340 E33.44584
G1 X140.665 Y110.740 E33.46058
G1 X140.584 Y111.140 E33.47532
G1 X140.482 Y111.540 E33.49026
G1 X140.367 Y111.940 E33.50506
G1 X140.236 Y112.340 E33.52029
G1 X140.083 Y112.740 E33.53561
G1 X139.920 Y113.140 E33.55133
G1 X139.730 Y113.540 E33.56706
G1 X139.522 Y113.940 E33.58363
G1 X139.294 Y114.340 E33.60024
G1 X139.040 Y114.740 E33.61731
G1 X138.761 Y115.140 E33.63541
G1 X138.453 Y115.540 E33.65333
G1 X138.114 Y115.940 E33.67183
G1 X137.745 Y116.340 E33.69134
G1 X137.337 Y116.740 E33.71167
G1 X136.869 Y117.140 E33.73263
G1 X136.344 Y117.540 E33.75598
G1 X135.749 Y117.940 E33.78109
G1 X135.052 Y118.340 E33.80909
G1 X134.204 Y118.740 E33.84093
G1 X133.075 Y119.140 E33.88078
G0 X131.741 Y119.540 F7200
G1 X128.257 Y119.540 E33.99666 F3600
G0 X127.217 Y119.140 F7200
G0 X127.475 Y119.340
G1 X125.791 Y118.740 E34.07234 F3600
G1 X124.947 Y118.340 E34.10996
G1 X124.245 Y117.940 E34.14164
G1 X123.651 Y117.540 E34.16951
G1 X123.131 Y117.140 E34.19405
G1 X122.669 Y116.740 E34.21645
G1 X122.254 Y116.340 E34.23747
; ------------------------------------
; Layer #3
; ------------------------------------
G92 E0 ;reset extr
G0 F3000 E-1.00000
G0 F600 Z1.800
G0 X122.376 Y116.337 F7200
G0 X122.359 Y116.321
G0 X121.904 Y115.835
G0 X121.569 Y115.436
G0 X121.045 Y114.712
G0 X120.724 Y114.206
G0 X120.268 Y113.346
G0 X119.931 Y112.545
G0 X119.789 Y112.149
G0 X119.631 Y111.630
G0 X119.524 Y111.218
G0 X119.353 Y110.342
G0 X119.259 Y109.493
G0 X119.235 Y108.680
G0 X119.266 Y107.890
G0 X119.356 Y107.128
G0 X119.495 Y106.392
G0 X119.678 Y105.678
G0 X119.907 Y104.983
G0 X120.184 Y104.314
G0 X120.502 Y103.670
G0 X120.861 Y103.049
G0 X121.259 Y102.452
G0 X121.700 Y101.877
G0 X122.188 Y101.331
G0 X122.714 Y100.816
G0 X123.282 Y100.328
G0 X123.897 Y99.868
G0 X124.564 Y99.449
G0 X125.125 Y99.141
G0 X126.061 Y98.720
G0 X126.908 Y98.428
G0 X127.318 Y98.315
G0 X127.847 Y98.192
G0 X128.258 Y98.118
G0 X128.898 Y98.030
G0 X129.928 Y97.973
G0 X130.689 Y97.998
G0 X131.410 Y98.065
G0 X132.094 Y98.180
G0 X132.449 Y98.263
G0 X135.605 Y92.600
G0 X135.605 Y89.163
G0 X137.521 Y89.163
G0 X138.106 Y88.115
G0 X138.106 Y89.163
G0 X137.722 Y88.803
G0 F3000 E0.00000
;segType:HShell
G1 X137.722 Y86.310 E0.08291 F3600
G0 X137.322 Y86.310 F7200
G1 X137.322 Y88.803 E0.16583 F3600
G0 X136.922 Y88.803 F7200
G1 X136.922 Y86.310 E0.24874 F3600
G0 X136.522 Y86.310 F7200
G1 X136.522 Y88.803 E0.33166 F3600
G0 X136.005 Y88.823 F7200
;segType:Perimeter
G1 X136.005 Y89.623 E0.35827 F1800
G1 X136.005 Y98.339 E0.64816
G1 X136.496 Y98.642 E0.66733
G1 X136.977 Y98.968 E0.68665
G1 X137.445 Y99.318 E0.70610
G1 X137.901 Y99.695 E0.72579
G1 X138.344 Y100.106 E0.74587
G1 X138.777 Y100.548 E0.76644
G1 X139.319 Y101.168 E0.79386
G1 X139.607 Y101.538 E0.80944
G1 X140.003 Y102.098 E0.83226
G1 X140.382 Y102.710 E0.85619
G1 X140.753 Y103.391 E0.88198
G1 X141.177 Y104.352 E0.91691
G1 X141.492 Y105.261 E0.94890
G1 X141.721 Y106.131 E0.97883
G1 X141.879 Y106.969 E1.00719
G1 X141.968 Y107.775 E1.03419
G1 X142.006 Y108.562 E1.06039
G1 X141.992 Y109.326 E1.08579
G1 X141.935 Y110.070 E1.11062
G1 X141.829 Y110.793 E1.13491
G1 X141.685 Y111.499 E1.15889
G1 X141.505 Y112.187 E1.18254
G1 X141.282 Y112.853 E1.20591
G1 X141.022 Y113.502 E1.22915
G1 X140.727 Y114.132 E1.25228
G1 X140.397 Y114.743 E1.27537
G1 X140.033 Y115.334 E1.29845
G1 X139.635 Y115.904 E1.32159
G1 X139.204 Y116.453 E1.34482
G1 X138.738 Y116.979 E1.36819
G1 X138.232 Y117.480 E1.39185
G1 X137.692 Y117.958 E1.41584
G1 X137.119 Y118.410 E1.44012
G1 X136.504 Y118.832 E1.46494
G1 X135.849 Y119.226 E1.49034
G1 X135.149 Y119.586 E1.51653
G1 X134.388 Y119.919 E1.54415
G1 X133.601 Y120.194 E1.57191
G1 X132.733 Y120.431 E1.60183
G1 X131.788 Y120.613 E1.63384
G1 X130.744 Y120.727 E1.66876
G1 X129.969 Y120.746 E1.69453
G1 X129.250 Y120.723 E1.71847
G1 X128.567 Y120.661 E1.74126
G1 X127.916 Y120.566 E1.76316
G1 X127.295 Y120.437 E1.78427
G1 X126.695 Y120.283 E1.80485
G1 X126.118 Y120.105 E1.82495
G1 X125.563 Y119.898 E1.84463
G1 X125.026 Y119.668 E1.86409
G1 X124.504 Y119.414 E1.88338
G1 X123.997 Y119.137 E1.90259
G1 X123.504 Y118.837 E1.92180
G1 X123.024 Y118.512 E1.94109
G1 X122.555 Y118.161 E1.96055
G1 X122.099 Y117.785 E1.98023
G1 X121.656 Y117.373 E2.00032
G1 X121.224 Y116.932 E2.02089
G1 X120.680 Y116.311 E2.04831
G1 X120.393 Y115.941 E2.06389
G1 X119.997 Y115.382 E2.08670
G1 X119.618 Y114.769 E2.11065
G1 X119.254 Y114.104 E2.13586
G1 X118.918 Y113.361 E2.16298
G1 X118.608 Y112.531 E2.19244
G1 X118.509 Y112.221 E2.20327
G1 X118.280 Y111.349 E2.23327
G1 X118.124 Y110.529 E2.26103
G1 X118.032 Y109.704 E2.28864
G1 X117.994 Y108.918 E2.31483
G1 X118.008 Y108.154 E2.34024
G1 X118.065 Y107.409 E2.36507
G1 X118.171 Y106.687 E2.38935
G1 X118.315 Y105.980 E2.41333
G1 X118.495 Y105.293 E2.43698
G1 X118.719 Y104.626 E2.46036
G1 X118.978 Y103.978 E2.48360
G1 X119.273 Y103.347 E2.50674
G1 X119.603 Y102.737 E2.52981
G1 X119.967 Y102.146 E2.55289
G1 X120.365 Y101.576 E2.57602
G1 X120.797 Y101.027 E2.59926
G1 X121.286 Y100.476 E2.62376
G1 X121.768 Y100.000 E2.64629
G1 X122.308 Y99.522 E2.67027
G1 X122.880 Y99.069 E2.69456
G1 X123.497 Y98.647 E2.71943
G1 X124.006 Y98.332 E2.73932
G1 X124.006 Y89.563 E3.03098
G1 X121.506 Y89.563 E3.11414
G1 X121.506 Y85.550 E3.24761
G1 X124.006 Y85.550 E3.33077
G1 X124.006 Y76.461 E3.63307
G1 X136.005 Y76.461 E4.03217
G1 X136.005 Y85.550 E4.33448
G1 X138.506 Y85.550 E4.41763
G1 X138.506 Y89.563 E4.55111
G1 X136.065 Y89.563 E4.63227
G0 X136.005 Y89.623 F7200
G0 X136.005 Y91.223
G0 X135.605 Y90.663
;segType:Loop
G1 X135.605 Y98.562 E4.89497 F3600
G1 X136.278 Y98.978 E4.92130
G1 X136.745 Y99.294 E4.94003
G1 X137.198 Y99.633 E4.95884
G1 X137.638 Y99.996 E4.97782
G1 X138.064 Y100.393 E4.99720
G1 X138.483 Y100.820 E5.01709
G1 X139.011 Y101.423 E5.04374
G1 X139.286 Y101.777 E5.05864
G1 X139.670 Y102.320 E5.08076
G1 X140.036 Y102.911 E5.10390
G1 X140.394 Y103.568 E5.12877
G1 X140.804 Y104.498 E5.16259
G1 X141.109 Y105.377 E5.19354
G1 X141.330 Y106.219 E5.22248
G1 X141.483 Y107.028 E5.24986
G1 X141.569 Y107.807 E5.27594
G1 X141.606 Y108.569 E5.30130
G1 X141.593 Y109.307 E5.32586
G1 X141.537 Y110.026 E5.34984
G1 X141.435 Y110.724 E5.37332
G1 X141.296 Y111.408 E5.39654
G1 X141.121 Y112.072 E5.41938
G1 X140.906 Y112.716 E5.44194
G1 X140.655 Y113.343 E5.46440
G1 X140.370 Y113.952 E5.48678
G1 X140.051 Y114.543 E5.50911
G1 X139.699 Y115.114 E5.53142
G1 X139.314 Y115.666 E5.55380
G1 X138.896 Y116.197 E5.57626
G1 X138.447 Y116.704 E5.59881
G1 X137.959 Y117.188 E5.62166
G1 X137.435 Y117.651 E5.64490
G1 X136.882 Y118.088 E5.66836
G1 X136.288 Y118.496 E5.69234
G1 X135.655 Y118.876 E5.71690
G1 X134.977 Y119.225 E5.74224
G1 X134.242 Y119.547 E5.76894
G1 X133.482 Y119.812 E5.79572
G1 X132.642 Y120.041 E5.82466
G1 X131.728 Y120.217 E5.85562
G1 X130.717 Y120.327 E5.88944
G1 X129.971 Y120.346 E5.91429
G1 X129.274 Y120.324 E5.93745
G1 X128.615 Y120.263 E5.95949
G1 X127.986 Y120.172 E5.98063
G1 X127.385 Y120.047 E6.00103
G1 X126.804 Y119.898 E6.02099
G1 X126.247 Y119.726 E6.04038
G1 X125.712 Y119.527 E6.05936
G1 X125.192 Y119.304 E6.07818
G1 X124.687 Y119.058 E6.09684
G1 X124.197 Y118.791 E6.11542
G1 X123.720 Y118.500 E6.13400
G1 X123.255 Y118.186 E6.15266
G1 X122.802 Y117.847 E6.17148
G1 X122.363 Y117.484 E6.19045
G1 X121.935 Y117.087 E6.20984
G1 X121.517 Y116.660 E6.22972
G1 X120.989 Y116.057 E6.25638
G1 X120.714 Y115.703 E6.27128
G1 X120.331 Y115.160 E6.29338
G1 X119.964 Y114.568 E6.31656
G1 X119.613 Y113.926 E6.34090
G1 X119.288 Y113.209 E6.36708
G1 X118.987 Y112.400 E6.39578
G1 X118.893 Y112.109 E6.40594
G1 X118.670 Y111.261 E6.43513
G1 X118.520 Y110.470 E6.46190
G1 X118.431 Y109.672 E6.48859
G1 X118.394 Y108.911 E6.51393
G1 X118.408 Y108.173 E6.53850
G1 X118.463 Y107.454 E6.56248
G1 X118.565 Y106.756 E6.58594
G1 X118.704 Y106.071 E6.60918
G1 X118.879 Y105.407 E6.63201
G1 X119.094 Y104.764 E6.65458
G1 X119.345 Y104.137 E6.67704
G1 X119.631 Y103.527 E6.69942
G1 X119.949 Y102.937 E6.72174
G1 X120.301 Y102.366 E6.74406
G1 X120.686 Y101.814 E6.76643
G1 X121.103 Y101.283 E6.78888
G1 X121.577 Y100.752 E6.81256
G1 X122.041 Y100.292 E6.83429
G1 X122.565 Y99.829 E6.85753
G1 X123.118 Y99.391 E6.88100
G1 X123.716 Y98.982 E6.90509
G1 X124.406 Y98.555 E6.93209
G1 X124.406 Y89.163 E7.24448
G1 X121.906 Y89.163 E7.32763
G1 X121.906 Y85.950 E7.43450
G1 X124.406 Y85.950 E7.51765
G1 X124.406 Y76.861 E7.81996
G1 X135.605 Y76.861 E8.19245
G1 X135.605 Y85.950 E8.49476
G1 X138.106 Y85.950 E8.57791
G1 X138.106 Y89.163 E8.68478
G1 X135.605 Y89.163 E8.76793
G1 X135.605 Y90.463 E8.81117
G0 F3000 E7.81117
G0 X135.605 Y90.463 F7200
G0 X125.042 Y76.861
G0 X125.322 Y77.221
G0 F3000 E8.81117
;segType:HShell
G1 X125.322 Y98.657 E9.52415 F3600
G0 X125.673 Y99.169 F7200
;segType:Perimeter
G1 X126.265 Y99.072 E9.54410 F1800
G1 X127.027 Y98.811 E9.57090
G1 X127.417 Y98.703 E9.58436
G1 X127.928 Y98.584 E9.60183
G1 X128.321 Y98.513 E9.61509
G1 X128.937 Y98.429 E9.63577
G1 X129.933 Y98.373 E9.66895
G1 X130.664 Y98.397 E9.69327
G1 X131.358 Y98.462 E9.71647
G1 X132.016 Y98.573 E9.73865
G1 X132.643 Y98.718 E9.76008
G1 X133.246 Y98.895 E9.78097
G1 X133.784 Y99.087 E9.79997
G1 X134.383 Y99.345 E9.82168
G1 X134.921 Y99.616 E9.84170
G1 X135.441 Y99.916 E9.86166
G1 X135.944 Y100.246 E9.88167
G1 X136.433 Y100.607 E9.90188
G1 X136.903 Y101.006 E9.92239
G1 X137.357 Y101.440 E9.94328
G1 X137.797 Y101.910 E9.96469
G1 X138.115 Y102.290 E9.98118
G1 X138.624 Y102.992 E10.01003
G1 X138.930 Y103.474 E10.02901
G1 X139.370 Y104.306 E10.06030
G1 X139.696 Y105.080 E10.08824
G1 X139.831 Y105.456 E10.10154
G1 X139.984 Y105.959 E10.11901
G1 X140.086 Y106.350 E10.13246
G1 X140.251 Y107.199 E10.16122
G1 X140.342 Y108.015 E10.18852
G1 X140.364 Y108.798 E10.21459
G1 X140.335 Y109.558 E10.23988
G1 X140.248 Y110.291 E10.26444
G1 X140.115 Y111.001 E10.28845
G1 X139.938 Y111.689 E10.31209
G1 X139.718 Y112.357 E10.33548
G1 X139.452 Y113.001 E10.35864
G1 X139.147 Y113.622 E10.38166
G1 X138.801 Y114.220 E10.40464
G1 X138.416 Y114.795 E10.42767
G1 X137.992 Y115.347 E10.45083
G1 X137.523 Y115.872 E10.47422
G1 X137.015 Y116.369 E10.49786
G1 X136.468 Y116.840 E10.52187
G1 X135.876 Y117.281 E10.54643
G1 X135.232 Y117.686 E10.57172
G1 X134.544 Y118.059 E10.59777
G1 X133.791 Y118.388 E10.62509
G1 X132.973 Y118.669 E10.65385
G1 X132.583 Y118.777 E10.66730
G1 X132.072 Y118.895 E10.68478
G1 X131.679 Y118.967 E10.69803
G1 X131.063 Y119.051 E10.71872
G1 X130.067 Y119.107 E10.75190
G1 X129.336 Y119.083 E10.77622
G1 X128.642 Y119.018 E10.79942
G1 X127.984 Y118.907 E10.82160
G1 X127.357 Y118.761 E10.84303
G1 X126.754 Y118.585 E10.86393
G1 X126.173 Y118.377 E10.88445
G1 X125.616 Y118.134 E10.90465
G1 X125.079 Y117.864 E10.92465
G1 X124.559 Y117.563 E10.94461
G1 X124.056 Y117.234 E10.96462
G1 X123.567 Y116.873 E10.98483
G1 X123.097 Y116.474 E11.00535
G1 X122.643 Y116.040 E11.02623
G1 X122.203 Y115.570 E11.04764
G1 X121.885 Y115.190 E11.06413
G1 X121.376 Y114.487 E11.09298
G1 X121.070 Y114.005 E11.11196
G1 X120.630 Y113.174 E11.14325
G1 X120.304 Y112.400 E11.17119
G1 X120.169 Y112.024 E11.18449
G1 X120.016 Y111.521 E11.20196
G1 X119.915 Y111.130 E11.21541
G1 X119.749 Y110.281 E11.24417
G1 X119.658 Y109.465 E11.27147
G1 X119.636 Y108.682 E11.29753
G1 X119.665 Y107.922 E11.32283
G1 X119.752 Y107.189 E11.34738
G1 X119.885 Y106.479 E11.37140
G1 X120.062 Y105.791 E11.39504
G1 X120.282 Y105.123 E11.41843
G1 X120.549 Y104.479 E11.44159
G1 X120.855 Y103.859 E11.46460
G1 X121.200 Y103.260 E11.48759
G1 X121.585 Y102.685 E11.51061
G1 X122.008 Y102.132 E11.53376
G1 X122.477 Y101.608 E11.55716
G1 X122.985 Y101.111 E11.58080
G1 X123.532 Y100.640 E11.60481
G1 X124.124 Y100.198 E11.62936
G1 X124.767 Y99.793 E11.65464
G1 X125.304 Y99.499 E11.67501
G1 X126.153 Y99.117 E11.70599
G0 X126.265 Y99.072 F7200
G0 X127.027 Y98.811
G0 X127.417 Y98.703
G0 X127.796 Y98.615
G0 X127.847 Y98.192
G0 X127.318 Y98.315
G0 X127.146 Y98.363
;segType:Loop
G1 X127.318 Y98.315 E11.71193 F3600
G1 X127.847 Y98.192 E11.72999
G1 X128.258 Y98.118 E11.74386
G1 X128.898 Y98.030 E11.76537
G1 X129.928 Y97.973 E11.79969
G1 X130.689 Y97.998 E11.82498
G1 X131.410 Y98.065 E11.84908
G1 X132.094 Y98.180 E11.87216
G1 X132.745 Y98.331 E11.89437
G1 X133.370 Y98.514 E11.91602
G1 X133.931 Y98.714 E11.93584
G1 X134.553 Y98.983 E11.95838
G1 X135.111 Y99.264 E11.97918
G1 X135.651 Y99.575 E11.99988
G1 X136.173 Y99.918 E12.02064
G1 X136.681 Y100.293 E12.04167
G1 X137.171 Y100.709 E12.06304
G1 X137.641 Y101.159 E12.08469
G1 X138.096 Y101.645 E12.10683
G1 X138.431 Y102.044 E12.12415
G1 X138.955 Y102.767 E12.15387
G1 X139.276 Y103.273 E12.17380
G1 X139.732 Y104.134 E12.20619
G1 X140.069 Y104.934 E12.23508
G1 X140.211 Y105.331 E12.24907
G1 X140.369 Y105.850 E12.26713
G1 X140.476 Y106.261 E12.28127
G1 X140.647 Y107.138 E12.31099
G1 X140.741 Y107.987 E12.33938
G1 X140.765 Y108.800 E12.36644
G1 X140.734 Y109.589 E12.39271
G1 X140.644 Y110.352 E12.41825
G1 X140.505 Y111.087 E12.44315
G1 X140.322 Y111.801 E12.46766
G1 X140.093 Y112.496 E12.49199
G1 X139.817 Y113.166 E12.51607
G1 X139.500 Y113.810 E12.53997
G1 X139.141 Y114.432 E12.56384
G1 X138.741 Y115.029 E12.58774
G1 X138.300 Y115.603 E12.61182
G1 X137.813 Y116.148 E12.63615
G1 X137.286 Y116.664 E12.66067
G1 X136.718 Y117.152 E12.68557
G1 X136.103 Y117.611 E12.71111
G1 X135.434 Y118.032 E12.73738
G1 X134.719 Y118.419 E12.76442
G1 X133.936 Y118.761 E12.79283
G1 X133.092 Y119.051 E12.82254
G1 X132.682 Y119.165 E12.83668
G1 X132.153 Y119.287 E12.85475
G1 X131.742 Y119.362 E12.86862
G1 X131.102 Y119.449 E12.89013
G1 X130.072 Y119.507 E12.92443
G1 X129.311 Y119.482 E12.94974
G1 X128.590 Y119.415 E12.97384
G1 X127.906 Y119.299 E12.99693
G1 X127.255 Y119.148 E13.01913
G1 X126.630 Y118.965 E13.04079
G1 X126.025 Y118.749 E13.06215
G1 X125.446 Y118.496 E13.08318
G1 X124.889 Y118.216 E13.10393
G1 X124.350 Y117.904 E13.12464
G1 X123.828 Y117.562 E13.14540
G1 X123.319 Y117.186 E13.16643
G1 X122.829 Y116.771 E13.18779
G1 X122.359 Y116.321 E13.20944
G1 X121.904 Y115.835 E13.23159
G1 X121.569 Y115.436 E13.24891
G1 X121.045 Y114.712 E13.27864
G1 X120.724 Y114.206 E13.29856
G1 X120.268 Y113.346 E13.33095
G1 X119.931 Y112.545 E13.35984
G1 X119.789 Y112.149 E13.37383
G1 X119.631 Y111.630 E13.39189
G1 X119.524 Y111.218 E13.40603
G1 X119.353 Y110.342 E13.43574
G1 X119.259 Y109.493 E13.46414
G1 X119.235 Y108.680 E13.49119
G1 X119.266 Y107.890 E13.51747
G1 X119.356 Y107.128 E13.54300
G1 X119.495 Y106.392 E13.56790
G1 X119.678 Y105.678 E13.59242
G1 X119.907 Y104.983 E13.61676
G1 X120.184 Y104.314 E13.64085
G1 X120.502 Y103.670 E13.66473
G1 X120.861 Y103.049 E13.68859
G1 X121.259 Y102.452 E13.71247
G1 X121.700 Y101.877 E13.73656
G1 X122.188 Y101.331 E13.76090
G1 X122.714 Y100.816 E13.78542
G1 X123.282 Y100.328 E13.81032
G1 X123.897 Y99.868 E13.83586
G1 X124.564 Y99.449 E13.86207
G1 X125.125 Y99.141 E13.88335
G1 X126.061 Y98.720 E13.91747
G1 X126.908 Y98.428 E13.94729
G1 X126.953 Y98.416 E13.94884
G0 F3000 E12.94884
G0 X136.122 Y88.803 F7200
G0 F3000 E13.94884
;segType:HShell
G1 X136.122 Y86.310 E14.03175 F3600
G0 X135.722 Y86.310 F7200
G1 X135.722 Y88.803 E14.11467 F3600
G0 X135.322 Y88.803 F7200
G1 X135.322 Y86.310 E14.19758 F3600
G0 X124.522 Y88.803 F7200
G1 X124.522 Y86.310 E14.28050 F3600
G0 X124.122 Y86.310 F7200
G1 X124.122 Y88.803 E14.36341 F3600
G0 X123.722 Y88.803 F7200
G1 X123.722 Y86.310 E14.44632 F3600
G0 X123.322 Y86.310 F7200
G1 X123.322 Y88.803 E14.52924 F3600
G0 X122.922 Y88.803 F7200
G1 X122.922 Y86.310 E14.61215 F3600
G0 X122.522 Y86.310 F7200
G1 X122.522 Y88.803 E14.69507 F3600
G0 F3000 E13.69507
G0 X122.447 Y89.163 F7200
G0 X123.113 Y85.950
G0 X124.406 Y85.950
G0 X124.406 Y79.710
G0 X124.996 Y76.861
G0 X124.922 Y77.221
G0 F3000 E14.69507
G1 X124.922 Y98.764 E15.41161 F3600
G0 X125.722 Y98.477 F7200
G1 X125.722 Y77.221 E16.11860 F3600
G0 X126.122 Y77.221 F7200
G1 X126.122 Y98.318 E16.82028 F3600
G0 X126.522 Y98.180 F7200
G1 X126.522 Y77.221 E17.51740 F3600
G0 X126.922 Y77.221 F7200
G1 X126.922 Y98.051 E18.21021 F3600
G0 X127.322 Y97.945 F7200
G1 X127.322 Y77.221 E18.89949 F3600
G0 X127.722 Y77.221 F7200
G1 X127.722 Y97.852 E19.58567 F3600
G0 X128.122 Y97.776 F7200
G1 X128.122 Y77.221 E20.26935 F3600
G0 X128.522 Y77.221 F7200
G1 X128.522 Y97.718 E20.95109 F3600
G0 X128.922 Y97.668 F7200
G1 X128.922 Y77.221 E21.63117 F3600
G0 X129.322 Y77.221 F7200
G1 X129.322 Y97.646 E22.31050 F3600
G0 X129.722 Y97.623 F7200
G1 X129.722 Y77.221 E22.98910 F3600
G0 X130.122 Y77.221 F7200
G1 X130.122 Y97.619 E23.66753 F3600
G0 X130.522 Y97.632 F7200
G1 X130.522 Y77.221 E24.34640 F3600
G0 X130.922 Y77.221 F7200
G1 X130.922 Y97.658 E25.02613 F3600
G0 X131.322 Y97.695 F7200
G1 X131.322 Y77.221 E25.70710 F3600
G0 X131.722 Y77.221 F7200
G1 X131.722 Y97.752 E26.38997 F3600
G0 X132.122 Y97.820 F7200
G1 X132.122 Y77.221 E27.07510 F3600
G0 X132.522 Y77.221 F7200
G1 X132.522 Y97.910 E27.76322 F3600
G0 X132.922 Y98.008 F7200
G1 X132.922 Y77.221 E28.45459 F3600
G0 X133.322 Y77.221 F7200
G1 X133.322 Y98.125 E29.14987 F3600
G0 X133.722 Y98.257 F7200
G1 X133.722 Y77.221 E29.84954 F3600
G0 X134.122 Y77.221 F7200
G1 X134.122 Y98.404 E30.55411 F3600
G0 X134.522 Y98.577 F7200
G1 X134.522 Y77.221 E31.26442 F3600
G0 X134.922 Y77.221 F7200
G1 X134.922 Y98.765 E31.98099 F3600
G0 X135.180 Y98.822 F7200
;segType:InnerHair
G1 X135.290 Y98.873 E31.98566 F3600
G1 X135.392 Y98.932 E31.99013
G1 X135.493 Y98.993 E31.99455
G1 X135.594 Y99.053 E31.99894
G1 X135.695 Y99.114 E32.00330
G1 X135.797 Y99.174 E32.00762
G1 X135.898 Y99.235 E32.01190
G1 X135.996 Y99.298 E32.01619
G1 X136.094 Y99.362 E32.02049
G1 X136.191 Y99.427 E32.02476
G1 X136.288 Y99.491 E32.02902
G1 X136.385 Y99.556 E32.03325
G1 X136.480 Y99.622 E32.03752
G1 X136.573 Y99.691 E32.04176
G1 X136.666 Y99.760 E32.04599
G1 X136.759 Y99.829 E32.05021
G1 X136.851 Y99.897 E32.05443
G1 X136.944 Y99.966 E32.05863
G1 X137.032 Y100.040 E32.06283
G1 X137.120 Y100.114 E32.06703
G1 X137.208 Y100.188 E32.07126
G1 X137.296 Y100.261 E32.07549
G1 X137.383 Y100.335 E32.07972
G1 X137.468 Y100.412 E32.08391
G1 X137.551 Y100.490 E32.08810
G1 X137.635 Y100.569 E32.09231
G1 X137.718 Y100.647 E32.09654
G1 X137.800 Y100.726 E32.10076
G1 X137.882 Y100.807 E32.10495
G1 X137.962 Y100.888 E32.10912
G1 X138.041 Y100.970 E32.11331
G1 X138.120 Y101.053 E32.11753
G1 X138.199 Y101.136 E32.12176
G1 X138.275 Y101.221 E32.12595
G1 X138.352 Y101.306 E32.13011
G1 X138.428 Y101.391 E32.13425
G1 X138.503 Y101.478 E32.13841
G1 X138.578 Y101.565 E32.14260
G1 X138.652 Y101.652 E32.14681
G1 X138.725 Y101.741 E32.15102
G1 X138.796 Y101.832 E32.15524
G1 X138.865 Y101.924 E32.15950
G1 X138.935 Y102.016 E32.16380
G1 X139.002 Y102.110 E32.16811
G1 X139.070 Y102.204 E32.17241
G1 X139.137 Y102.299 E32.17670
G1 X139.205 Y102.393 E32.18097
G1 X139.272 Y102.487 E32.18523
G1 X139.338 Y102.583 E32.18953
G1 X139.400 Y102.683 E32.19384
G1 X139.462 Y102.782 E32.19813
G1 X139.524 Y102.881 E32.20241
G1 X139.586 Y102.981 E32.20668
G1 X139.648 Y103.081 E32.21096
G1 X139.706 Y103.185 E32.21534
G1 X139.762 Y103.290 E32.21974
G1 X139.819 Y103.395 E32.22416
G1 X139.875 Y103.500 E32.22860
G1 X139.932 Y103.605 E32.23304
G1 X139.988 Y103.711 E32.23751
G1 X140.045 Y103.816 E32.24199
