; #disp params :
; Printmode:0
; Layer:300
; Zmax:112.5 mm
; Xmax:156.929 mm
; Ymax:61 mm
; Xmin:103 mm
; Ymin:0.3 mm
; E0diam:0.4 mm
; E0len:2.59842 m
; E0temp:215 C
; Bedtemp:215 C
; Time:56.5181 min
; #params end
; GCode generated by CraftWare

G28 X Y ; home horizontally
G28 Z ; home vertically


M104 S215 ;set head temp (no wait)
M190 S60 ;set bed temp (wait)
M109 S215 ;set head temp (wait)

; ------------------------------------
; Raft Layer #0
; ------------------------------------
M106 S0 ;turn off fan
G21 ; mm
G90 ; abs
G92 E0 ;reset extr
G0 F600 Z0.300
;segType:Raft
G0 F3000 E-1.00000
G0 F600 Z2.300
G0 X108.062 Y112.250 F5400
G0 F600 Z0.300
G0 F3000 E0.00000
G1 X103.062 Y107.250 E0.35278 F600
G1 X103.062 Y92.750 E1.07619
G1 X108.062 Y87.750 E1.42896
G1 X108.375 Y87.562 E1.44716
G1 X151.375 Y87.562 E3.59244
G1 X151.750 Y87.687 E3.61216
G1 X156.750 Y92.687 E3.96494
G1 X156.813 Y93.625 E4.01183
G1 X156.813 Y107.125 E4.68534
G1 X156.375 Y107.688 E4.72091
G1 X151.625 Y112.438 E5.05605
G1 X108.250 Y112.438 E7.22004
G1 X108.062 Y112.250 E7.23329
G0 X108.479 Y112.125 F5400
G1 X108.479 Y88.000 E8.43689 F600
G0 X111.146 Y88.000 F5400
G1 X111.146 Y112.125 E9.64049 F600
G0 X113.812 Y112.125 F5400
G1 X113.812 Y88.000 E10.84409 F600
G0 X116.479 Y88.000 F5400
G1 X116.479 Y112.125 E12.04769 F600
G0 X119.146 Y112.125 F5400
G1 X119.146 Y88.000 E13.25129 F600
G0 X121.812 Y88.000 F5400
G1 X121.812 Y112.125 E14.45489 F600
G0 X124.479 Y112.125 F5400
G1 X124.479 Y88.000 E15.65849 F600
G0 X127.146 Y88.000 F5400
G1 X127.146 Y112.125 E16.86209 F600
G0 X129.812 Y112.125 F5400
G1 X129.812 Y88.000 E18.06570 F600
G0 X132.479 Y88.000 F5400
G1 X132.479 Y112.125 E19.26930 F600
G0 X135.146 Y112.125 F5400
G1 X135.146 Y88.000 E20.47290 F600
G0 X137.813 Y88.000 F5400
G1 X137.813 Y112.125 E21.67650 F600
G0 X140.479 Y112.125 F5400
G1 X140.479 Y88.000 E22.88010 F600
G0 X143.146 Y88.000 F5400
G1 X143.146 Y112.125 E24.08371 F600
G0 X145.813 Y112.125 F5400
G1 X145.813 Y88.000 E25.28731 F600
G0 X148.479 Y88.000 F5400
G1 X148.479 Y112.125 E26.49091 F600
G0 X151.146 Y112.125 F5400
G1 X151.146 Y88.000 E27.69451 F600
G0 X153.813 Y90.375 F5400
G1 X153.813 Y109.750 E28.66113 F600
G0 X105.812 Y109.375 F5400
G1 X105.812 Y90.750 E29.59034 F600



; ------------------------------------
; Raft Layer #1
; ------------------------------------
G92 E0 ;reset extr
G0 F600 Z0.600
;segType:Raft
G0 F3000 E-1.00000
G0 F600 Z2.600
G0 X103.187 Y92.934 F7200
G0 F600 Z0.600
G0 F3000 E0.00000
G1 X108.437 Y87.684 E0.37041 F1800
G0 X110.437 Y87.569 F7200
G1 X103.187 Y94.819 E0.88194 F1800
G0 X103.187 Y96.705 F7200
G1 X112.312 Y87.580 E1.52575 F1800
G0 X114.187 Y87.591 F7200
G1 X103.187 Y98.591 E2.30185 F1800
G0 X103.187 Y100.476 F7200
G1 X116.062 Y87.601 E3.21025 F1800
G0 X117.937 Y87.612 F7200
G1 X103.187 Y102.362 E4.25093 F1800
G0 X103.187 Y104.248 F7200
G1 X119.812 Y87.623 E5.42391 F1800
G0 X121.687 Y87.633 F7200
G1 X103.187 Y106.133 E6.72917 F1800
G0 X103.562 Y107.644 F7200
G1 X123.562 Y87.644 E8.14027 F1800
G0 X125.437 Y87.654 F7200
G1 X104.437 Y108.654 E9.62192 F1800
G0 X105.437 Y109.540 F7200
G1 X127.312 Y87.665 E11.16531 F1800
G0 X129.187 Y87.676 F7200
G1 X106.312 Y110.551 E12.77925 F1800
G0 X107.249 Y111.500 F7200
G1 X131.123 Y87.625 E14.46375 F1800
G0 X133.009 Y87.625 F7200
G1 X108.259 Y112.375 E16.20998 F1800
G0 X110.020 Y112.500 F7200
G1 X134.895 Y87.625 E17.96504 F1800
G0 X136.780 Y87.625 F7200
G1 X111.906 Y112.500 E19.72009 F1800
G0 X113.791 Y112.500 F7200
G1 X138.666 Y87.625 E21.47514 F1800
G0 X140.551 Y87.625 F7200
G1 X115.677 Y112.500 E23.23019 F1800
G0 X117.562 Y112.500 F7200
G1 X142.437 Y87.625 E24.98525 F1800
G0 X144.323 Y87.625 F7200
G1 X119.448 Y112.500 E26.74030 F1800
G0 X121.334 Y112.500 F7200
G1 X146.208 Y87.625 E28.49535 F1800
G0 X148.094 Y87.625 F7200
G1 X123.219 Y112.500 E30.25040 F1800
G0 X125.105 Y112.500 F7200
G1 X149.979 Y87.625 E32.00546 F1800
G0 X151.740 Y87.750 F7200
G1 X126.990 Y112.500 E33.75169 F1800
G0 X128.876 Y112.500 F7200
G1 X152.751 Y88.625 E35.43619 F1800
G0 X153.636 Y89.625 F7200
G1 X130.762 Y112.500 E37.05013 F1800
G0 X132.647 Y112.500 F7200
G1 X154.647 Y90.500 E38.60234 F1800
G0 X155.533 Y91.500 F7200
G1 X134.533 Y112.500 E40.08399 F1800
G0 X136.419 Y112.500 F7200
G1 X156.543 Y92.375 E41.50391 F1800
G0 X156.929 Y93.875 F7200
G1 X138.304 Y112.500 E42.81799 F1800
G0 X140.190 Y112.500 F7200
G1 X156.815 Y95.875 E43.99097 F1800
G0 X156.825 Y97.750 F7200
G1 X142.075 Y112.500 E45.03165 F1800
G0 X143.961 Y112.500 F7200
G1 X156.836 Y99.625 E45.94004 F1800
G0 X156.846 Y101.500 F7200
G1 X145.847 Y112.500 E46.71615 F1800
G0 X147.732 Y112.500 F7200
G1 X156.857 Y103.375 E47.35996 F1800
G0 X156.868 Y105.250 F7200
G1 X149.618 Y112.500 E47.87149 F1800
G0 X151.503 Y112.500 F7200
G1 X156.878 Y107.125 E48.25072 F1800



; ------------------------------------
; Raft Layer #2
; ------------------------------------
G92 E0 ;reset extr
G0 F600 Z0.800
;segType:Raft
G0 F3000 E-1.00000
G0 F600 Z2.800
G0 X151.750 Y112.188 F7200
G0 F600 Z0.800
G0 F3000 E0.00000
G1 X108.000 Y112.188 E1.45513 F2400
G1 X107.500 Y111.788 E1.47643
G1 X152.250 Y111.788 E2.96482
G1 X152.625 Y111.388 E2.98306
G1 X107.125 Y111.388 E4.49639
G1 X106.750 Y110.988 E4.51463
G1 X153.000 Y110.988 E6.05291
G1 X153.375 Y110.588 E6.07115
G1 X106.375 Y110.588 E7.63437
G1 X106.000 Y110.188 E7.65261
G1 X153.750 Y110.188 E9.24078
G1 X154.250 Y109.788 E9.26208
G1 X105.500 Y109.788 E10.88351
G1 X105.125 Y109.388 E10.90174
G1 X154.625 Y109.388 E12.54812
G1 X155.000 Y108.988 E12.56636
G1 X104.750 Y108.988 E14.23768
G1 X104.375 Y108.588 E14.25592
G1 X155.375 Y108.588 E15.95218
G1 X155.750 Y108.188 E15.97042
G1 X104.000 Y108.188 E17.69163
G1 X103.500 Y107.788 E17.71293
G1 X156.250 Y107.788 E19.46740
G1 X156.625 Y107.388 E19.48564
G1 X103.125 Y107.388 E21.26505
G1 X103.000 Y106.988 E21.27899
G1 X156.750 Y106.988 E23.06673
G1 X156.750 Y106.588 E23.08003
G1 X103.000 Y106.588 E24.86776
G1 X103.000 Y106.188 E24.88107
G1 X156.750 Y106.188 E26.66880
G1 X156.750 Y105.788 E26.68210
G1 X103.000 Y105.788 E28.46984
G1 X103.000 Y105.388 E28.48314
G1 X156.750 Y105.388 E30.27087
G1 X156.750 Y104.988 E30.28418
G1 X103.000 Y104.988 E32.07191
G1 X103.000 Y104.588 E32.08521
G1 X156.750 Y104.588 E33.87295
G1 X156.750 Y104.188 E33.88625
G1 X103.000 Y104.188 E35.67398
G1 X103.000 Y103.788 E35.68729
G1 X156.750 Y103.788 E37.47502
G1 X156.750 Y103.388 E37.48832
G1 X103.000 Y103.388 E39.27606
G1 X103.000 Y102.988 E39.28936
G1 X156.750 Y102.988 E41.07709
G1 X156.750 Y102.588 E41.09040
G1 X103.000 Y102.588 E42.87813
G1 X103.000 Y102.188 E42.89144
G1 X156.750 Y102.188 E44.67917
G1 X156.750 Y101.788 E44.69247
G1 X103.000 Y101.788 E46.48020
G1 X103.000 Y101.388 E46.49351
G1 X156.750 Y101.388 E48.28124
G1 X156.750 Y100.988 E48.29455
G1 X103.000 Y100.988 E50.08228
G1 X103.000 Y100.588 E50.09558
G1 X156.750 Y100.588 E51.88331
G1 X156.750 Y100.188 E51.89662
G1 X103.000 Y100.188 E53.68435
G1 X103.000 Y99.788 E53.69766
G1 X156.750 Y99.788 E55.48539
G1 X156.750 Y99.388 E55.49869
G1 X103.000 Y99.388 E57.28643
G1 X103.000 Y98.988 E57.29973
G1 X156.750 Y98.988 E59.08746
G1 X156.750 Y98.588 E59.10077
G1 X103.000 Y98.588 E60.88850
G1 X103.000 Y98.188 E60.90180
G1 X156.750 Y98.188 E62.68954
G1 X156.750 Y97.788 E62.70284
G1 X103.000 Y97.788 E64.49057
G1 X103.000 Y97.388 E64.50388
G1 X156.750 Y97.388 E66.29161
G1 X156.750 Y96.988 E66.30492
G1 X103.000 Y96.988 E68.09265
G1 X103.000 Y96.588 E68.10596
G1 X156.750 Y96.588 E69.89369
G1 X156.750 Y96.188 E69.90700
G1 X103.000 Y96.188 E71.69474
G1 X103.000 Y95.788 E71.70804
G1 X156.750 Y95.788 E73.49578
G1 X156.750 Y95.388 E73.50908
G1 X103.000 Y95.388 E75.29682
G1 X103.000 Y94.988 E75.31012
G1 X156.750 Y94.988 E77.09786
G1 X156.750 Y94.588 E77.11116
G1 X103.000 Y94.588 E78.89890
G1 X103.000 Y94.188 E78.91220
G1 X156.750 Y94.188 E80.69994
G1 X156.750 Y93.788 E80.71324
G1 X103.000 Y93.788 E82.50098
G1 X103.000 Y93.388 E82.51428
G1 X156.750 Y93.388 E84.30202
G1 X156.750 Y92.988 E84.31532
G1 X103.000 Y92.988 E86.10306
G1 X103.125 Y92.588 E86.11700
G1 X156.625 Y92.588 E87.89642
G1 X156.250 Y92.188 E87.91465
G1 X103.500 Y92.188 E89.66912
G1 X104.000 Y91.788 E89.69041
G1 X155.750 Y91.788 E91.41163
G1 X155.375 Y91.388 E91.42986
G1 X104.375 Y91.388 E93.12613
G1 X104.750 Y90.988 E93.14436
G1 X155.000 Y90.988 E94.81569
G1 X154.625 Y90.588 E94.83392
G1 X105.125 Y90.588 E96.48030
G1 X105.500 Y90.188 E96.49854
G1 X154.250 Y90.188 E98.11996
G1 X153.750 Y89.788 E98.14126
G1 X106.000 Y89.788 E99.72943
G1 X106.375 Y89.388 E99.74767
G1 X153.375 Y89.388 E101.31089
G1 X153.000 Y88.988 E101.32912
G1 X106.750 Y88.988 E102.86741
G1 X107.125 Y88.588 E102.88564
G1 X152.625 Y88.588 E104.39898
G1 X152.250 Y88.188 E104.41721
G1 X107.500 Y88.188 E105.90560
G1 X108.000 Y87.788 E105.92690
G1 X151.750 Y87.788 E107.38203



; ------------------------------------
; Raft Layer #3
; ------------------------------------
M106 S255 ;set fan speed
G92 E0 ;reset extr
G0 F600 Z1.000
;segType:Raft
G0 F3000 E-1.00000
G0 F600 Z3.000
G0 X156.612 Y107.500 F7200
G0 F600 Z1.000
G0 F3000 E0.00000
G1 X156.612 Y92.625 E0.49474 F2400
G1 X156.212 Y92.250 E0.51298
G1 X156.212 Y107.875 E1.03267
G1 X155.812 Y108.375 E1.05397
G1 X155.812 Y91.750 E1.60692
G1 X155.412 Y91.375 E1.62515
G1 X155.412 Y108.750 E2.20305
G1 X155.012 Y109.125 E2.22128
G1 X155.012 Y91.000 E2.82412
G1 X154.612 Y90.625 E2.84236
G1 X154.612 Y109.500 E3.47015
G1 X154.212 Y109.875 E3.48838
G1 X154.212 Y90.250 E4.14111
G1 X153.812 Y89.750 E4.16241
G1 X153.812 Y110.375 E4.84840
G1 X153.412 Y110.750 E4.86664
G1 X153.412 Y89.375 E5.57757
G1 X153.012 Y89.000 E5.59581
G1 X153.012 Y111.125 E6.33169
G1 X152.612 Y111.500 E6.34993
G1 X152.612 Y88.625 E7.11075
G1 X152.212 Y88.250 E7.12899
G1 X152.212 Y111.875 E7.91476
G1 X151.812 Y112.375 E7.93606
G1 X151.812 Y87.750 E8.75509
G1 X151.412 Y87.625 E8.76902
G1 X151.412 Y112.500 E9.59637
G1 X151.012 Y112.500 E9.60967
G1 X151.012 Y87.625 E10.43702
G1 X150.612 Y87.625 E10.45032
G1 X150.612 Y112.500 E11.27767
G1 X150.212 Y112.500 E11.29098
G1 X150.212 Y87.625 E12.11832
G1 X149.812 Y87.625 E12.13162
G1 X149.812 Y112.500 E12.95897
G1 X149.412 Y112.500 E12.97228
G1 X149.412 Y87.625 E13.79962
G1 X149.012 Y87.625 E13.81293
G1 X149.012 Y112.500 E14.64027
G1 X148.612 Y112.500 E14.65358
G1 X148.612 Y87.625 E15.48092
G1 X148.212 Y87.625 E15.49423
G1 X148.212 Y112.500 E16.32157
G1 X147.812 Y112.500 E16.33488
G1 X147.812 Y87.625 E17.16222
G1 X147.412 Y87.625 E17.17553
G1 X147.412 Y112.500 E18.00287
G1 X147.012 Y112.500 E18.01618
G1 X147.012 Y87.625 E18.84352
G1 X146.612 Y87.625 E18.85683
G1 X146.612 Y112.500 E19.68417
G1 X146.212 Y112.500 E19.69748
G1 X146.212 Y87.625 E20.52482
G1 X145.812 Y87.625 E20.53813
G1 X145.812 Y112.500 E21.36548
G1 X145.412 Y112.500 E21.37878
G1 X145.412 Y87.625 E22.20613
G1 X145.012 Y87.625 E22.21943
G1 X145.012 Y112.500 E23.04678
G1 X144.612 Y112.500 E23.06008
G1 X144.612 Y87.625 E23.88743
G1 X144.212 Y87.625 E23.90073
G1 X144.212 Y112.500 E24.72808
G1 X143.812 Y112.500 E24.74138
G1 X143.812 Y87.625 E25.56873
G1 X143.412 Y87.625 E25.58203
G1 X143.412 Y112.500 E26.40938
G1 X143.012 Y112.500 E26.42268
G1 X143.012 Y87.625 E27.25003
G1 X142.612 Y87.625 E27.26333
G1 X142.612 Y112.500 E28.09068
G1 X142.212 Y112.500 E28.10398
G1 X142.212 Y87.625 E28.93133
G1 X141.812 Y87.625 E28.94463
G1 X141.812 Y112.500 E29.77198
G1 X141.412 Y112.500 E29.78529
G1 X141.412 Y87.625 E30.61263
G1 X141.012 Y87.625 E30.62594
G1 X141.012 Y112.500 E31.45328
G1 X140.612 Y112.500 E31.46659
G1 X140.612 Y87.625 E32.29393
G1 X140.212 Y87.625 E32.30724
G1 X140.212 Y112.500 E33.13458
G1 X139.812 Y112.500 E33.14789
G1 X139.812 Y87.625 E33.97524
G1 X139.412 Y87.625 E33.98854
G1 X139.412 Y112.500 E34.81589
G1 X139.012 Y112.500 E34.82919
G1 X139.012 Y87.625 E35.65654
G1 X138.612 Y87.625 E35.66985
G1 X138.612 Y112.500 E36.49719
G1 X138.212 Y112.500 E36.51050
G1 X138.212 Y87.625 E37.33785
G1 X137.812 Y87.625 E37.35115
G1 X137.812 Y112.500 E38.17850
G1 X137.412 Y112.500 E38.19180
G1 X137.412 Y87.625 E39.01915
G1 X137.012 Y87.625 E39.03246
G1 X137.012 Y112.500 E39.85980
G1 X136.612 Y112.500 E39.87311
G1 X136.612 Y87.625 E40.70046
G1 X136.212 Y87.625 E40.71376
G1 X136.212 Y112.500 E41.54111
G1 X135.812 Y112.500 E41.55441
G1 X135.812 Y87.625 E42.38176
G1 X135.412 Y87.625 E42.39507
G1 X135.412 Y112.500 E43.22241
G1 X135.012 Y112.500 E43.23572
G1 X135.012 Y87.625 E44.06307
G1 X134.612 Y87.625 E44.07637
G1 X134.612 Y112.500 E44.90372
G1 X134.212 Y112.500 E44.91703
G1 X134.212 Y87.625 E45.74437
G1 X133.812 Y87.625 E45.75768
G1 X133.812 Y112.500 E46.58502
G1 X133.412 Y112.500 E46.59833
G1 X133.412 Y87.625 E47.42568
G1 X133.012 Y87.625 E47.43898
G1 X133.012 Y112.500 E48.26633
G1 X132.612 Y112.500 E48.27964
G1 X132.612 Y87.625 E49.10698
G1 X132.212 Y87.625 E49.12029
G1 X132.212 Y112.500 E49.94763
G1 X131.812 Y112.500 E49.96094
G1 X131.812 Y87.625 E50.78829
G1 X131.412 Y87.625 E50.80159
G1 X131.412 Y112.500 E51.62894
G1 X131.012 Y112.500 E51.64224
G1 X131.012 Y87.625 E52.46959
G1 X130.612 Y87.625 E52.48290
G1 X130.612 Y112.500 E53.31024
G1 X130.212 Y112.500 E53.32355
G1 X130.212 Y87.625 E54.15090
G1 X129.812 Y87.625 E54.16420
G1 X129.812 Y112.500 E54.99155
G1 X129.412 Y112.500 E55.00485
G1 X129.412 Y87.625 E55.83220
G1 X129.012 Y87.625 E55.84551
G1 X129.012 Y112.500 E56.67285
G1 X128.612 Y112.500 E56.68616
G1 X128.612 Y87.625 E57.51351
G1 X128.212 Y87.625 E57.52681
G1 X128.212 Y112.500 E58.35416
G1 X127.812 Y112.500 E58.36746
G1 X127.812 Y87.625 E59.19481
G1 X127.412 Y87.625 E59.20812
G1 X127.412 Y112.500 E60.03546
G1 X127.012 Y112.500 E60.04877
G1 X127.012 Y87.625 E60.87612
G1 X126.612 Y87.625 E60.88942
G1 X126.612 Y112.500 E61.71677
G1 X126.212 Y112.500 E61.73007
G1 X126.212 Y87.625 E62.55742
G1 X125.812 Y87.625 E62.57073
G1 X125.812 Y112.500 E63.39807
G1 X125.412 Y112.500 E63.41138
G1 X125.412 Y87.625 E64.23873
G1 X125.012 Y87.625 E64.25203
G1 X125.012 Y112.500 E65.07938
G1 X124.612 Y112.500 E65.09268
G1 X124.612 Y87.625 E65.92003
G1 X124.212 Y87.625 E65.93334
G1 X124.212 Y112.500 E66.76068
G1 X123.812 Y112.500 E66.77399
G1 X123.812 Y87.625 E67.60134
G1 X123.412 Y87.625 E67.61464
G1 X123.412 Y112.500 E68.44199
G1 X123.012 Y112.500 E68.45529
G1 X123.012 Y87.625 E69.28264
G1 X122.612 Y87.625 E69.29595
G1 X122.612 Y112.500 E70.12329
G1 X122.212 Y112.500 E70.13660
G1 X122.212 Y87.625 E70.96395
G1 X121.812 Y87.625 E70.97725
G1 X121.812 Y112.500 E71.80460
G1 X121.412 Y112.500 E71.81790
G1 X121.412 Y87.625 E72.64525
G1 X121.012 Y87.625 E72.65856
G1 X121.012 Y112.500 E73.48590
G1 X120.612 Y112.500 E73.49921
G1 X120.612 Y87.625 E74.32656
G1 X120.212 Y87.625 E74.33986
G1 X120.212 Y112.500 E75.16721
G1 X119.812 Y112.500 E75.18051
G1 X119.812 Y87.625 E76.00786
G1 X119.412 Y87.625 E76.02117
G1 X119.412 Y112.500 E76.84851
G1 X119.012 Y112.500 E76.86182
G1 X119.012 Y87.625 E77.68917
G1 X118.612 Y87.625 E77.70247
G1 X118.612 Y112.500 E78.52982
G1 X118.212 Y112.500 E78.54312
G1 X118.212 Y87.625 E79.37047
G1 X117.812 Y87.625 E79.38378
G1 X117.812 Y112.500 E80.21112
G1 X117.412 Y112.500 E80.22443
G1 X117.412 Y87.625 E81.05178
G1 X117.012 Y87.625 E81.06508
G1 X117.012 Y112.500 E81.89243
G1 X116.612 Y112.500 E81.90573
G1 X116.612 Y87.625 E82.73308
G1 X116.212 Y87.625 E82.74639
G1 X116.212 Y112.500 E83.57373
G1 X115.812 Y112.500 E83.58704
G1 X115.812 Y87.625 E84.41438
G1 X115.412 Y87.625 E84.42769
G1 X115.412 Y112.500 E85.25504
G1 X115.012 Y112.500 E85.26834
G1 X115.012 Y87.625 E86.09569
G1 X114.612 Y87.625 E86.10899
G1 X114.612 Y112.500 E86.93634
G1 X114.212 Y112.500 E86.94965
G1 X114.212 Y87.625 E87.77699
G1 X113.812 Y87.625 E87.79030
G1 X113.812 Y112.500 E88.61765
G1 X113.412 Y112.500 E88.63095
G1 X113.412 Y87.625 E89.45830
G1 X113.012 Y87.625 E89.47160
G1 X113.012 Y112.500 E90.29895
G1 X112.612 Y112.500 E90.31226
G1 X112.612 Y87.625 E91.13960
G1 X112.212 Y87.625 E91.15291
G1 X112.212 Y112.500 E91.98026
G1 X111.812 Y112.500 E91.99356
G1 X111.812 Y87.625 E92.82091
G1 X111.412 Y87.625 E92.83421
G1 X111.412 Y112.500 E93.66156
G1 X111.012 Y112.500 E93.67487
G1 X111.012 Y87.625 E94.50221
G1 X110.612 Y87.625 E94.51552
G1 X110.612 Y112.500 E95.34286
G1 X110.212 Y112.500 E95.35617
G1 X110.212 Y87.625 E96.18352
G1 X109.812 Y87.625 E96.19682
G1 X109.812 Y112.500 E97.02417
G1 X109.412 Y112.500 E97.03748
G1 X109.412 Y87.625 E97.86482
G1 X109.012 Y87.625 E97.87813
G1 X109.012 Y112.500 E98.70547
G1 X108.612 Y112.500 E98.71878
G1 X108.612 Y87.625 E99.54613
G1 X108.212 Y87.625 E99.55943
G1 X108.212 Y112.500 E100.38678
G1 X107.812 Y112.000 E100.40807
G1 X107.812 Y88.125 E101.20216
G1 X107.412 Y88.500 E101.22039
G1 X107.412 Y111.625 E101.98953
G1 X107.012 Y111.250 E102.00777
G1 X107.012 Y88.875 E102.75196
G1 X106.612 Y89.250 E102.77020
G1 X106.612 Y110.875 E103.48945
G1 X106.212 Y110.500 E103.50768
G1 X106.212 Y89.625 E104.20199
G1 X105.812 Y90.125 E104.22328
G1 X105.812 Y110.000 E104.88433
G1 X105.412 Y109.625 E104.90257
G1 X105.412 Y90.500 E105.53867
G1 X105.012 Y90.875 E105.55690
G1 X105.012 Y109.250 E106.16805
G1 X104.612 Y108.875 E106.18629
G1 X104.612 Y91.250 E106.77250
G1 X104.212 Y91.625 E106.79073
G1 X104.212 Y108.500 E107.35200
G1 X103.812 Y108.000 E107.37329
G1 X103.812 Y92.125 E107.90130
G1 X103.412 Y92.500 E107.91953
G1 X103.412 Y107.625 E108.42259


; ------------------------------------
; Layer #0
; ------------------------------------
G21 ; mm
G90 ; abs
G92 E0 ;reset extr
G0 F600 Z1.450
;segType:HShell
G0 F3000 E-1.00000
G0 X115.925 Y101.439 F5400
G0 F3000 E0.00000
G1 X114.061 Y99.575 E0.08768 F2400
G0 X114.061 Y99.010 F5400
G1 X116.490 Y101.439 E0.20197 F2400
G0 X117.056 Y101.439 F5400
G1 X114.177 Y98.561 E0.33737 F2400
G0 X113.516 Y98.380 F5400
;segType:Perimeter
G1 X113.361 Y97.801 E0.35733 F1200
G1 X146.700 Y97.801 E1.46619
G1 X146.700 Y102.200 E1.61250
G1 X113.301 Y102.200 E2.72336
G1 X113.301 Y97.861 E2.86767
G0 X113.361 Y97.801 F5400
G0 X114.960 Y97.801
G0 X114.401 Y98.200
;segType:Loop
G1 X146.300 Y98.201 E3.92864 F2400
G1 X146.300 Y101.800 E4.04834
G1 X113.701 Y101.800 E5.13259
G1 X113.701 Y98.200 E5.25229
G1 X114.201 Y98.200 E5.26892
G0 X114.743 Y98.561 F5400
;segType:HShell
G1 X117.622 Y101.439 E5.40433 F2400
G0 X118.187 Y101.439 F5400
G1 X115.309 Y98.561 E5.53974 F2400
G0 X115.874 Y98.561 F5400
G1 X118.753 Y101.439 E5.67514 F2400
G0 X119.319 Y101.439 F5400
G1 X116.440 Y98.561 E5.81055 F2400
G0 X117.006 Y98.561 F5400
G1 X119.884 Y101.439 E5.94596 F2400
G0 X120.450 Y101.439 F5400
G1 X117.571 Y98.561 E6.08137 F2400
G0 X118.137 Y98.561 F5400
G1 X121.016 Y101.439 E6.21678 F2400
G0 X121.582 Y101.439 F5400
G1 X118.703 Y98.561 E6.35218 F2400
G0 X119.268 Y98.561 F5400
G1 X122.147 Y101.439 E6.48759 F2400
G0 X122.713 Y101.439 F5400
G1 X119.834 Y98.561 E6.62300 F2400
G0 X120.400 Y98.561 F5400
G1 X123.279 Y101.439 E6.75841 F2400
G0 X123.844 Y101.439 F5400
G1 X120.966 Y98.561 E6.89382 F2400
G0 X121.531 Y98.561 F5400
G1 X124.410 Y101.439 E7.02922 F2400
G0 X124.976 Y101.439 F5400
G1 X122.097 Y98.561 E7.16463 F2400
G0 X122.663 Y98.561 F5400
G1 X125.541 Y101.439 E7.30004 F2400
G0 X126.107 Y101.439 F5400
G1 X123.228 Y98.561 E7.43545 F2400
G0 X123.794 Y98.561 F5400
G1 X126.673 Y101.439 E7.57086 F2400
G0 X127.238 Y101.439 F5400
G1 X124.360 Y98.561 E7.70626 F2400
G0 X124.925 Y98.561 F5400
G1 X127.804 Y101.439 E7.84167 F2400
G0 X128.370 Y101.439 F5400
G1 X125.491 Y98.561 E7.97708 F2400
G0 X126.057 Y98.561 F5400
G1 X128.935 Y101.439 E8.11249 F2400
G0 X129.501 Y101.439 F5400
G1 X126.622 Y98.561 E8.24790 F2400
G0 X127.188 Y98.561 F5400
G1 X130.067 Y101.439 E8.38330 F2400
G0 X130.632 Y101.439 F5400
G1 X127.754 Y98.561 E8.51871 F2400
G0 X128.319 Y98.561 F5400
G1 X131.198 Y101.439 E8.65412 F2400
G0 X131.764 Y101.439 F5400
G1 X128.885 Y98.561 E8.78953 F2400
G0 X129.451 Y98.561 F5400
G1 X132.330 Y101.439 E8.92493 F2400
G0 X132.895 Y101.439 F5400
G1 X130.016 Y98.561 E9.06034 F2400
G0 X130.582 Y98.561 F5400
G1 X133.461 Y101.439 E9.19575 F2400
G0 X134.027 Y101.439 F5400
G1 X131.148 Y98.561 E9.33116 F2400
G0 X131.714 Y98.561 F5400
G1 X134.592 Y101.439 E9.46656 F2400
G0 X135.158 Y101.439 F5400
G1 X132.279 Y98.561 E9.60197 F2400
G0 X132.845 Y98.561 F5400
G1 X135.724 Y101.439 E9.73738 F2400
G0 X136.289 Y101.439 F5400
G1 X133.411 Y98.561 E9.87279 F2400
G0 X133.976 Y98.561 F5400
G1 X136.855 Y101.439 E10.00819 F2400
G0 X137.421 Y101.439 F5400
G1 X134.542 Y98.561 E10.14360 F2400
G0 X135.108 Y98.561 F5400
G1 X137.986 Y101.439 E10.27901 F2400
G0 X138.552 Y101.439 F5400
G1 X135.673 Y98.561 E10.41442 F2400
G0 X136.239 Y98.561 F5400
G1 X139.118 Y101.439 E10.54982 F2400
G0 X139.683 Y101.439 F5400
G1 X136.805 Y98.561 E10.68523 F2400
G0 X137.370 Y98.561 F5400
G1 X140.249 Y101.439 E10.82064 F2400
G0 X140.815 Y101.439 F5400
G1 X137.936 Y98.561 E10.95605 F2400
G0 X138.502 Y98.561 F5400
G1 X141.381 Y101.439 E11.09145 F2400
G0 X141.946 Y101.439 F5400
G1 X139.067 Y98.561 E11.22686 F2400
G0 X139.633 Y98.561 F5400
G1 X142.512 Y101.439 E11.36227 F2400
G0 X143.078 Y101.439 F5400
G1 X140.199 Y98.561 E11.49768 F2400
G0 X140.764 Y98.561 F5400
G1 X143.643 Y101.439 E11.63308 F2400
G0 X144.209 Y101.439 F5400
G1 X141.330 Y98.561 E11.76849 F2400
G0 X141.896 Y98.561 F5400
G1 X144.775 Y101.439 E11.90390 F2400
G0 X145.340 Y101.439 F5400
G1 X142.462 Y98.561 E12.03931 F2400
G0 X143.027 Y98.561 F5400
G1 X145.906 Y101.439 E12.17471 F2400
G0 X145.939 Y100.907 F5400
G1 X143.593 Y98.561 E12.28508 F2400
G0 X144.159 Y98.561 F5400
G1 X145.939 Y100.341 E12.36885 F2400
G0 X145.939 Y99.776 F5400
G1 X144.724 Y98.561 E12.42600 F2400
G0 X145.290 Y98.561 F5400
G1 X145.939 Y99.210 E12.45655 F2400
G0 X145.939 Y98.644 F5400
G1 X145.856 Y98.561 E12.46048 F2400
G0 X115.359 Y101.439 F5400
G1 X114.061 Y100.141 E12.52155 F2400
G0 X114.061 Y100.707 F5400
G1 X114.793 Y101.439 E12.55602 F2400
G0 X114.228 Y101.439 F5400
G1 X114.061 Y101.272 E12.56387 F2400
; ------------------------------------
; Layer #1
; ------------------------------------
G92 E0 ;reset extr
G0 F3000 E-1.00000
G0 F600 Z1.400
G0 X116.611 Y98.561 F7200
G0 F3000 E0.00000
;segType:HShell
G1 X114.061 Y101.111 E0.11996 F2830
G0 X114.061 Y100.545 F7200
G1 X116.045 Y98.561 E0.21331 F2830
G0 X115.480 Y98.561 F7200
G1 X114.061 Y99.980 E0.28005 F2830
G0 X114.061 Y99.414 F7200
G1 X114.914 Y98.561 E0.32019 F2830
G0 X114.061 Y98.848 F7200
G1 X114.348 Y98.561 E0.33372 F2830
G0 X113.516 Y98.380 F7200
;segType:Perimeter
G1 X113.361 Y97.801 E0.35367 F1415
G1 X146.700 Y97.801 E1.46253
G1 X146.700 Y102.200 E1.60884
G1 X113.301 Y102.200 E2.71970
G1 X113.301 Y97.861 E2.86402
G0 X113.361 Y97.801 F7200
G0 X114.960 Y97.801
G0 X114.401 Y98.200
;segType:Loop
G1 X146.300 Y98.201 E3.92498 F2830
G1 X146.300 Y101.800 E4.04468
G1 X113.701 Y101.800 E5.12893
G1 X113.701 Y98.200 E5.24863
G1 X114.201 Y98.200 E5.26526
G0 F3000 E4.26526
G0 X114.201 Y98.200 F7200
G0 X114.309 Y101.800
G0 X114.298 Y101.439
G0 F3000 E5.26526
;segType:HShell
G1 X117.177 Y98.561 E5.40067 F2830
G0 X117.742 Y98.561 F7200
G1 X114.864 Y101.439 E5.53608 F2830
G0 X115.429 Y101.439 F7200
G1 X118.308 Y98.561 E5.67149 F2830
G0 X118.874 Y98.561 F7200
G1 X115.995 Y101.439 E5.80690 F2830
G0 X116.561 Y101.439 F7200
G1 X119.439 Y98.561 E5.94230 F2830
G0 X120.005 Y98.561 F7200
G1 X117.126 Y101.439 E6.07771 F2830
G0 X117.692 Y101.439 F7200
G1 X120.571 Y98.561 E6.21312 F2830
G0 X121.136 Y98.561 F7200
G1 X118.258 Y101.439 E6.34853 F2830
G0 X118.823 Y101.439 F7200
G1 X121.702 Y98.561 E6.48394 F2830
G0 X122.268 Y98.561 F7200
G1 X119.389 Y101.439 E6.61934 F2830
G0 X119.955 Y101.439 F7200
G1 X122.833 Y98.561 E6.75475 F2830
G0 X123.399 Y98.561 F7200
G1 X120.520 Y101.439 E6.89016 F2830
G0 X121.086 Y101.439 F7200
G1 X123.965 Y98.561 E7.02557 F2830
G0 X124.531 Y98.561 F7200
G1 X121.652 Y101.439 E7.16098 F2830
G0 X122.217 Y101.439 F7200
G1 X125.096 Y98.561 E7.29638 F2830
G0 X125.662 Y98.561 F7200
G1 X122.783 Y101.439 E7.43179 F2830
G0 X123.349 Y101.439 F7200
G1 X126.228 Y98.561 E7.56720 F2830
G0 X126.793 Y98.561 F7200
G1 X123.915 Y101.439 E7.70261 F2830
G0 X124.480 Y101.439 F7200
G1 X127.359 Y98.561 E7.83802 F2830
G0 X127.925 Y98.561 F7200
G1 X125.046 Y101.439 E7.97342 F2830
G0 X125.612 Y101.439 F7200
G1 X128.490 Y98.561 E8.10883 F2830
G0 X129.056 Y98.561 F7200
G1 X126.177 Y101.439 E8.24424 F2830
G0 X126.743 Y101.439 F7200
G1 X129.622 Y98.561 E8.37965 F2830
G0 X130.187 Y98.561 F7200
G1 X127.309 Y101.439 E8.51505 F2830
G0 X127.874 Y101.439 F7200
G1 X130.753 Y98.561 E8.65046 F2830
G0 X131.319 Y98.561 F7200
G1 X128.440 Y101.439 E8.78587 F2830
G0 X129.006 Y101.439 F7200
G1 X131.884 Y98.561 E8.92128 F2830
G0 X132.450 Y98.561 F7200
G1 X129.571 Y101.439 E9.05669 F2830
G0 X130.137 Y101.439 F7200
G1 X133.016 Y98.561 E9.19209 F2830
G0 X133.582 Y98.561 F7200
G1 X130.703 Y101.439 E9.32750 F2830
G0 X131.268 Y101.439 F7200
G1 X134.147 Y98.561 E9.46291 F2830
G0 X134.713 Y98.561 F7200
G1 X131.834 Y101.439 E9.59832 F2830
G0 X132.400 Y101.439 F7200
G1 X135.279 Y98.561 E9.73372 F2830
G0 X135.844 Y98.561 F7200
G1 X132.966 Y101.439 E9.86913 F2830
G0 X133.531 Y101.439 F7200
G1 X136.410 Y98.561 E10.00454 F2830
G0 X136.976 Y98.561 F7200
G1 X134.097 Y101.439 E10.13995 F2830
G0 X134.663 Y101.439 F7200
G1 X137.541 Y98.561 E10.27535 F2830
G0 X138.107 Y98.561 F7200
G1 X135.228 Y101.439 E10.41076 F2830
G0 X135.794 Y101.439 F7200
G1 X138.673 Y98.561 E10.54617 F2830
G0 X139.238 Y98.561 F7200
G1 X136.360 Y101.439 E10.68158 F2830
G0 X136.925 Y101.439 F7200
G1 X139.804 Y98.561 E10.81698 F2830
G0 X140.370 Y98.561 F7200
G1 X137.491 Y101.439 E10.95239 F2830
G0 X138.057 Y101.439 F7200
G1 X140.935 Y98.561 E11.08780 F2830
G0 X141.501 Y98.561 F7200
G1 X138.622 Y101.439 E11.22321 F2830
G0 X139.188 Y101.439 F7200
G1 X142.067 Y98.561 E11.35861 F2830
G0 X142.632 Y98.561 F7200
G1 X139.754 Y101.439 E11.49402 F2830
G0 X140.319 Y101.439 F7200
G1 X143.198 Y98.561 E11.62943 F2830
G0 X143.764 Y98.561 F7200
G1 X140.885 Y101.439 E11.76484 F2830
G0 X141.451 Y101.439 F7200
G1 X144.330 Y98.561 E11.90024 F2830
G0 X144.895 Y98.561 F7200
G1 X142.016 Y101.439 E12.03565 F2830
G0 X142.582 Y101.439 F7200
G1 X145.461 Y98.561 E12.17106 F2830
G0 X145.939 Y98.648 F7200
G1 X143.148 Y101.439 E12.30236 F2830
G0 X143.714 Y101.439 F7200
G1 X145.939 Y99.214 E12.40706 F2830
G0 X145.939 Y99.779 F7200
G1 X144.279 Y101.439 E12.48515 F2830
G0 X144.845 Y101.439 F7200
G1 X145.939 Y100.345 E12.53663 F2830
G0 X145.939 Y100.911 F7200
G1 X145.411 Y101.439 E12.56151 F2830
; ------------------------------------
; Layer #2
; ------------------------------------
G92 E0 ;reset extr
G0 F3000 E-1.00000
G0 F600 Z1.600
G0 X118.187 Y101.439 F7200
G0 F3000 E0.00000
;segType:HShell
G1 X115.309 Y98.561 E0.13541 F2821
G0 X114.743 Y98.561 F7200
G1 X117.622 Y101.439 E0.27082 F2821
G0 X117.056 Y101.439 F7200
G1 X114.177 Y98.561 E0.40622 F2821
G0 X113.516 Y98.380 F7200
;segType:Perimeter
G1 X113.361 Y97.801 E0.42618 F1410
G1 X146.700 Y97.801 E1.53504
G1 X146.700 Y102.200 E1.68135
G1 X113.301 Y102.200 E2.79221
G1 X113.301 Y97.861 E2.93652
G0 X113.361 Y97.801 F7200
G0 X114.960 Y97.801
G0 X114.401 Y98.200
;segType:Loop
G1 X146.300 Y98.201 E3.99749 F2821
G1 X146.300 Y101.800 E4.11719
G1 X113.701 Y101.800 E5.20144
G1 X113.701 Y98.200 E5.32114
G1 X114.201 Y98.200 E5.33777
G0 X114.061 Y99.010 F7200
;segType:HShell
G1 X116.490 Y101.439 E5.45206 F2821
G0 X115.925 Y101.439 F7200
G1 X114.061 Y99.575 E5.53974 F2821
G0 X114.061 Y100.141 F7200
G1 X115.359 Y101.439 E5.60081 F2821
G0 X114.793 Y101.439 F7200
G1 X114.061 Y100.707 E5.63527 F2821
G0 X114.061 Y101.272 F7200
G1 X114.228 Y101.439 E5.64313 F2821
G0 X118.753 Y101.439 F7200
G1 X115.874 Y98.561 E5.77853 F2821
G0 X116.440 Y98.561 F7200
G1 X119.319 Y101.439 E5.91394 F2821
G0 X119.884 Y101.439 F7200
G1 X117.006 Y98.561 E6.04935 F2821
G0 X117.571 Y98.561 F7200
G1 X120.450 Y101.439 E6.18476 F2821
G0 X121.016 Y101.439 F7200
G1 X118.137 Y98.561 E6.32017 F2821
G0 X118.703 Y98.561 F7200
G1 X121.582 Y101.439 E6.45557 F2821
G0 X122.147 Y101.439 F7200
G1 X119.268 Y98.561 E6.59098 F2821
G0 X119.834 Y98.561 F7200
G1 X122.713 Y101.439 E6.72639 F2821
G0 X123.279 Y101.439 F7200
G1 X120.400 Y98.561 E6.86180 F2821
G0 X120.966 Y98.561 F7200
G1 X123.844 Y101.439 E6.99721 F2821
G0 X124.410 Y101.439 F7200
G1 X121.531 Y98.561 E7.13261 F2821
G0 X122.097 Y98.561 F7200
G1 X124.976 Y101.439 E7.26802 F2821
G0 X125.541 Y101.439 F7200
G1 X122.663 Y98.561 E7.40343 F2821
G0 X123.228 Y98.561 F7200
G1 X126.107 Y101.439 E7.53884 F2821
G0 X126.673 Y101.439 F7200
G1 X123.794 Y98.561 E7.67424 F2821
G0 X124.360 Y98.561 F7200
G1 X127.238 Y101.439 E7.80965 F2821
G0 X127.804 Y101.439 F7200
G1 X124.925 Y98.561 E7.94506 F2821
G0 X125.491 Y98.561 F7200
G1 X128.370 Y101.439 E8.08047 F2821
G0 X128.935 Y101.439 F7200
G1 X126.057 Y98.561 E8.21588 F2821
G0 X126.622 Y98.561 F7200
G1 X129.501 Y101.439 E8.35129 F2821
G0 X130.067 Y101.439 F7200
G1 X127.188 Y98.561 E8.48669 F2821
G0 X127.754 Y98.561 F7200
G1 X130.632 Y101.439 E8.62210 F2821
G0 X131.198 Y101.439 F7200
G1 X128.319 Y98.561 E8.75751 F2821
G0 X128.885 Y98.561 F7200
G1 X131.764 Y101.439 E8.89292 F2821
G0 X132.330 Y101.439 F7200
G1 X129.451 Y98.561 E9.02832 F2821
G0 X130.016 Y98.561 F7200
G1 X132.895 Y101.439 E9.16373 F2821
G0 X133.461 Y101.439 F7200
G1 X130.582 Y98.561 E9.29914 F2821
G0 X131.148 Y98.561 F7200
G1 X134.027 Y101.439 E9.43455 F2821
G0 X134.592 Y101.439 F7200
G1 X131.714 Y98.561 E9.56996 F2821
G0 X132.279 Y98.561 F7200
G1 X135.158 Y101.439 E9.70536 F2821
G0 X135.724 Y101.439 F7200
G1 X132.845 Y98.561 E9.84077 F2821
G0 X133.411 Y98.561 F7200
G1 X136.289 Y101.439 E9.97618 F2821
G0 X136.855 Y101.439 F7200
G1 X133.976 Y98.561 E10.11158 F2821
G0 X134.542 Y98.561 F7200
G1 X137.421 Y101.439 E10.24699 F2821
G0 X137.986 Y101.439 F7200
G1 X135.108 Y98.561 E10.38240 F2821
G0 X135.673 Y98.561 F7200
G1 X138.552 Y101.439 E10.51781 F2821
G0 X139.118 Y101.439 F7200
G1 X136.239 Y98.561 E10.65322 F2821
G0 X136.805 Y98.561 F7200
G1 X139.683 Y101.439 E10.78862 F2821
G0 X140.249 Y101.439 F7200
G1 X137.370 Y98.561 E10.92403 F2821
G0 X137.936 Y98.561 F7200
G1 X140.815 Y101.439 E11.05944 F2821
G0 X141.381 Y101.439 F7200
G1 X138.502 Y98.561 E11.19485 F2821
G0 X139.067 Y98.561 F7200
G1 X141.946 Y101.439 E11.33026 F2821
G0 X142.512 Y101.439 F7200
G1 X139.633 Y98.561 E11.46566 F2821
G0 X140.199 Y98.561 F7200
G1 X143.078 Y101.439 E11.60107 F2821
G0 X143.643 Y101.439 F7200
G1 X140.765 Y98.561 E11.73648 F2821
G0 X141.330 Y98.561 F7200
G1 X144.209 Y101.439 E11.87189 F2821
G0 X144.775 Y101.439 F7200
G1 X141.896 Y98.561 E12.00730 F2821
G0 X142.462 Y98.561 F7200
G1 X145.340 Y101.439 E12.14271 F2821
G0 X145.906 Y101.439 F7200
G1 X143.027 Y98.561 E12.27811 F2821
G0 X143.593 Y98.561 F7200
G1 X145.939 Y100.907 E12.38848 F2821
G0 X145.939 Y100.341 F7200
G1 X144.159 Y98.561 E12.47225 F2821
G0 X144.724 Y98.561 F7200
G1 X145.939 Y99.776 E12.52940 F2821
G0 X145.939 Y99.210 F7200
G1 X145.290 Y98.561 E12.55995 F2821
G0 X145.856 Y98.561 F7200
G1 X145.939 Y98.644 E12.56388 F2821
; ------------------------------------
; Layer #3
; ------------------------------------
G92 E0 ;reset extr
G0 F3000 E-1.00000
G0 F600 Z1.800
G0 X116.611 Y98.561 F7200
G0 F3000 E0.00000
;segType:HShell
G1 X114.061 Y101.111 E0.11996 F2898
G0 X114.061 Y100.545 F7200
G1 X116.045 Y98.561 E0.21331 F2898
G0 X115.480 Y98.561 F7200
G1 X114.061 Y99.980 E0.28006 F2898
G0 X114.061 Y99.414 F7200
G1 X114.914 Y98.561 E0.32019 F2898
G0 X114.061 Y98.848 F7200
G1 X114.348 Y98.561 E0.33372 F2898
G0 X113.516 Y98.380 F7200
;segType:Perimeter
G1 X113.361 Y97.801 E0.35367 F1449
G1 X146.700 Y97.801 E1.46253
G1 X146.700 Y102.200 E1.60885
G1 X113.301 Y102.200 E2.71970
G1 X113.301 Y97.861 E2.86402
G0 X113.361 Y97.801 F7200
G0 X114.960 Y97.801
G0 X114.401 Y98.200
;segType:Loop
G1 X146.300 Y98.201 E3.92498 F2898
G1 X146.300 Y101.800 E4.04469
G1 X113.701 Y101.800 E5.12893
G1 X113.701 Y98.200 E5.24864
G1 X114.201 Y98.200 E5.26527
G0 F3000 E4.26527
G0 X145.411 Y101.439 F7200
G0 F3000 E5.26527
;segType:HShell
G1 X145.939 Y100.911 E5.29014 F2898
G0 X145.939 Y100.345 F7200
G1 X144.845 Y101.439 E5.34162 F2898
G0 X144.279 Y101.439 F7200
G1 X145.939 Y99.779 E5.41971 F2898
G0 X145.939 Y99.214 F7200
G1 X143.714 Y101.439 E5.52441 F2898
G0 X143.148 Y101.439 F7200
G1 X145.939 Y98.648 E5.65571 F2898
G0 X145.461 Y98.561 F7200
G1 X142.582 Y101.439 E5.79112 F2898
G0 X142.016 Y101.439 F7200
G1 X144.895 Y98.561 E5.92653 F2898
G0 X144.330 Y98.561 F7200
G1 X141.451 Y101.439 E6.06194 F2898
G0 X140.885 Y101.439 F7200
G1 X143.764 Y98.561 E6.19735 F2898
G0 X143.198 Y98.561 F7200
G1 X140.319 Y101.439 E6.33275 F2898
G0 X139.754 Y101.439 F7200
G1 X142.632 Y98.561 E6.46816 F2898
G0 X142.067 Y98.561 F7200
G1 X139.188 Y101.439 E6.60357 F2898
G0 X138.622 Y101.439 F7200
G1 X141.501 Y98.561 E6.73898 F2898
G0 X140.935 Y98.561 F7200
G1 X138.057 Y101.439 E6.87438 F2898
G0 X137.491 Y101.439 F7200
G1 X140.370 Y98.561 E7.00979 F2898
G0 X139.804 Y98.561 F7200
G1 X136.925 Y101.439 E7.14520 F2898
G0 X136.360 Y101.439 F7200
G1 X139.238 Y98.561 E7.28061 F2898
G0 X138.673 Y98.561 F7200
G1 X135.794 Y101.439 E7.41602 F2898
G0 X135.228 Y101.439 F7200
G1 X138.107 Y98.561 E7.55142 F2898
G0 X137.541 Y98.561 F7200
G1 X134.663 Y101.439 E7.68683 F2898
G0 X134.097 Y101.439 F7200
G1 X136.976 Y98.561 E7.82224 F2898
G0 X136.410 Y98.561 F7200
G1 X133.531 Y101.439 E7.95765 F2898
G0 X132.966 Y101.439 F7200
G1 X135.844 Y98.561 E8.09306 F2898
G0 X135.279 Y98.561 F7200
G1 X132.400 Y101.439 E8.22846 F2898
G0 X131.834 Y101.439 F7200
G1 X134.713 Y98.561 E8.36387 F2898
G0 X134.147 Y98.561 F7200
G1 X131.268 Y101.439 E8.49928 F2898
G0 X130.703 Y101.439 F7200
G1 X133.582 Y98.561 E8.63469 F2898
G0 X133.016 Y98.561 F7200
G1 X130.137 Y101.439 E8.77009 F2898
G0 X129.571 Y101.439 F7200
G1 X132.450 Y98.561 E8.90550 F2898
G0 X131.884 Y98.561 F7200
G1 X129.006 Y101.439 E9.04091 F2898
G0 X128.440 Y101.439 F7200
G1 X131.319 Y98.561 E9.17632 F2898
G0 X130.753 Y98.561 F7200
G1 X127.874 Y101.439 E9.31173 F2898
G0 X127.309 Y101.439 F7200
G1 X130.187 Y98.561 E9.44714 F2898
G0 X129.622 Y98.561 F7200
G1 X126.743 Y101.439 E9.58254 F2898
G0 X126.177 Y101.439 F7200
G1 X129.056 Y98.561 E9.71795 F2898
G0 X128.490 Y98.561 F7200
G1 X125.612 Y101.439 E9.85336 F2898
G0 X125.046 Y101.439 F7200
G1 X127.925 Y98.561 E9.98877 F2898
G0 X127.359 Y98.561 F7200
G1 X124.480 Y101.439 E10.12418 F2898
G0 X123.915 Y101.439 F7200
G1 X126.793 Y98.561 E10.25959 F2898
G0 X126.228 Y98.561 F7200
G1 X123.349 Y101.439 E10.39500 F2898
G0 X122.783 Y101.439 F7200
G1 X125.662 Y98.561 E10.53040 F2898
G0 X125.096 Y98.561 F7200
G1 X122.217 Y101.439 E10.66581 F2898
G0 X121.652 Y101.439 F7200
G1 X124.531 Y98.561 E10.80122 F2898
G0 X123.965 Y98.561 F7200
G1 X121.086 Y101.439 E10.93663 F2898
G0 X120.520 Y101.439 F7200
G1 X123.399 Y98.561 E11.07203 F2898
G0 X122.834 Y98.561 F7200
G1 X119.955 Y101.439 E11.20744 F2898
G0 X119.389 Y101.439 F7200
G1 X122.268 Y98.561 E11.34285 F2898
G0 X121.702 Y98.561 F7200
G1 X118.823 Y101.439 E11.47826 F2898
G0 X118.258 Y101.439 F7200
G1 X121.136 Y98.561 E11.61366 F2898
G0 X120.571 Y98.561 F7200
G1 X117.692 Y101.439 E11.74907 F2898
G0 X117.126 Y101.439 F7200
G1 X120.005 Y98.561 E11.88448 F2898
G0 X119.439 Y98.561 F7200
G1 X116.561 Y101.439 E12.01989 F2898
G0 X115.995 Y101.439 F7200
G1 X118.874 Y98.561 E12.15529 F2898
G0 X118.308 Y98.561 F7200
G1 X115.429 Y101.439 E12.29070 F2898
G0 X114.864 Y101.439 F7200
G1 X117.742 Y98.561 E12.42611 F2898
G0 X117.177 Y98.561 F7200
G1 X114.298 Y101.439 E12.56152 F2898
; ------------------------------------
; Layer #4
; ------------------------------------
G92 E0 ;reset extr
G0 F3000 E-1.00000
G0 F600 Z2.000
G0 X120.591 Y98.561 F7200
G0 F3000 E0.00000
;segType:Infill
G1 X118.928 Y101.439 E0.11056 F2498
G0 X118.928 Y101.439 F7200
G1 X117.266 Y98.561 E0.22112 F2498
G0 X118.281 Y98.561 F7200
G1 X116.619 Y101.439 E0.33168 F2498
G0 X116.619 Y101.439 F7200
G1 X114.956 Y98.561 E0.44224 F2498
G0 X113.516 Y98.380 F7200
;segType:Perimeter
G1 X113.361 Y97.801 E0.46220 F999
G1 X146.700 Y97.801 E1.57106
G1 X146.700 Y102.200 E1.71737
G1 X113.301 Y102.200 E2.82822
G1 X113.301 Y97.861 E2.97254
G0 X113.361 Y97.801 F7200
G0 X114.960 Y97.801
G0 X114.401 Y98.200
;segType:Loop
G1 X146.300 Y98.201 E4.03350 F1998
G1 X146.300 Y101.800 E4.15321
G1 X113.701 Y101.800 E5.23745
G1 X113.701 Y98.200 E5.35716
G1 X114.201 Y98.200 E5.37379
G0 X114.061 Y100.560 F7200
;segType:Infill
G1 X145.939 Y100.560 E6.43408 F2498
G0 X145.939 Y100.225 F7200
G1 X144.979 Y98.561 E6.49798 F2498
G0 X145.939 Y98.655 F7200
G1 X144.332 Y101.439 E6.60491 F2498
G0 X144.331 Y101.439 F7200
G1 X142.669 Y98.561 E6.71547 F2498
G0 X143.685 Y98.561 F7200
G1 X142.022 Y101.439 E6.82603 F2498
G0 X142.022 Y101.439 F7200
G1 X140.360 Y98.561 E6.93660 F2498
G0 X141.375 Y98.561 F7200
G1 X139.713 Y101.439 E7.04716 F2498
G0 X139.713 Y101.439 F7200
G1 X138.051 Y98.561 E7.15772 F2498
G0 X139.066 Y98.561 F7200
G1 X137.404 Y101.439 E7.26828 F2498
G0 X137.403 Y101.439 F7200
G1 X135.741 Y98.561 E7.37884 F2498
G0 X136.756 Y98.561 F7200
G1 X135.094 Y101.439 E7.48940 F2498
G0 X135.094 Y101.439 F7200
G1 X133.432 Y98.561 E7.59996 F2498
G0 X132.138 Y98.561 F7200
G1 X130.475 Y101.439 E7.71052 F2498
G0 X130.475 Y101.439 F7200
G1 X128.813 Y98.561 E7.82108 F2498
G0 X127.519 Y98.561 F7200
G1 X125.857 Y101.439 E7.93164 F2498
G0 X125.856 Y101.439 F7200
G1 X124.194 Y98.561 E8.04219 F2498
G0 X132.785 Y101.439 F7200
G1 X134.447 Y98.561 E8.15276 F2498
G0 X132.784 Y101.439 F7200
G1 X131.122 Y98.561 E8.26332 F2498
G0 X129.828 Y98.561 F7200
G1 X128.166 Y101.439 E8.37387 F2498
G0 X128.166 Y101.439 F7200
G1 X126.503 Y98.561 E8.48443 F2498
G0 X125.209 Y98.561 F7200
G1 X123.547 Y101.439 E8.59499 F2498
G0 X123.547 Y101.439 F7200
G1 X121.885 Y98.561 E8.70555 F2498
G0 X122.900 Y98.561 F7200
G1 X121.238 Y101.439 E8.81611 F2498
G0 X121.237 Y101.439 F7200
G1 X119.575 Y98.561 E8.92667 F2498
G0 X115.972 Y98.561 F7200
G1 X114.310 Y101.439 E9.03723 F2498
G0 X114.309 Y101.439 F7200
G1 X114.061 Y101.009 E9.05376 F2498
; ------------------------------------
; Layer #5
; ------------------------------------
G92 E0 ;reset extr
G0 F3000 E-1.00000
G0 F600 Z2.200
G0 X113.701 Y101.035 F7200
G0 X146.300 Y98.674
G0 X145.939 Y98.700
G0 F3000 E0.00000
;segType:Infill
G1 X114.061 Y98.700 E1.06029 F2770
G0 X113.516 Y98.380 F7200
;segType:Perimeter
G1 X113.361 Y97.801 E1.08025 F1108
G1 X146.700 Y97.801 E2.18911
G1 X146.700 Y102.200 E2.33542
G1 X113.301 Y102.200 E3.44628
G1 X113.301 Y97.861 E3.59059
G0 X113.361 Y97.801 F7200
G0 X114.960 Y97.801
G0 X114.401 Y98.200
;segType:Loop
G1 X146.300 Y98.201 E4.65156 F2216
G1 X146.300 Y101.800 E4.77126
G1 X113.701 Y101.800 E5.85551
G1 X113.701 Y98.200 E5.97521
G1 X114.201 Y98.200 E5.99184
G0 X115.037 Y98.561 F7200
;segType:Infill
G1 X116.699 Y101.439 E6.10240 F2770
G0 X116.538 Y101.439 F7200
G1 X118.200 Y98.561 E6.21296 F2770
G0 X120.510 Y98.561 F7200
G1 X118.848 Y101.439 E6.32352 F2770
G0 X117.347 Y98.561 F7200
G1 X119.009 Y101.439 E6.43408 F2770
G0 F3000 E5.43408
G0 X118.928 Y101.800 F7200
G0 X119.737 Y98.200
G0 X119.656 Y98.561
G0 F3000 E6.43408
G1 X121.318 Y101.439 E6.54464 F2770
G0 X121.157 Y101.439 F7200
G1 X122.819 Y98.561 E6.65520 F2770
G0 X124.275 Y98.561 F7200
G1 X125.937 Y101.439 E6.76576 F2770
G0 X128.085 Y101.439 F7200
G1 X129.747 Y98.561 E6.87632 F2770
G0 X131.203 Y98.561 F7200
G1 X132.865 Y101.439 E6.98688 F2770
G0 F3000 E5.98688
G0 X132.966 Y101.800 F7200
G0 X131.956 Y98.201
G0 X132.057 Y98.561
G0 F3000 E6.98688
G1 X130.395 Y101.439 E7.09744 F2770
G0 X128.246 Y101.439 F7200
G1 X126.584 Y98.561 E7.20800 F2770
G0 X125.128 Y98.561 F7200
G1 X123.466 Y101.439 E7.31856 F2770
G0 X123.628 Y101.439 F7200
G1 X121.966 Y98.561 E7.42912 F2770
G0 X125.776 Y101.439 F7200
G1 X127.438 Y98.561 E7.53968 F2770
G0 X128.894 Y98.561 F7200
G1 X130.556 Y101.439 E7.65024 F2770
G0 X132.704 Y101.439 F7200
G1 X134.366 Y98.561 E7.76080 F2770
G0 X133.513 Y98.561 F7200
G1 X135.175 Y101.439 E7.87136 F2770
G0 X135.013 Y101.439 F7200
G1 X136.675 Y98.561 E7.98192 F2770
G0 X135.822 Y98.561 F7200
G1 X137.484 Y101.439 E8.09248 F2770
G0 X137.323 Y101.439 F7200
G1 X138.985 Y98.561 E8.20304 F2770
G0 X138.131 Y98.561 F7200
G1 X139.793 Y101.439 E8.31360 F2770
G0 X143.604 Y98.561 F7200
G1 X141.942 Y101.439 E8.42416 F2770
G0 X142.103 Y101.439 F7200
G1 X140.441 Y98.561 E8.53472 F2770
G0 F3000 E7.53472
G0 X140.542 Y98.201 F7200
G0 X139.531 Y101.800
G0 X139.632 Y101.439
G0 F3000 E8.53472
G1 X141.294 Y98.561 E8.64528 F2770
G0 X142.750 Y98.561 F7200
G1 X144.412 Y101.439 E8.75584 F2770
G0 X144.251 Y101.439 F7200
G1 X145.913 Y98.561 E8.86640 F2770
G0 X145.060 Y98.561 F7200
G1 X145.939 Y100.085 E8.92493 F2770
G0 X145.939 Y100.700 F7200
G1 X114.061 Y100.700 E9.98522 F2770
G0 X114.061 Y100.869 F7200
G1 X114.390 Y101.439 E10.00713 F2770
G0 X114.229 Y101.439 F7200
G1 X115.891 Y98.561 E10.11769 F2770
; ------------------------------------
; Layer #6
; ------------------------------------
G92 E0 ;reset extr
G0 F3000 E-1.00000
G0 F600 Z2.400
G0 X145.939 Y98.840 F7200
G0 F3000 E0.00000
;segType:Infill
G1 X114.061 Y98.840 E1.06029 F2704
G0 X113.516 Y98.380 F7200
;segType:Perimeter
G1 X113.361 Y97.801 E1.08025 F1081
G1 X146.700 Y97.801 E2.18911
G1 X146.700 Y102.200 E2.33542
G1 X113.301 Y102.200 E3.44628
G1 X113.301 Y97.861 E3.59059
G0 X113.361 Y97.801 F7200
G0 X114.960 Y97.801
G0 X114.401 Y98.200
;segType:Loop
G1 X146.300 Y98.201 E4.65156 F2163
G1 X146.300 Y101.800 E4.77126
G1 X113.701 Y101.800 E5.85551
G1 X113.701 Y98.200 E5.97521
G1 X114.201 Y98.200 E5.99184
G0 X114.061 Y100.729 F7200
;segType:Infill
G1 X114.471 Y101.439 E6.01913 F2704
G0 X114.148 Y101.439 F7200
G1 X115.810 Y98.561 E6.12969 F2704
G0 X115.118 Y98.561 F7200
G1 X116.780 Y101.439 E6.24025 F2704
G0 X116.457 Y101.439 F7200
G1 X118.119 Y98.561 E6.35081 F2704
G0 X117.428 Y98.561 F7200
G1 X119.090 Y101.439 E6.46137 F2704
G0 X118.767 Y101.439 F7200
G1 X120.429 Y98.561 E6.57193 F2704
G0 X119.737 Y98.561 F7200
G1 X121.399 Y101.439 E6.68249 F2704
G0 X121.076 Y101.439 F7200
G1 X122.738 Y98.561 E6.79305 F2704
G0 X122.046 Y98.561 F7200
G1 X123.708 Y101.439 E6.90361 F2704
G0 X125.695 Y101.439 F7200
G1 X127.357 Y98.561 E7.01417 F2704
G0 X126.018 Y101.439 F7200
G1 X124.356 Y98.561 E7.12473 F2704
G0 X123.386 Y101.439 F7200
G1 X125.048 Y98.561 E7.23529 F2704
G0 X126.665 Y98.561 F7200
G1 X128.327 Y101.439 E7.34585 F2704
G0 X128.004 Y101.439 F7200
G1 X129.666 Y98.561 E7.45641 F2704
G0 X131.976 Y98.561 F7200
G1 X130.314 Y101.439 E7.56697 F2704
G0 X130.637 Y101.439 F7200
G1 X128.975 Y98.561 E7.67753 F2704
G0 X131.284 Y98.561 F7200
G1 X132.946 Y101.439 E7.78809 F2704
G0 X132.623 Y101.439 F7200
G1 X134.285 Y98.561 E7.89865 F2704
G0 X133.593 Y98.561 F7200
G1 X135.255 Y101.439 E8.00921 F2704
G0 X134.933 Y101.439 F7200
G1 X136.595 Y98.561 E8.11977 F2704
G0 X135.903 Y98.561 F7200
G1 X137.565 Y101.439 E8.23033 F2704
G0 X137.242 Y101.439 F7200
G1 X138.904 Y98.561 E8.34089 F2704
G0 X138.212 Y98.561 F7200
G1 X139.874 Y101.439 E8.45145 F2704
G0 X139.551 Y101.439 F7200
G1 X141.213 Y98.561 E8.56201 F2704
G0 X140.522 Y98.561 F7200
G1 X142.184 Y101.439 E8.67257 F2704
G0 X144.170 Y101.439 F7200
G1 X145.832 Y98.561 E8.78313 F2704
G0 X145.939 Y99.944 F7200
G1 X145.140 Y98.561 E8.83628 F2704
G0 X143.523 Y98.561 F7200
G1 X141.861 Y101.439 E8.94684 F2704
G0 X142.831 Y98.561 F7200
G1 X144.493 Y101.439 E9.05740 F2704
G0 X145.939 Y100.840 F7200
G1 X114.061 Y100.840 E10.11769 F2704
; ------------------------------------
; Layer #7
; ------------------------------------
G92 E0 ;reset extr
G0 F3000 E-1.00000
G0 F600 Z2.600
G0 X113.701 Y100.861 F7200
G0 X146.300 Y98.959
G0 X145.939 Y98.980
G0 F3000 E0.00000
;segType:Infill
G1 X114.061 Y98.980 E1.06029 F2678
G0 X113.701 Y98.200 F7200
G0 X113.516 Y98.380
;segType:Perimeter
G1 X113.361 Y97.801 E1.08025 F1071
G1 X146.700 Y97.801 E2.18911
G1 X146.700 Y102.200 E2.33542
G1 X113.301 Y102.200 E3.44627
G1 X113.301 Y97.861 E3.59059
G0 X113.361 Y97.801 F7200
G0 X114.960 Y97.801
G0 X114.401 Y98.200
;segType:Loop
G1 X146.300 Y98.201 E4.65155 F2142
G1 X146.300 Y101.800 E4.77126
G1 X113.701 Y101.800 E5.85550
G1 X113.701 Y98.200 E5.97521
G1 X114.201 Y98.200 E5.99184
G0 X115.199 Y98.561 F7200
;segType:Infill
G1 X116.861 Y101.439 E6.10240 F2678
G0 X118.686 Y101.439 F7200
G1 X120.348 Y98.561 E6.21296 F2678
G0 X119.818 Y98.561 F7200
G1 X121.480 Y101.439 E6.32352 F2678
G0 X116.377 Y101.439 F7200
G1 X118.039 Y98.561 E6.43408 F2678
G0 X117.508 Y98.561 F7200
G1 X119.171 Y101.439 E6.54464 F2678
G0 X120.995 Y101.439 F7200
G1 X122.657 Y98.561 E6.65520 F2678
G0 X122.127 Y98.561 F7200
G1 X123.789 Y101.439 E6.76576 F2678
G0 X123.305 Y101.439 F7200
G1 X124.967 Y98.561 E6.87632 F2678
G0 X124.437 Y98.561 F7200
G1 X126.099 Y101.439 E6.98688 F2678
G0 X125.614 Y101.439 F7200
G1 X127.276 Y98.561 E7.09744 F2678
G0 X126.746 Y98.561 F7200
G1 X128.408 Y101.439 E7.20800 F2678
G0 X127.924 Y101.439 F7200
G1 X129.586 Y98.561 E7.31856 F2678
G0 X129.055 Y98.561 F7200
G1 X130.718 Y101.439 E7.42912 F2678
G0 X130.233 Y101.439 F7200
G1 X131.895 Y98.561 E7.53968 F2678
G0 X131.365 Y98.561 F7200
G1 X133.027 Y101.439 E7.65024 F2678
G0 X132.542 Y101.439 F7200
G1 X134.204 Y98.561 E7.76080 F2678
G0 X133.674 Y98.561 F7200
G1 X135.336 Y101.439 E7.87136 F2678
G0 X134.852 Y101.439 F7200
G1 X136.514 Y98.561 E7.98192 F2678
G0 X135.984 Y98.561 F7200
G1 X137.646 Y101.439 E8.09248 F2678
G0 X137.161 Y101.439 F7200
G1 X138.823 Y98.561 E8.20304 F2678
G0 X138.293 Y98.561 F7200
G1 X139.955 Y101.439 E8.31360 F2678
G0 X139.471 Y101.439 F7200
G1 X141.133 Y98.561 E8.42416 F2678
G0 X140.602 Y98.561 F7200
G1 X142.265 Y101.439 E8.53472 F2678
G0 X141.780 Y101.439 F7200
G1 X143.442 Y98.561 E8.64528 F2678
G0 X142.912 Y98.561 F7200
G1 X144.574 Y101.439 E8.75584 F2678
G0 X144.089 Y101.439 F7200
G1 X145.751 Y98.561 E8.86640 F2678
G0 X145.221 Y98.561 F7200
G1 X145.939 Y99.804 E8.91417 F2678
G0 X145.939 Y100.980 F7200
G1 X114.061 Y100.980 E9.97446 F2678
G0 X114.061 Y100.589 F7200
G1 X114.552 Y101.439 E10.00712 F2678
G0 X114.067 Y101.439 F7200
G1 X115.729 Y98.561 E10.11768 F2678
; ------------------------------------
; Layer #8
; ------------------------------------
G92 E0 ;reset extr
G0 F3000 E-1.00000
G0 F600 Z2.800
G0 X145.939 Y99.120 F7200
G0 F3000 E0.00000
;segType:Infill
G1 X114.061 Y99.120 E1.06029 F2696
G0 X113.701 Y98.200 F7200
G0 X113.516 Y98.380
;segType:Perimeter
G1 X113.361 Y97.801 E1.08025 F1078
G1 X146.700 Y97.801 E2.18911
G1 X146.700 Y102.200 E2.33542
G1 X113.301 Y102.200 E3.44628
G1 X113.301 Y97.861 E3.59059
G0 X113.361 Y97.801 F7200
G0 X114.960 Y97.801
G0 X114.401 Y98.200
;segType:Loop
G1 X146.300 Y98.201 E4.65156 F2157
G1 X146.300 Y101.800 E4.77126
G1 X113.701 Y101.800 E5.85551
G1 X113.701 Y98.200 E5.97521
G1 X114.201 Y98.200 E5.99184
G0 X114.061 Y100.449 F7200
;segType:Infill
G1 X114.633 Y101.439 E6.02989 F2696
G0 X114.061 Y101.311 F7200
G1 X115.648 Y98.561 E6.13550 F2696
G0 X115.280 Y98.561 F7200
G1 X116.942 Y101.439 E6.24606 F2696
G0 X116.296 Y101.439 F7200
G1 X117.958 Y98.561 E6.35662 F2696
G0 X117.589 Y98.561 F7200
G1 X119.251 Y101.439 E6.46718 F2696
G0 X118.605 Y101.439 F7200
G1 X120.267 Y98.561 E6.57774 F2696
G0 X119.899 Y98.561 F7200
G1 X121.561 Y101.439 E6.68830 F2696
G0 X120.914 Y101.439 F7200
G1 X122.577 Y98.561 E6.79886 F2696
G0 X122.208 Y98.561 F7200
G1 X123.870 Y101.439 E6.90942 F2696
G0 X125.533 Y101.439 F7200
G1 X127.195 Y98.561 E7.01998 F2696
G0 X129.505 Y98.561 F7200
G1 X127.843 Y101.439 E7.13054 F2696
G0 X126.180 Y101.439 F7200
G1 X124.518 Y98.561 E7.24110 F2696
G0 X123.224 Y101.439 F7200
G1 X124.886 Y98.561 E7.35166 F2696
G0 X126.827 Y98.561 F7200
G1 X128.489 Y101.439 E7.46222 F2696
G0 X130.152 Y101.439 F7200
G1 X131.814 Y98.561 E7.57278 F2696
G0 X130.798 Y101.439 F7200
G1 X129.136 Y98.561 E7.68334 F2696
G0 X131.446 Y98.561 F7200
G1 X133.108 Y101.439 E7.79390 F2696
G0 X132.461 Y101.439 F7200
G1 X134.124 Y98.561 E7.90446 F2696
G0 X133.755 Y98.561 F7200
G1 X135.417 Y101.439 E8.01502 F2696
G0 X134.771 Y101.439 F7200
G1 X136.433 Y98.561 E8.12558 F2696
G0 X136.065 Y98.561 F7200
G1 X137.727 Y101.439 E8.23614 F2696
G0 X137.080 Y101.439 F7200
G1 X138.742 Y98.561 E8.34670 F2696
G0 X138.374 Y98.561 F7200
G1 X140.036 Y101.439 E8.45726 F2696
G0 X139.390 Y101.439 F7200
G1 X141.052 Y98.561 E8.56782 F2696
G0 X140.683 Y98.561 F7200
G1 X142.345 Y101.439 E8.67838 F2696
G0 X141.699 Y101.439 F7200
G1 X143.361 Y98.561 E8.78894 F2696
G0 X142.993 Y98.561 F7200
G1 X144.655 Y101.439 E8.89950 F2696
G0 X144.008 Y101.439 F7200
G1 X145.671 Y98.561 E9.01006 F2696
G0 X145.302 Y98.561 F7200
G1 X145.939 Y99.664 E9.05245 F2696
G0 X145.939 Y101.120 F7200
G1 X114.061 Y101.120 E10.11274 F2696
; ------------------------------------
; Layer #9
; ------------------------------------
G92 E0 ;reset extr
G0 F3000 E-1.00000
G0 F600 Z3.000
G0 X113.701 Y101.141 F7200
G0 X146.300 Y99.239
G0 X145.939 Y99.260
G0 F3000 E0.00000
;segType:Infill
G1 X114.061 Y99.260 E1.06029 F2698
G0 X113.701 Y98.200 F7200
G0 X113.516 Y98.380
;segType:Perimeter
G1 X113.361 Y97.801 E1.08025 F1079
G1 X146.700 Y97.801 E2.18911
G1 X146.700 Y102.200 E2.33542
G1 X113.301 Y102.200 E3.44627
G1 X113.301 Y97.861 E3.59059
G0 X113.361 Y97.801 F7200
G0 X114.960 Y97.801
G0 X114.401 Y98.200
;segType:Loop
G1 X146.300 Y98.201 E4.65155 F2158
G1 X146.300 Y101.800 E4.77126
G1 X113.701 Y101.800 E5.85550
G1 X113.701 Y98.200 E5.97521
G1 X114.201 Y98.200 E5.99184
G0 X114.061 Y100.309 F7200
;segType:Infill
G1 X114.713 Y101.439 E6.03526 F2698
G0 X114.061 Y101.260 F7200
G1 X145.939 Y101.260 E7.09555 F2698
G0 X145.939 Y99.524 F7200
G1 X145.383 Y98.561 E7.13256 F2698
G0 X145.590 Y98.561 F7200
G1 X143.928 Y101.439 E7.24312 F2698
G0 X144.736 Y101.439 F7200
G1 X143.074 Y98.561 E7.35368 F2698
G0 X143.280 Y98.561 F7200
G1 X141.618 Y101.439 E7.46424 F2698
G0 X142.426 Y101.439 F7200
G1 X140.764 Y98.561 E7.57480 F2698
G0 X140.971 Y98.561 F7200
G1 X139.309 Y101.439 E7.68536 F2698
G0 X140.117 Y101.439 F7200
G1 X138.455 Y98.561 E7.79592 F2698
G0 X138.661 Y98.561 F7200
G1 X136.999 Y101.439 E7.90648 F2698
G0 X137.807 Y101.439 F7200
G1 X136.145 Y98.561 E8.01704 F2698
G0 X136.352 Y98.561 F7200
G1 X134.690 Y101.439 E8.12760 F2698
G0 X135.498 Y101.439 F7200
G1 X133.836 Y98.561 E8.23816 F2698
G0 X131.527 Y98.561 F7200
G1 X133.189 Y101.439 E8.34872 F2698
G0 X132.381 Y101.439 F7200
G1 X134.043 Y98.561 E8.45928 F2698
G0 X131.733 Y98.561 F7200
G1 X130.071 Y101.439 E8.56984 F2698
G0 X130.879 Y101.439 F7200
G1 X129.217 Y98.561 E8.68040 F2698
G0 X129.424 Y98.561 F7200
G1 X127.762 Y101.439 E8.79096 F2698
G0 X126.260 Y101.439 F7200
G1 X124.598 Y98.561 E8.90152 F2698
G0 X120.834 Y101.439 F7200
G1 X122.496 Y98.561 E9.01208 F2698
G0 X122.289 Y98.561 F7200
G1 X123.951 Y101.439 E9.12264 F2698
G0 X125.452 Y101.439 F7200
G1 X127.114 Y98.561 E9.23320 F2698
G0 X126.908 Y98.561 F7200
G1 X128.570 Y101.439 E9.34376 F2698
G0 X124.805 Y98.561 F7200
G1 X123.143 Y101.439 E9.45432 F2698
G0 X121.642 Y101.439 F7200
G1 X119.980 Y98.561 E9.56488 F2698
G0 X120.186 Y98.561 F7200
G1 X118.524 Y101.439 E9.67544 F2698
G0 X119.332 Y101.439 F7200
G1 X117.670 Y98.561 E9.78600 F2698
G0 X117.877 Y98.561 F7200
G1 X116.215 Y101.439 E9.89656 F2698
G0 X117.023 Y101.439 F7200
G1 X115.361 Y98.561 E10.00712 F2698
G0 X115.567 Y98.561 F7200
G1 X114.061 Y101.171 E10.10735 F2698
; ------------------------------------
; Layer #10
; ------------------------------------
G92 E0 ;reset extr
G0 F3000 E-1.00000
G0 F600 Z3.200
G0 X113.701 Y101.191 F7200
G0 X146.300 Y99.380
G0 X145.939 Y99.400
G0 F3000 E0.00000
;segType:Infill
G1 X114.061 Y99.400 E1.06029 F2698
G0 X113.701 Y98.200 F7200
G0 X113.516 Y98.380
;segType:Perimeter
G1 X113.361 Y97.801 E1.08025 F1079
G1 X146.700 Y97.801 E2.18911
G1 X146.700 Y102.200 E2.33542
G1 X113.301 Y102.200 E3.44628
G1 X113.301 Y97.861 E3.59059
G0 X113.361 Y97.801 F7200
G0 X114.960 Y97.801
G0 X114.401 Y98.200
;segType:Loop
G1 X146.300 Y98.201 E4.65156 F2159
G1 X146.300 Y101.800 E4.77126
G1 X113.701 Y101.800 E5.85551
G1 X113.701 Y98.200 E5.97521
G1 X114.201 Y98.200 E5.99184
G0 X114.061 Y100.169 F7200
;segType:Infill
G1 X114.794 Y101.439 E6.04064 F2698
G0 X114.061 Y101.400 F7200
G1 X145.939 Y101.400 E7.10093 F2698
G0 X145.939 Y99.384 F7200
G1 X145.464 Y98.561 E7.13257 F2698
G0 X145.509 Y98.561 F7200
G1 X143.847 Y101.439 E7.24313 F2698
G0 X144.816 Y101.439 F7200
G1 X143.154 Y98.561 E7.35369 F2698
G0 X143.199 Y98.561 F7200
G1 X141.537 Y101.439 E7.46425 F2698
G0 X142.507 Y101.439 F7200
G1 X140.845 Y98.561 E7.57481 F2698
G0 X140.890 Y98.561 F7200
G1 X139.228 Y101.439 E7.68537 F2698
G0 X140.198 Y101.439 F7200
G1 X138.536 Y98.561 E7.79593 F2698
G0 X138.581 Y98.561 F7200
G1 X136.919 Y101.439 E7.90649 F2698
G0 X137.888 Y101.439 F7200
G1 X136.226 Y98.561 E8.01705 F2698
G0 X136.271 Y98.561 F7200
G1 X134.609 Y101.439 E8.12761 F2698
G0 X135.579 Y101.439 F7200
G1 X133.917 Y98.561 E8.23817 F2698
G0 X131.607 Y98.561 F7200
G1 X133.269 Y101.439 E8.34873 F2698
G0 X132.300 Y101.439 F7200
G1 X133.962 Y98.561 E8.45929 F2698
G0 X131.652 Y98.561 F7200
G1 X129.990 Y101.439 E8.56985 F2698
G0 X130.960 Y101.439 F7200
G1 X129.298 Y98.561 E8.68041 F2698
G0 X129.343 Y98.561 F7200
G1 X127.681 Y101.439 E8.79097 F2698
G0 X126.341 Y101.439 F7200
G1 X124.679 Y98.561 E8.90153 F2698
G0 X124.724 Y98.561 F7200
G1 X123.062 Y101.439 E9.01209 F2698
G0 X121.722 Y101.439 F7200
G1 X120.060 Y98.561 E9.12265 F2698
G0 X120.105 Y98.561 F7200
G1 X118.443 Y101.439 E9.23321 F2698
G0 X128.651 Y101.439 F7200
G1 X126.989 Y98.561 E9.34378 F2698
G0 X127.034 Y98.561 F7200
G1 X125.372 Y101.439 E9.45434 F2698
G0 X124.032 Y101.439 F7200
G1 X122.370 Y98.561 E9.56490 F2698
G0 X122.415 Y98.561 F7200
G1 X120.753 Y101.439 E9.67546 F2698
G0 X119.413 Y101.439 F7200
G1 X117.751 Y98.561 E9.78602 F2698
G0 X117.796 Y98.561 F7200
G1 X116.134 Y101.439 E9.89658 F2698
G0 X117.104 Y101.439 F7200
G1 X115.442 Y98.561 E10.00714 F2698
G0 X115.487 Y98.561 F7200
G1 X114.061 Y101.030 E10.10199 F2698
; ------------------------------------
; Layer #11
; ------------------------------------
G92 E0 ;reset extr
G0 F3000 E-1.00000
G0 F600 Z3.400
G0 X113.701 Y101.047 F7200
G0 X146.300 Y99.524
G0 X145.939 Y99.540
G0 F3000 E0.00000
;segType:Infill
G1 X114.061 Y99.540 E1.06029 F2475
G0 X113.701 Y98.200 F7200
G0 X113.516 Y98.380
;segType:Perimeter
G1 X113.361 Y97.801 E1.08025 F990
G1 X146.700 Y97.801 E2.18911
G1 X146.700 Y102.200 E2.33542
G1 X113.301 Y102.200 E3.44628
G1 X113.301 Y97.861 E3.59059
G0 X113.361 Y97.801 F7200
G0 X114.960 Y97.801
G0 X114.401 Y98.200
;segType:Loop
G1 X146.300 Y98.201 E4.65156 F1980
G1 X146.300 Y101.800 E4.77126
G1 X113.701 Y101.800 E5.85551
G1 X113.701 Y98.200 E5.97521
G1 X114.201 Y98.200 E5.99184
G0 X114.061 Y100.029 F7200
;segType:Infill
G1 X114.875 Y101.439 E6.04602 F2475
G0 X116.053 Y101.439 F7200
G1 X117.715 Y98.561 E6.15658 F2475
G0 X117.832 Y98.561 F7200
G1 X119.494 Y101.439 E6.26714 F2475
G0 X120.672 Y101.439 F7200
G1 X122.334 Y98.561 E6.37770 F2475
G0 X122.451 Y98.561 F7200
G1 X124.113 Y101.439 E6.48826 F2475
G0 X125.291 Y101.439 F7200
G1 X126.953 Y98.561 E6.59882 F2475
G0 X127.069 Y98.561 F7200
G1 X128.732 Y101.439 E6.70938 F2475
G0 X129.910 Y101.439 F7200
G1 X131.572 Y98.561 E6.81994 F2475
G0 X131.688 Y98.561 F7200
G1 X133.350 Y101.439 E6.93050 F2475
G0 X134.528 Y101.439 F7200
G1 X136.190 Y98.561 E7.04106 F2475
G0 X136.307 Y98.561 F7200
G1 X137.969 Y101.439 E7.15162 F2475
G0 X139.147 Y101.439 F7200
G1 X140.809 Y98.561 E7.26218 F2475
G0 X140.926 Y98.561 F7200
G1 X142.588 Y101.439 E7.37274 F2475
G0 X143.766 Y101.439 F7200
G1 X145.428 Y98.561 E7.48330 F2475
G0 X145.545 Y98.561 F7200
G1 X145.939 Y99.244 E7.50956 F2475
G0 X144.897 Y101.439 F7200
G1 X143.235 Y98.561 E7.62012 F2475
G0 X143.119 Y98.561 F7200
G1 X141.457 Y101.439 E7.73068 F2475
G0 X140.279 Y101.439 F7200
G1 X138.616 Y98.561 E7.84124 F2475
G0 X138.500 Y98.561 F7200
G1 X136.838 Y101.439 E7.95180 F2475
G0 X135.660 Y101.439 F7200
G1 X133.998 Y98.561 E8.06236 F2475
G0 X133.881 Y98.561 F7200
G1 X132.219 Y101.439 E8.17292 F2475
G0 X131.041 Y101.439 F7200
G1 X129.379 Y98.561 E8.28348 F2475
G0 X129.262 Y98.561 F7200
G1 X127.600 Y101.439 E8.39404 F2475
G0 X126.422 Y101.439 F7200
G1 X124.760 Y98.561 E8.50460 F2475
G0 X124.643 Y98.561 F7200
G1 X122.981 Y101.439 E8.61516 F2475
G0 X121.803 Y101.439 F7200
G1 X120.141 Y98.561 E8.72572 F2475
G0 X120.025 Y98.561 F7200
G1 X118.362 Y101.439 E8.83628 F2475
G0 X117.185 Y101.439 F7200
G1 X115.522 Y98.561 E8.94684 F2475
G0 X115.406 Y98.561 F7200
G1 X114.061 Y100.890 E9.03632 F2475
; ------------------------------------
; Layer #12
; ------------------------------------
G92 E0 ;reset extr
G0 F3000 E-1.00000
G0 F600 Z3.600
G0 X113.701 Y100.904 F7200
G0 X146.300 Y99.667
G0 X145.939 Y99.681
G0 F3000 E0.00000
;segType:Infill
G1 X114.061 Y99.681 E1.06029 F2474
G0 X113.701 Y98.200 F7200
G0 X113.516 Y98.380
;segType:Perimeter
G1 X113.361 Y97.801 E1.08025 F989
G1 X146.700 Y97.801 E2.18911
G1 X146.700 Y102.200 E2.33542
G1 X113.301 Y102.200 E3.44628
G1 X113.301 Y97.861 E3.59059
G0 X113.361 Y97.801 F7200
G0 X114.960 Y97.801
G0 X114.401 Y98.200
;segType:Loop
G1 X146.300 Y98.201 E4.65156 F1979
G1 X146.300 Y101.800 E4.77126
G1 X113.701 Y101.800 E5.85551
G1 X113.701 Y98.200 E5.97521
G1 X114.201 Y98.200 E5.99184
G0 X114.061 Y99.889 F7200
;segType:Infill
G1 X114.956 Y101.439 E6.05140 F2474
G0 X115.972 Y101.439 F7200
G1 X117.634 Y98.561 E6.16196 F2474
G0 X117.913 Y98.561 F7200
G1 X119.575 Y101.439 E6.27252 F2474
G0 X120.591 Y101.439 F7200
G1 X122.253 Y98.561 E6.38308 F2474
G0 X122.532 Y98.561 F7200
G1 X124.194 Y101.439 E6.49364 F2474
G0 X125.210 Y101.439 F7200
G1 X126.872 Y98.561 E6.60420 F2474
G0 X127.150 Y98.561 F7200
G1 X128.812 Y101.439 E6.71476 F2474
G0 X129.829 Y101.439 F7200
G1 X131.491 Y98.561 E6.82532 F2474
G0 X131.769 Y98.561 F7200
G1 X133.431 Y101.439 E6.93588 F2474
G0 X134.447 Y101.439 F7200
G1 X136.110 Y98.561 E7.04644 F2474
G0 X136.388 Y98.561 F7200
G1 X138.050 Y101.439 E7.15700 F2474
G0 X139.066 Y101.439 F7200
G1 X140.728 Y98.561 E7.26756 F2474
G0 X141.007 Y98.561 F7200
G1 X142.669 Y101.439 E7.37812 F2474
G0 X143.685 Y101.439 F7200
G1 X145.347 Y98.561 E7.48868 F2474
G0 X145.626 Y98.561 F7200
G1 X145.939 Y99.104 E7.50956 F2474
G0 X144.978 Y101.439 F7200
G1 X143.316 Y98.561 E7.62012 F2474
G0 X143.038 Y98.561 F7200
G1 X141.376 Y101.439 E7.73068 F2474
G0 X140.359 Y101.439 F7200
G1 X138.697 Y98.561 E7.84124 F2474
G0 X138.419 Y98.561 F7200
G1 X136.757 Y101.439 E7.95180 F2474
G0 X135.741 Y101.439 F7200
G1 X134.079 Y98.561 E8.06236 F2474
G0 X133.800 Y98.561 F7200
G1 X132.138 Y101.439 E8.17292 F2474
G0 X131.122 Y101.439 F7200
G1 X129.460 Y98.561 E8.28348 F2474
G0 X129.181 Y98.561 F7200
G1 X127.519 Y101.439 E8.39404 F2474
G0 X126.503 Y101.439 F7200
G1 X124.841 Y98.561 E8.50460 F2474
G0 X124.563 Y98.561 F7200
G1 X122.900 Y101.439 E8.61516 F2474
G0 X121.884 Y101.439 F7200
G1 X120.222 Y98.561 E8.72572 F2474
G0 X119.944 Y98.561 F7200
G1 X118.282 Y101.439 E8.83628 F2474
G0 X117.265 Y101.439 F7200
G1 X115.603 Y98.561 E8.94684 F2474
G0 X115.325 Y98.561 F7200
G1 X114.061 Y100.750 E9.03094 F2474
; ------------------------------------
; Layer #13
; ------------------------------------
G92 E0 ;reset extr
G0 F3000 E-1.00000
G0 F600 Z3.800
G0 X122.172 Y98.561 F7200
G0 F3000 E0.00000
;segType:Infill
G1 X120.510 Y101.439 E0.11056 F2534
G0 X119.656 Y101.439 F7200
G1 X117.994 Y98.561 E0.22112 F2534
G0 X117.553 Y98.561 F7200
G1 X115.891 Y101.439 E0.33168 F2534
G0 X115.037 Y101.439 F7200
G1 X114.061 Y99.749 E0.39662 F2534
G0 X113.701 Y98.200 F7200
G0 X113.516 Y98.380
;segType:Perimeter
G1 X113.361 Y97.801 E0.41657 F1013
G1 X146.700 Y97.801 E1.52543
G1 X146.700 Y102.200 E1.67174
G1 X113.301 Y102.200 E2.78260
G1 X113.301 Y97.861 E2.92692
G0 X113.361 Y97.801 F7200
G0 X114.960 Y97.801
G0 X114.401 Y98.200
;segType:Loop
G1 X146.300 Y98.201 E3.98788 F2027
G1 X146.300 Y101.800 E4.10758
G1 X113.701 Y101.800 E5.19183
G1 X113.701 Y98.200 E5.31153
G1 X114.201 Y98.200 E5.32816
G0 X115.244 Y98.561 F7200
;segType:Infill
G1 X114.061 Y100.610 E5.40689 F2534
G0 X114.061 Y99.821 F7200
G1 X145.939 Y99.821 E6.46718 F2534
G0 X145.939 Y98.964 F7200
G1 X145.706 Y98.561 E6.48268 F2534
G0 X145.266 Y98.561 F7200
G1 X143.604 Y101.439 E6.59324 F2534
G0 X145.939 Y101.395 F7200
G1 X145.914 Y101.439 E6.59495 F2534
G0 X145.059 Y101.439 F7200
G1 X143.397 Y98.561 E6.70551 F2534
G0 F3000 E5.70551
G0 X143.478 Y98.201 F7200
G0 X142.669 Y101.800
G0 X142.750 Y101.439
G0 F3000 E6.70551
G1 X141.088 Y98.561 E6.81607 F2534
G0 X142.957 Y98.561 F7200
G1 X141.295 Y101.439 E6.92663 F2534
G0 X140.440 Y101.439 F7200
G1 X138.778 Y98.561 E7.03719 F2534
G0 X140.647 Y98.561 F7200
G1 X138.985 Y101.439 E7.14775 F2534
G0 X138.131 Y101.439 F7200
G1 X136.469 Y98.561 E7.25831 F2534
G0 X136.029 Y98.561 F7200
G1 X134.367 Y101.439 E7.36887 F2534
G0 X138.338 Y98.561 F7200
G1 X136.676 Y101.439 E7.47943 F2534
G0 X135.821 Y101.439 F7200
G1 X134.159 Y98.561 E7.58999 F2534
G0 X133.719 Y98.561 F7200
G1 X132.057 Y101.439 E7.70055 F2534
G0 X133.512 Y101.439 F7200
G1 X131.850 Y98.561 E7.81111 F2534
G0 X131.410 Y98.561 F7200
G1 X129.748 Y101.439 E7.92167 F2534
G0 X131.203 Y101.439 F7200
G1 X129.541 Y98.561 E8.03223 F2534
G0 X129.100 Y98.561 F7200
G1 X127.438 Y101.439 E8.14279 F2534
G0 X128.893 Y101.439 F7200
G1 X127.231 Y98.561 E8.25335 F2534
G0 X126.791 Y98.561 F7200
G1 X125.129 Y101.439 E8.36391 F2534
G0 X126.584 Y101.439 F7200
G1 X124.922 Y98.561 E8.47448 F2534
G0 X124.482 Y98.561 F7200
G1 X122.820 Y101.439 E8.58504 F2534
G0 X124.274 Y101.439 F7200
G1 X122.612 Y98.561 E8.69560 F2534
G0 F3000 E7.69560
G0 X122.693 Y98.200 F7200
G0 X121.884 Y101.800
G0 X121.965 Y101.439
G0 F3000 E8.69560
G1 X120.303 Y98.561 E8.80616 F2534
G0 X119.863 Y98.561 F7200
G1 X118.201 Y101.439 E8.91672 F2534
G0 X117.346 Y101.439 F7200
G1 X115.684 Y98.561 E9.02728 F2534
; ------------------------------------
; Layer #14
; ------------------------------------
G92 E0 ;reset extr
G0 F3000 E-1.00000
G0 F600 Z4.000
G0 X122.091 Y98.561 F7200
G0 F3000 E0.00000
;segType:Infill
G1 X120.429 Y101.439 E0.11056 F2561
G0 X119.736 Y101.439 F7200
G1 X118.074 Y98.561 E0.22112 F2561
G0 X117.473 Y98.561 F7200
G1 X115.811 Y101.439 E0.33168 F2561
G0 X115.118 Y101.439 F7200
G1 X114.061 Y99.609 E0.40199 F2561
G0 X113.701 Y98.200 F7200
G0 X113.516 Y98.380
;segType:Perimeter
G1 X113.361 Y97.801 E0.42195 F1024
G1 X146.700 Y97.801 E1.53081
G1 X146.700 Y102.200 E1.67712
G1 X113.301 Y102.200 E2.78797
G1 X113.301 Y97.861 E2.93229
G0 X113.361 Y97.801 F7200
G0 X114.960 Y97.801
G0 X114.401 Y98.200
;segType:Loop
G1 X146.300 Y98.201 E3.99325 F2049
G1 X146.300 Y101.800 E4.11296
G1 X113.701 Y101.800 E5.19720
G1 X113.701 Y98.200 E5.31691
G1 X114.201 Y98.200 E5.33354
G0 X115.163 Y98.561 F7200
;segType:Infill
G1 X114.061 Y100.470 E5.40688 F2561
G0 X114.061 Y99.961 F7200
G1 X145.939 Y99.961 E6.46717 F2561
G0 X145.939 Y98.824 F7200
G1 X145.787 Y98.561 E6.47729 F2561
G0 X145.185 Y98.561 F7200
G1 X143.523 Y101.439 E6.58785 F2561
G0 X145.939 Y101.255 F7200
G1 X145.833 Y101.439 E6.59494 F2561
G0 X145.140 Y101.439 F7200
G1 X143.478 Y98.561 E6.70550 F2561
G0 X142.876 Y98.561 F7200
G1 X141.214 Y101.439 E6.81606 F2561
G0 X142.830 Y101.439 F7200
G1 X141.168 Y98.561 E6.92662 F2561
G0 F3000 E5.92662
G0 X141.249 Y98.201 F7200
G0 X140.440 Y101.800
G0 X140.521 Y101.439
G0 F3000 E6.92662
G1 X138.859 Y98.561 E7.03718 F2561
G0 X140.567 Y98.561 F7200
G1 X138.905 Y101.439 E7.14774 F2561
G0 X138.212 Y101.439 F7200
G1 X136.550 Y98.561 E7.25830 F2561
G0 X138.257 Y98.561 F7200
G1 X136.595 Y101.439 E7.36886 F2561
G0 X135.902 Y101.439 F7200
G1 X134.240 Y98.561 E7.47942 F2561
G0 X135.948 Y98.561 F7200
G1 X134.286 Y101.439 E7.58998 F2561
G0 F3000 E6.58998
G0 X134.367 Y101.800 F7200
G0 X133.557 Y98.201
G0 X133.638 Y98.561
G0 F3000 E7.58998
G1 X131.976 Y101.439 E7.70054 F2561
G0 X133.593 Y101.439 F7200
G1 X131.931 Y98.561 E7.81110 F2561
G0 F3000 E6.81110
G0 X132.012 Y98.201 F7200
G0 X131.202 Y101.800
G0 X131.283 Y101.439
G0 F3000 E7.81110
G1 X129.621 Y98.561 E7.92166 F2561
G0 X131.329 Y98.561 F7200
G1 X129.667 Y101.439 E8.03222 F2561
G0 X128.974 Y101.439 F7200
G1 X127.312 Y98.561 E8.14278 F2561
G0 X126.710 Y98.561 F7200
G1 X125.048 Y101.439 E8.25334 F2561
G0 X126.665 Y101.439 F7200
G1 X125.003 Y98.561 E8.36390 F2561
G0 X129.020 Y98.561 F7200
G1 X127.358 Y101.439 E8.47446 F2561
G0 X124.355 Y101.439 F7200
G1 X122.693 Y98.561 E8.58502 F2561
G0 X124.401 Y98.561 F7200
G1 X122.739 Y101.439 E8.69558 F2561
G0 X122.046 Y101.439 F7200
G1 X120.384 Y98.561 E8.80614 F2561
G0 X119.782 Y98.561 F7200
G1 X118.120 Y101.439 E8.91670 F2561
G0 X117.427 Y101.439 F7200
G1 X115.765 Y98.561 E9.02726 F2561
; ------------------------------------
; Layer #15
; ------------------------------------
G92 E0 ;reset extr
G0 F3000 E-1.00000
G0 F600 Z4.200
G0 X115.082 Y98.561 F7200
G0 F3000 E0.00000
;segType:Infill
G1 X114.061 Y100.330 E0.06796 F3058
G0 X114.061 Y100.101 F7200
G1 X118.212 Y100.101 E0.20604 F3058
G0 X118.155 Y98.561 F7200
G1 X118.212 Y98.659 E0.20982 F3058
G0 X117.392 Y98.561 F7200
G1 X115.730 Y101.439 E0.32038 F3058
G0 X115.199 Y101.439 F7200
G1 X114.061 Y99.468 E0.39607 F3058
G0 X113.701 Y98.200 F7200
G0 X113.516 Y98.380
;segType:Perimeter
G1 X113.361 Y97.801 E0.41603 F1223
G1 X146.700 Y97.801 E1.52489
G1 X146.700 Y102.200 E1.67120
G1 X113.301 Y102.200 E2.78206
G1 X113.301 Y97.861 E2.92637
G0 X113.361 Y97.801 F7200
G0 X114.960 Y97.801
G0 X114.401 Y98.200
;segType:Loop
G1 X146.300 Y98.201 E3.98734 F2446
G1 X146.300 Y101.800 E4.10704
G1 X113.701 Y101.800 E5.19129
G1 X113.701 Y98.200 E5.31099
G1 X114.201 Y98.200 E5.32762
G0 X115.846 Y98.561 F7200
;segType:Infill
G1 X117.508 Y101.439 E5.43818 F3058
G0 X118.039 Y101.439 F7200
G1 X118.212 Y101.140 E5.44969 F3058
G0 X121.788 Y100.101 F7200
G1 X138.212 Y100.101 E5.99596 F3058
G0 X142.795 Y98.561 F7200
G1 X141.788 Y100.305 E6.06296 F3058
G0 X141.788 Y100.101 F7200
G1 X145.939 Y100.101 E6.20104 F3058
G0 X145.939 Y101.115 F7200
G1 X145.752 Y101.439 E6.21351 F3058
G0 X145.221 Y101.439 F7200
G1 X143.559 Y98.561 E6.32407 F3058
G0 X145.939 Y98.684 F7200
G1 X145.868 Y98.561 E6.32881 F3058
G0 X145.105 Y98.561 F7200
G1 X143.443 Y101.439 E6.43937 F3058
G0 X142.911 Y101.439 F7200
G1 X141.788 Y99.494 E6.51410 F3058
G0 X138.212 Y101.300 F7200
G1 X136.630 Y98.561 E6.61931 F3058
G0 X138.176 Y98.561 F7200
G1 X136.514 Y101.439 E6.72987 F3058
G0 X135.983 Y101.439 F7200
G1 X134.321 Y98.561 E6.84043 F3058
G0 X135.867 Y98.561 F7200
G1 X134.205 Y101.439 E6.95099 F3058
G0 X133.674 Y101.439 F7200
G1 X132.012 Y98.561 E7.06155 F3058
G0 X133.558 Y98.561 F7200
G1 X131.896 Y101.439 E7.17211 F3058
G0 X131.364 Y101.439 F7200
G1 X129.702 Y98.561 E7.28267 F3058
G0 X128.939 Y98.561 F7200
G1 X127.277 Y101.439 E7.39323 F3058
G0 X131.248 Y98.561 F7200
G1 X129.586 Y101.439 E7.50379 F3058
G0 X129.055 Y101.439 F7200
G1 X127.393 Y98.561 E7.61435 F3058
G0 X126.629 Y98.561 F7200
G1 X124.967 Y101.439 E7.72491 F3058
G0 X126.746 Y101.439 F7200
G1 X125.083 Y98.561 E7.83547 F3058
G0 X124.320 Y98.561 F7200
G1 X122.658 Y101.439 E7.94603 F3058
G0 X122.127 Y101.439 F7200
G1 X121.788 Y100.853 E7.96857 F3058
G0 X124.436 Y101.439 F7200
G1 X122.774 Y98.561 E8.07913 F3058
G0 X122.011 Y98.561 F7200
G1 X121.788 Y98.946 E8.09394 F3058
G0 F3000 E7.09394
G0 X114.348 Y98.561 F7200
G0 F3000 E8.09394
;segType:HShell
G0 X114.065 Y98.561 F7200
G1 X114.914 Y98.561 E8.12216 F2446
G1 X115.480 Y98.561 E8.14098
G1 X116.045 Y98.561 E8.15979
G1 X116.611 Y98.561 E8.17861
G1 X117.177 Y98.561 E8.19742
G1 X117.742 Y98.561 E8.21624
G1 X118.260 Y98.609 E8.23353
G0 X118.874 Y98.561 F7200
G1 X118.212 Y99.222 E8.26465 F2446
G0 X118.212 Y99.788 F7200
G1 X119.439 Y98.561 E8.32238 F2446
G0 X120.005 Y98.561 F7200
G1 X118.212 Y100.354 E8.40672 F2446
G0 X118.212 Y100.919 F7200
G1 X120.571 Y98.561 E8.51766 F2446
G0 X121.136 Y98.561 F7200
G1 X118.258 Y101.439 E8.65307 F2446
G0 X118.823 Y101.439 F7200
G1 X121.702 Y98.561 E8.78848 F2446
G0 X121.985 Y98.561 F7200
G1 X122.834 Y98.561 E8.81670 F2446
G1 X123.399 Y98.561 E8.83552
G1 X123.965 Y98.561 E8.85433
G1 X124.531 Y98.561 E8.87315
G1 X125.096 Y98.561 E8.89196
G1 X125.662 Y98.561 E8.91078
G1 X126.228 Y98.561 E8.92959
G1 X126.793 Y98.561 E8.94841
G1 X127.359 Y98.561 E8.96722
G1 X127.925 Y98.561 E8.98604
G1 X128.490 Y98.561 E9.00485
G1 X129.056 Y98.561 E9.02366
G1 X129.622 Y98.561 E9.04248
G1 X130.187 Y98.561 E9.06129
G1 X130.753 Y98.561 E9.08011
G1 X131.319 Y98.561 E9.09892
G1 X131.884 Y98.561 E9.11774
G1 X132.450 Y98.561 E9.13655
G1 X133.016 Y98.561 E9.15537
G1 X133.582 Y98.561 E9.17418
G1 X134.147 Y98.561 E9.19300
G1 X134.713 Y98.561 E9.21181
G1 X135.279 Y98.561 E9.23063
G1 X135.844 Y98.561 E9.24944
G1 X136.410 Y98.561 E9.26826
G1 X136.976 Y98.561 E9.28707
G1 X137.541 Y98.561 E9.30589
G1 X138.107 Y98.561 E9.32470
G1 X138.442 Y98.791 E9.33823
G0 X139.238 Y98.561 F7200
G1 X138.212 Y99.587 E9.38651 F2446
G0 X138.212 Y100.153 F7200
G1 X139.804 Y98.561 E9.46139 F2446
G0 X140.370 Y98.561 F7200
G1 X138.212 Y100.718 E9.56288 F2446
G0 X138.212 Y101.284 F7200
G1 X140.935 Y98.561 E9.69098 F2446
G0 X141.501 Y98.561 F7200
G1 X138.622 Y101.439 E9.82639 F2446
G0 X139.188 Y101.439 F7200
G1 X141.788 Y98.840 E9.94868 F2446
G0 X141.788 Y99.405 F7200
G1 X139.754 Y101.439 E10.04436 F2446
G0 X140.319 Y101.439 F7200
G1 X141.788 Y99.971 E10.11343 F2446
G0 X141.788 Y100.537 F7200
G1 X140.885 Y101.439 E10.15590 F2446
G0 X141.421 Y101.187 F7200
G1 X142.016 Y101.439 E10.20971 F2446
G1 X142.582 Y101.439 E10.22852
G1 X143.148 Y101.439 E10.24734
G1 X143.714 Y101.439 E10.26615
G1 X144.279 Y101.439 E10.28497
G1 X144.845 Y101.439 E10.30378
G1 X145.411 Y101.439 E10.32260
G0 X121.652 Y101.439 F7200
G1 X121.788 Y101.303 E10.32900 F2446
G0 X121.788 Y100.738 F7200
G1 X121.086 Y101.439 E10.36201 F2446
G0 X120.520 Y101.439 F7200
G1 X121.788 Y100.172 E10.42163 F2446
G0 X121.788 Y99.606 F7200
G1 X119.955 Y101.439 E10.50786 F2446
G0 X119.389 Y101.439 F7200
G1 X121.788 Y99.041 E10.62069 F2446
; ------------------------------------
; Layer #16
; ------------------------------------
G92 E0 ;reset extr
G0 F3000 E-1.00000
G0 F600 Z4.400
G0 X114.061 Y100.241 F7200
G0 F3000 E0.00000
;segType:Infill
G1 X118.012 Y100.241 E0.13143 F3347
G0 X118.012 Y101.346 F7200
G1 X117.958 Y101.439 E0.13501 F3347
G0 X117.589 Y101.439 F7200
G1 X115.927 Y98.561 E0.24557 F3347
G0 X117.311 Y98.561 F7200
G1 X115.649 Y101.439 E0.35613 F3347
G0 X115.279 Y101.439 F7200
G1 X114.061 Y99.328 E0.43720 F3347
G0 X113.701 Y98.200 F7200
G0 X113.516 Y98.380
;segType:Perimeter
G1 X113.361 Y97.801 E0.45716 F1338
G1 X146.700 Y97.801 E1.56602
G1 X146.700 Y102.200 E1.71233
G1 X113.301 Y102.200 E2.82319
G1 X113.301 Y97.861 E2.96750
G0 X113.361 Y97.801 F7200
G0 X114.960 Y97.801
G0 X114.401 Y98.200
;segType:Loop
G1 X146.300 Y98.201 E4.02847 F2677
G1 X146.300 Y101.800 E4.14817
G1 X113.701 Y101.800 E5.23242
G1 X113.701 Y98.200 E5.35212
G1 X114.201 Y98.200 E5.36875
G0 X115.001 Y98.561 F7200
;segType:Infill
G1 X114.061 Y100.190 E5.43134 F3347
G0 F3000 E4.43134
G0 X121.988 Y101.059 F7200
G0 F3000 E5.43134
G1 X122.208 Y101.439 E5.44594 F3347
G0 X122.577 Y101.439 F7200
G1 X124.239 Y98.561 E5.55650 F3347
G0 X125.164 Y98.561 F7200
G1 X126.826 Y101.439 E5.66706 F3347
G0 X127.196 Y101.439 F7200
G1 X128.858 Y98.561 E5.77762 F3347
G0 X131.167 Y98.561 F7200
G1 X129.505 Y101.439 E5.88818 F3347
G0 X129.136 Y101.439 F7200
G1 X127.474 Y98.561 E5.99874 F3347
G0 X122.855 Y98.561 F7200
G1 X124.517 Y101.439 E6.10930 F3347
G0 X124.886 Y101.439 F7200
G1 X126.548 Y98.561 E6.21986 F3347
G0 X129.783 Y98.561 F7200
G1 X131.445 Y101.439 E6.33042 F3347
G0 X131.815 Y101.439 F7200
G1 X133.477 Y98.561 E6.44098 F3347
G0 X134.402 Y98.561 F7200
G1 X136.064 Y101.439 E6.55154 F3347
G0 X136.433 Y101.439 F7200
G1 X138.012 Y98.705 E6.65655 F3347
G0 X142.714 Y98.561 F7200
G1 X141.988 Y99.818 E6.70486 F3347
G0 X141.988 Y99.700 F7200
G1 X142.992 Y101.439 E6.77165 F3347
G0 X143.362 Y101.439 F7200
G1 X145.024 Y98.561 E6.88221 F3347
G0 X143.640 Y98.561 F7200
G1 X145.302 Y101.439 E6.99277 F3347
G0 X145.671 Y101.439 F7200
G1 X145.939 Y100.975 E7.01062 F3347
G0 X145.939 Y100.241 F7200
G1 X141.988 Y100.241 E7.14204 F3347
G0 X138.012 Y100.814 F7200
G1 X136.711 Y98.561 E7.22857 F3347
G0 X135.786 Y98.561 F7200
G1 X134.124 Y101.439 E7.33913 F3347
G0 X133.755 Y101.439 F7200
G1 X132.093 Y98.561 E7.44969 F3347
G0 X138.012 Y100.241 F7200
G1 X121.988 Y100.241 E7.98265 F3347
G0 F3000 E6.98265
G0 X114.177 Y98.561 F7200
G0 F3000 E7.98265
;segType:HShell
G0 X113.894 Y98.561 F7200
G1 X114.743 Y98.561 E8.01087 F2677
G1 X115.309 Y98.561 E8.02968
G1 X115.874 Y98.561 E8.04850
G1 X116.440 Y98.561 E8.06731
G1 X117.006 Y98.561 E8.08613
G1 X117.571 Y98.561 E8.10494
G0 F3000 E7.10494
G0 X145.939 Y98.644 F7200
G0 F3000 E8.10494
G0 X145.939 Y98.361 F7200
G1 X145.939 Y99.210 E8.13317 F2677
G1 X145.939 Y99.776 E8.15198
G1 X145.939 Y100.341 E8.17080
G1 X145.939 Y100.907 E8.18961
G1 X145.906 Y101.439 E8.20735
G1 X145.340 Y101.439 E8.22617
G1 X144.775 Y101.439 E8.24498
G1 X144.209 Y101.439 E8.26380
G1 X143.643 Y101.439 E8.28261
G1 X143.078 Y101.439 E8.30143
G1 X142.512 Y101.439 E8.32024
G0 X122.147 Y101.439 F7200
G0 X121.864 Y101.439
G1 X122.713 Y101.439 E8.34846 F2677
G1 X123.279 Y101.439 E8.36728
G1 X123.844 Y101.439 E8.38609
G1 X124.410 Y101.439 E8.40491
G1 X124.976 Y101.439 E8.42372
G1 X125.541 Y101.439 E8.44254
G1 X126.107 Y101.439 E8.46135
G1 X126.673 Y101.439 E8.48017
G1 X127.238 Y101.439 E8.49898
G1 X127.804 Y101.439 E8.51780
G1 X128.370 Y101.439 E8.53661
G1 X128.935 Y101.439 E8.55543
G1 X129.501 Y101.439 E8.57424
G1 X130.067 Y101.439 E8.59306
G1 X130.632 Y101.439 E8.61187
G1 X131.198 Y101.439 E8.63069
G1 X131.764 Y101.439 E8.64950
G1 X132.330 Y101.439 E8.66832
G1 X132.895 Y101.439 E8.68713
G1 X133.461 Y101.439 E8.70595
G1 X134.027 Y101.439 E8.72476
G1 X134.592 Y101.439 E8.74358
G1 X135.158 Y101.439 E8.76239
G1 X135.724 Y101.439 E8.78121
G1 X136.289 Y101.439 E8.80002
G1 X136.855 Y101.439 E8.81884
G1 X137.421 Y101.439 E8.83765
G1 X137.986 Y101.439 E8.85646
G1 X138.282 Y101.169 E8.86978
G0 X138.012 Y100.334 F7200
G1 X139.118 Y101.439 E8.92179 F2677
G0 X139.683 Y101.439 F7200
G1 X138.012 Y99.768 E9.00040 F2677
G0 X138.012 Y99.202 F7200
G1 X140.249 Y101.439 E9.10563 F2677
G0 X140.815 Y101.439 F7200
G1 X138.012 Y98.637 E9.23746 F2677
G0 X138.502 Y98.561 F7200
G1 X141.381 Y101.439 E9.37287 F2677
G0 X141.946 Y101.439 F7200
G1 X139.067 Y98.561 E9.50827 F2677
G0 X139.633 Y98.561 F7200
G1 X141.988 Y100.916 E9.61904 F2677
G0 X141.988 Y100.350 F7200
G1 X140.199 Y98.561 E9.70321 F2677
G0 X140.765 Y98.561 F7200
G1 X141.988 Y99.784 E9.76076 F2677
G0 X141.988 Y99.219 F7200
G1 X141.330 Y98.561 E9.79171 F2677
G0 X141.682 Y98.630 F7200
G1 X142.462 Y98.561 E9.81773 F2677
G1 X143.027 Y98.561 E9.83655
G1 X143.593 Y98.561 E9.85536
G1 X144.159 Y98.561 E9.87418
G1 X144.724 Y98.561 E9.89299
G1 X145.290 Y98.561 E9.91181
G1 X145.856 Y98.561 E9.93062
G0 X121.988 Y99.018 F7200
G1 X121.531 Y98.561 E9.95211 F2677
G0 X120.966 Y98.561 F7200
G1 X121.988 Y99.583 E10.00021 F2677
G0 X121.988 Y100.149 F7200
G1 X120.400 Y98.561 E10.07492 F2677
G0 X119.834 Y98.561 F7200
G1 X121.988 Y100.715 E10.17624 F2677
G0 X121.988 Y101.280 F7200
G1 X119.268 Y98.561 E10.30416 F2677
G0 X118.703 Y98.561 F7200
G1 X121.582 Y101.439 E10.43957 F2677
G0 X121.016 Y101.439 F7200
G1 X118.137 Y98.561 E10.57498 F2677
G0 X118.012 Y99.001 F7200
G1 X120.450 Y101.439 E10.68966 F2677
G0 X119.884 Y101.439 F7200
G1 X118.012 Y99.567 E10.77773 F2677
G0 X118.012 Y100.133 F7200
G1 X119.319 Y101.439 E10.83919 F2677
G0 X118.753 Y101.439 F7200
G1 X118.012 Y100.698 E10.87404 F2677
G0 X118.339 Y101.308 F7200
G1 X117.622 Y101.439 E10.90495 F2677
G1 X117.056 Y101.439 E10.92377
G1 X116.490 Y101.439 E10.94258
G1 X115.925 Y101.439 E10.96140
G1 X115.359 Y101.439 E10.98021
; ------------------------------------
; Layer #17
; ------------------------------------
G92 E0 ;reset extr
G0 F3000 E-1.00000
G0 F600 Z4.600
G0 X114.061 Y100.381 F7200
G0 F3000 E0.00000
;segType:Infill
G1 X117.812 Y100.381 E0.12477 F3036
G0 X117.670 Y101.439 F7200
G1 X116.008 Y98.561 E0.23533 F3036
G0 X117.230 Y98.561 F7200
G1 X115.568 Y101.439 E0.34589 F3036
G0 X115.360 Y101.439 F7200
G1 X114.061 Y99.188 E0.43234 F3036
G0 X113.701 Y98.200 F7200
G0 X113.516 Y98.380
;segType:Perimeter
G1 X113.361 Y97.801 E0.45230 F1214
G1 X146.700 Y97.801 E1.56116
G1 X146.700 Y102.200 E1.70747
G1 X113.301 Y102.200 E2.81832
G1 X113.301 Y97.861 E2.96264
G0 X113.361 Y97.801 F7200
G0 X114.960 Y97.801
G0 X114.401 Y98.200
;segType:Loop
G1 X146.300 Y98.201 E4.02360 F2429
G1 X146.300 Y101.800 E4.14331
G1 X113.701 Y101.800 E5.22755
G1 X113.701 Y98.200 E5.34726
G1 X114.201 Y98.200 E5.36389
G0 X114.061 Y100.050 F7200
;segType:Infill
G1 X114.921 Y98.561 E5.42110 F3036
G0 X122.188 Y101.266 F7200
G1 X122.288 Y101.439 E5.42777 F3036
G0 X122.496 Y101.439 F7200
G1 X124.158 Y98.561 E5.53833 F3036
G0 X122.936 Y98.561 F7200
G1 X124.598 Y101.439 E5.64889 F3036
G0 X124.806 Y101.439 F7200
G1 X126.468 Y98.561 E5.75945 F3036
G0 X125.245 Y98.561 F7200
G1 X126.907 Y101.439 E5.87001 F3036
G0 X127.115 Y101.439 F7200
G1 X128.777 Y98.561 E5.98057 F3036
G0 X129.864 Y98.561 F7200
G1 X131.526 Y101.439 E6.09113 F3036
G0 X129.424 Y101.439 F7200
G1 X131.086 Y98.561 E6.20169 F3036
G0 X127.555 Y98.561 F7200
G1 X129.217 Y101.439 E6.31225 F3036
G0 X131.734 Y101.439 F7200
G1 X133.396 Y98.561 E6.42281 F3036
G0 X132.173 Y98.561 F7200
G1 X133.835 Y101.439 E6.53337 F3036
G0 X134.043 Y101.439 F7200
G1 X135.705 Y98.561 E6.64393 F3036
G0 X134.483 Y98.561 F7200
G1 X136.145 Y101.439 E6.75449 F3036
G0 X136.353 Y101.439 F7200
G1 X137.812 Y98.912 E6.85157 F3036
G0 X142.633 Y98.561 F7200
G1 X142.188 Y99.332 E6.88119 F3036
G0 X142.188 Y100.381 F7200
G1 X145.939 Y100.381 E7.00596 F3036
G0 X145.939 Y100.835 F7200
G1 X145.590 Y101.439 E7.02919 F3036
G0 X145.382 Y101.439 F7200
G1 X143.720 Y98.561 E7.13975 F3036
G0 X144.943 Y98.561 F7200
G1 X143.281 Y101.439 E7.25031 F3036
G0 X143.073 Y101.439 F7200
G1 X142.188 Y99.907 E7.30918 F3036
G0 X136.792 Y98.561 F7200
G1 X137.812 Y100.327 E7.37701 F3036
G0 X137.812 Y100.381 F7200
G1 X122.188 Y100.381 E7.89666 F3036
G0 F3000 E6.89666
G0 X116.045 Y98.561 F7200
G0 F3000 E7.89666
;segType:HShell
G0 X115.762 Y98.561 F7200
G1 X116.611 Y98.561 E7.92489 F2429
G1 X117.177 Y98.561 E7.94370
G1 X117.742 Y98.561 E7.96251
G1 X118.060 Y98.809 E7.97592
G0 X117.812 Y99.622 F7200
G1 X118.874 Y98.561 E8.02586 F2429
G0 X119.439 Y98.561 F7200
G1 X117.812 Y100.188 E8.10241 F2429
G0 X117.812 Y100.754 F7200
G1 X120.005 Y98.561 E8.20557 F2429
G0 X120.571 Y98.561 F7200
G1 X117.812 Y101.319 E8.33533 F2429
G0 X118.258 Y101.439 F7200
G1 X121.136 Y98.561 E8.47074 F2429
G0 X121.702 Y98.561 F7200
G1 X118.823 Y101.439 E8.60615 F2429
G0 X119.389 Y101.439 F7200
G1 X122.188 Y98.640 E8.73781 F2429
G0 X122.188 Y99.206 F7200
G1 X119.955 Y101.439 E8.84286 F2429
G0 X120.520 Y101.439 F7200
G1 X122.188 Y99.772 E8.92130 F2429
G0 X122.188 Y100.337 F7200
G1 X121.086 Y101.439 E8.97313 F2429
G0 X121.771 Y101.037 F7200
G1 X122.217 Y101.439 E9.02309 F2429
G1 X122.783 Y101.439 E9.04190
G1 X123.349 Y101.439 E9.06072
G1 X123.915 Y101.439 E9.07953
G1 X124.480 Y101.439 E9.09835
G1 X125.046 Y101.439 E9.11716
G1 X125.612 Y101.439 E9.13598
G1 X126.177 Y101.439 E9.15479
G1 X126.743 Y101.439 E9.17361
G1 X127.309 Y101.439 E9.19242
G1 X127.874 Y101.439 E9.21124
G1 X128.440 Y101.439 E9.23005
G1 X129.006 Y101.439 E9.24887
G1 X129.571 Y101.439 E9.26768
G1 X130.137 Y101.439 E9.28650
G1 X130.703 Y101.439 E9.30531
G1 X131.268 Y101.439 E9.32413
G1 X131.834 Y101.439 E9.34294
G1 X132.400 Y101.439 E9.36176
G1 X132.965 Y101.439 E9.38057
G1 X133.531 Y101.439 E9.39939
G1 X134.097 Y101.439 E9.41820
G1 X134.663 Y101.439 E9.43702
G1 X135.228 Y101.439 E9.45583
G1 X135.794 Y101.439 E9.47464
G1 X136.360 Y101.439 E9.49346
G1 X136.925 Y101.439 E9.51228
G1 X137.491 Y101.439 E9.53109
G0 X145.411 Y101.439 F7200
G0 X145.693 Y101.439
G1 X144.845 Y101.439 E9.55931 F2429
G1 X144.279 Y101.439 E9.57813
G1 X143.714 Y101.439 E9.59694
G1 X143.148 Y101.439 E9.61576
G1 X142.582 Y101.439 E9.63457
G1 X142.102 Y101.354 E9.65078
G0 X142.188 Y100.702 F7200
G1 X141.451 Y101.439 E9.68546 F2429
G0 X140.885 Y101.439 F7200
G1 X142.188 Y100.136 E9.74675 F2429
G0 X142.188 Y99.571 F7200
G1 X140.319 Y101.439 E9.83465 F2429
G0 X139.754 Y101.439 F7200
G1 X142.188 Y99.005 E9.94916 F2429
G0 X142.067 Y98.561 F7200
G1 X139.188 Y101.439 E10.08456 F2429
G0 X138.622 Y101.439 F7200
G1 X141.501 Y98.561 E10.21997 F2429
G0 X140.935 Y98.561 F7200
G1 X138.057 Y101.439 E10.35538 F2429
G0 X137.812 Y101.118 F7200
G1 X140.370 Y98.561 E10.47569 F2429
G0 X139.804 Y98.561 F7200
G1 X137.812 Y100.553 E10.56939 F2429
G0 X137.812 Y99.987 F7200
G1 X139.238 Y98.561 E10.63649 F2429
G0 X138.673 Y98.561 F7200
G1 X137.812 Y99.421 E10.67697 F2429
G0 X137.812 Y98.856 F7200
G1 X138.107 Y98.561 E10.69085 F2429
; ------------------------------------
; Layer #18
; ------------------------------------
G92 E0 ;reset extr
G0 F3000 E-1.00000
G0 F600 Z4.800
G0 X114.061 Y100.521 F7200
G0 F3000 E0.00000
;segType:Infill
G1 X117.612 Y100.521 E0.11812 F3330
G0 X117.612 Y101.199 F7200
G1 X116.088 Y98.561 E0.21947 F3330
G0 X117.149 Y98.561 F7200
G1 X115.487 Y101.439 E0.33003 F3330
G0 X115.441 Y101.439 F7200
G1 X114.061 Y99.048 E0.42185 F3330
G0 X113.701 Y98.200 F7200
G0 X113.516 Y98.380
;segType:Perimeter
G1 X113.361 Y97.801 E0.44181 F1332
G1 X146.700 Y97.801 E1.55067
G1 X146.700 Y102.200 E1.69698
G1 X113.301 Y102.200 E2.80784
G1 X113.301 Y97.861 E2.95215
G0 X113.361 Y97.801 F7200
G0 X114.960 Y97.801
G0 X114.401 Y98.200
;segType:Loop
G1 X146.300 Y98.201 E4.01312 F2664
G1 X146.300 Y101.800 E4.13282
G1 X113.701 Y101.800 E5.21707
G1 X113.701 Y98.200 E5.33677
G1 X114.201 Y98.200 E5.35340
G0 X114.840 Y98.561 F7200
;segType:Infill
G1 X114.061 Y99.910 E5.40523 F3330
G0 F3000 E4.40523
G0 X124.077 Y98.561 F7200
G0 F3000 E5.40523
G1 X122.415 Y101.439 E5.51579 F3330
G0 X122.388 Y100.521 F7200
G1 X127.079 Y100.521 E5.67182 F3330
G0 X132.921 Y100.521 F7200
G1 X137.612 Y100.521 E5.82786 F3330
G0 X136.226 Y101.439 F7200
G1 X134.564 Y98.561 E5.93842 F3330
G0 X133.315 Y98.561 F7200
G1 X132.921 Y99.243 E5.96464 F3330
G0 X137.612 Y99.118 F7200
G1 X136.272 Y101.439 E6.05379 F3330
G0 X143.200 Y101.439 F7200
G1 X144.862 Y98.561 E6.16435 F3330
G0 X143.801 Y98.561 F7200
G1 X145.463 Y101.439 E6.27491 F3330
G0 X145.509 Y101.439 F7200
G1 X145.939 Y100.695 E6.30352 F3330
G0 X145.939 Y100.521 F7200
G1 X142.388 Y100.521 E6.42164 F3330
G0 X142.388 Y100.113 F7200
G1 X143.154 Y101.439 E6.47258 F3330
G0 F3000 E5.47258
G0 X143.229 Y101.800 F7200
G0 X142.477 Y98.201
G0 X142.553 Y98.561
G0 F3000 E6.47258
G1 X142.388 Y98.846 E6.48353 F3330
G0 X137.612 Y99.841 F7200
G1 X136.873 Y98.561 E6.53269 F3330
G0 X135.624 Y98.561 F7200
G1 X133.962 Y101.439 E6.64325 F3330
G0 X133.916 Y101.439 F7200
G1 X132.921 Y99.715 E6.70947 F3330
G0 X127.079 Y101.361 F7200
G1 X127.034 Y101.439 E6.71247 F3330
G0 X126.988 Y101.439 F7200
G1 X125.326 Y98.561 E6.82303 F3330
G0 X126.387 Y98.561 F7200
G1 X124.725 Y101.439 E6.93359 F3330
G0 X124.679 Y101.439 F7200
G1 X123.017 Y98.561 E7.04415 F3330
G0 F3000 E6.04415
G0 X114.228 Y101.439 F7200
G0 F3000 E7.04415
;segType:HShell
G0 X113.945 Y101.439 F7200
G1 X114.793 Y101.439 E7.07238 F2664
G1 X115.359 Y101.439 E7.09119
G1 X115.925 Y101.439 E7.11000
G1 X116.490 Y101.439 E7.12882
G1 X117.056 Y101.439 E7.14763
G1 X117.617 Y101.435 E7.16629
G0 X118.187 Y101.439 F7200
G1 X117.612 Y100.864 E7.19335 F2664
G0 X117.612 Y100.298 F7200
G1 X118.753 Y101.439 E7.24703 F2664
G0 X119.319 Y101.439 F7200
G1 X117.612 Y99.733 E7.32731 F2664
G0 X117.612 Y99.167 F7200
G1 X119.884 Y101.439 E7.43420 F2664
G0 X120.450 Y101.439 F7200
G1 X117.612 Y98.601 E7.56770 F2664
G0 X118.137 Y98.561 F7200
G1 X121.016 Y101.439 E7.70311 F2664
G0 X121.582 Y101.439 F7200
G1 X118.703 Y98.561 E7.83851 F2664
G0 X119.268 Y98.561 F7200
G1 X122.147 Y101.439 E7.97392 F2664
G0 X122.430 Y101.439 F7200
G1 X123.279 Y101.439 E8.00214 F2664
G1 X123.844 Y101.439 E8.02096
G1 X124.410 Y101.439 E8.03977
G1 X124.976 Y101.439 E8.05859
G1 X125.541 Y101.439 E8.07740
G1 X126.107 Y101.439 E8.09622
G1 X126.673 Y101.439 E8.11503
G1 X127.159 Y101.360 E8.13142
G0 X127.079 Y100.715 F7200
G1 X127.804 Y101.439 E8.16551 F2664
G0 X128.370 Y101.439 F7200
G1 X127.079 Y100.149 E8.22621 F2664
G0 X127.079 Y99.583 F7200
G1 X128.935 Y101.439 E8.31352 F2664
G0 X129.501 Y101.439 F7200
G1 X127.079 Y99.018 E8.42743 F2664
G0 X127.188 Y98.561 F7200
G1 X130.067 Y101.439 E8.56284 F2664
G0 X130.632 Y101.439 F7200
G1 X127.754 Y98.561 E8.69825 F2664
G0 X128.319 Y98.561 F7200
G1 X131.198 Y101.439 E8.83366 F2664
G0 X131.764 Y101.439 F7200
G1 X128.885 Y98.561 E8.96906 F2664
G0 X129.451 Y98.561 F7200
G1 X132.330 Y101.439 E9.10447 F2664
G0 X132.895 Y101.439 F7200
G1 X130.016 Y98.561 E9.23988 F2664
G0 X130.582 Y98.561 F7200
G1 X132.921 Y100.899 E9.34988 F2664
G0 X132.921 Y100.334 F7200
G1 X131.148 Y98.561 E9.43327 F2664
G0 X131.714 Y98.561 F7200
G1 X132.921 Y99.768 E9.49005 F2664
G0 X132.921 Y99.202 F7200
G1 X132.279 Y98.561 E9.52023 F2664
G0 X132.845 Y98.561 F7200
G1 X132.921 Y98.636 E9.52380 F2664
G0 X142.388 Y99.053 F7200
G1 X141.896 Y98.561 E9.54695 F2664
G0 X141.330 Y98.561 F7200
G1 X142.388 Y99.618 E9.59671 F2664
G0 X142.388 Y100.184 F7200
G1 X140.764 Y98.561 E9.67307 F2664
G0 X140.199 Y98.561 F7200
G1 X142.388 Y100.750 E9.77605 F2664
G0 X142.388 Y101.316 F7200
G1 X139.633 Y98.561 E9.90563 F2664
G0 X139.067 Y98.561 F7200
G1 X141.946 Y101.439 E10.04104 F2664
G0 X141.381 Y101.439 F7200
G1 X138.502 Y98.561 E10.17644 F2664
G0 X137.936 Y98.561 F7200
G1 X140.815 Y101.439 E10.31185 F2664
G0 X140.249 Y101.439 F7200
G1 X137.612 Y98.802 E10.43590 F2664
G0 X137.612 Y99.368 F7200
G1 X139.683 Y101.439 E10.53333 F2664
G0 X139.118 Y101.439 F7200
G1 X137.612 Y99.934 E10.60416 F2664
G0 X137.612 Y100.499 F7200
G1 X138.552 Y101.439 E10.64838 F2664
G0 X137.988 Y101.159 F7200
G1 X137.421 Y101.439 E10.70104 F2664
G1 X136.855 Y101.439 E10.71986
G1 X136.289 Y101.439 E10.73867
G1 X135.724 Y101.439 E10.75749
G1 X135.158 Y101.439 E10.77630
G1 X134.592 Y101.439 E10.79512
G1 X134.027 Y101.439 E10.81393
G1 X133.461 Y101.439 E10.83274
G0 X122.388 Y98.852 F7200
G1 X122.097 Y98.561 E10.84644 F2664
G0 X121.531 Y98.561 F7200
G1 X122.388 Y99.417 E10.88674 F2664
G0 X122.388 Y99.983 F7200
G1 X120.966 Y98.561 E10.95365 F2664
G0 X120.400 Y98.561 F7200
G1 X122.388 Y100.549 E11.04717 F2664
G0 X122.388 Y101.115 F7200
G1 X119.834 Y98.561 E11.16730 F2664
; ------------------------------------
; Layer #19
; ------------------------------------
G92 E0 ;reset extr
G0 F3000 E-1.00000
G0 F600 Z5.000
G0 X141.428 Y98.200 F7200
G0 X141.428 Y100.298
G0 X146.300 Y100.690
G0 X145.939 Y100.661
G0 F3000 E0.00000
;segType:Infill
G1 X142.588 Y100.661 E0.11147 F3315
G0 X142.588 Y100.319 F7200
G1 X143.235 Y101.439 E0.15449 F3315
G0 X143.119 Y101.439 F7200
G1 X144.781 Y98.561 E0.26505 F3315
G0 X145.939 Y98.661 F7200
G1 X142.588 Y98.661 E0.37652 F3315
G0 X141.295 Y98.573 F7200
;segType:Perimeter
G1 X141.088 Y97.801 E0.40313 F1326
G1 X146.700 Y97.801 E0.58977
G1 X146.700 Y102.200 E0.73608
G1 X141.028 Y102.200 E0.92473
G1 X141.028 Y97.861 E1.06904
G0 X141.088 Y97.801 F7200
G0 X142.688 Y97.801
G0 X142.128 Y98.200
;segType:Loop
G1 X146.300 Y98.200 E1.20779 F2652
G1 X146.300 Y101.800 E1.32750
G1 X141.428 Y101.800 E1.48953
G1 X141.428 Y98.200 E1.60923
G1 X141.928 Y98.200 E1.62586
G0 X143.882 Y98.561 F7200
;segType:Infill
G1 X145.544 Y101.439 E1.73642 F3315
G0 X145.429 Y101.439 F7200
G1 X145.939 Y100.554 E1.77041 F3315
G0 F3000 E0.77041
G0 X142.067 Y98.561 F7200
G0 F3000 E1.77041
;segType:HShell
G1 X141.788 Y98.839 E1.78352 F2652
G0 X141.788 Y99.405 F7200
G1 X142.588 Y98.605 E1.82115 F2652
G0 X142.588 Y99.171 F7200
G1 X141.788 Y99.971 E1.85879 F2652
G0 X141.788 Y100.537 F7200
G1 X142.588 Y99.736 E1.89642 F2652
G0 X142.588 Y100.302 F7200
G1 X141.788 Y101.102 E1.93405 F2652
G0 X142.016 Y101.439 F7200
G1 X142.588 Y100.868 E1.96093 F2652
G0 X142.588 Y101.434 F7200
G1 X142.582 Y101.439 E1.96121 F2652
G0 X145.461 Y98.561 F7200
G0 X145.744 Y98.561
G1 X144.895 Y98.561 E1.98943 F2652
G1 X144.330 Y98.561 E2.00825
G1 X143.764 Y98.561 E2.02706
G1 X143.198 Y98.561 E2.04587
G1 X142.632 Y98.561 E2.06469
G0 F3000 E1.06469
G0 X123.097 Y98.561 F7200
G0 F3000 E2.06469
;segType:Infill
G1 X124.760 Y101.439 E2.17525 F3315
G0 X124.644 Y101.439 F7200
G1 X126.306 Y98.561 E2.28581 F3315
G0 X126.420 Y98.661 F7200
G1 X122.588 Y98.661 E2.41326 F3315
G0 X121.243 Y98.380 F7200
;segType:Perimeter
G1 X121.088 Y97.801 E2.43321 F1326
G1 X138.972 Y97.801 E3.02805
G1 X138.972 Y102.200 E3.17436
G1 X121.028 Y102.200 E3.77120
G1 X121.028 Y97.861 E3.91551
G0 X121.088 Y97.801 F7200
G0 X122.688 Y97.801
G0 X122.128 Y98.200
;segType:Loop
G1 X138.572 Y98.200 E4.46245 F2652
G1 X138.572 Y101.800 E4.58216
G1 X121.428 Y101.800 E5.15238
G1 X121.428 Y98.200 E5.27209
G1 X121.928 Y98.200 E5.28872
G0 X123.997 Y98.561 F7200
;segType:Infill
G1 X122.588 Y101.000 E5.38241 F3315
G0 X122.588 Y100.661 F7200
G1 X126.420 Y100.661 E5.50986 F3315
G0 X133.881 Y101.439 F7200
G1 X135.544 Y98.561 E5.62042 F3315
G0 X134.644 Y98.561 F7200
G1 X136.307 Y101.439 E5.73098 F3315
G0 X137.412 Y100.661 F7200
G1 X133.580 Y100.661 E5.85843 F3315
G0 X133.580 Y100.717 F7200
G1 X133.997 Y101.439 E5.88617 F3315
G0 X136.191 Y101.439 F7200
G1 X137.412 Y99.324 E5.96740 F3315
G0 X136.954 Y98.561 F7200
G1 X137.412 Y99.354 E5.99787 F3315
G0 X137.412 Y98.661 F7200
G1 X133.580 Y98.661 E6.12532 F3315
G0 X126.420 Y100.315 F7200
G1 X125.407 Y98.561 E6.19271 F3315
G0 F3000 E5.19271
G0 X121.788 Y99.041 F7200
G0 F3000 E6.19271
;segType:HShell
G0 X121.625 Y98.921 F7200
G1 X122.833 Y98.561 E6.27735 F2652
G1 X123.399 Y98.561 E6.29616
G1 X123.965 Y98.561 E6.31498
G1 X124.531 Y98.561 E6.33379
G1 X125.096 Y98.561 E6.35261
G1 X125.662 Y98.561 E6.37142
G1 X126.228 Y98.561 E6.39024
G1 X126.607 Y98.747 E6.40429
G0 X127.359 Y98.561 F7200
G1 X126.420 Y99.500 E6.44846 F2652
G0 X126.420 Y100.065 F7200
G1 X127.925 Y98.561 E6.51924 F2652
G0 X128.490 Y98.561 F7200
G1 X126.420 Y100.631 E6.61663 F2652
G0 X126.420 Y101.197 F7200
G1 X129.056 Y98.561 E6.74063 F2652
G0 X129.622 Y98.561 F7200
G1 X126.743 Y101.439 E6.87603 F2652
G0 X127.309 Y101.439 F7200
G1 X130.187 Y98.561 E7.01144 F2652
G0 X130.753 Y98.561 F7200
G1 X127.874 Y101.439 E7.14685 F2652
G0 X128.440 Y101.439 F7200
G1 X131.319 Y98.561 E7.28226 F2652
G0 X131.884 Y98.561 F7200
G1 X129.006 Y101.439 E7.41767 F2652
G0 X129.571 Y101.439 F7200
G1 X132.450 Y98.561 E7.55307 F2652
G0 X133.016 Y98.561 F7200
G1 X130.137 Y101.439 E7.68848 F2652
G0 X130.703 Y101.439 F7200
G1 X133.580 Y98.562 E7.82383 F2652
G0 X133.580 Y99.128 F7200
G1 X131.268 Y101.439 E7.93256 F2652
G0 X131.834 Y101.439 F7200
G1 X133.580 Y99.693 E8.01469 F2652
G0 X133.580 Y100.259 F7200
G1 X132.400 Y101.439 E8.07021 F2652
G0 X132.965 Y101.439 F7200
G1 X133.580 Y100.825 E8.09913 F2652
G0 X133.285 Y101.403 F7200
G1 X134.097 Y101.439 E8.12615 F2652
G1 X134.663 Y101.439 E8.14497
G1 X135.228 Y101.439 E8.16378
G1 X135.794 Y101.439 E8.18260
G1 X136.360 Y101.439 E8.20141
G1 X136.925 Y101.439 E8.22023
G0 X133.581 Y98.561 F7200
G0 X133.299 Y98.561
G1 X134.147 Y98.561 E8.24845 F2652
G1 X134.713 Y98.561 E8.26727
G1 X135.279 Y98.561 E8.28608
G1 X135.844 Y98.561 E8.30489
G1 X136.410 Y98.561 E8.32371
G1 X136.976 Y98.561 E8.34252
G1 X137.477 Y98.625 E8.35933
G0 X137.412 Y99.256 F7200
G1 X138.107 Y98.561 E8.39201 F2652
G0 X138.212 Y99.021 F7200
G1 X137.412 Y99.821 E8.42965 F2652
G0 X137.412 Y100.387 F7200
G1 X138.212 Y99.587 E8.46728 F2652
G0 X138.212 Y100.153 F7200
G1 X137.412 Y100.953 E8.50491 F2652
G0 X137.491 Y101.439 F7200
G1 X138.212 Y100.718 E8.53883 F2652
G0 X138.212 Y101.284 F7200
G1 X138.057 Y101.439 E8.54614 F2652
G0 X126.177 Y101.439 F7200
G0 X126.460 Y101.439
G1 X125.612 Y101.439 E8.57436 F2652
G1 X125.046 Y101.439 E8.59318
G1 X124.480 Y101.439 E8.61199
G1 X123.915 Y101.439 E8.63081
G1 X123.349 Y101.439 E8.64962
G1 X122.783 Y101.439 E8.66844
G1 X122.403 Y101.254 E8.68251
G0 X121.788 Y101.303 F7200
G1 X122.588 Y100.503 E8.72014 F2652
G0 X122.588 Y99.938 F7200
G1 X121.788 Y100.738 E8.75778 F2652
G0 X121.788 Y100.172 F7200
G1 X122.588 Y99.372 E8.79541 F2652
G0 X122.588 Y98.806 F7200
G1 X121.788 Y99.606 E8.83304 F2652
G0 F3000 E7.83304
G0 X118.572 Y99.674 F7200
G0 X113.701 Y99.778
G0 X114.061 Y99.770
G0 F3000 E8.83304
;segType:Infill
G1 X114.759 Y98.561 E8.87949 F3315
G0 X114.061 Y98.661 F7200
G1 X117.412 Y98.661 E8.99096 F3315
G0 X117.068 Y98.561 F7200
G1 X115.406 Y101.439 E9.10152 F3315
G0 X115.522 Y101.439 F7200
G1 X114.061 Y98.908 E9.19873 F3315
G0 X113.568 Y98.573 F7200
;segType:Perimeter
G1 X113.361 Y97.801 E9.22533 F1326
G1 X118.972 Y97.801 E9.41198
G1 X118.972 Y102.200 E9.55829
G1 X113.301 Y102.200 E9.74693
G1 X113.301 Y97.861 E9.89125
G0 X113.361 Y97.801 F7200
G0 X114.960 Y97.801
G0 X114.401 Y98.200
;segType:Loop
G1 X118.572 Y98.200 E10.03000 F2652
G1 X118.572 Y101.800 E10.14970
G1 X113.701 Y101.800 E10.31174
G1 X113.701 Y98.200 E10.43144
G1 X114.201 Y98.200 E10.44807
G0 X116.169 Y98.561 F7200
;segType:Infill
G1 X117.412 Y100.713 E10.53074 F3315
G0 X117.412 Y100.661 F7200
G1 X114.061 Y100.661 E10.64221 F3315
G0 X114.348 Y98.561 F7200
;segType:HShell
G0 X114.065 Y98.561
G1 X114.914 Y98.561 E10.67043 F2652
G1 X115.480 Y98.561 E10.68924
G1 X116.045 Y98.561 E10.70806
G1 X116.611 Y98.561 E10.72687
G1 X117.177 Y98.561 E10.74569
G1 X117.577 Y98.726 E10.76010
G0 X118.212 Y98.657 F7200
G1 X117.412 Y99.457 E10.79773 F2652
G0 X117.412 Y100.022 F7200
G1 X118.212 Y99.222 E10.83536 F2652
G0 X118.212 Y99.788 F7200
G1 X117.412 Y100.588 E10.87300 F2652
G0 X117.412 Y101.154 F7200
G1 X118.212 Y100.354 E10.91063 F2652
G0 X118.212 Y100.919 F7200
G1 X117.692 Y101.439 E10.93509 F2652
G0 X117.126 Y101.439 F7200
G0 X117.409 Y101.439
G1 X116.561 Y101.439 E10.96331 F2652
G1 X115.995 Y101.439 E10.98213
G1 X115.429 Y101.439 E11.00094
G1 X114.864 Y101.439 E11.01976
G1 X114.298 Y101.439 E11.03857
; ------------------------------------
; Layer #20
; ------------------------------------
G92 E0 ;reset extr
G0 F3000 E-1.00000
G0 F600 Z5.200
G0 X113.701 Y101.451 F7200
G0 X118.372 Y101.357
G0 X141.628 Y101.800
G0 X141.628 Y100.888
G0 X146.300 Y100.794
G0 X145.939 Y100.801
G0 F3000 E0.00000
;segType:Infill
G1 X142.716 Y100.801 E0.10721 F3197
G0 X142.716 Y100.401 F7200
G1 X143.316 Y101.439 E0.14710 F3197
G0 X143.038 Y101.439 F7200
G1 X144.700 Y98.561 E0.25766 F3197
G0 X145.939 Y98.801 F7200
G1 X142.716 Y98.801 E0.36488 F3197
G0 X141.495 Y98.573 F7200
;segType:Perimeter
G1 X141.288 Y97.801 E0.39148 F1279
G1 X146.700 Y97.801 E0.57147
G1 X146.700 Y102.200 E0.71778
G1 X141.228 Y102.200 E0.89977
G1 X141.228 Y97.861 E1.04408
G0 X141.288 Y97.801 F7200
G0 X142.888 Y97.801
G0 X142.328 Y98.200
;segType:Loop
G1 X146.300 Y98.200 E1.17618 F2558
G1 X146.300 Y101.800 E1.29588
G1 X141.628 Y101.800 E1.45125
G1 X141.628 Y98.200 E1.57096
G1 X142.128 Y98.200 E1.58759
G0 X143.963 Y98.561 F7200
;segType:Infill
G1 X145.625 Y101.439 E1.69815 F3197
G0 X145.348 Y101.439 F7200
G1 X145.939 Y100.414 E1.73751 F3197
G0 F3000 E0.73751
G0 X146.300 Y100.369 F7200
G0 X141.628 Y100.961
G0 X141.988 Y100.916
G0 F3000 E1.73751
;segType:HShell
G1 X142.512 Y101.439 E1.76215 F2558
G0 X142.716 Y101.078 F7200
G1 X141.988 Y100.350 E1.79638 F2558
G0 X141.988 Y99.784 F7200
G1 X142.716 Y100.512 E1.83061 F2558
G0 X142.716 Y99.946 F7200
G1 X141.988 Y99.219 E1.86484 F2558
G0 X141.988 Y98.653 F7200
G1 X142.716 Y99.381 E1.89908 F2558
G0 X142.369 Y98.751 F7200
G1 X143.027 Y98.561 E1.94394 F2558
G1 X143.593 Y98.561 E1.96276
G1 X144.159 Y98.561 E1.98157
G1 X144.724 Y98.561 E2.00038
G1 X145.290 Y98.561 E2.01920
G1 X145.856 Y98.561 E2.03801
G0 X145.939 Y98.644 F7200
G0 X145.939 Y98.361
G1 X145.939 Y99.210 E2.06624 F2558
G1 X145.939 Y99.776 E2.08505
G1 X145.939 Y100.341 E2.10387
G1 X145.939 Y100.907 E2.12268
G0 F3000 E1.12268
G0 X146.300 Y100.922 F7200
G0 X141.628 Y100.734
G0 X118.372 Y99.803
G0 X113.701 Y99.616
G0 X114.061 Y99.630
G0 F3000 E2.12268
;segType:Infill
G1 X114.678 Y98.561 E2.16375 F3197
G0 X114.061 Y98.801 F7200
G1 X117.284 Y98.801 E2.27097 F3197
G0 X116.987 Y98.561 F7200
G1 X115.325 Y101.439 E2.38153 F3197
G0 X115.603 Y101.439 F7200
G1 X114.061 Y98.768 E2.48411 F3197
G0 X113.568 Y98.573 F7200
;segType:Perimeter
G1 X113.361 Y97.801 E2.51072 F1279
G1 X118.772 Y97.801 E2.69071
G1 X118.772 Y102.200 E2.83703
G1 X113.301 Y102.200 E3.01902
G1 X113.301 Y97.861 E3.16333
G0 X113.361 Y97.801 F7200
G0 X114.960 Y97.801
G0 X114.401 Y98.200
;segType:Loop
G1 X118.372 Y98.200 E3.29543 F2558
G1 X118.372 Y101.800 E3.41514
G1 X113.701 Y101.800 E3.57052
G1 X113.701 Y98.200 E3.69022
G1 X114.201 Y98.200 E3.70685
G0 X116.250 Y98.561 F7200
;segType:Infill
G1 X117.284 Y100.352 E3.77563 F3197
G0 X117.284 Y100.801 F7200
G1 X114.061 Y100.801 E3.88285 F3197
G0 X114.793 Y101.439 F7200
;segType:HShell
G0 X114.510 Y101.439
G1 X115.359 Y101.439 E3.91107 F2558
G1 X115.925 Y101.439 E3.92988
G1 X116.490 Y101.439 E3.94870
G1 X117.056 Y101.439 E3.96751
G1 X117.453 Y101.271 E3.98186
G0 X117.284 Y100.536 F7200
G1 X118.012 Y101.264 E4.01610 F2558
G0 X118.012 Y100.698 F7200
G1 X117.284 Y99.970 E4.05035 F2558
G0 X117.284 Y99.405 F7200
G1 X118.012 Y100.133 E4.08459 F2558
G0 X118.012 Y99.567 F7200
G1 X117.284 Y98.839 E4.11883 F2558
G0 X117.571 Y98.561 F7200
G1 X118.012 Y99.001 E4.13956 F2558
G0 F3000 E3.13956
G0 X118.372 Y101.800 F7200
G0 X121.628 Y101.800
G0 X122.716 Y100.639
G0 F3000 E4.13956
;segType:Infill
G1 X123.916 Y98.561 E4.21937 F3197
G0 X123.178 Y98.561 F7200
G1 X124.840 Y101.439 E4.32993 F3197
G0 X124.563 Y101.439 F7200
G1 X125.761 Y99.365 E4.40960 F3197
G0 X125.761 Y98.801 F7200
G1 X122.716 Y98.801 E4.51087 F3197
G0 X121.443 Y98.380 F7200
;segType:Perimeter
G1 X121.288 Y97.801 E4.53083 F1279
G1 X138.772 Y97.801 E5.11236
G1 X138.772 Y102.200 E5.25867
G1 X121.228 Y102.200 E5.84219
G1 X121.228 Y97.861 E5.98651
G0 X121.288 Y97.801 F7200
G0 X122.888 Y97.801
G0 X122.328 Y98.200
;segType:Loop
G1 X138.372 Y98.200 E6.52014 F2558
G1 X138.372 Y101.800 E6.63984
G1 X121.628 Y101.800 E7.19676
G1 X121.628 Y98.200 E7.31646
G1 X122.128 Y98.200 E7.33309
G0 X122.716 Y100.801 F7200
;segType:Infill
G1 X125.761 Y100.801 E7.43436 F3197
G0 X134.240 Y100.679 F7200
G1 X135.463 Y98.561 E7.51572 F3197
G0 X134.240 Y98.801 F7200
G1 X137.284 Y98.801 E7.61698 F3197
G0 X137.035 Y98.561 F7200
G1 X137.284 Y98.993 E7.63357 F3197
G0 X134.725 Y98.561 F7200
G1 X136.387 Y101.439 E7.74413 F3197
G0 X136.110 Y101.439 F7200
G1 X137.284 Y99.406 E7.82223 F3197
G0 X137.284 Y100.801 F7200
G1 X134.240 Y100.801 E7.92349 F3197
G0 X125.761 Y99.033 F7200
G1 X125.488 Y98.561 E7.94165 F3197
G0 X122.716 Y98.614 F7200
;segType:HShell
G1 X122.663 Y98.561 E7.94416 F2558
G0 X122.097 Y98.561 F7200
G1 X122.716 Y99.180 E7.97327 F2558
G0 X122.716 Y99.745 F7200
G1 X121.988 Y99.018 E8.00751 F2558
G0 X121.988 Y99.583 F7200
G1 X122.716 Y100.311 E8.04174 F2558
G0 X122.716 Y100.877 F7200
G1 X121.988 Y100.149 E8.07597 F2558
G0 X121.988 Y100.715 F7200
G1 X122.713 Y101.439 E8.11006 F2558
G0 X122.147 Y101.439 F7200
G1 X121.988 Y101.280 E8.11755 F2558
G0 F3000 E7.11755
G0 X121.628 Y101.342 F7200
G0 X138.372 Y98.486
G0 X137.936 Y98.561
G0 F3000 E8.11755
G1 X138.012 Y98.637 E8.12112 F2558
G0 X138.012 Y99.202 F7200
G1 X137.370 Y98.561 E8.15131 F2558
G0 X137.284 Y99.040 F7200
G1 X138.012 Y99.768 E8.18555 F2558
G0 X138.012 Y100.334 F7200
G1 X137.284 Y99.606 E8.21980 F2558
G0 X137.284 Y100.171 F7200
G1 X138.012 Y100.899 E8.25404 F2558
G0 X137.986 Y101.439 F7200
G1 X137.284 Y100.737 E8.28708 F2558
G0 X137.601 Y101.337 F7200
G1 X136.855 Y101.439 E8.31213 F2558
G1 X136.289 Y101.439 E8.33094
G1 X135.724 Y101.439 E8.34975
G1 X135.158 Y101.439 E8.36857
G1 X134.592 Y101.439 E8.38738
G0 F3000 E7.38738
G0 X134.669 Y101.800 F7200
G0 X133.899 Y98.200
G0 X133.976 Y98.561
G0 F3000 E8.38738
G1 X134.240 Y98.824 E8.39977 F2558
G0 X134.240 Y99.390 F7200
G1 X133.411 Y98.561 E8.43876 F2558
G0 X132.845 Y98.561 F7200
G1 X134.240 Y99.955 E8.50436 F2558
G0 X134.240 Y100.521 F7200
G1 X132.279 Y98.561 E8.59657 F2558
G0 X131.714 Y98.561 F7200
G1 X134.240 Y101.087 E8.71539 F2558
G0 X134.027 Y101.439 F7200
G1 X131.148 Y98.561 E8.85080 F2558
G0 X130.582 Y98.561 F7200
G1 X133.461 Y101.439 E8.98621 F2558
G0 X132.895 Y101.439 F7200
G1 X130.016 Y98.561 E9.12161 F2558
G0 X129.451 Y98.561 F7200
G1 X132.330 Y101.439 E9.25702 F2558
G0 X131.764 Y101.439 F7200
G1 X128.885 Y98.561 E9.39243 F2558
G0 X128.319 Y98.561 F7200
G1 X131.198 Y101.439 E9.52784 F2558
G0 X130.632 Y101.439 F7200
G1 X127.754 Y98.561 E9.66325 F2558
G0 X127.188 Y98.561 F7200
G1 X130.067 Y101.439 E9.79865 F2558
G0 X129.501 Y101.439 F7200
G1 X126.622 Y98.561 E9.93406 F2558
G0 X126.057 Y98.561 F7200
G1 X128.935 Y101.439 E10.06947 F2558
G0 X128.370 Y101.439 F7200
G1 X125.761 Y98.830 E10.19219 F2558
G0 X125.761 Y99.396 F7200
G1 X127.804 Y101.439 E10.28830 F2558
G0 X127.238 Y101.439 F7200
G1 X125.761 Y99.962 E10.35781 F2558
