; G-Code generated by Simplify3D(R) Version 4.1.2
; Feb 20, 2021 at 11:41:45 PM
; Settings Summary
;   processName,Process1
;   applyToModels,drawPanel_0.1.2
;   profileName,0.002 (modified)
;   profileVersion,2021-02-20 23:27:52
;   baseProfile,Simplify3D PLA for CraftBot(2)
;   printMaterial,PLA
;   printQuality,Fast
;   printExtruders,
;   extruderName,Primary Extruder
;   extruderToolheadNumber,0
;   extruderDiameter,0.4
;   extruderAutoWidth,0
;   extruderWidth,0.4
;   extrusionMultiplier,1
;   extruderUseRetract,1
;   extruderRetractionDistance,0.6
;   extruderExtraRestartDistance,0
;   extruderRetractionZLift,0
;   extruderRetractionSpeed,2400
;   extruderUseCoasting,0
;   extruderCoastingDistance,0.2
;   extruderUseWipe,0
;   extruderWipeDistance,5
;   primaryExtruder,0
;   layerHeight,0.2
;   topSolidLayers,4
;   bottomSolidLayers,4
;   perimeterOutlines,2
;   printPerimetersInsideOut,1
;   startPointOption,2
;   startPointOriginX,0
;   startPointOriginY,0
;   sequentialIslands,0
;   spiralVaseMode,0
;   firstLayerHeightPercentage,100
;   firstLayerWidthPercentage,100
;   firstLayerUnderspeed,0.8
;   useRaft,1
;   raftExtruder,0
;   raftTopLayers,3
;   raftBaseLayers,2
;   raftOffset,6
;   raftSeparationDistance,0.14
;   raftTopInfill,100
;   aboveRaftSpeedMultiplier,0.3
;   useSkirt,0
;   skirtExtruder,0
;   skirtLayers,1
;   skirtOutlines,2
;   skirtOffset,4
;   usePrimePillar,0
;   primePillarExtruder,999
;   primePillarWidth,12
;   primePillarLocation,7
;   primePillarSpeedMultiplier,1
;   useOozeShield,0
;   oozeShieldExtruder,999
;   oozeShieldOffset,2
;   oozeShieldOutlines,1
;   oozeShieldSidewallShape,1
;   oozeShieldSidewallAngle,30
;   oozeShieldSpeedMultiplier,1
;   infillExtruder,0
;   internalInfillPattern,Full Honeycomb
;   externalInfillPattern,Rectilinear
;   infillPercentage,40
;   outlineOverlapPercentage,20
;   infillExtrusionWidthPercentage,100
;   minInfillLength,5
;   infillLayerInterval,1
;   internalInfillAngles,0,120,-120
;   overlapInternalInfillAngles,0
;   externalInfillAngles,90
;   generateSupport,1
;   supportExtruder,0
;   supportInfillPercentage,30
;   supportExtraInflation,0
;   supportBaseLayers,0
;   denseSupportExtruder,0
;   denseSupportLayers,0
;   denseSupportInfillPercentage,70
;   supportLayerInterval,1
;   supportHorizontalPartOffset,0.3
;   supportUpperSeparationLayers,1
;   supportLowerSeparationLayers,1
;   supportType,0
;   supportGridSpacing,4
;   maxOverhangAngle,65
;   supportAngles,0
;   temperatureName,Primary Extruder,Heated Bed
;   temperatureNumber,0,0
;   temperatureSetpointCount,1,1
;   temperatureSetpointLayers,1,1
;   temperatureSetpointTemperatures,215,60
;   temperatureStabilizeAtStartup,1,0
;   temperatureHeatedBed,0,1
;   fanLayers,1
;   fanSpeeds,100
;   blipFanToFullPower,1
;   adjustSpeedForCooling,1
;   minSpeedLayerTime,5
;   minCoolingSpeedSlowdown,20
;   increaseFanForCooling,0
;   minFanLayerTime,45
;   maxCoolingFanSpeed,100
;   increaseFanForBridging,0
;   bridgingFanSpeed,100
;   use5D,1
;   relativeEdistances,0
;   allowEaxisZeroing,1
;   independentExtruderAxes,0
;   includeM10123,0
;   stickySupport,1
;   applyToolheadOffsets,0
;   gcodeXoffset,0
;   gcodeYoffset,0
;   gcodeZoffset,0
;   overrideMachineDefinition,1
;   machineTypeOverride,0
;   strokeXoverride,250
;   strokeYoverride,200
;   strokeZoverride,200
;   originOffsetXoverride,0
;   originOffsetYoverride,0
;   originOffsetZoverride,0
;   homeXdirOverride,-1
;   homeYdirOverride,-1
;   homeZdirOverride,-1
;   flipXoverride,1
;   flipYoverride,-1
;   flipZoverride,1
;   toolheadOffsets,0,0|0,0|0,0|0,0|0,0|0,0
;   overrideFirmwareConfiguration,1
;   firmwareTypeOverride,RepRap (Marlin/Repetier/Sprinter)
;   GPXconfigOverride,r2
;   baudRateOverride,115200
;   overridePrinterModels,0
;   printerModelsOverride
;   startingGcode,M906 X50 ,M906 E50,M4003 S270 ,M1203 A3000 D3000  F1200,G28 X0 Y0,G28 Z0,G1 X1 Y1 E0 F240,G1 X1 Y100 E20 F240,G1 X1 Y20 E40 F240,G1 X8 Y1 F240,G92 E0 ,G92 X0 Y0 ,
;   layerChangeGcode,
;   retractionGcode,
;   toolChangeGcode,
;   endingGcode,G1 X0 Y0 F2400 ,;G1 Z195 F2400 ; move bed to bottom,M140 S0,M104 S0,M106 S0,
;   exportFileFormat,gcode
;   celebration,0
;   celebrationSong,Random Song
;   postProcessing,
;   defaultSpeed,4800
;   outlineUnderspeed,0.5
;   solidInfillUnderspeed,0.8
;   supportUnderspeed,1
;   rapidXYspeed,6000
;   rapidZspeed,500
;   minBridgingArea,20
;   bridgingExtraInflation,0
;   bridgingExtrusionMultiplier,1
;   bridgingSpeedMultiplier,1
;   useFixedBridgingAngle,0
;   fixedBridgingAngle,0
;   applyBridgingToPerimeters,0
;   filamentDiameters,1.75|1.75|1.75|1.75|1.75|1.75
;   filamentPricesPerKg,46|46|46|46|46|46
;   filamentDensities,1.25|1.25|1.25|1.25|1.25|1.25
;   useMinPrintHeight,0
;   minPrintHeight,0
;   useMaxPrintHeight,0
;   maxPrintHeight,0
;   useDiaphragm,0
;   diaphragmLayerInterval,20
;   robustSlicing,1
;   mergeAllIntoSolid,0
;   onlyRetractWhenCrossingOutline,1
;   retractBetweenLayers,1
;   useRetractionMinTravel,1
;   retractionMinTravel,2
;   retractWhileWiping,0
;   onlyWipeOutlines,0
;   avoidCrossingOutline,0
;   maxMovementDetourFactor,3
;   toolChangeRetractionDistance,0
;   toolChangeExtraRestartDistance,0
;   toolChangeRetractionSpeed,360
;   externalThinWallType,0
;   internalThinWallType,2
;   thinWallAllowedOverlapPercentage,10
;   singleExtrusionMinLength,1
;   singleExtrusionMinPrintingWidthPercentage,50
;   singleExtrusionMaxPrintingWidthPercentage,200
;   singleExtrusionEndpointExtension,0.2
;   horizontalSizeCompensation,0
G90
M82
M106 S255
M140 S60
M104 S215 T0
M109 S215 T0
M906 X50 
M906 E50
M4003 S270 
M1203 A3000 D3000  F1200
G28 X0 Y0
G28 Z0
G1 X1 Y1 E0 F240
G1 X1 Y100 E20 F240
G1 X1 Y20 E40 F240
G1 X8 Y1 F240
G92 E0 
G92 X0 Y0 
; process Process1
; layer 1, Z = 0.500
T0
G92 E0.0000
G1 E-0.6000 F2400
; feature raft
; tool H0.500 W0.800
G1 Z0.500 F500
G1 X117.000 Y80.780 F6000
G1 E0.0000 F2400
G92 E0.0000
G1 X120.280 Y77.500 E0.7715 F960
G1 X129.720 Y77.500 E2.3412
G1 X133.000 Y80.780 E3.1127
G1 X133.000 Y119.220 E9.5052
G1 X129.720 Y122.500 E10.2767
G1 X120.280 Y122.500 E11.8465
G1 X117.000 Y119.220 E12.6180
G1 X117.000 Y80.780 E19.0104
G92 E0.0000
G1 E-0.6000 F2400
G1 X119.257 Y79.429 F6000
G1 E0.0000 F2400
G92 E0.0000
G1 X130.743 Y79.429 E1.9102 F960
G1 X132.360 Y81.045 E2.2904
G1 X132.360 Y81.714 E2.4017
G1 X117.640 Y81.714 E4.8496
G1 X117.640 Y84.000 E5.2297
G1 X132.360 Y84.000 E7.6777
G1 X132.360 Y86.286 E8.0578
G1 X117.640 Y86.286 E10.5057
G1 X117.640 Y88.571 E10.8858
G1 X132.360 Y88.571 E13.3338
G1 X132.360 Y90.857 E13.7139
G1 X117.640 Y90.857 E16.1619
G1 X117.640 Y93.143 E16.5420
G1 X132.360 Y93.143 E18.9899
G1 X132.360 Y95.429 E19.3700
G1 X117.640 Y95.429 E21.8180
G1 X117.640 Y97.714 E22.1981
G1 X132.360 Y97.714 E24.6460
G1 X132.360 Y100.000 E25.0262
G1 X117.640 Y100.000 E27.4741
G1 X117.640 Y102.286 E27.8542
G1 X132.360 Y102.286 E30.3022
G1 X132.360 Y104.571 E30.6823
G1 X117.640 Y104.571 E33.1302
G1 X117.640 Y106.857 E33.5104
G1 X132.360 Y106.857 E35.9583
G1 X132.360 Y109.143 E36.3384
G1 X117.640 Y109.143 E38.7864
G1 X117.640 Y111.429 E39.1665
G1 X132.360 Y111.429 E41.6144
G1 X132.360 Y113.714 E41.9945
G1 X117.640 Y113.714 E44.4425
G1 X117.640 Y116.000 E44.8226
G1 X132.360 Y116.000 E47.2706
G1 X132.360 Y118.286 E47.6507
G1 X117.640 Y118.286 E50.0986
G1 X117.640 Y118.954 E50.2098
G1 X119.257 Y120.571 E50.5901
G1 X130.743 Y120.571 E52.5003
G92 E0.0000
G1 E-0.6000 F2400
; layer 2, Z = 1.000
G1 Z1.000 F500
G1 X129.720 Y122.500 F6000
G1 E0.0000 F2400
G92 E0.0000
G1 X120.280 Y122.500 E1.5697 F1200
G1 X117.000 Y119.220 E2.3412
G1 X117.000 Y80.780 E8.7337
G1 X120.280 Y77.500 E9.5052
G1 X129.720 Y77.500 E11.0750
G1 X133.000 Y80.780 E11.8465
G1 X133.000 Y119.220 E18.2389
G1 X129.720 Y122.500 E19.0104
G92 E0.0000
G1 E-0.6000 F2400
G1 X130.743 Y120.571 F6000
G1 E0.0000 F2400
G92 E0.0000
G1 X119.257 Y120.571 E1.9102 F1200
G1 X117.640 Y118.954 E2.2904
G1 X117.640 Y118.286 E2.4016
G1 X132.360 Y118.286 E4.8496
G1 X132.360 Y116.000 E5.2297
G1 X117.640 Y116.000 E7.6777
G1 X117.640 Y113.714 E8.0578
G1 X132.360 Y113.714 E10.5057
G1 X132.360 Y111.429 E10.8858
G1 X117.640 Y111.429 E13.3338
G1 X117.640 Y109.143 E13.7139
G1 X132.360 Y109.143 E16.1618
G1 X132.360 Y106.857 E16.5420
G1 X117.640 Y106.857 E18.9899
G1 X117.640 Y104.571 E19.3700
G1 X132.360 Y104.571 E21.8180
G1 X132.360 Y102.286 E22.1981
G1 X117.640 Y102.286 E24.6460
G1 X117.640 Y100.000 E25.0262
G1 X132.360 Y100.000 E27.4741
G1 X132.360 Y97.714 E27.8542
G1 X117.640 Y97.714 E30.3022
G1 X117.640 Y95.429 E30.6823
G1 X132.360 Y95.429 E33.1302
G1 X132.360 Y93.143 E33.5103
G1 X117.640 Y93.143 E35.9583
G1 X117.640 Y90.857 E36.3384
G1 X132.360 Y90.857 E38.7864
G1 X132.360 Y88.571 E39.1665
G1 X117.640 Y88.571 E41.6144
G1 X117.640 Y86.286 E41.9945
G1 X132.360 Y86.286 E44.4425
G1 X132.360 Y84.000 E44.8226
G1 X117.640 Y84.000 E47.2705
G1 X117.640 Y81.714 E47.6507
G1 X132.360 Y81.714 E50.0986
G1 X132.360 Y81.045 E50.2098
G1 X130.743 Y79.429 E50.5901
G1 X119.257 Y79.429 E52.5003
G92 E0.0000
G1 E-0.6000 F2400
; layer 3, Z = 1.222
; tool H0.222 W0.400
G1 Z1.222 F500
G1 X129.453 Y77.300 F6000
G1 E0.0000 F2400
G92 E0.0000
G1 X133.200 Y81.047 E0.1958 F3600
G1 X133.200 Y81.613 E0.2167
G1 X128.887 Y77.300 E0.4421
G1 X128.322 Y77.300 E0.4630
G1 X133.200 Y82.178 E0.7180
G1 X133.200 Y82.744 E0.7389
G1 X127.756 Y77.300 E1.0234
G1 X127.190 Y77.300 E1.0444
G1 X133.200 Y83.310 E1.3584
G1 X133.200 Y83.876 E1.3793
G1 X126.624 Y77.300 E1.7230
G1 X126.059 Y77.300 E1.7439
G1 X133.200 Y84.441 E2.1171
G1 X133.200 Y85.007 E2.1380
G1 X125.493 Y77.300 E2.5408
G1 X124.927 Y77.300 E2.5617
G1 X133.200 Y85.573 E2.9941
G1 X133.200 Y86.138 E3.0150
G1 X124.362 Y77.300 E3.4769
G1 X123.796 Y77.300 E3.4978
G1 X133.200 Y86.704 E3.9893
G1 X133.200 Y87.270 E4.0102
G1 X123.230 Y77.300 E4.5312
G1 X122.665 Y77.300 E4.5522
G1 X133.200 Y87.835 E5.1028
G1 X133.200 Y88.401 E5.1237
G1 X122.099 Y77.300 E5.7038
G1 X121.533 Y77.300 E5.7247
G1 X133.200 Y88.967 E6.3345
G1 X133.200 Y89.532 E6.3554
G1 X120.968 Y77.300 E6.9947
G1 X120.402 Y77.300 E7.0156
G1 X133.200 Y90.098 E7.6845
G1 X133.200 Y90.664 E7.7054
G1 X120.017 Y77.481 E8.3944
G1 X119.734 Y77.763 E8.4091
G1 X133.200 Y91.229 E9.1129
G1 X133.200 Y91.795 E9.1338
G1 X119.451 Y78.046 E9.8524
G1 X119.168 Y78.329 E9.8672
G1 X133.200 Y92.361 E10.6005
G1 X133.200 Y92.926 E10.6214
G1 X118.886 Y78.612 E11.3695
G1 X118.603 Y78.895 E11.3843
G1 X133.200 Y93.492 E12.1472
G1 X133.200 Y94.058 E12.1681
G1 X118.320 Y79.178 E12.9458
G1 X118.037 Y79.461 E12.9606
G1 X133.200 Y94.624 E13.7531
G1 X133.200 Y95.189 E13.7740
G1 X117.754 Y79.743 E14.5812
G1 X117.471 Y80.026 E14.5960
G1 X133.200 Y95.755 E15.4180
G1 X133.200 Y96.321 E15.4389
G1 X117.188 Y80.309 E16.2757
G1 X116.906 Y80.592 E16.2905
G1 X133.200 Y96.886 E17.1421
G1 X133.200 Y97.452 E17.1630
G1 X116.800 Y81.052 E18.0202
G1 X116.800 Y81.618 E18.0411
G1 X133.200 Y98.018 E18.8982
G1 X133.200 Y98.583 E18.9191
G1 X116.800 Y82.183 E19.7762
G1 X116.800 Y82.749 E19.7971
G1 X133.200 Y99.149 E20.6542
G1 X133.200 Y99.715 E20.6751
G1 X116.800 Y83.315 E21.5322
G1 X116.800 Y83.880 E21.5531
G1 X133.200 Y100.280 E22.4103
G1 X133.200 Y100.846 E22.4312
G1 X116.800 Y84.446 E23.2883
G1 X116.800 Y85.012 E23.3092
G1 X133.200 Y101.412 E24.1663
G1 X133.200 Y101.977 E24.1872
G1 X116.800 Y85.577 E25.0443
G1 X116.800 Y86.143 E25.0652
G1 X133.200 Y102.543 E25.9224
G1 X133.200 Y103.109 E25.9433
G1 X116.800 Y86.709 E26.8004
G1 X116.800 Y87.274 E26.8213
G1 X133.200 Y103.675 E27.6784
G1 X133.200 Y104.240 E27.6993
G1 X116.800 Y87.840 E28.5564
G1 X116.800 Y88.406 E28.5773
G1 X133.200 Y104.806 E29.4345
G1 X133.200 Y105.372 E29.4554
G1 X116.800 Y88.972 E30.3125
G1 X116.800 Y89.537 E30.3334
G1 X133.200 Y105.937 E31.1905
G1 X133.200 Y106.503 E31.2114
G1 X116.800 Y90.103 E32.0685
G1 X116.800 Y90.669 E32.0894
G1 X133.200 Y107.069 E32.9465
G1 X133.200 Y107.634 E32.9675
G1 X116.800 Y91.234 E33.8246
G1 X116.800 Y91.800 E33.8455
G1 X133.200 Y108.200 E34.7026
G1 X133.200 Y108.766 E34.7235
G1 X116.800 Y92.366 E35.5806
G1 X116.800 Y92.931 E35.6015
G1 X133.200 Y109.331 E36.4586
G1 X133.200 Y109.897 E36.4795
G1 X116.800 Y93.497 E37.3367
G1 X116.800 Y94.063 E37.3576
G1 X133.200 Y110.463 E38.2147
G1 X133.200 Y111.028 E38.2356
G1 X116.800 Y94.628 E39.0927
G1 X116.800 Y95.194 E39.1136
G1 X133.200 Y111.594 E39.9707
G1 X133.200 Y112.160 E39.9916
G1 X116.800 Y95.760 E40.8488
G1 X116.800 Y96.325 E40.8697
G1 X133.200 Y112.725 E41.7268
G1 X133.200 Y113.291 E41.7477
G1 X116.800 Y96.891 E42.6048
G1 X116.800 Y97.457 E42.6257
G1 X133.200 Y113.857 E43.4828
G1 X133.200 Y114.423 E43.5037
G1 X116.800 Y98.023 E44.3608
G1 X116.800 Y98.588 E44.3818
G1 X133.200 Y114.988 E45.2389
G1 X133.200 Y115.554 E45.2598
G1 X116.800 Y99.154 E46.1169
G1 X116.800 Y99.720 E46.1378
G1 X133.200 Y116.120 E46.9949
G1 X133.200 Y116.685 E47.0158
G1 X116.800 Y100.285 E47.8729
G1 X116.800 Y100.851 E47.8938
G1 X133.200 Y117.251 E48.7510
G1 X133.200 Y117.817 E48.7719
G1 X116.800 Y101.417 E49.6290
G1 X116.800 Y101.982 E49.6499
G1 X133.200 Y118.382 E50.5070
G1 X133.200 Y118.948 E50.5279
G1 X116.800 Y102.548 E51.3850
G1 X116.800 Y103.114 E51.4059
G1 X133.094 Y119.408 E52.2575
G1 X132.812 Y119.691 E52.2723
G1 X116.800 Y103.679 E53.1091
G1 X116.800 Y104.245 E53.1300
G1 X132.529 Y119.974 E53.9521
G1 X132.246 Y120.257 E53.9669
G1 X116.800 Y104.811 E54.7741
G1 X116.800 Y105.376 E54.7950
G1 X131.963 Y120.539 E55.5875
G1 X131.680 Y120.822 E55.6023
G1 X116.800 Y105.942 E56.3799
G1 X116.800 Y106.508 E56.4009
G1 X131.397 Y121.105 E57.1638
G1 X131.114 Y121.388 E57.1785
G1 X116.800 Y107.073 E57.9267
G1 X116.800 Y107.639 E57.9476
G1 X130.832 Y121.671 E58.6809
G1 X130.549 Y121.954 E58.6957
G1 X116.800 Y108.205 E59.4142
G1 X116.800 Y108.771 E59.4352
G1 X130.266 Y122.236 E60.1389
G1 X129.983 Y122.519 E60.1537
G1 X116.800 Y109.336 E60.8427
G1 X116.800 Y109.902 E60.8636
G1 X129.598 Y122.700 E61.5325
G1 X129.032 Y122.700 E61.5534
G1 X116.800 Y110.468 E62.1927
G1 X116.800 Y111.033 E62.2136
G1 X128.467 Y122.700 E62.8233
G1 X127.901 Y122.700 E62.8442
G1 X116.800 Y111.599 E63.4244
G1 X116.800 Y112.165 E63.4453
G1 X127.335 Y122.700 E63.9959
G1 X126.770 Y122.700 E64.0168
G1 X116.800 Y112.730 E64.5379
G1 X116.800 Y113.296 E64.5588
G1 X126.204 Y122.700 E65.0503
G1 X125.638 Y122.700 E65.0712
G1 X116.800 Y113.862 E65.5331
G1 X116.800 Y114.427 E65.5540
G1 X125.073 Y122.700 E65.9864
G1 X124.507 Y122.700 E66.0073
G1 X116.800 Y114.993 E66.4100
G1 X116.800 Y115.559 E66.4310
G1 X123.941 Y122.700 E66.8042
G1 X123.376 Y122.700 E66.8251
G1 X116.800 Y116.124 E67.1687
G1 X116.800 Y116.690 E67.1896
G1 X122.810 Y122.700 E67.5037
G1 X122.244 Y122.700 E67.5246
G1 X116.800 Y117.256 E67.8092
G1 X116.800 Y117.822 E67.8301
G1 X121.678 Y122.700 E68.0850
G1 X121.113 Y122.700 E68.1060
G1 X116.800 Y118.387 E68.3314
G1 X116.800 Y118.953 E68.3523
G1 X120.547 Y122.700 E68.5481
G92 E0.0000
G1 E-0.6000 F2400
; layer 4, Z = 1.444
G1 Z1.444 F500
G1 X133.200 Y118.953 F6000
G1 E0.0000 F2400
G92 E0.0000
G1 X129.453 Y122.700 E0.1958 F3600
G1 X128.887 Y122.700 E0.2167
G1 X133.200 Y118.387 E0.4421
G1 X133.200 Y117.822 E0.4630
G1 X128.322 Y122.700 E0.7180
G1 X127.756 Y122.700 E0.7389
G1 X133.200 Y117.256 E1.0234
G1 X133.200 Y116.690 E1.0443
G1 X127.190 Y122.700 E1.3584
G1 X126.625 Y122.700 E1.3793
G1 X133.200 Y116.125 E1.7230
G1 X133.200 Y115.559 E1.7439
G1 X126.059 Y122.700 E2.1171
G1 X125.493 Y122.700 E2.1380
G1 X133.200 Y114.993 E2.5408
G1 X133.200 Y114.427 E2.5617
G1 X124.927 Y122.700 E2.9941
G1 X124.362 Y122.700 E3.0150
G1 X133.200 Y113.862 E3.4769
G1 X133.200 Y113.296 E3.4978
G1 X123.796 Y122.700 E3.9893
G1 X123.230 Y122.700 E4.0102
G1 X133.200 Y112.730 E4.5312
G1 X133.200 Y112.165 E4.5521
G1 X122.665 Y122.700 E5.1027
G1 X122.099 Y122.700 E5.1236
G1 X133.200 Y111.599 E5.7038
G1 X133.200 Y111.033 E5.7247
G1 X121.533 Y122.700 E6.3345
G1 X120.968 Y122.700 E6.3554
G1 X133.200 Y110.468 E6.9947
G1 X133.200 Y109.902 E7.0156
G1 X120.402 Y122.700 E7.6844
G1 X120.198 Y122.700 E7.6920
G1 X120.017 Y122.519 E7.7014
G1 X133.200 Y109.336 E8.3904
