; #disp params :
; Printmode:0
; Layer:99
; Zmax:114.831 mm
; Xmax:146.856 mm
; Ymax:20.8 mm
; Xmin:113.069 mm
; Ymin:0.3 mm
; E0diam:0.4 mm
; E0len:0.493941 m
; E0temp:215 C
; Bedtemp:215 C
; Time:14.9067 min
; #params end
; GCode generated by CraftWare

G28 X Y ; home horizontally
G28 Z ; home vertically


M104 S215 ;set head temp (no wait)
M190 S60 ;set bed temp (wait)
M109 S215 ;set head temp (wait)

; ------------------------------------
; Raft Layer #0
; ------------------------------------
M106 S0 ;turn off fan
G21 ; mm
G90 ; abs
G92 E0 ;reset extr
G0 F600 Z0.300
;segType:Raft
G0 F3000 E-1.00000
G0 F600 Z2.300
G0 X131.444 Y114.766 F5400
G0 F600 Z0.300
G0 F3000 E0.00000
G1 X118.844 Y114.766 E0.62862 F600
G1 X118.384 Y114.700 E0.65178
G1 X113.134 Y109.450 E1.02220
G1 X113.134 Y90.550 E1.96513
G1 X113.200 Y90.484 E1.96978
G0 X113.265 Y90.419 F5400
G1 X118.253 Y85.431 E2.32167 F600
G1 X118.712 Y85.365 E2.34484
G1 X131.313 Y85.365 E2.97346
G1 X131.641 Y85.562 E2.99256
G1 X132.756 Y86.678 E3.07126
G0 X132.822 Y86.744 F5400
G1 X134.856 Y88.778 E3.21478 F600
G1 X141.419 Y88.778 E3.54218
G1 X146.669 Y94.028 E3.91260
G1 X146.735 Y94.487 E3.93577
G1 X146.735 Y100.919 E4.25662
G0 X146.735 Y101.181 F5400
G1 X146.735 Y106.038 E4.49890 F600
G1 X141.747 Y111.025 E4.85080
G1 X141.419 Y111.222 E4.86991
G1 X135.119 Y111.222 E5.18422
G1 X134.791 Y111.419 E5.20329
G1 X131.510 Y114.700 E5.43480
G0 X129.803 Y114.438 F5400
G1 X129.803 Y85.825 E6.86229 F600
G0 X127.136 Y85.825 F5400
G1 X127.136 Y114.438 E8.28978 F600
G0 X124.470 Y114.438 F5400
G1 X124.470 Y85.825 E9.71726 F600
G0 X121.803 Y85.825 F5400
G1 X121.803 Y114.438 E11.14475 F600
G0 X119.136 Y114.438 F5400
G1 X119.136 Y85.825 E12.57224 F600
G0 X116.470 Y87.925 F5400
G1 X116.470 Y112.206 E13.78364 F600
G0 X113.803 Y109.581 F5400
G1 X113.803 Y90.550 E14.73311 F600
G0 X132.470 Y87.137 F5400
G1 X132.470 Y113.125 E16.02964 F600
G0 X135.136 Y110.894 F5400
G1 X135.136 Y89.237 E17.11008 F600
G0 X137.803 Y89.237 F5400
G1 X137.803 Y110.894 E18.19051 F600
G0 X140.470 Y110.894 F5400
G1 X140.470 Y89.237 E19.27095 F600
G0 X143.136 Y91.206 F5400
G1 X143.136 Y109.056 E20.16150 F600
G0 X145.803 Y106.431 F5400
G1 X145.803 Y93.831 E20.79011 F600



; ------------------------------------
; Raft Layer #1
; ------------------------------------
G92 E0 ;reset extr
G0 F600 Z0.600
;segType:Raft
G0 X146.056 Y93.437 F7200
G1 X124.662 Y114.831 E1.50944 F1800
G0 X122.777 Y114.831 F7200
G1 X145.089 Y92.519 E3.08370 F1800
G0 X144.122 Y91.600 F7200
G1 X120.891 Y114.831 E4.72278 F1800
G0 X119.005 Y114.831 F7200
G1 X143.286 Y90.550 E6.43594 F1800
G0 X142.320 Y89.631 F7200
G1 X117.776 Y114.175 E8.16763 F1800
G0 X116.940 Y113.125 F7200
G1 X141.221 Y88.844 E9.88079 F1800
G0 X139.336 Y88.844 F7200
G1 X115.974 Y112.206 E11.52913 F1800
G0 X114.972 Y111.323 F7200
G1 X137.415 Y88.879 E13.11265 F1800
G0 X135.578 Y88.831 F7200
G1 X114.053 Y110.356 E14.63135 F1800
G0 X113.069 Y109.323 F7200
G1 X134.200 Y88.192 E16.12228 F1800
G0 X133.281 Y87.225 F7200
G1 X113.069 Y107.438 E17.54838 F1800
G0 X113.069 Y105.552 F7200
G1 X132.363 Y86.259 E18.90966 F1800
G0 X131.444 Y85.291 F7200
G1 X113.069 Y103.666 E20.20611 F1800
G0 X113.069 Y101.781 F7200
G1 X129.606 Y85.244 E21.37292 F1800
G0 X127.638 Y85.326 F7200
G1 X113.069 Y99.895 E22.40082 F1800
G0 X113.069 Y98.010 F7200
G1 X125.800 Y85.279 E23.29908 F1800
G0 X123.831 Y85.361 F7200
G1 X113.069 Y96.124 E24.05843 F1800
G0 X113.069 Y94.238 F7200
G1 X121.994 Y85.313 E24.68814 F1800
G0 X120.156 Y85.265 F7200
G1 X113.069 Y92.353 E25.18821 F1800
G0 X126.548 Y114.831 F7200
G1 X146.760 Y94.619 E26.61430 F1800
G0 X146.808 Y96.456 F7200
G1 X128.434 Y114.831 E27.91075 F1800
G0 X130.319 Y114.831 F7200
G1 X146.856 Y98.294 E29.07755 F1800
G0 X146.773 Y100.263 F7200
G1 X135.748 Y111.288 E29.85542 F1800
G0 X137.634 Y111.288 F7200
G1 X146.821 Y102.100 E30.50365 F1800
G0 X146.738 Y104.069 F7200
G1 X139.520 Y111.288 E31.01297 F1800
G0 X141.405 Y111.288 F7200
G1 X146.787 Y105.906 E31.39264 F1800



; ------------------------------------
; Raft Layer #2
; ------------------------------------
G92 E0 ;reset extr
G0 F600 Z0.800
;segType:Raft
G0 F3000 E-1.00000
G0 F600 Z2.800
G0 X131.575 Y114.597 F7200
G0 F600 Z0.800
G0 F3000 E0.00000
G1 X118.187 Y114.597 E0.44527 F2400
G1 X117.794 Y114.197 E0.46394
G1 X131.969 Y114.197 E0.93540
G1 X132.363 Y113.797 E0.95407
G1 X117.400 Y113.797 E1.45173
G1 X117.006 Y113.397 E1.47040
G1 X132.756 Y113.397 E1.99424
G1 X133.150 Y112.997 E2.01291
G1 X116.612 Y112.997 E2.56295
G1 X116.219 Y112.597 E2.58162
G1 X133.544 Y112.597 E3.15785
G1 X133.938 Y112.197 E3.17652
G1 X115.825 Y112.197 E3.77895
G1 X115.431 Y111.797 E3.79762
G1 X134.331 Y111.797 E4.42624
G1 X134.725 Y111.397 E4.44490
G1 X115.037 Y111.397 E5.09971
G1 X114.644 Y110.997 E5.11838
G1 X141.681 Y110.997 E6.01766
G1 X142.075 Y110.597 E6.03632
G1 X114.250 Y110.597 E6.96179
G1 X113.856 Y110.197 E6.98046
G1 X142.469 Y110.197 E7.93212
G1 X142.863 Y109.797 E7.95078
G1 X113.462 Y109.797 E8.92863
G1 X113.069 Y109.397 E8.94730
G1 X143.256 Y109.397 E9.95135
G1 X143.650 Y108.997 E9.97001
G1 X113.069 Y108.997 E10.98715
G1 X113.069 Y108.597 E11.00046
G1 X144.175 Y108.597 E12.03506
G1 X144.569 Y108.197 E12.05373
G1 X113.069 Y108.197 E13.10142
G1 X113.069 Y107.797 E13.11473
G1 X144.963 Y107.797 E14.17552
G1 X145.356 Y107.397 E14.19419
G1 X113.069 Y107.397 E15.26808
G1 X113.069 Y106.997 E15.28138
G1 X145.750 Y106.997 E16.36837
G1 X146.144 Y106.597 E16.38704
G1 X113.069 Y106.597 E17.48712
G1 X113.069 Y106.197 E17.50042
G1 X146.538 Y106.197 E18.61360
G1 X146.669 Y105.797 E18.62760
G1 X113.069 Y105.797 E19.74515
G1 X113.069 Y105.397 E19.75845
G1 X146.669 Y105.397 E20.87599
G1 X146.669 Y104.997 E20.88930
G1 X113.069 Y104.997 E22.00684
G1 X113.069 Y104.597 E22.02015
G1 X146.669 Y104.597 E23.13769
G1 X146.669 Y104.197 E23.15099
G1 X113.069 Y104.197 E24.26854
G1 X113.069 Y103.797 E24.28184
G1 X146.669 Y103.797 E25.39939
G1 X146.669 Y103.397 E25.41269
G1 X113.069 Y103.397 E26.53023
G1 X113.069 Y102.997 E26.54354
G1 X146.669 Y102.997 E27.66108
G1 X146.669 Y102.597 E27.67439
G1 X113.069 Y102.597 E28.79193
G1 X113.069 Y102.197 E28.80523
G1 X146.669 Y102.197 E29.92278
G1 X146.669 Y101.797 E29.93608
G1 X113.069 Y101.797 E31.05363
G1 X113.069 Y101.397 E31.06693
G1 X146.669 Y101.397 E32.18447
G1 X146.669 Y100.997 E32.19778
G1 X113.069 Y100.997 E33.31532
G1 X113.069 Y100.597 E33.32863
G1 X146.669 Y100.597 E34.44617
G1 X146.669 Y100.197 E34.45947
G1 X113.069 Y100.197 E35.57702
G1 X113.069 Y99.797 E35.59032
G1 X146.669 Y99.797 E36.70786
G1 X146.669 Y99.397 E36.72117
G1 X113.069 Y99.397 E37.83871
G1 X113.069 Y98.997 E37.85202
G1 X146.669 Y98.997 E38.96956
G1 X146.669 Y98.597 E38.98287
G1 X113.069 Y98.597 E40.10041
G1 X113.069 Y98.197 E40.11371
G1 X146.669 Y98.197 E41.23126
G1 X146.669 Y97.797 E41.24456
G1 X113.069 Y97.797 E42.36211
G1 X113.069 Y97.397 E42.37541
G1 X146.669 Y97.397 E43.49295
G1 X146.669 Y96.997 E43.50626
G1 X113.069 Y96.997 E44.62380
G1 X113.069 Y96.597 E44.63711
G1 X146.669 Y96.597 E45.75465
G1 X146.669 Y96.197 E45.76795
G1 X113.069 Y96.197 E46.88550
G1 X113.069 Y95.797 E46.89880
G1 X146.669 Y95.797 E48.01634
G1 X146.669 Y95.397 E48.02965
G1 X113.069 Y95.397 E49.14719
G1 X113.069 Y94.997 E49.16050
G1 X146.669 Y94.997 E50.27804
G1 X146.669 Y94.597 E50.29135
G1 X113.069 Y94.597 E51.40889
G1 X113.069 Y94.197 E51.42219
G1 X146.669 Y94.197 E52.53974
G1 X146.406 Y93.797 E52.55565
G1 X113.069 Y93.797 E53.66447
G1 X113.069 Y93.397 E53.67777
G1 X146.013 Y93.397 E54.77349
G1 X145.619 Y92.997 E54.79215
G1 X113.069 Y92.997 E55.87477
G1 X113.069 Y92.597 E55.88808
G1 X145.225 Y92.597 E56.95760
G1 X144.831 Y92.197 E56.97627
G1 X113.069 Y92.197 E58.03270
G1 X113.069 Y91.797 E58.04600
G1 X144.438 Y91.797 E59.08934
G1 X143.913 Y91.397 E59.11129
G1 X113.069 Y91.397 E60.13716
G1 X113.069 Y90.997 E60.15047
G1 X143.519 Y90.997 E61.16324
G1 X143.125 Y90.597 E61.18191
G1 X113.069 Y90.597 E62.18159
G1 X113.462 Y90.197 E62.20026
G1 X142.731 Y90.197 E63.17374
G1 X142.338 Y89.797 E63.19241
G1 X113.856 Y89.797 E64.13970
G1 X114.250 Y89.397 E64.15837
G1 X141.944 Y89.397 E65.07947
G1 X141.550 Y88.997 E65.09814
G1 X114.644 Y88.997 E65.99304
G1 X115.037 Y88.597 E66.01171
G1 X134.594 Y88.597 E66.66216
G1 X134.200 Y88.197 E66.68083
G1 X115.431 Y88.197 E67.30508
G1 X115.825 Y87.797 E67.32375
G1 X133.806 Y87.797 E67.92181
G1 X133.413 Y87.397 E67.94048
G1 X116.219 Y87.397 E68.51235
G1 X116.612 Y86.997 E68.53102
G1 X133.019 Y86.997 E69.07669
G1 X132.625 Y86.597 E69.09536
G1 X117.006 Y86.597 E69.61485
G1 X117.400 Y86.197 E69.63352
G1 X132.231 Y86.197 E70.12681
G1 X131.838 Y85.797 E70.14548
G1 X117.794 Y85.797 E70.61257
G1 X118.187 Y85.397 E70.63124
G1 X131.444 Y85.397 E71.07215



; ------------------------------------
; Raft Layer #3
; ------------------------------------
M106 S255 ;set fan speed
G92 E0 ;reset extr
G0 F600 Z1.000
;segType:Raft
G0 F3000 E-1.00000
G0 F600 Z3.000
G0 X146.603 Y106.300 F7200
G0 F600 Z1.000
G0 F3000 E0.00000
G1 X146.603 Y93.962 E0.41035 F2400
G1 X146.203 Y93.569 E0.42902
G1 X146.203 Y106.694 E0.86556
G1 X145.803 Y107.088 E0.88422
G1 X145.803 Y93.175 E1.34696
G1 X145.403 Y92.781 E1.36563
G1 X145.403 Y107.481 E1.85455
G1 X145.003 Y107.875 E1.87322
G1 X145.003 Y92.387 E2.38834
G1 X144.603 Y91.994 E2.40701
G1 X144.603 Y108.269 E2.94832
G1 X144.203 Y108.663 E2.96698
G1 X144.203 Y91.600 E3.53449
G1 X143.803 Y91.206 E3.55315
G1 X143.803 Y109.056 E4.14685
G1 X143.403 Y109.450 E4.16552
G1 X143.403 Y90.812 E4.78541
G1 X143.003 Y90.419 E4.80407
G1 X143.003 Y109.844 E5.45015
G1 X142.603 Y110.238 E5.46882
G1 X142.603 Y90.025 E6.14109
G1 X142.203 Y89.631 E6.15976
G1 X142.203 Y110.631 E6.85823
G1 X141.803 Y111.025 E6.87690
G1 X141.803 Y89.237 E7.60155
G1 X141.403 Y88.844 E7.62022
G1 X141.403 Y111.288 E8.36670
G1 X141.003 Y111.288 E8.38001
G1 X141.003 Y88.844 E9.12649
G1 X140.603 Y88.844 E9.13980
G1 X140.603 Y111.288 E9.88628
G1 X140.203 Y111.288 E9.89959
G1 X140.203 Y88.844 E10.64607
G1 X139.803 Y88.844 E10.65937
G1 X139.803 Y111.288 E11.40586
G1 X139.403 Y111.288 E11.41916
G1 X139.403 Y88.844 E12.16564
G1 X139.003 Y88.844 E12.17895
G1 X139.003 Y111.288 E12.92543
G1 X138.603 Y111.288 E12.93874
G1 X138.603 Y88.844 E13.68522
G1 X138.203 Y88.844 E13.69852
G1 X138.203 Y111.288 E14.44501
G1 X137.803 Y111.288 E14.45831
G1 X137.803 Y88.844 E15.20480
G1 X137.403 Y88.844 E15.21810
G1 X137.403 Y111.288 E15.96458
G1 X137.003 Y111.288 E15.97789
G1 X137.003 Y88.844 E16.72437
G1 X136.603 Y88.844 E16.73768
G1 X136.603 Y111.288 E17.48416
G1 X136.203 Y111.288 E17.49746
G1 X136.203 Y88.844 E18.24395
G1 X135.803 Y88.844 E18.25725
G1 X135.803 Y111.288 E19.00374
G1 X135.403 Y111.288 E19.01704
G1 X135.403 Y88.844 E19.76353
G1 X135.003 Y88.844 E19.77683
G1 X135.003 Y111.288 E20.52331
G1 X134.603 Y111.681 E20.54198
G1 X134.603 Y88.581 E21.31029
G1 X134.203 Y88.187 E21.32896
G1 X134.203 Y112.075 E22.12347
G1 X133.803 Y112.469 E22.14213
G1 X133.803 Y87.794 E22.96283
G1 X133.403 Y87.400 E22.98150
G1 X133.403 Y112.863 E23.82839
G1 X133.003 Y113.256 E23.84706
G1 X133.003 Y87.006 E24.72014
G1 X132.603 Y86.612 E24.73881
G1 X132.603 Y113.650 E25.63808
G1 X132.203 Y114.044 E25.65675
G1 X132.203 Y86.219 E26.58221
G1 X131.803 Y85.825 E26.60088
G1 X131.803 Y114.438 E27.55254
G1 X131.403 Y114.831 E27.57121
G1 X131.403 Y85.431 E28.54906
G1 X131.003 Y85.431 E28.56236
G1 X131.003 Y114.831 E29.54021
G1 X130.603 Y114.831 E29.55352
G1 X130.603 Y85.431 E30.53137
G1 X130.203 Y85.431 E30.54467
G1 X130.203 Y114.831 E31.52252
G1 X129.803 Y114.831 E31.53583
G1 X129.803 Y85.431 E32.51368
G1 X129.403 Y85.431 E32.52698
G1 X129.403 Y114.831 E33.50483
G1 X129.003 Y114.831 E33.51814
G1 X129.003 Y85.431 E34.49599
G1 X128.603 Y85.431 E34.50930
G1 X128.603 Y114.831 E35.48715
G1 X128.203 Y114.831 E35.50046
G1 X128.203 Y85.431 E36.47831
G1 X127.803 Y85.431 E36.49161
G1 X127.803 Y114.831 E37.46946
G1 X127.403 Y114.831 E37.48277
G1 X127.403 Y85.431 E38.46062
G1 X127.003 Y85.431 E38.47393
G1 X127.003 Y114.831 E39.45178
G1 X126.603 Y114.831 E39.46509
G1 X126.603 Y85.431 E40.44294
G1 X126.203 Y85.431 E40.45624
G1 X126.203 Y114.831 E41.43409
G1 X125.803 Y114.831 E41.44740
G1 X125.803 Y85.431 E42.42525
G1 X125.403 Y85.431 E42.43856
G1 X125.403 Y114.831 E43.41641
G1 X125.003 Y114.831 E43.42972
G1 X125.003 Y85.431 E44.40757
G1 X124.603 Y85.431 E44.42087
G1 X124.603 Y114.831 E45.39873
G1 X124.203 Y114.831 E45.41203
G1 X124.203 Y85.431 E46.38988
G1 X123.803 Y85.431 E46.40319
G1 X123.803 Y114.831 E47.38104
G1 X123.403 Y114.831 E47.39435
G1 X123.403 Y85.431 E48.37220
G1 X123.003 Y85.431 E48.38550
G1 X123.003 Y114.831 E49.36336
G1 X122.603 Y114.831 E49.37666
G1 X122.603 Y85.431 E50.35451
G1 X122.203 Y85.431 E50.36782
G1 X122.203 Y114.831 E51.34567
G1 X121.803 Y114.831 E51.35898
G1 X121.803 Y85.431 E52.33683
G1 X121.403 Y85.431 E52.35013
G1 X121.403 Y114.831 E53.32799
G1 X121.003 Y114.831 E53.34129
G1 X121.003 Y85.431 E54.31914
G1 X120.603 Y85.431 E54.33245
G1 X120.603 Y114.831 E55.31030
G1 X120.203 Y114.831 E55.32361
G1 X120.203 Y85.431 E56.30146
G1 X119.803 Y85.431 E56.31476
G1 X119.803 Y114.831 E57.29262
G1 X119.403 Y114.831 E57.30592
G1 X119.403 Y85.431 E58.28377
G1 X119.003 Y85.431 E58.29708
G1 X119.003 Y114.831 E59.27493
G1 X118.603 Y114.831 E59.28824
G1 X118.603 Y85.431 E60.26609
G1 X118.203 Y85.562 E60.28009
G1 X118.203 Y114.569 E61.24485
G1 X117.803 Y114.175 E61.26351
G1 X117.803 Y85.956 E62.20207
G1 X117.403 Y86.350 E62.22074
G1 X117.403 Y113.781 E63.13311
G1 X117.003 Y113.388 E63.15178
G1 X117.003 Y86.744 E64.03796
G1 X116.603 Y87.137 E64.05663
G1 X116.603 Y112.994 E64.91661
G1 X116.203 Y112.600 E64.93528
G1 X116.203 Y87.531 E65.76908
G1 X115.803 Y87.925 E65.78775
G1 X115.803 Y112.206 E66.59535
G1 X115.403 Y111.813 E66.61402
G1 X115.403 Y88.319 E67.39543
G1 X115.003 Y88.712 E67.41410
G1 X115.003 Y111.419 E68.16931
G1 X114.603 Y111.025 E68.18798
G1 X114.603 Y89.106 E68.91699
G1 X114.203 Y89.500 E68.93566
G1 X114.203 Y110.631 E69.63849
G1 X113.803 Y110.238 E69.65716
G1 X113.803 Y89.894 E70.33380
G1 X113.403 Y90.287 E70.35247
G1 X113.403 Y109.844 E71.00291


; ------------------------------------
; Layer #0
; ------------------------------------
G21 ; mm
G90 ; abs
G92 E0 ;reset extr
G0 F600 Z1.450
;segType:HShell
G0 F3000 E-1.00000
G0 X124.209 Y96.300 F5400
G0 F3000 E0.00000
G1 X125.792 Y96.300 E0.05265 F2400
G0 X125.792 Y96.700 F5400
G1 X124.209 Y96.700 E0.10530 F2400
G0 F3000 E-0.89470
G0 X124.548 Y95.896 F5400
G0 F3000 E0.10530
;segType:Loop
G1 X126.152 Y95.896 E0.15862 F2400
G1 X126.152 Y97.104 E0.19880
G1 X123.848 Y97.104 E0.27541
G1 X123.848 Y95.896 E0.31559
G1 X124.348 Y95.896 E0.33222
G0 X124.348 Y95.896 F5400
G0 X123.848 Y96.190
G0 X123.716 Y96.269
;segType:Perimeter
G1 X123.508 Y95.496 E0.35883 F1200
G1 X126.552 Y95.496 E0.46005
G1 X126.552 Y97.504 E0.52684
G1 X123.448 Y97.504 E0.63005
G1 X123.448 Y95.556 E0.69485
G0 X123.508 Y95.496 F5400
G0 X125.108 Y95.496
G0 F3000 E-0.30515
G0 X126.079 Y95.896 F5400
G0 X126.152 Y95.926
G0 X126.152 Y97.104
G0 X133.848 Y99.396
G0 X134.053 Y99.396
G0 X136.152 Y100.004
G0 X135.791 Y99.900
G0 F3000 E0.69485
;segType:HShell
G1 X134.208 Y99.900 E0.74750 F2400
G0 F3000 E-0.25250
G0 X134.548 Y99.396 F5400
G0 F3000 E0.74750
;segType:Loop
G1 X136.152 Y99.396 E0.80082 F2400
G1 X136.152 Y100.604 E0.84101
G1 X133.848 Y100.604 E0.91762
G1 X133.848 Y99.396 E0.95781
G1 X134.348 Y99.396 E0.97444
G0 X133.848 Y99.690 F5400
G0 X133.715 Y99.769
;segType:Perimeter
G1 X133.508 Y98.996 E1.00104 F1200
G1 X136.552 Y98.996 E1.10226
G1 X136.552 Y101.004 E1.16906
G1 X133.448 Y101.004 E1.27227
G1 X133.448 Y99.056 E1.33708
G0 X133.508 Y98.996 F5400
G0 X135.108 Y98.996
G0 F3000 E0.33708
G0 X134.281 Y99.396 F5400
G0 X133.848 Y99.605
G0 X133.848 Y100.604
G0 X126.152 Y102.896
G0 X125.792 Y103.500
G0 F3000 E1.33708
;segType:HShell
G1 X124.209 Y103.500 E1.38973 F2400
G0 F3000 E0.38973
G0 X124.548 Y102.896 F5400
G0 F3000 E1.38973
;segType:Loop
G1 X126.152 Y102.896 E1.44305 F2400
G1 X126.152 Y104.104 E1.48323
G1 X123.848 Y104.104 E1.55984
G1 X123.848 Y102.896 E1.60002
G1 X124.348 Y102.896 E1.61665
G0 X123.848 Y103.190 F5400
G0 X123.716 Y103.269
;segType:Perimeter
G1 X123.508 Y102.496 E1.64326 F1200
G1 X126.552 Y102.496 E1.74447
G1 X126.552 Y104.504 E1.81126
G1 X123.448 Y104.504 E1.91448
G1 X123.448 Y102.556 E1.97927
G0 X123.508 Y102.496 F5400
G0 X125.108 Y102.496
; ------------------------------------
; Layer #1
; ------------------------------------
G92 E0 ;reset extr
G0 F3000 E-1.00000
G0 F600 Z1.400
G0 X125.519 Y97.203 F7200
G0 X125.628 Y95.797
G0 X125.600 Y96.157
G0 F3000 E0.00000
;segType:HShell
G0 X125.800 Y96.500 F7200
G1 X125.200 Y96.500 E0.04989 F1200
G1 X124.800 Y96.500 E0.08315
G1 X124.400 Y96.500 E0.11641
G0 X124.404 Y95.797 F7200
;segType:Loop
G1 X126.296 Y95.797 E0.17932 F1200
G1 X126.296 Y97.203 E0.22609
G1 X123.704 Y97.203 E0.31228
G1 X123.704 Y95.797 E0.35905
G1 X124.204 Y95.797 E0.37568
G0 X124.204 Y95.797 F7200
G0 X123.704 Y95.928
G0 X123.520 Y95.977
;segType:Perimeter
G1 X123.364 Y95.397 E0.39564 F600
G1 X126.696 Y95.397 E0.50644
G1 X126.696 Y97.603 E0.57982
G1 X123.304 Y97.603 E0.69262
G1 X123.304 Y95.457 E0.76400
G0 X123.364 Y95.397 F7200
G0 X124.964 Y95.397
G0 F3000 E-0.23600
G0 X125.963 Y95.797 F7200
G0 X126.296 Y95.930
G0 X126.296 Y97.203
G0 X133.705 Y99.297
G0 X134.234 Y99.297
G0 X136.296 Y99.840
G0 X135.600 Y99.657
G0 F3000 E0.76400
;segType:HShell
G0 X135.800 Y100.000 F7200
G1 X135.200 Y100.000 E0.81389 F1200
G1 X134.800 Y100.000 E0.84715
G1 X134.400 Y100.000 E0.88041
G0 X134.405 Y99.297 F7200
;segType:Loop
G1 X136.296 Y99.297 E0.94331 F1200
G1 X136.296 Y100.703 E0.99008
G1 X133.705 Y100.703 E1.07626
G1 X133.705 Y99.297 E1.12304
G1 X134.205 Y99.297 E1.13967
G0 X133.705 Y99.591 F7200
G0 X133.572 Y99.670
;segType:Perimeter
G1 X133.365 Y98.897 E1.16627 F600
G1 X136.696 Y98.897 E1.27707
G1 X136.696 Y101.103 E1.35045
G1 X133.305 Y101.103 E1.46324
G1 X133.305 Y98.957 E1.53462
G0 X133.365 Y98.897 F7200
G0 X134.965 Y98.897
G0 F3000 E0.53462
G0 X134.085 Y99.297 F7200
G0 X133.705 Y99.470
G0 X133.705 Y100.703
G0 X126.296 Y102.797
G0 X125.600 Y103.157
G0 F3000 E1.53462
;segType:HShell
G0 X125.800 Y103.500 F7200
G1 X125.200 Y103.500 E1.58451 F1200
G1 X124.800 Y103.500 E1.61777
G1 X124.400 Y103.500 E1.65103
G0 X124.404 Y102.797 F7200
;segType:Loop
G1 X126.296 Y102.797 E1.71394 F1200
G1 X126.296 Y104.203 E1.76071
G1 X123.704 Y104.203 E1.84690
G1 X123.704 Y102.797 E1.89367
G1 X124.204 Y102.797 E1.91030
G0 X124.204 Y102.797 F7200
G0 X123.704 Y103.091
G0 X123.571 Y103.170
;segType:Perimeter
G1 X123.364 Y102.397 E1.93691 F600
G1 X126.696 Y102.397 E2.04771
G1 X126.696 Y104.603 E2.12109
G1 X123.304 Y104.603 E2.23389
G1 X123.304 Y102.457 E2.30527
G0 X123.364 Y102.397 F7200
G0 X124.964 Y102.397
; ------------------------------------
; Layer #2
; ------------------------------------
G92 E0 ;reset extr
G0 F3000 E-1.00000
G0 F600 Z1.600
G0 X123.560 Y102.698 F7200
G0 X123.560 Y97.302
G0 X123.920 Y96.700
G0 F3000 E0.00000
;segType:HShell
G1 X126.079 Y96.700 E0.07181 F1200
G0 X126.079 Y96.300 F7200
G1 X123.920 Y96.300 E0.14362 F1200
G0 F3000 E-0.85638
G0 X124.260 Y95.698 F7200
G0 F3000 E0.14362
;segType:Loop
G1 X126.440 Y95.698 E0.21610 F1200
G1 X126.440 Y97.302 E0.26945
G1 X123.560 Y97.302 E0.36522
G1 X123.560 Y95.698 E0.41857
G1 X124.060 Y95.698 E0.43520
G0 X123.560 Y95.992 F7200
G0 X123.427 Y96.071
;segType:Perimeter
G1 X123.220 Y95.298 E0.46181 F600
G1 X126.840 Y95.298 E0.58219
G1 X126.840 Y97.702 E0.66215
G1 X123.160 Y97.702 E0.78452
G1 X123.160 Y95.358 E0.86249
G0 X123.220 Y95.298 F7200
G0 X124.820 Y95.298
G0 F3000 E-0.13751
G0 X125.548 Y95.698 F7200
G0 X126.440 Y96.188
G0 X126.440 Y97.302
G0 X133.560 Y99.198
G0 X133.921 Y100.300
G0 F3000 E0.86249
;segType:HShell
G1 X136.080 Y100.300 E0.93430 F1200
G0 X136.080 Y99.900 F7200
G1 X133.921 Y99.900 E1.00610 F1200
G0 X134.260 Y99.198 F7200
;segType:Loop
G1 X136.440 Y99.198 E1.07859 F1200
G1 X136.440 Y100.802 E1.13194
G1 X133.560 Y100.802 E1.22770
G1 X133.560 Y99.198 E1.28106
G1 X134.060 Y99.198 E1.29769
G0 X133.560 Y99.492 F7200
G0 X133.428 Y99.571
;segType:Perimeter
G1 X133.220 Y98.798 E1.32430 F600
G1 X136.840 Y98.798 E1.44467
G1 X136.840 Y101.202 E1.52464
G1 X133.160 Y101.202 E1.64701
G1 X133.160 Y98.858 E1.72498
G0 X133.220 Y98.798 F7200
G0 X134.820 Y98.798
G0 F3000 E0.72498
G0 X134.135 Y99.198 F7200
G0 X133.560 Y99.533
G0 X133.560 Y100.802
G0 X126.440 Y102.698
G0 X126.079 Y103.900
G0 F3000 E1.72498
;segType:HShell
G1 X123.920 Y103.900 E1.79678 F1200
G0 X123.920 Y103.500 F7200
G1 X126.079 Y103.500 E1.86859 F1200
G0 X126.079 Y103.100 F7200
G1 X123.920 Y103.100 E1.94040 F1200
G0 F3000 E0.94040
G0 X124.260 Y102.698 F7200
G0 F3000 E1.94040
;segType:Loop
G1 X126.440 Y102.698 E2.01288 F1200
G1 X126.440 Y104.302 E2.06624
G1 X123.560 Y104.302 E2.16200
G1 X123.560 Y102.698 E2.21535
G1 X124.060 Y102.698 E2.23198
G0 X124.060 Y102.698 F7200
G0 X123.560 Y102.829
G0 X123.376 Y102.877
;segType:Perimeter
G1 X123.220 Y102.298 E2.25194 F600
G1 X126.840 Y102.298 E2.37232
G1 X126.840 Y104.702 E2.45228
G1 X123.160 Y104.702 E2.57465
G1 X123.160 Y102.358 E2.65262
G0 X123.220 Y102.298 F7200
G0 X124.820 Y102.298
; ------------------------------------
; Layer #3
; ------------------------------------
G92 E0 ;reset extr
G0 F3000 E-1.00000
G0 F600 Z1.800
G0 X126.584 Y102.599 F7200
G0 X126.584 Y97.401
G0 X126.127 Y97.401
G0 X125.968 Y95.599
G0 X126.000 Y95.959
G0 F3000 E0.00000
;segType:HShell
G1 X126.000 Y97.041 E0.03599 F1200
G0 X125.600 Y97.041 F7200
G1 X125.600 Y95.959 E0.07198 F1200
G0 X125.200 Y95.959 F7200
G1 X125.200 Y97.041 E0.10797 F1200
G0 X124.800 Y97.041 F7200
G1 X124.800 Y95.959 E0.14396 F1200
G0 X124.400 Y95.959 F7200
G1 X124.400 Y97.041 E0.17995 F1200
G0 X124.000 Y97.041 F7200
G1 X124.000 Y95.959 E0.21594 F1200
G0 X124.117 Y95.599 F7200
;segType:Loop
G1 X126.584 Y95.599 E0.29799 F1200
G1 X126.584 Y97.401 E0.35794
G1 X123.417 Y97.401 E0.46328
G1 X123.417 Y95.599 E0.52322
G1 X123.917 Y95.599 E0.53985
G0 X123.917 Y95.599 F7200
G0 X123.417 Y95.893
G0 X123.284 Y95.972
;segType:Perimeter
G1 X123.077 Y95.199 E0.56646 F600
G1 X126.984 Y95.199 E0.69641
G1 X126.984 Y97.801 E0.78296
G1 X123.017 Y97.801 E0.91491
G1 X123.017 Y95.259 E0.99947
G0 X123.077 Y95.199 F7200
G0 X124.677 Y95.199
G0 F3000 E-0.00053
G0 X125.740 Y95.599 F7200
G0 X126.584 Y95.916
G0 X126.584 Y97.401
G0 X133.416 Y99.099
G0 X134.352 Y99.099
G0 X136.584 Y99.587
G0 X136.000 Y99.459
G0 F3000 E0.99947
;segType:HShell
G1 X136.000 Y100.541 E1.03545 F1200
G0 X135.600 Y100.541 F7200
G1 X135.600 Y99.459 E1.07143 F1200
G0 X135.200 Y99.459 F7200
G1 X135.200 Y100.541 E1.10741 F1200
G0 X134.800 Y100.541 F7200
G1 X134.800 Y99.459 E1.14339 F1200
G0 X134.400 Y99.459 F7200
G1 X134.400 Y100.541 E1.17937 F1200
G0 X134.000 Y100.541 F7200
G1 X134.000 Y99.459 E1.21535 F1200
G0 X134.116 Y99.099 F7200
;segType:Loop
G1 X136.584 Y99.099 E1.29741 F1200
G1 X136.584 Y100.901 E1.35735
G1 X133.416 Y100.901 E1.46269
G1 X133.416 Y99.099 E1.52262
G1 X133.916 Y99.099 E1.53925
G0 X133.416 Y99.393 F7200
G0 X133.283 Y99.472
;segType:Perimeter
G1 X133.076 Y98.699 E1.56586 F600
G1 X136.984 Y98.699 E1.69581
G1 X136.984 Y101.301 E1.78236
G1 X133.016 Y101.301 E1.91430
G1 X133.016 Y98.759 E1.99885
G0 X133.076 Y98.699 F7200
G0 X134.676 Y98.699
G0 F3000 E0.99885
G0 X133.862 Y99.099 F7200
G0 X133.416 Y99.318
G0 X133.416 Y100.901
G0 X126.584 Y102.599
G0 X126.000 Y102.959
G0 F3000 E1.99885
;segType:HShell
G1 X126.000 Y104.041 E2.03484 F1200
G0 X125.600 Y104.041 F7200
G1 X125.600 Y102.959 E2.07083 F1200
G0 X125.200 Y102.959 F7200
G1 X125.200 Y104.041 E2.10682 F1200
G0 X124.800 Y104.041 F7200
G1 X124.800 Y102.959 E2.14281 F1200
G0 X124.400 Y102.959 F7200
G1 X124.400 Y104.041 E2.17880 F1200
G0 X124.000 Y104.041 F7200
G1 X124.000 Y102.959 E2.21479 F1200
G0 X124.117 Y102.599 F7200
;segType:Loop
G1 X126.584 Y102.599 E2.29685 F1200
G1 X126.584 Y104.401 E2.35679
G1 X123.417 Y104.401 E2.46213
G1 X123.417 Y102.599 E2.52208
G1 X123.917 Y102.599 E2.53871
G0 X123.917 Y102.599 F7200
G0 X123.417 Y102.730
G0 X123.232 Y102.778
;segType:Perimeter
G1 X123.077 Y102.199 E2.55866 F600
G1 X126.984 Y102.199 E2.68861
G1 X126.984 Y104.801 E2.77517
G1 X123.017 Y104.801 E2.90711
G1 X123.017 Y102.259 E2.99167
G0 X123.077 Y102.199 F7200
G0 X124.677 Y102.199
; ------------------------------------
; Layer #4
; ------------------------------------
G92 E0 ;reset extr
G0 F3000 E-1.00000
G0 F600 Z2.000
G0 X126.728 Y102.500 F7200
G0 X126.728 Y97.500
G0 X125.792 Y96.300
G0 F3000 E0.00000
;segType:HShell
G1 X126.368 Y96.300 E0.01916 F1200
G0 X126.368 Y95.900 F7200
G1 X123.633 Y95.900 E0.11012 F1200
G0 X123.633 Y96.700 F7200
G0 X123.921 Y96.900
G1 X123.921 Y96.300 E0.16001 F1200
G0 X123.633 Y97.100 F7200
G1 X126.368 Y97.100 E0.25098 F1200
G0 X126.368 Y96.700 F7200
G1 X125.792 Y96.700 E0.27014 F1200
G0 X125.362 Y96.256 F7200
;segType:Infill
G1 X125.644 Y96.744 E0.28888 F1500
G0 X124.484 Y96.744 F7200
G1 X124.766 Y96.256 E0.30761 F1500
G0 X123.088 Y95.679 F7200
;segType:Perimeter
G1 X122.932 Y95.100 E0.32757 F600
G1 X127.128 Y95.100 E0.46710
G1 X127.128 Y97.900 E0.56024
G1 X122.872 Y97.900 E0.70177
G1 X122.872 Y95.160 E0.79291
G0 X122.932 Y95.100 F7200
G0 X124.532 Y95.100
G0 X123.972 Y95.500
;segType:Loop
G1 X126.728 Y95.500 E0.88455 F1200
G1 X126.728 Y97.500 E0.95108
G1 X123.272 Y97.500 E1.06600
G1 X123.272 Y95.500 E1.13253
G1 X123.772 Y95.500 E1.14916
G0 F3000 E0.14916
G0 X126.728 Y96.939 F7200
G0 X126.728 Y97.500
G0 X133.272 Y99.000
G0 X133.632 Y100.300
G0 F3000 E1.14916
;segType:HShell
G1 X136.367 Y100.300 E1.24012 F1200
G0 X136.367 Y99.900 F7200
G1 X135.791 Y99.900 E1.25928 F1200
G0 X136.367 Y99.500 F7200
G1 X133.632 Y99.500 E1.35025 F1200
G0 X134.208 Y99.900 F7200
G1 X133.632 Y99.900 E1.36941 F1200
G0 X134.311 Y99.756 F7200
;segType:Infill
G1 X134.593 Y100.244 E1.38815 F1500
G0 X134.208 Y99.901 F7200
G1 X134.292 Y99.756 E1.39373 F1500
G0 X133.972 Y99.000 F7200
;segType:Loop
G1 X136.728 Y99.000 E1.48537 F1200
G1 X136.728 Y101.000 E1.55189
G1 X133.272 Y101.000 E1.66682
G1 X133.272 Y99.000 E1.73333
G1 X133.772 Y99.000 E1.74996
G0 X133.272 Y99.294 F7200
G0 X133.139 Y99.373
;segType:Perimeter
G1 X132.932 Y98.600 E1.77657 F600
G1 X137.128 Y98.600 E1.91611
G1 X137.128 Y101.400 E2.00923
G1 X132.872 Y101.400 E2.15076
G1 X132.872 Y98.660 E2.24190
G0 X132.932 Y98.600 F7200
G0 X134.532 Y98.600
G0 F3000 E1.24190
G0 X133.807 Y99.000 F7200
G0 X133.272 Y99.294
G0 X133.272 Y101.000
G0 X126.728 Y102.500
G0 X126.368 Y103.100
G0 F3000 E2.24190
;segType:HShell
G1 X123.633 Y103.100 E2.33286 F1200
G0 X123.633 Y103.500 F7200
G1 X124.209 Y103.500 E2.35202 F1200
G0 X123.633 Y103.900 F7200
G1 X126.368 Y103.900 E2.44299 F1200
G0 X126.368 Y103.500 F7200
G1 X125.792 Y103.500 E2.46215 F1200
G0 X125.343 Y103.256 F7200
;segType:Infill
G1 X125.062 Y103.744 E2.48088 F1500
G0 X124.785 Y103.256 F7200
G1 X125.066 Y103.744 E2.49962 F1500
G0 X123.972 Y102.500 F7200
;segType:Loop
G1 X126.728 Y102.500 E2.59126 F1200
G1 X126.728 Y104.500 E2.65778
G1 X123.272 Y104.500 E2.77271
G1 X123.272 Y102.500 E2.83923
G1 X123.772 Y102.500 E2.85586
G0 X123.772 Y102.500 F7200
G0 X123.272 Y102.631
G0 X123.088 Y102.680
;segType:Perimeter
G1 X122.932 Y102.100 E2.87582 F600
G1 X127.128 Y102.100 E3.01536
G1 X127.128 Y104.900 E3.10849
G1 X122.872 Y104.900 E3.25002
G1 X122.872 Y102.160 E3.34116
G0 X122.932 Y102.100 F7200
G0 X124.532 Y102.100
; ------------------------------------
; Layer #5
; ------------------------------------
G92 E0 ;reset extr
G0 F3000 E-1.00000
G0 F600 Z2.200
G0 X123.200 Y102.450 F7200
G0 X123.200 Y97.550
G0 X123.495 Y97.550
G0 X123.622 Y95.450
G0 X123.600 Y95.810
G0 F3000 E0.00000
;segType:HShell
G1 X123.600 Y97.189 E0.04586 F1200
G0 X124.000 Y97.189 F7200
G1 X124.000 Y95.810 E0.09173 F1200
G0 X124.200 Y95.984 F7200
G1 X124.800 Y95.984 E0.13495 F1200
G1 X125.200 Y95.984 E0.16377
G1 X125.600 Y95.984 E0.19259
G0 X126.000 Y95.810 F7200
G1 X126.000 Y97.189 E0.23845 F1200
G0 X125.200 Y96.843 F7200
G0 X125.000 Y97.016
G1 X125.600 Y97.016 E0.28165 F1200
G0 X125.782 Y96.843 F7200
;segType:Infill
G1 X125.386 Y96.157 E0.30800 F1500
G0 X124.742 Y96.157 F7200
G1 X124.346 Y96.843 E0.33434 F1500
G0 X123.016 Y95.630 F7200
;segType:Perimeter
G1 X122.860 Y95.050 E0.35430 F600
G1 X127.200 Y95.050 E0.49862
G1 X127.200 Y97.950 E0.59505
G1 X122.800 Y97.950 E0.74137
G1 X122.800 Y95.110 E0.83580
G0 X122.860 Y95.050 F7200
G0 X124.460 Y95.050
G0 X123.900 Y95.450
;segType:Loop
G1 X126.800 Y95.450 E0.93224 F1200
G1 X126.800 Y97.550 E1.00205
G1 X123.200 Y97.550 E1.12177
G1 X123.200 Y95.450 E1.19159
G1 X123.700 Y95.450 E1.20822
G0 F3000 E0.20822
G0 X124.400 Y96.843 F7200
G0 F3000 E1.20822
;segType:HShell
G0 X124.200 Y97.016 F7200
G1 X124.800 Y97.016 E1.25141 F1200
G0 X126.400 Y97.189 F7200
G1 X126.400 Y95.810 E1.29728 F1200
G0 F3000 E0.29728
G0 X126.523 Y95.450 F7200
G0 X125.804 Y97.550
G0 X123.200 Y97.550
G0 X123.200 Y102.450
G0 X124.000 Y102.811
G0 F3000 E1.29728
G1 X124.000 Y104.190 E1.34314 F1200
G0 X124.400 Y103.843 F7200
G0 X124.200 Y104.016
G1 X124.800 Y104.016 E1.38637 F1200
G1 X125.200 Y104.016 E1.41519
G1 X125.600 Y104.016 E1.44400
G0 X126.400 Y102.811 F7200
G1 X126.400 Y104.190 E1.48987 F1200
G0 X126.000 Y104.190 F7200
G1 X126.000 Y102.811 E1.53573 F1200
G0 X125.800 Y102.984 F7200
G1 X125.200 Y102.984 E1.57892 F1200
G1 X124.800 Y102.984 E1.60772
G0 X125.320 Y103.157 F7200
;segType:Infill
G1 X124.924 Y103.843 E1.63407 F1500
G0 X125.204 Y103.843 F7200
G1 X124.808 Y103.157 E1.66041 F1500
G0 X123.016 Y102.630 F7200
;segType:Perimeter
G1 X122.860 Y102.050 E1.68037 F600
G1 X127.200 Y102.050 E1.82470
G1 X127.200 Y104.950 E1.92112
G1 X122.800 Y104.950 E2.06745
G1 X122.800 Y102.110 E2.16188
G0 X122.860 Y102.050 F7200
G0 X124.460 Y102.050
G0 X123.900 Y102.450
;segType:Loop
G1 X126.800 Y102.450 E2.25831 F1200
G1 X126.800 Y104.550 E2.32813
G1 X123.200 Y104.550 E2.44784
G1 X123.200 Y102.450 E2.51766
G1 X123.700 Y102.450 E2.53429
G0 X123.600 Y102.811 F7200
;segType:HShell
G1 X123.600 Y104.190 E2.58015 F1200
G0 X124.400 Y103.157 F7200
G1 X124.400 Y102.811 E2.59167 F1200
G0 F3000 E1.59167
G0 X126.800 Y102.450 F7200
G0 X133.201 Y101.050
G0 X133.600 Y99.310
G0 F3000 E2.59167
G1 X133.600 Y100.690 E2.63754 F1200
G0 X134.000 Y100.690 F7200
G1 X134.000 Y99.310 E2.68341 F1200
G0 X134.200 Y99.484 F7200
G1 X134.800 Y99.484 E2.72664 F1200
G1 X135.200 Y99.484 E2.75546
G1 X135.600 Y99.484 E2.78428
G0 X136.000 Y99.310 F7200
G1 X136.000 Y100.690 E2.83015 F1200
G0 X135.600 Y100.343 F7200
G0 X135.800 Y100.516
G1 X135.200 Y100.516 E2.87338 F1200
G1 X134.800 Y100.516 E2.90220
G1 X134.400 Y100.516 E2.93101
G0 X134.731 Y100.343 F7200
;segType:Infill
G1 X134.335 Y99.657 E2.95736 F1500
G0 X134.065 Y100.010 F7200
G1 X134.269 Y99.657 E2.97093 F1500
G0 X133.068 Y99.323 F7200
;segType:Perimeter
G1 X132.861 Y98.550 E2.99754 F600
G1 X137.200 Y98.550 E3.14186
G1 X137.200 Y101.450 E3.23829
G1 X132.801 Y101.450 E3.38461
G1 X132.801 Y98.610 E3.47905
G0 X132.861 Y98.550 F7200
G0 X134.461 Y98.550
G0 X133.901 Y98.950
;segType:Loop
G1 X136.800 Y98.950 E3.57547 F1200
G1 X136.800 Y101.050 E3.64530
G1 X133.201 Y101.050 E3.76500
G1 X133.201 Y98.950 E3.83483
G1 X133.701 Y98.950 E3.85146
G0 F3000 E2.85146
G0 X133.701 Y98.950 F7200
G0 X136.800 Y100.947
G0 X136.400 Y100.690
G0 F3000 E3.85146
;segType:HShell
G1 X136.400 Y99.310 E3.89733 F1200
; ------------------------------------
; Layer #6
; ------------------------------------
G92 E0 ;reset extr
G0 F3000 E-1.00000
G0 F600 Z2.400
G0 X136.800 Y99.447 F7200
G0 X135.348 Y98.950
G0 X133.201 Y98.950
G0 X126.800 Y97.550
G0 X126.440 Y95.900
G0 F3000 E0.00000
;segType:HShell
G1 X123.561 Y95.900 E0.09576 F1200
G0 X123.740 Y96.100 F7200
G1 X123.740 Y96.700 E0.14065 F1200
G0 X123.561 Y97.100 F7200
G1 X126.440 Y97.100 E0.23641 F1200
G0 X126.079 Y96.700 F7200
G1 X126.440 Y96.700 E0.24839 F1200
G0 X125.920 Y96.942 F7200
;segType:Infill
G1 X125.410 Y96.058 E0.28233 F1500
G0 X124.208 Y96.942 F7200
G1 X124.719 Y96.058 E0.31628 F1500
G0 X123.016 Y95.630 F7200
;segType:Perimeter
G1 X122.860 Y95.050 E0.33623 F600
G1 X127.200 Y95.050 E0.48056
G1 X127.200 Y97.950 E0.57699
G1 X122.800 Y97.950 E0.72331
G1 X122.800 Y95.110 E0.81774
G0 X122.860 Y95.050 F7200
G0 X124.460 Y95.050
G0 X123.900 Y95.450
;segType:Loop
G1 X126.800 Y95.450 E0.91417 F1200
G1 X126.800 Y97.550 E0.98399
G1 X123.200 Y97.550 E1.10371
G1 X123.200 Y95.450 E1.17353
G1 X123.700 Y95.450 E1.19016
G0 F3000 E0.19016
G0 X123.700 Y95.450 F7200
G0 X126.800 Y96.412
G0 X126.440 Y96.300
G0 F3000 E1.19016
;segType:HShell
G1 X126.079 Y96.300 E1.20213 F1200
G0 F3000 E0.20213
G0 X126.800 Y97.550 F7200
G0 X133.201 Y98.950
G0 X133.201 Y99.447
G0 X136.800 Y100.513
G0 X136.080 Y100.300
G0 F3000 E1.20213
G1 X136.439 Y100.300 E1.21411 F1200
G0 F3000 E0.21411
G0 X136.800 Y100.300 F7200
G0 X133.201 Y100.300
G0 X133.561 Y100.300
G0 F3000 E1.21411
G0 X133.741 Y100.500 F7200
G1 X133.741 Y99.900 E1.25900 F1200
G0 X133.561 Y99.500 F7200
G1 X136.439 Y99.500 E1.35475 F1200
G0 X136.080 Y99.900 F7200
G1 X136.439 Y99.900 E1.36672 F1200
G0 X136.044 Y100.442 F7200
;segType:Infill
G1 X136.080 Y100.380 E1.36908 F1500
G0 X134.869 Y100.442 F7200
G1 X134.358 Y99.558 E1.40303 F1500
G0 X134.245 Y99.558 F7200
G1 X133.921 Y100.120 E1.42460 F1500
G0 X133.901 Y98.950 F7200
;segType:Loop
G1 X136.800 Y98.950 E1.52103 F1200
G1 X136.800 Y101.050 E1.59085
G1 X133.201 Y101.050 E1.71056
G1 X133.201 Y98.950 E1.78039
G1 X133.701 Y98.950 E1.79702
G0 X133.201 Y99.245 F7200
G0 X133.068 Y99.323
;segType:Perimeter
G1 X132.861 Y98.550 E1.82362 F600
G1 X137.200 Y98.550 E1.96794
G1 X137.200 Y101.450 E2.06438
G1 X132.801 Y101.450 E2.21069
G1 X132.801 Y98.610 E2.30513
G0 X132.861 Y98.550 F7200
G0 X134.461 Y98.550
G0 F3000 E1.30513
G0 X133.755 Y98.950 F7200
G0 X133.201 Y99.265
G0 X133.201 Y101.050
G0 X126.800 Y102.450
G0 X126.440 Y103.100
G0 F3000 E2.30513
;segType:HShell
G0 X126.260 Y102.900 F7200
G1 X126.260 Y103.500 E2.35005 F1200
G1 X126.260 Y103.900 E2.38000
G0 F3000 E1.38000
G0 X126.800 Y103.900 F7200
G0 X123.200 Y103.900
G0 X123.561 Y103.900
G0 F3000 E2.38000
G0 X123.740 Y104.100 F7200
G1 X123.740 Y103.500 E2.42489 F1200
G1 X123.740 Y103.100 E2.45482
G0 X124.832 Y103.058 F7200
;segType:Infill
G1 X125.342 Y103.942 E2.48877 F1500
G0 X124.786 Y103.942 F7200
G1 X125.296 Y103.058 E2.52271 F1500
G0 X126.079 Y103.140 F7200
G1 X123.920 Y103.140 E2.59452 F1500
G0 X123.900 Y102.450 F7200
;segType:Loop
G1 X126.800 Y102.450 E2.69095 F1200
G1 X126.800 Y104.550 E2.76077
G1 X123.200 Y104.550 E2.88048
G1 X123.200 Y102.450 E2.95030
G1 X123.700 Y102.450 E2.96693
G0 X123.700 Y102.450 F7200
G0 X123.200 Y102.582
G0 X123.016 Y102.630
;segType:Perimeter
G1 X122.860 Y102.050 E2.98689 F600
G1 X127.200 Y102.050 E3.13122
G1 X127.200 Y104.950 E3.22764
G1 X122.800 Y104.950 E3.37396
G1 X122.800 Y102.110 E3.46840
G0 X122.860 Y102.050 F7200
G0 X124.460 Y102.050
; ------------------------------------
; Layer #7
; ------------------------------------
G92 E0 ;reset extr
G0 F3000 E-1.00000
G0 F600 Z2.600
G0 X126.800 Y102.450 F7200
G0 X126.800 Y97.550
G0 X126.400 Y97.189
G0 F3000 E0.00000
;segType:HShell
G1 X126.400 Y95.810 E0.04586 F1200
G0 X126.200 Y95.885 F7200
G1 X125.600 Y95.885 E0.06582 F1200
G1 X125.200 Y95.885 E0.07912
G1 X124.800 Y95.885 E0.09243
G1 X124.400 Y95.885 E0.10573
G1 X124.000 Y95.885 E0.11904
G0 X123.600 Y95.810 F7200
G1 X123.600 Y97.189 E0.16490 F1200
G0 X124.000 Y97.189 F7200
G0 X123.800 Y97.115
G1 X124.400 Y97.115 E0.18485 F1200
G1 X124.800 Y97.115 E0.19816
G1 X125.200 Y97.115 E0.21146
G1 X125.600 Y97.115 E0.22477
G1 X126.000 Y97.115 E0.23807
G0 X126.058 Y97.041 F7200
;segType:Infill
G1 X125.433 Y95.959 E0.27963 F1500
G0 X124.070 Y97.041 F7200
G1 X124.695 Y95.959 E0.32118 F1500
G0 X123.016 Y95.630 F7200
;segType:Perimeter
G1 X122.860 Y95.050 E0.34114 F600
G1 X127.200 Y95.050 E0.48547
G1 X127.200 Y97.950 E0.58189
G1 X122.800 Y97.950 E0.72822
G1 X122.800 Y95.110 E0.82265
G0 X122.860 Y95.050 F7200
G0 X124.460 Y95.050
G0 X123.900 Y95.450
;segType:Loop
G1 X126.800 Y95.450 E0.91908 F1200
G1 X126.800 Y97.550 E0.98890
G1 X123.200 Y97.550 E1.10861
G1 X123.200 Y95.450 E1.17843
G1 X123.700 Y95.450 E1.19506
G0 F3000 E0.19506
G0 X123.700 Y95.450 F7200
G0 X124.470 Y97.550
G0 X126.800 Y97.550
G0 X126.800 Y102.450
G0 X126.400 Y102.811
G0 F3000 E1.19506
;segType:HShell
G1 X126.400 Y104.190 E1.24092 F1200
G0 X126.000 Y104.190 F7200
G1 X126.000 Y104.041 E1.24586 F1200
G0 X125.600 Y104.041 F7200
G1 X125.600 Y104.190 E1.25080 F1200
G0 X125.200 Y104.190 F7200
G1 X125.200 Y104.041 E1.25573 F1200
G0 X124.800 Y104.041 F7200
G1 X124.800 Y104.190 E1.26067 F1200
G0 X124.400 Y104.190 F7200
G1 X124.400 Y104.041 E1.26561 F1200
G0 X124.000 Y104.041 F7200
G1 X124.000 Y104.190 E1.27054 F1200
G0 X123.600 Y104.190 F7200
G1 X123.600 Y102.811 E1.31640 F1200
G0 X123.800 Y102.885 F7200
G1 X124.400 Y102.885 E1.33636 F1200
G1 X124.800 Y102.885 E1.34966
G1 X125.200 Y102.885 E1.36297
G0 X124.856 Y102.959 F7200
;segType:Infill
G1 X125.481 Y104.041 E1.40453 F1500
G0 X124.648 Y104.041 F7200
G1 X125.272 Y102.959 E1.44608 F1500
G0 X126.223 Y103.280 F7200
G1 X123.777 Y103.280 E1.52747 F1500
G0 X123.016 Y102.630 F7200
;segType:Perimeter
G1 X122.860 Y102.050 E1.54742 F600
G1 X127.200 Y102.050 E1.69175
G1 X127.200 Y104.950 E1.78818
G1 X122.800 Y104.950 E1.93450
G1 X122.800 Y102.110 E2.02893
G0 X122.860 Y102.050 F7200
G0 X124.460 Y102.050
G0 X123.900 Y102.450
;segType:Loop
G1 X126.800 Y102.450 E2.12536 F1200
G1 X126.800 Y104.550 E2.19518
G1 X123.200 Y104.550 E2.31489
G1 X123.200 Y102.450 E2.38471
G1 X123.700 Y102.450 E2.40134
G0 X126.000 Y102.811 F7200
;segType:HShell
G0 X126.200 Y102.885
G1 X125.600 Y102.885 E2.42130 F1200
G0 F3000 E1.42130
G0 X126.800 Y102.450 F7200
G0 X133.201 Y101.050
G0 X135.600 Y100.541
G0 F3000 E2.42130
G1 X135.600 Y100.690 E2.42624 F1200
G0 X135.200 Y100.690 F7200
G1 X135.200 Y100.541 E2.43119 F1200
G0 X134.800 Y100.541 F7200
G1 X134.800 Y100.690 E2.43613 F1200
G0 X134.400 Y100.690 F7200
G1 X134.400 Y100.541 E2.44108 F1200
G0 X134.000 Y100.541 F7200
G1 X134.000 Y100.690 E2.44602 F1200
G0 X133.600 Y100.690 F7200
G1 X133.600 Y99.310 E2.49189 F1200
G0 X133.800 Y99.385 F7200
G1 X134.400 Y99.385 E2.51185 F1200
G1 X134.800 Y99.385 E2.52515
G1 X135.200 Y99.385 E2.53846
G1 X135.600 Y99.385 E2.55176
G1 X136.000 Y99.385 E2.56507
G0 X136.400 Y99.310 F7200
G1 X136.400 Y100.690 E2.61094 F1200
G0 X136.000 Y100.541 F7200
G1 X136.000 Y100.690 E2.61588 F1200
G0 X136.223 Y99.991 F7200
;segType:Infill
G1 X135.906 Y100.541 E2.63699 F1500
G0 X135.007 Y100.541 F7200
G1 X134.382 Y99.459 E2.67854 F1500
G0 X134.221 Y99.459 F7200
G1 X133.777 Y100.229 E2.70812 F1500
G0 X133.068 Y99.323 F7200
;segType:Perimeter
G1 X132.861 Y98.550 E2.73473 F600
G1 X137.200 Y98.550 E2.87905
G1 X137.200 Y101.450 E2.97548
G1 X132.801 Y101.450 E3.12180
G1 X132.801 Y98.610 E3.21623
G0 X132.861 Y98.550 F7200
G0 X134.461 Y98.550
G0 X133.901 Y98.950
;segType:Loop
G1 X136.800 Y98.950 E3.31266 F1200
G1 X136.800 Y101.050 E3.38248
G1 X133.201 Y101.050 E3.50219
G1 X133.201 Y98.950 E3.57202
G1 X133.701 Y98.950 E3.58865
; ------------------------------------
; Layer #8
; ------------------------------------
G92 E0 ;reset extr
G0 F3000 E-1.00000
G0 F600 Z2.800
G0 X133.201 Y98.950 F7200
G0 X126.800 Y97.550
G0 X125.903 Y97.550
G0 X123.200 Y97.031
G0 X123.561 Y97.100
G0 F3000 E0.00000
;segType:HShell
G1 X123.633 Y97.100 E0.00240 F1200
G0 X123.633 Y96.700 F7200
G1 X123.561 Y96.700 E0.00479 F1200
G0 X123.561 Y96.300 F7200
G1 X123.633 Y96.300 E0.00719 F1200
G0 X123.633 Y95.900 F7200
G1 X123.561 Y95.900 E0.00958 F1200
G0 F3000 E-0.99042
G0 X123.200 Y95.900 F7200
G0 X126.800 Y95.900
G0 X126.368 Y95.900
G0 F3000 E0.00958
G0 X126.404 Y95.700 F7200
G1 X126.404 Y96.300 E0.02954 F1200
G1 X126.404 Y96.700 E0.04284
G1 X126.404 Y97.100 E0.05615
G0 X126.368 Y96.922 F7200
;segType:Infill
G1 X126.242 Y97.140 E0.06452 F1500
G0 X126.196 Y97.140 F7200
G1 X125.457 Y95.860 E0.11367 F1500
G0 X124.671 Y95.860 F7200
G1 X123.932 Y97.140 E0.16283 F1500
G0 X123.633 Y96.700 F7200
G1 X123.886 Y97.140 E0.17972 F1500
G0 X123.883 Y97.550 F7200
G0 X123.900 Y95.450
;segType:Loop
G1 X126.800 Y95.450 E0.27615 F1200
G1 X126.800 Y97.550 E0.34597
G1 X123.200 Y97.550 E0.46568
G1 X123.200 Y95.450 E0.53550
G1 X123.700 Y95.450 E0.55213
G0 X123.700 Y95.450 F7200
G0 X123.200 Y95.581
G0 X123.016 Y95.630
;segType:Perimeter
G1 X122.860 Y95.050 E0.57209 F600
G1 X127.200 Y95.050 E0.71642
G1 X127.200 Y97.950 E0.81284
G1 X122.800 Y97.950 E0.95916
G1 X122.800 Y95.110 E1.05360
G0 X122.860 Y95.050 F7200
G0 X124.460 Y95.050
G0 F3000 E0.05360
G0 X125.368 Y95.450 F7200
G0 X126.800 Y96.082
G0 X126.800 Y97.550
G0 X133.201 Y98.950
G0 X133.201 Y99.390
G0 X136.800 Y100.424
G0 X136.367 Y100.300
G0 F3000 E1.05360
;segType:HShell
G1 X136.439 Y100.300 E1.05599 F1200
G0 X136.439 Y99.900 F7200
G1 X136.367 Y99.900 E1.05839 F1200
G0 X136.367 Y99.500 F7200
G1 X136.439 Y99.500 E1.06078 F1200
G0 F3000 E0.06078
G0 X136.800 Y99.500 F7200
G0 X133.201 Y99.500
G0 X133.632 Y99.500
G0 F3000 E1.06078
G0 X133.597 Y99.300 F7200
G1 X133.597 Y99.900 E1.08074 F1200
G1 X133.597 Y100.300 E1.09404
G0 X133.632 Y100.339 F7200
;segType:Infill
G1 X134.198 Y99.360 E1.13163 F1500
G0 X134.406 Y99.360 F7200
G1 X135.145 Y100.640 E1.18078 F1500
G0 X135.768 Y100.640 F7200
G1 X136.367 Y99.602 E1.22065 F1500
G0 X136.367 Y99.420 F7200
G1 X133.632 Y99.420 E1.31162 F1500
G0 X133.901 Y98.950 F7200
;segType:Loop
G1 X136.800 Y98.950 E1.40804 F1200
G1 X136.800 Y101.050 E1.47787
G1 X133.201 Y101.050 E1.59757
G1 X133.201 Y98.950 E1.66740
G1 X133.701 Y98.950 E1.68403
G0 X133.201 Y99.245 F7200
G0 X133.068 Y99.323
;segType:Perimeter
G1 X132.861 Y98.550 E1.71064 F600
G1 X137.200 Y98.550 E1.85495
G1 X137.200 Y101.450 E1.95139
G1 X132.801 Y101.450 E2.09770
G1 X132.801 Y98.610 E2.19214
G0 X132.861 Y98.550 F7200
G0 X134.461 Y98.550
G0 F3000 E1.19214
G0 X133.855 Y98.950 F7200
G0 X133.201 Y99.383
G0 X133.201 Y101.050
G0 X126.800 Y102.450
G0 X126.368 Y103.900
G0 F3000 E2.19214
;segType:HShell
G1 X126.440 Y103.900 E2.19454 F1200
G0 X126.440 Y103.500 F7200
G1 X126.368 Y103.500 E2.19693 F1200
G0 X126.368 Y103.100 F7200
G1 X126.440 Y103.100 E2.19933 F1200
G0 F3000 E1.19933
G0 X126.800 Y103.049 F7200
G0 X123.200 Y103.562
G0 X123.633 Y103.500
G0 F3000 E2.19933
G0 X123.597 Y103.700 F7200
G1 X123.597 Y103.100 E2.21929 F1200
G0 X123.633 Y103.900 F7200
G1 X123.561 Y103.900 E2.22168 F1200
G0 X124.510 Y104.140 F7200
;segType:Infill
G1 X125.249 Y102.860 E2.27084 F1500
G0 X124.880 Y102.860 F7200
G1 X125.619 Y104.140 E2.32000 F1500
G0 X126.368 Y103.420 F7200
G1 X123.633 Y103.420 E2.41096 F1500
G0 X123.900 Y102.450 F7200
;segType:Loop
G1 X126.800 Y102.450 E2.50740 F1200
G1 X126.800 Y104.550 E2.57721
G1 X123.200 Y104.550 E2.69693
G1 X123.200 Y102.450 E2.76675
G1 X123.700 Y102.450 E2.78338
G0 X123.700 Y102.450 F7200
G0 X123.200 Y102.582
G0 X123.016 Y102.630
;segType:Perimeter
G1 X122.860 Y102.050 E2.80333 F600
G1 X127.200 Y102.050 E2.94766
G1 X127.200 Y104.950 E3.04409
G1 X122.800 Y104.950 E3.19041
G1 X122.800 Y102.110 E3.28484
G0 X122.860 Y102.050 F7200
G0 X124.460 Y102.050
; ------------------------------------
; Layer #9
; ------------------------------------
G92 E0 ;reset extr
G0 F3000 E-1.00000
G0 F600 Z3.000
G0 X126.800 Y102.450 F7200
G0 X126.800 Y97.550
G0 X126.132 Y97.189
G0 F3000 E0.00000
;segType:Infill
G1 X126.440 Y96.657 E0.02044 F1500
G0 X126.305 Y97.189 F7200
G1 X125.509 Y95.810 E0.07340 F1500
G0 X124.619 Y95.810 F7200
G1 X123.823 Y97.189 E0.12636 F1500
G0 X123.996 Y97.189 F7200
G1 X123.561 Y96.435 E0.15531 F1500
G0 X123.900 Y95.450 F7200
;segType:Loop
G1 X126.800 Y95.450 E0.25174 F1200
G1 X126.800 Y97.550 E0.32156
G1 X123.200 Y97.550 E0.44128
G1 X123.200 Y95.450 E0.51110
G1 X123.700 Y95.450 E0.52773
G0 X123.700 Y95.450 F7200
G0 X123.200 Y95.581
G0 X123.016 Y95.630
;segType:Perimeter
G1 X122.860 Y95.050 E0.54768 F600
G1 X127.200 Y95.050 E0.69201
G1 X127.200 Y97.950 E0.78844
G1 X122.800 Y97.950 E0.93476
G1 X122.800 Y95.110 E1.02919
G0 X122.860 Y95.050 F7200
G0 X124.460 Y95.050
G0 F3000 E0.02919
G0 X125.151 Y95.450 F7200
G0 X126.800 Y96.406
G0 X126.800 Y97.550
G0 X133.201 Y98.950
G0 X133.561 Y100.323
G0 F3000 E1.02919
;segType:Infill
G1 X134.145 Y99.310 E1.06808 F1500
G0 X134.458 Y99.310 F7200
G1 X135.254 Y100.690 E1.12105 F1500
G0 X135.659 Y100.690 F7200
G1 X136.439 Y99.337 E1.17300 F1500
G0 X136.439 Y99.560 F7200
G1 X133.561 Y99.560 E1.26875 F1500
G0 F3000 E0.26875
G0 X133.901 Y98.950 F7200
G0 F3000 E1.26875
;segType:Loop
G1 X136.800 Y98.950 E1.36517 F1200
G1 X136.800 Y101.050 E1.43500
G1 X133.201 Y101.050 E1.55471
G1 X133.201 Y98.950 E1.62453
G1 X133.701 Y98.950 E1.64116
G0 X133.201 Y99.245 F7200
G0 X133.068 Y99.323
;segType:Perimeter
G1 X132.861 Y98.550 E1.66777 F600
G1 X137.200 Y98.550 E1.81209
G1 X137.200 Y101.450 E1.90852
G1 X132.801 Y101.450 E2.05484
G1 X132.801 Y98.610 E2.14928
G0 X132.861 Y98.550 F7200
G0 X134.461 Y98.550
G0 F3000 E1.14928
G0 X133.747 Y98.950 F7200
G0 X133.201 Y99.257
G0 X133.201 Y101.050
G0 X126.800 Y102.450
G0 X124.400 Y104.190
G0 F3000 E2.14928
;segType:Infill
G1 X125.196 Y102.811 E2.20223 F1500
G0 X124.932 Y102.811 F7200
G1 X125.728 Y104.190 E2.25519 F1500
G0 X126.440 Y103.560 F7200
G1 X123.561 Y103.560 E2.35095 F1500
G0 X123.900 Y102.450 F7200
;segType:Loop
G1 X126.800 Y102.450 E2.44738 F1200
G1 X126.800 Y104.550 E2.51720
G1 X123.200 Y104.550 E2.63691
G1 X123.200 Y102.450 E2.70673
G1 X123.700 Y102.450 E2.72336
G0 X123.700 Y102.450 F7200
G0 X123.200 Y102.582
G0 X123.016 Y102.630
;segType:Perimeter
G1 X122.860 Y102.050 E2.74332 F600
G1 X127.200 Y102.050 E2.88765
G1 X127.200 Y104.950 E2.98407
G1 X122.800 Y104.950 E3.13039
G1 X122.800 Y102.110 E3.22483
G0 X122.860 Y102.050 F7200
G0 X124.460 Y102.050
; ------------------------------------
; Layer #10
; ------------------------------------
G92 E0 ;reset extr
G0 F3000 E-1.00000
G0 F600 Z3.200
G0 X126.800 Y102.450 F7200
G0 X126.800 Y97.550
G0 X126.440 Y96.517
G0 F3000 E0.00000
;segType:Infill
G1 X126.051 Y97.189 E0.02582 F1500
G0 X126.386 Y97.189 F7200
G1 X125.590 Y95.810 E0.07878 F1500
G0 X124.538 Y95.810 F7200
G1 X123.742 Y97.189 E0.13173 F1500
G0 X124.077 Y97.189 F7200
G1 X123.561 Y96.295 E0.16607 F1500
G0 X123.900 Y95.450 F7200
;segType:Loop
G1 X126.800 Y95.450 E0.26250 F1200
G1 X126.800 Y97.550 E0.33232
G1 X123.200 Y97.550 E0.45203
G1 X123.200 Y95.450 E0.52185
G1 X123.700 Y95.450 E0.53848
G0 X123.700 Y95.450 F7200
G0 X123.200 Y95.581
G0 X123.016 Y95.630
;segType:Perimeter
G1 X122.860 Y95.050 E0.55844 F600
G1 X127.200 Y95.050 E0.70277
G1 X127.200 Y97.950 E0.79919
G1 X122.800 Y97.950 E0.94551
G1 X122.800 Y95.110 E1.03995
G0 X122.860 Y95.050 F7200
G0 X124.460 Y95.050
G0 F3000 E0.03995
G0 X124.454 Y95.450 F7200
G0 X124.422 Y97.550
G0 X124.346 Y102.450
G0 X124.314 Y104.550
G0 X124.319 Y104.190
G0 F3000 E1.03995
;segType:Infill
G1 X125.115 Y102.811 E1.09290 F1500
G0 X125.013 Y102.811 F7200
G1 X125.809 Y104.190 E1.14586 F1500
G0 X126.440 Y103.700 F7200
G1 X123.561 Y103.700 E1.24162 F1500
G0 X123.900 Y102.450 F7200
;segType:Loop
G1 X126.800 Y102.450 E1.33805 F1200
G1 X126.800 Y104.550 E1.40787
G1 X123.200 Y104.550 E1.52758
G1 X123.200 Y102.450 E1.59740
G1 X123.700 Y102.450 E1.61403
G0 X123.700 Y102.450 F7200
G0 X123.200 Y102.582
G0 X123.016 Y102.630
;segType:Perimeter
G1 X122.860 Y102.050 E1.63399 F600
G1 X127.200 Y102.050 E1.77831
G1 X127.200 Y104.950 E1.87474
G1 X122.800 Y104.950 E2.02106
G1 X122.800 Y102.110 E2.11549
G0 X122.860 Y102.050 F7200
G0 X124.460 Y102.050
G0 F3000 E1.11549
G0 X127.200 Y102.050 F7200
G0 X132.801 Y101.450
G0 X133.561 Y100.183
G0 F3000 E2.11549
;segType:Infill
G1 X134.065 Y99.310 E2.14901 F1500
G0 X134.539 Y99.310 F7200
G1 X135.335 Y100.690 E2.20198 F1500
G0 X135.578 Y100.690 F7200
G1 X136.374 Y99.310 E2.25494 F1500
G0 X136.439 Y99.700 F7200
G1 X133.561 Y99.700 E2.35069 F1500
G0 X133.901 Y98.950 F7200
;segType:Loop
G1 X136.800 Y98.950 E2.44712 F1200
G1 X136.800 Y101.050 E2.51694
G1 X133.201 Y101.050 E2.63665
G1 X133.201 Y98.950 E2.70648
G1 X133.701 Y98.950 E2.72311
G0 F3000 E1.72311
G0 X133.068 Y99.323 F7200
G0 F3000 E2.72311
;segType:Perimeter
G1 X132.861 Y98.550 E2.74972 F600
G1 X137.200 Y98.550 E2.89403
G1 X137.200 Y101.450 E2.99047
G1 X132.801 Y101.450 E3.13678
G1 X132.801 Y98.610 E3.23122
G0 X132.861 Y98.550 F7200
G0 X134.461 Y98.550
; ------------------------------------
; Layer #11
; ------------------------------------
G92 E0 ;reset extr
G0 F3000 E-1.00000
G0 F600 Z3.400
G0 X132.801 Y98.550 F7200
G0 X126.800 Y97.550
G0 X126.400 Y95.810
G0 F3000 E0.00000
;segType:HShell
G1 X126.400 Y97.189 E0.04586 F1200
G0 X126.000 Y97.189 F7200
G1 X126.000 Y95.810 E0.09173 F1200
G0 X125.600 Y95.811 F7200
G1 X125.600 Y97.189 E0.13759 F1200
G0 X125.200 Y97.189 F7200
G1 X125.200 Y95.811 E0.18345 F1200
G0 X124.800 Y95.811 F7200
G1 X124.800 Y97.189 E0.22931 F1200
G0 X124.400 Y97.189 F7200
G1 X124.400 Y95.811 E0.27518 F1200
G0 X124.000 Y95.811 F7200
G1 X124.000 Y97.189 E0.32104 F1200
G0 X123.600 Y97.189 F7200
G1 X123.600 Y95.811 E0.36690 F1200
G0 X123.016 Y95.630 F7200
;segType:Perimeter
G1 X122.860 Y95.050 E0.38686 F600
G1 X127.200 Y95.050 E0.53118
G1 X127.200 Y97.950 E0.62761
G1 X122.800 Y97.950 E0.77393
G1 X122.800 Y95.110 E0.86836
G0 X122.860 Y95.050 F7200
G0 X124.460 Y95.050
G0 X123.900 Y95.450
;segType:Loop
G1 X126.800 Y95.450 E0.96480 F1200
G1 X126.800 Y97.550 E1.03461
G1 X123.200 Y97.550 E1.15433
G1 X123.200 Y95.450 E1.22415
G1 X123.700 Y95.450 E1.24078
G0 F3000 E0.24078
G0 X123.700 Y95.450 F7200
G0 X124.470 Y97.550
G0 X126.800 Y97.550
G0 X126.800 Y102.450
G0 X126.400 Y102.811
G0 F3000 E1.24078
;segType:HShell
G1 X126.400 Y104.190 E1.28664 F1200
G0 X126.000 Y104.190 F7200
G1 X126.000 Y102.811 E1.33250 F1200
G0 X125.600 Y102.811 F7200
G1 X125.600 Y104.190 E1.37837 F1200
G0 X125.200 Y104.190 F7200
G1 X125.200 Y102.811 E1.42423 F1200
G0 X124.800 Y102.811 F7200
G1 X124.800 Y104.190 E1.47009 F1200
G0 X124.400 Y104.190 F7200
G1 X124.400 Y102.811 E1.51595 F1200
G0 X124.000 Y102.811 F7200
G1 X124.000 Y104.190 E1.56182 F1200
G0 X123.600 Y104.190 F7200
G1 X123.600 Y102.811 E1.60768 F1200
G0 X123.016 Y102.630 F7200
;segType:Perimeter
G1 X122.860 Y102.050 E1.62764 F600
G1 X127.200 Y102.050 E1.77196
G1 X127.200 Y104.950 E1.86839
G1 X122.800 Y104.950 E2.01471
G1 X122.800 Y102.110 E2.10914
G0 X122.860 Y102.050 F7200
G0 X124.460 Y102.050
G0 X123.900 Y102.450
;segType:Loop
G1 X126.800 Y102.450 E2.20557 F1200
G1 X126.800 Y104.550 E2.27539
G1 X123.200 Y104.550 E2.39511
G1 X123.200 Y102.450 E2.46492
G1 X123.700 Y102.450 E2.48155
G0 F3000 E1.48155
G0 X123.200 Y102.450 F7200
G0 X123.200 Y102.574
G0 X123.700 Y102.450
G0 X126.800 Y102.450
G0 X132.801 Y101.450
G0 X136.400 Y99.310
G0 F3000 E2.48155
;segType:HShell
G1 X136.400 Y100.690 E2.52743 F1200
G0 X136.000 Y100.690 F7200
G1 X136.000 Y99.310 E2.57330 F1200
G0 X135.600 Y99.310 F7200
G1 X135.600 Y100.690 E2.61917 F1200
G0 X135.200 Y100.690 F7200
G1 X135.200 Y99.310 E2.66504 F1200
G0 X134.800 Y99.310 F7200
G1 X134.800 Y100.690 E2.71091 F1200
G0 X134.400 Y100.690 F7200
G1 X134.400 Y99.310 E2.75678 F1200
G0 X134.000 Y99.310 F7200
G1 X134.000 Y100.690 E2.80265 F1200
G0 X133.600 Y100.690 F7200
G1 X133.600 Y99.310 E2.84852 F1200
G0 X133.068 Y99.323 F7200
;segType:Perimeter
G1 X132.861 Y98.550 E2.87513 F600
G1 X137.200 Y98.550 E3.01945
G1 X137.200 Y101.450 E3.11589
G1 X132.801 Y101.450 E3.26220
G1 X132.801 Y98.610 E3.35664
G0 X132.861 Y98.550 F7200
G0 X134.461 Y98.550
G0 X133.901 Y98.950
;segType:Loop
G1 X136.800 Y98.950 E3.45306 F1200
G1 X136.800 Y101.050 E3.52289
G1 X133.201 Y101.050 E3.64259
G1 X133.201 Y98.950 E3.71242
G1 X133.701 Y98.950 E3.72905
; ------------------------------------
; Layer #12
; ------------------------------------
G92 E0 ;reset extr
G0 F3000 E-1.00000
G0 F600 Z3.600
G0 X133.201 Y98.950 F7200
G0 X126.800 Y97.550
G0 X125.903 Y97.550
G0 X123.200 Y97.031
G0 X123.561 Y97.100
G0 F3000 E0.00000
;segType:HShell
G1 X126.440 Y97.100 E0.09576 F1200
G0 X126.440 Y96.700 F7200
G1 X123.561 Y96.700 E0.19152 F1200
G0 X123.561 Y96.300 F7200
G1 X126.440 Y96.300 E0.28727 F1200
G0 X126.440 Y95.900 F7200
G1 X123.561 Y95.900 E0.38303 F1200
G0 X123.016 Y95.630 F7200
;segType:Perimeter
G1 X122.860 Y95.050 E0.40299 F600
G1 X127.200 Y95.050 E0.54731
G1 X127.200 Y97.950 E0.64374
G1 X122.800 Y97.950 E0.79006
G1 X122.800 Y95.110 E0.88449
G0 X122.860 Y95.050 F7200
G0 X124.460 Y95.050
G0 X123.900 Y95.450
;segType:Loop
G1 X126.800 Y95.450 E0.98093 F1200
G1 X126.800 Y97.550 E1.05074
G1 X123.200 Y97.550 E1.17046
G1 X123.200 Y95.450 E1.24028
G1 X123.700 Y95.450 E1.25691
G0 F3000 E0.25691
G0 X126.800 Y96.630 F7200
G0 X126.800 Y97.550
G0 X133.201 Y98.950
G0 X133.201 Y99.376
G0 X136.800 Y100.403
G0 X136.439 Y100.300
G0 F3000 E1.25691
;segType:HShell
G1 X133.561 Y100.300 E1.35266 F1200
G0 X133.561 Y99.900 F7200
G1 X136.439 Y99.900 E1.44841 F1200
G0 X136.439 Y99.500 F7200
G1 X133.561 Y99.500 E1.54416 F1200
G0 F3000 E0.54416
G0 X133.901 Y98.950 F7200
G0 F3000 E1.54416
;segType:Loop
G1 X136.800 Y98.950 E1.64058 F1200
G1 X136.800 Y101.050 E1.71041
G1 X133.201 Y101.050 E1.83011
G1 X133.201 Y98.950 E1.89994
G1 X133.701 Y98.950 E1.91657
G0 X133.201 Y99.245 F7200
G0 X133.068 Y99.323
;segType:Perimeter
G1 X132.861 Y98.550 E1.94318 F600
G1 X137.200 Y98.550 E2.08750
G1 X137.200 Y101.450 E2.18393
G1 X132.801 Y101.450 E2.33024
G1 X132.801 Y98.610 E2.42468
G0 X132.861 Y98.550 F7200
G0 X134.461 Y98.550
G0 F3000 E1.42468
G0 X133.861 Y98.950 F7200
G0 X133.201 Y99.391
G0 X133.201 Y101.050
G0 X126.800 Y102.450
G0 X126.440 Y103.900
G0 F3000 E2.42468
;segType:HShell
G1 X123.561 Y103.900 E2.52044 F1200
G0 X123.561 Y103.500 F7200
G1 X126.440 Y103.500 E2.61620 F1200
G0 X126.440 Y103.100 F7200
G1 X123.561 Y103.100 E2.71196 F1200
G0 F3000 E1.71196
G0 X123.900 Y102.450 F7200
G0 F3000 E2.71196
;segType:Loop
G1 X126.800 Y102.450 E2.80839 F1200
G1 X126.800 Y104.550 E2.87821
G1 X123.200 Y104.550 E2.99792
G1 X123.200 Y102.450 E3.06774
G1 X123.700 Y102.450 E3.08437
G0 X123.700 Y102.450 F7200
G0 X123.200 Y102.582
G0 X123.016 Y102.630
;segType:Perimeter
G1 X122.860 Y102.050 E3.10433 F600
G1 X127.200 Y102.050 E3.24865
G1 X127.200 Y104.950 E3.34508
G1 X122.800 Y104.950 E3.49140
G1 X122.800 Y102.110 E3.58583
G0 X122.860 Y102.050 F7200
G0 X124.460 Y102.050
; ------------------------------------
; Layer #13
; ------------------------------------
G92 E0 ;reset extr
G0 F3000 E-1.00000
G0 F600 Z3.800
G0 X126.800 Y102.450 F7200
G0 X126.800 Y97.550
G0 X126.505 Y97.550
G0 X126.378 Y95.450
G0 X126.400 Y95.811
G0 F3000 E0.00000
;segType:HShell
G1 X126.400 Y97.189 E0.04586 F1200
G0 X126.000 Y97.189 F7200
G1 X126.000 Y95.811 E0.09173 F1200
G0 X125.600 Y95.811 F7200
G1 X125.600 Y97.189 E0.13759 F1200
G0 X125.200 Y97.189 F7200
G1 X125.200 Y95.811 E0.18345 F1200
G0 X124.800 Y95.811 F7200
G1 X124.800 Y97.189 E0.22931 F1200
G0 X124.400 Y97.189 F7200
G1 X124.400 Y95.811 E0.27518 F1200
G0 X124.000 Y95.811 F7200
G1 X124.000 Y97.189 E0.32104 F1200
G0 X123.600 Y97.189 F7200
G1 X123.600 Y95.810 E0.36690 F1200
G0 X123.016 Y95.630 F7200
;segType:Perimeter
G1 X122.860 Y95.050 E0.38686 F600
G1 X127.200 Y95.050 E0.53118
G1 X127.200 Y97.950 E0.62761
G1 X122.800 Y97.950 E0.77393
G1 X122.800 Y95.110 E0.86836
G0 X122.860 Y95.050 F7200
G0 X124.460 Y95.050
G0 X123.900 Y95.450
;segType:Loop
G1 X126.800 Y95.450 E0.96480 F1200
G1 X126.800 Y97.550 E1.03461
G1 X123.200 Y97.550 E1.15433
G1 X123.200 Y95.450 E1.22415
G1 X123.700 Y95.450 E1.24078
G0 F3000 E0.24078
G0 X123.700 Y95.450 F7200
G0 X126.800 Y96.392
G0 X126.800 Y97.550
G0 X133.201 Y98.950
G0 X134.437 Y98.950
G0 X136.800 Y99.384
G0 X136.400 Y99.310
G0 F3000 E1.24078
;segType:HShell
G1 X136.400 Y100.690 E1.28665 F1200
G0 X136.000 Y100.690 F7200
G1 X136.000 Y99.310 E1.33252 F1200
G0 X135.600 Y99.310 F7200
G1 X135.600 Y100.690 E1.37839 F1200
G0 X135.200 Y100.690 F7200
G1 X135.200 Y99.310 E1.42426 F1200
G0 X134.800 Y99.310 F7200
G1 X134.800 Y100.690 E1.47013 F1200
G0 X134.400 Y100.690 F7200
G1 X134.400 Y99.310 E1.51600 F1200
G0 X134.000 Y99.310 F7200
G1 X134.000 Y100.690 E1.56188 F1200
G0 X133.600 Y100.690 F7200
G1 X133.600 Y99.310 E1.60775 F1200
G0 X133.068 Y99.323 F7200
;segType:Perimeter
G1 X132.861 Y98.550 E1.63435 F600
G1 X137.200 Y98.550 E1.77867
G1 X137.200 Y101.450 E1.87511
G1 X132.801 Y101.450 E2.02142
G1 X132.801 Y98.610 E2.11586
G0 X132.861 Y98.550 F7200
G0 X134.461 Y98.550
G0 X133.901 Y98.950
;segType:Loop
G1 X136.800 Y98.950 E2.21228 F1200
G1 X136.800 Y101.050 E2.28211
G1 X133.201 Y101.050 E2.40182
G1 X133.201 Y98.950 E2.47164
G1 X133.701 Y98.950 E2.48827
G0 F3000 E1.48827
G0 X133.201 Y99.215 F7200
G0 X133.201 Y101.050
G0 X126.800 Y102.450
G0 X126.400 Y102.811
G0 F3000 E2.48827
;segType:HShell
G1 X126.400 Y104.190 E2.53414 F1200
G0 X126.000 Y104.190 F7200
G1 X126.000 Y102.811 E2.58000 F1200
G0 X125.600 Y102.811 F7200
G1 X125.600 Y104.190 E2.62586 F1200
G0 X125.200 Y104.190 F7200
G1 X125.200 Y102.811 E2.67173 F1200
G0 X124.800 Y102.811 F7200
G1 X124.800 Y104.190 E2.71759 F1200
G0 X124.400 Y104.190 F7200
G1 X124.400 Y102.811 E2.76345 F1200
G0 X124.000 Y102.811 F7200
G1 X124.000 Y104.190 E2.80931 F1200
G0 X123.600 Y104.190 F7200
G1 X123.600 Y102.811 E2.85518 F1200
G0 X123.016 Y102.630 F7200
;segType:Perimeter
G1 X122.860 Y102.050 E2.87513 F600
G1 X127.200 Y102.050 E3.01946
G1 X127.200 Y104.950 E3.11589
G1 X122.800 Y104.950 E3.26221
G1 X122.800 Y102.110 E3.35664
G0 X122.860 Y102.050 F7200
G0 X124.460 Y102.050
G0 X123.900 Y102.450
;segType:Loop
G1 X126.800 Y102.450 E3.45307 F1200
G1 X126.800 Y104.550 E3.52289
G1 X123.200 Y104.550 E3.64260
G1 X123.200 Y102.450 E3.71242
G1 X123.700 Y102.450 E3.72905
; ------------------------------------
; Layer #14
; ------------------------------------
G92 E0 ;reset extr
G0 F3000 E-1.00000
G0 F600 Z4.000
G0 X123.561 Y97.100 F7200
G0 F3000 E0.00000
;segType:HShell
G1 X126.440 Y97.100 E0.09576 F1200
G0 X126.440 Y96.700 F7200
G1 X123.561 Y96.700 E0.19152 F1200
G0 X123.561 Y96.300 F7200
G1 X126.440 Y96.300 E0.28727 F1200
G0 X126.440 Y95.900 F7200
G1 X123.561 Y95.900 E0.38303 F1200
G0 X123.016 Y95.630 F7200
;segType:Perimeter
G1 X122.860 Y95.050 E0.40299 F600
G1 X127.200 Y95.050 E0.54731
G1 X127.200 Y97.950 E0.64374
G1 X122.800 Y97.950 E0.79006
G1 X122.800 Y95.110 E0.88449
G0 X122.860 Y95.050 F7200
G0 X124.460 Y95.050
G0 X123.900 Y95.450
;segType:Loop
G1 X126.800 Y95.450 E0.98092 F1200
G1 X126.800 Y97.550 E1.05074
G1 X123.200 Y97.550 E1.17046
G1 X123.200 Y95.450 E1.24028
G1 X123.700 Y95.450 E1.25691
G0 F3000 E0.25691
G0 X123.700 Y95.450 F7200
G0 X126.800 Y96.630
G0 X126.800 Y97.550
G0 X133.201 Y98.950
G0 X133.201 Y99.376
G0 X136.800 Y100.403
G0 X136.439 Y100.300
G0 F3000 E1.25691
;segType:HShell
G1 X133.561 Y100.300 E1.35266 F1200
G0 X133.561 Y99.900 F7200
G1 X136.439 Y99.900 E1.44841 F1200
G0 X136.439 Y99.500 F7200
G1 X133.561 Y99.500 E1.54415 F1200
G0 F3000 E0.54415
G0 X133.901 Y98.950 F7200
G0 F3000 E1.54415
;segType:Loop
G1 X136.800 Y98.950 E1.64058 F1200
G1 X136.800 Y101.050 E1.71041
G1 X133.201 Y101.050 E1.83011
G1 X133.201 Y98.950 E1.89994
G1 X133.701 Y98.950 E1.91657
G0 X133.201 Y99.245 F7200
G0 X133.068 Y99.323
;segType:Perimeter
G1 X132.861 Y98.550 E1.94318 F600
G1 X137.200 Y98.550 E2.08749
G1 X137.200 Y101.450 E2.18393
G1 X132.801 Y101.450 E2.33024
G1 X132.801 Y98.610 E2.42468
G0 X132.861 Y98.550 F7200
G0 X134.461 Y98.550
G0 F3000 E1.42468
G0 X133.861 Y98.950 F7200
G0 X133.201 Y99.391
G0 X133.201 Y101.050
G0 X126.800 Y102.450
G0 X126.440 Y103.900
G0 F3000 E2.42468
;segType:HShell
G1 X123.561 Y103.900 E2.52044 F1200
G0 X123.561 Y103.500 F7200
G1 X126.440 Y103.500 E2.61620 F1200
G0 X126.440 Y103.100 F7200
G1 X123.561 Y103.100 E2.71195 F1200
G0 F3000 E1.71195
G0 X123.900 Y102.450 F7200
G0 F3000 E2.71195
;segType:Loop
G1 X126.800 Y102.450 E2.80839 F1200
G1 X126.800 Y104.550 E2.87820
G1 X123.200 Y104.550 E2.99792
G1 X123.200 Y102.450 E3.06774
G1 X123.700 Y102.450 E3.08437
G0 X123.700 Y102.450 F7200
G0 X123.200 Y102.582
G0 X123.016 Y102.630
;segType:Perimeter
G1 X122.860 Y102.050 E3.10432 F600
G1 X127.200 Y102.050 E3.24865
G1 X127.200 Y104.950 E3.34508
G1 X122.800 Y104.950 E3.49140
G1 X122.800 Y102.110 E3.58583
G0 X122.860 Y102.050 F7200
G0 X124.460 Y102.050
; ------------------------------------
; Layer #15
; ------------------------------------
G92 E0 ;reset extr
G0 F3000 E-1.00000
G0 F600 Z4.200
G0 X133.201 Y101.050 F7200
G0 X133.201 Y99.181
G0 X133.600 Y99.050
G0 F3000 E0.00000
;segType:Loop
G1 X133.600 Y101.050 E0.06650 F1200
G1 X133.201 Y101.050 E0.07977
G1 X133.201 Y98.950 E0.14960
G1 X133.500 Y98.950 E0.15955
G0 X133.201 Y99.208 F7200
G0 X133.068 Y99.323
;segType:Perimeter
G1 X132.861 Y98.550 E0.18616 F600
G1 X134.000 Y98.550 E0.22404
G1 X134.000 Y101.450 E0.32048
G1 X132.801 Y101.450 E0.36036
G1 X132.801 Y98.610 E0.45480
G0 X132.861 Y98.550 F7200
G0 X134.000 Y98.550
G0 X134.000 Y99.011
G0 F3000 E-0.54520
G0 X133.600 Y98.950 F7200
G0 X133.600 Y99.208
G0 X133.201 Y99.404
G0 X133.201 Y101.050
G0 X126.800 Y102.450
G0 X126.800 Y102.550
G0 F3000 E0.45480
;segType:Loop
G1 X126.800 Y104.550 E0.52129 F1200
G1 X126.400 Y104.550 E0.53457
G1 X126.400 Y102.450 E0.60439
G1 X126.700 Y102.450 E0.61435
G0 X126.400 Y102.709 F7200
G0 X126.267 Y102.823
;segType:Perimeter
G1 X126.060 Y102.050 E0.64096 F600
G1 X127.200 Y102.050 E0.67885
G1 X127.200 Y104.950 E0.77528
G1 X126.000 Y104.950 E0.81517
G1 X126.000 Y102.110 E0.90960
G0 X126.060 Y102.050 F7200
G0 X127.200 Y102.050
G0 X127.200 Y102.511
G0 F3000 E-0.09040
G0 X126.800 Y102.516 F7200
G0 X126.400 Y102.520
G0 X123.600 Y102.550
G0 X123.200 Y102.555
G0 X123.200 Y102.450
G0 X123.600 Y102.450
G0 X123.600 Y102.550
G0 F3000 E0.90960
;segType:Loop
G1 X123.600 Y104.550 E0.97609 F1200
G1 X123.200 Y104.550 E0.98937
G1 X123.200 Y102.450 E1.05919
G1 X123.500 Y102.450 E1.06915
G0 X123.500 Y102.450 F7200
G0 X123.200 Y102.709
G0 X123.067 Y102.823
;segType:Perimeter
G1 X122.860 Y102.050 E1.09575 F600
G1 X124.000 Y102.050 E1.13365
G1 X124.000 Y104.950 E1.23007
G1 X122.800 Y104.950 E1.26996
G1 X122.800 Y102.110 E1.36440
G0 X122.860 Y102.050 F7200
G0 X124.000 Y102.050
G0 X124.000 Y102.511
G0 F3000 E0.36440
G0 X124.000 Y102.511 F7200
G0 X123.973 Y102.050
G0 X123.600 Y97.550
G0 X123.600 Y95.550
G0 X123.594 Y95.450
G0 X123.600 Y95.450
G0 X123.600 Y95.550
G0 F3000 E1.36440
;segType:Loop
G1 X123.600 Y97.550 E1.43089 F1200
G1 X123.200 Y97.550 E1.44417
G1 X123.200 Y95.450 E1.51399
G1 X123.500 Y95.450 E1.52394
G0 X123.500 Y95.450 F7200
G0 X123.200 Y95.708
G0 X123.067 Y95.823
;segType:Perimeter
G1 X122.860 Y95.050 E1.55055 F600
G1 X124.000 Y95.050 E1.58845
G1 X124.000 Y97.950 E1.68487
G1 X122.800 Y97.950 E1.72476
G1 X122.800 Y95.110 E1.81919
G0 X122.860 Y95.050 F7200
G0 X124.000 Y95.050
G0 X124.000 Y95.511
G0 F3000 E0.81919
G0 X126.400 Y95.545 F7200
G0 X126.800 Y95.550
G0 F3000 E1.81919
;segType:Loop
G1 X126.800 Y97.550 E1.88569 F1200
G1 X126.400 Y97.550 E1.89897
G1 X126.400 Y95.450 E1.96879
G1 X126.700 Y95.450 E1.97874
G0 X126.400 Y95.708 F7200
G0 X126.267 Y95.823
;segType:Perimeter
G1 X126.060 Y95.050 E2.00535 F600
G1 X127.200 Y95.050 E2.04325
G1 X127.200 Y97.950 E2.13967
G1 X126.000 Y97.950 E2.17956
G1 X126.000 Y95.110 E2.27399
G0 X126.060 Y95.050 F7200
G0 X127.200 Y95.050
G0 X127.200 Y95.511
G0 F3000 E1.27399
G0 X127.200 Y97.950 F7200
G0 X136.401 Y98.950
G0 X136.401 Y99.005
G0 X136.800 Y99.050
G0 F3000 E2.27399
;segType:Loop
G1 X136.800 Y101.050 E2.34049 F1200
G1 X136.401 Y101.050 E2.35377
G1 X136.401 Y98.950 E2.42360
G1 X136.700 Y98.950 E2.43354
G0 X136.401 Y99.208 F7200
G0 X136.268 Y99.323
;segType:Perimeter
G1 X136.061 Y98.550 E2.46015 F600
G1 X137.200 Y98.550 E2.49804
G1 X137.200 Y101.450 E2.59447
G1 X136.001 Y101.450 E2.63435
G1 X136.001 Y98.610 E2.72879
G0 X136.061 Y98.550 F7200
G0 X137.200 Y98.550
G0 X137.200 Y99.011
; ------------------------------------
; Layer #16
; ------------------------------------
G92 E0 ;reset extr
G0 F3000 E-1.00000
G0 F600 Z4.400
G0 X136.800 Y99.016 F7200
G0 X136.401 Y99.020
G0 X133.600 Y99.050
G0 F3000 E0.00000
;segType:Loop
G1 X133.600 Y101.050 E0.06650 F1200
G1 X133.201 Y101.050 E0.07977
G1 X133.201 Y98.950 E0.14960
G1 X133.500 Y98.950 E0.15955
G0 X133.201 Y99.208 F7200
G0 X133.068 Y99.323
;segType:Perimeter
G1 X132.861 Y98.550 E0.18616 F600
G1 X134.000 Y98.550 E0.22404
G1 X134.000 Y101.450 E0.32048
G1 X132.801 Y101.450 E0.36036
G1 X132.801 Y98.610 E0.45480
G0 X132.861 Y98.550 F7200
G0 X134.000 Y98.550
G0 X134.000 Y99.011
G0 F3000 E-0.54520
G0 X133.600 Y98.950 F7200
G0 X133.600 Y99.208
G0 X133.201 Y99.404
G0 X133.201 Y101.050
G0 X126.800 Y102.450
G0 X126.800 Y102.550
G0 F3000 E0.45480
;segType:Loop
G1 X126.800 Y104.550 E0.52129 F1200
G1 X126.400 Y104.550 E0.53457
G1 X126.400 Y102.450 E0.60439
G1 X126.700 Y102.450 E0.61435
G0 X126.400 Y102.709 F7200
G0 X126.267 Y102.823
;segType:Perimeter
G1 X126.060 Y102.050 E0.64096 F600
G1 X127.200 Y102.050 E0.67885
G1 X127.200 Y104.950 E0.77528
G1 X126.000 Y104.950 E0.81517
G1 X126.000 Y102.110 E0.90960
G0 X126.060 Y102.050 F7200
G0 X127.200 Y102.050
G0 X127.200 Y102.511
G0 F3000 E-0.09040
G0 X126.800 Y102.516 F7200
G0 X126.400 Y102.520
G0 X123.600 Y102.550
G0 X123.200 Y102.555
G0 X123.200 Y102.450
G0 X123.600 Y102.450
G0 X123.600 Y102.550
G0 F3000 E0.90960
;segType:Loop
G1 X123.600 Y104.550 E0.97609 F1200
G1 X123.200 Y104.550 E0.98937
G1 X123.200 Y102.450 E1.05919
G1 X123.500 Y102.450 E1.06915
G0 X123.500 Y102.450 F7200
G0 X123.200 Y102.709
G0 X123.067 Y102.823
;segType:Perimeter
G1 X122.860 Y102.050 E1.09575 F600
G1 X124.000 Y102.050 E1.13365
G1 X124.000 Y104.950 E1.23007
G1 X122.800 Y104.950 E1.26996
G1 X122.800 Y102.110 E1.36440
G0 X122.860 Y102.050 F7200
G0 X124.000 Y102.050
G0 X124.000 Y102.511
G0 F3000 E0.36440
G0 X124.000 Y102.511 F7200
G0 X123.973 Y102.050
G0 X123.600 Y97.550
G0 X123.600 Y95.550
G0 X123.594 Y95.450
G0 X123.600 Y95.450
G0 X123.600 Y95.550
G0 F3000 E1.36440
;segType:Loop
G1 X123.600 Y97.550 E1.43089 F1200
G1 X123.200 Y97.550 E1.44417
G1 X123.200 Y95.450 E1.51399
G1 X123.500 Y95.450 E1.52394
G0 X123.500 Y95.450 F7200
G0 X123.200 Y95.708
G0 X123.067 Y95.823
;segType:Perimeter
G1 X122.860 Y95.050 E1.55055 F600
G1 X124.000 Y95.050 E1.58845
G1 X124.000 Y97.950 E1.68487
G1 X122.800 Y97.950 E1.72476
G1 X122.800 Y95.110 E1.81919
G0 X122.860 Y95.050 F7200
G0 X124.000 Y95.050
G0 X124.000 Y95.511
G0 F3000 E0.81919
G0 X126.400 Y95.545 F7200
G0 X126.800 Y95.550
G0 F3000 E1.81919
;segType:Loop
G1 X126.800 Y97.550 E1.88569 F1200
G1 X126.400 Y97.550 E1.89897
G1 X126.400 Y95.450 E1.96879
G1 X126.700 Y95.450 E1.97874
G0 X126.400 Y95.708 F7200
G0 X126.267 Y95.823
;segType:Perimeter
G1 X126.060 Y95.050 E2.00535 F600
G1 X127.200 Y95.050 E2.04325
G1 X127.200 Y97.950 E2.13967
G1 X126.000 Y97.950 E2.17956
G1 X126.000 Y95.110 E2.27399
G0 X126.060 Y95.050 F7200
G0 X127.200 Y95.050
G0 X127.200 Y95.511
G0 F3000 E1.27399
G0 X127.200 Y97.950 F7200
G0 X136.401 Y98.950
G0 X136.401 Y99.005
G0 X136.800 Y99.050
G0 F3000 E2.27399
;segType:Loop
G1 X136.800 Y101.050 E2.34049 F1200
G1 X136.401 Y101.050 E2.35377
G1 X136.401 Y98.950 E2.42360
G1 X136.700 Y98.950 E2.43354
G0 X136.401 Y99.208 F7200
G0 X136.268 Y99.323
;segType:Perimeter
G1 X136.061 Y98.550 E2.46015 F600
G1 X137.200 Y98.550 E2.49804
G1 X137.200 Y101.450 E2.59447
G1 X136.001 Y101.450 E2.63435
G1 X136.001 Y98.610 E2.72879
G0 X136.061 Y98.550 F7200
G0 X137.200 Y98.550
G0 X137.200 Y99.011
; ------------------------------------
; Layer #17
; ------------------------------------
G92 E0 ;reset extr
G0 F3000 E-1.00000
G0 F600 Z4.600
G0 X136.800 Y99.016 F7200
G0 X136.401 Y99.020
G0 X133.600 Y99.050
G0 F3000 E0.00000
;segType:Loop
G1 X133.600 Y101.050 E0.06650 F1200
G1 X133.201 Y101.050 E0.07977
G1 X133.201 Y98.950 E0.14960
G1 X133.500 Y98.950 E0.15955
G0 X133.201 Y99.208 F7200
G0 X133.068 Y99.323
;segType:Perimeter
G1 X132.861 Y98.550 E0.18616 F600
G1 X134.000 Y98.550 E0.22404
G1 X134.000 Y101.450 E0.32048
G1 X132.801 Y101.450 E0.36036
G1 X132.801 Y98.610 E0.45480
G0 X132.861 Y98.550 F7200
G0 X134.000 Y98.550
G0 X134.000 Y99.011
G0 F3000 E-0.54520
G0 X133.600 Y98.950 F7200
G0 X133.600 Y99.208
G0 X133.201 Y99.404
G0 X133.201 Y101.050
G0 X126.800 Y102.450
G0 X126.800 Y102.550
G0 F3000 E0.45480
;segType:Loop
G1 X126.800 Y104.550 E0.52129 F1200
G1 X126.400 Y104.550 E0.53457
G1 X126.400 Y102.450 E0.60439
G1 X126.700 Y102.450 E0.61435
G0 X126.400 Y102.709 F7200
G0 X126.267 Y102.823
;segType:Perimeter
G1 X126.060 Y102.050 E0.64096 F600
G1 X127.200 Y102.050 E0.67885
G1 X127.200 Y104.950 E0.77528
G1 X126.000 Y104.950 E0.81517
G1 X126.000 Y102.110 E0.90960
G0 X126.060 Y102.050 F7200
G0 X127.200 Y102.050
G0 X127.200 Y102.511
G0 F3000 E-0.09040
G0 X126.800 Y102.516 F7200
G0 X126.400 Y102.520
G0 X123.600 Y102.550
G0 X123.200 Y102.555
G0 X123.200 Y102.450
G0 X123.600 Y102.450
G0 X123.600 Y102.550
G0 F3000 E0.90960
;segType:Loop
G1 X123.600 Y104.550 E0.97609 F1200
G1 X123.200 Y104.550 E0.98937
G1 X123.200 Y102.450 E1.05919
G1 X123.500 Y102.450 E1.06915
G0 X123.500 Y102.450 F7200
G0 X123.200 Y102.709
G0 X123.067 Y102.823
;segType:Perimeter
G1 X122.860 Y102.050 E1.09575 F600
G1 X124.000 Y102.050 E1.13365
G1 X124.000 Y104.950 E1.23007
G1 X122.800 Y104.950 E1.26996
G1 X122.800 Y102.110 E1.36440
G0 X122.860 Y102.050 F7200
G0 X124.000 Y102.050
G0 X124.000 Y102.511
G0 F3000 E0.36440
G0 X124.000 Y102.511 F7200
G0 X123.973 Y102.050
G0 X123.600 Y97.550
G0 X123.600 Y95.550
G0 X123.594 Y95.450
G0 X123.600 Y95.450
G0 X123.600 Y95.550
G0 F3000 E1.36440
;segType:Loop
G1 X123.600 Y97.550 E1.43089 F1200
G1 X123.200 Y97.550 E1.44417
G1 X123.200 Y95.450 E1.51399
G1 X123.500 Y95.450 E1.52394
G0 X123.500 Y95.450 F7200
G0 X123.200 Y95.708
G0 X123.067 Y95.823
;segType:Perimeter
G1 X122.860 Y95.050 E1.55055 F600
G1 X124.000 Y95.050 E1.58845
G1 X124.000 Y97.950 E1.68487
G1 X122.800 Y97.950 E1.72476
G1 X122.800 Y95.110 E1.81919
G0 X122.860 Y95.050 F7200
G0 X124.000 Y95.050
G0 X124.000 Y95.511
G0 F3000 E0.81919
G0 X126.400 Y95.545 F7200
G0 X126.800 Y95.550
G0 F3000 E1.81919
;segType:Loop
G1 X126.800 Y97.550 E1.88569 F1200
G1 X126.400 Y97.550 E1.89897
G1 X126.400 Y95.450 E1.96879
G1 X126.700 Y95.450 E1.97874
G0 X126.400 Y95.708 F7200
G0 X126.267 Y95.823
;segType:Perimeter
G1 X126.060 Y95.050 E2.00535 F600
G1 X127.200 Y95.050 E2.04325
G1 X127.200 Y97.950 E2.13967
G1 X126.000 Y97.950 E2.17956
G1 X126.000 Y95.110 E2.27399
G0 X126.060 Y95.050 F7200
G0 X127.200 Y95.050
G0 X127.200 Y95.511
G0 F3000 E1.27399
G0 X127.200 Y97.950 F7200
G0 X136.401 Y98.950
G0 X136.401 Y99.005
G0 X136.800 Y99.050
G0 F3000 E2.27399
;segType:Loop
G1 X136.800 Y101.050 E2.34049 F1200
G1 X136.401 Y101.050 E2.35377
G1 X136.401 Y98.950 E2.42360
G1 X136.700 Y98.950 E2.43354
G0 X136.401 Y99.208 F7200
G0 X136.268 Y99.323
;segType:Perimeter
G1 X136.061 Y98.550 E2.46015 F600
G1 X137.200 Y98.550 E2.49804
G1 X137.200 Y101.450 E2.59447
G1 X136.001 Y101.450 E2.63435
G1 X136.001 Y98.610 E2.72879
G0 X136.061 Y98.550 F7200
G0 X137.200 Y98.550
G0 X137.200 Y99.011
; ------------------------------------
; Layer #18
; ------------------------------------
G92 E0 ;reset extr
G0 F3000 E-1.00000
G0 F600 Z4.800
G0 X136.800 Y99.016 F7200
G0 X136.401 Y99.020
G0 X133.600 Y99.050
G0 F3000 E0.00000
;segType:Loop
G1 X133.600 Y101.050 E0.06650 F1200
G1 X133.201 Y101.050 E0.07977
G1 X133.201 Y98.950 E0.14960
G1 X133.500 Y98.950 E0.15955
G0 X133.201 Y99.208 F7200
G0 X133.068 Y99.323
;segType:Perimeter
G1 X132.861 Y98.550 E0.18616 F600
G1 X134.000 Y98.550 E0.22404
G1 X134.000 Y101.450 E0.32048
G1 X132.801 Y101.450 E0.36036
G1 X132.801 Y98.610 E0.45480
G0 X132.861 Y98.550 F7200
G0 X134.000 Y98.550
G0 X134.000 Y99.011
G0 F3000 E-0.54520
G0 X133.600 Y98.950 F7200
G0 X133.600 Y99.208
G0 X133.201 Y99.404
G0 X133.201 Y101.050
G0 X126.800 Y102.450
G0 X126.800 Y102.550
G0 F3000 E0.45480
;segType:Loop
G1 X126.800 Y104.550 E0.52129 F1200
G1 X126.400 Y104.550 E0.53457
G1 X126.400 Y102.450 E0.60439
G1 X126.700 Y102.450 E0.61435
G0 X126.400 Y102.709 F7200
G0 X126.267 Y102.823
;segType:Perimeter
G1 X126.060 Y102.050 E0.64096 F600
G1 X127.200 Y102.050 E0.67885
G1 X127.200 Y104.950 E0.77528
G1 X126.000 Y104.950 E0.81517
G1 X126.000 Y102.110 E0.90960
G0 X126.060 Y102.050 F7200
G0 X127.200 Y102.050
G0 X127.200 Y102.511
G0 F3000 E-0.09040
G0 X126.800 Y102.516 F7200
G0 X126.400 Y102.520
G0 X123.600 Y102.550
G0 X123.200 Y102.555
G0 X123.200 Y102.450
G0 X123.600 Y102.450
G0 X123.600 Y102.550
G0 F3000 E0.90960
;segType:Loop
G1 X123.600 Y104.550 E0.97609 F1200
G1 X123.200 Y104.550 E0.98937
G1 X123.200 Y102.450 E1.05919
G1 X123.500 Y102.450 E1.06915
G0 X123.500 Y102.450 F7200
G0 X123.200 Y102.709
G0 X123.067 Y102.823
;segType:Perimeter
G1 X122.860 Y102.050 E1.09575 F600
G1 X124.000 Y102.050 E1.13365
G1 X124.000 Y104.950 E1.23007
G1 X122.800 Y104.950 E1.26996
G1 X122.800 Y102.110 E1.36440
G0 X122.860 Y102.050 F7200
G0 X124.000 Y102.050
G0 X124.000 Y102.511
G0 F3000 E0.36440
G0 X124.000 Y102.511 F7200
G0 X123.973 Y102.050
G0 X123.600 Y97.550
G0 X123.600 Y95.550
G0 X123.594 Y95.450
G0 X123.600 Y95.450
G0 X123.600 Y95.550
G0 F3000 E1.36440
;segType:Loop
G1 X123.600 Y97.550 E1.43089 F1200
G1 X123.200 Y97.550 E1.44417
G1 X123.200 Y95.450 E1.51399
G1 X123.500 Y95.450 E1.52394
G0 X123.500 Y95.450 F7200
G0 X123.200 Y95.708
G0 X123.067 Y95.823
;segType:Perimeter
G1 X122.860 Y95.050 E1.55055 F600
G1 X124.000 Y95.050 E1.58845
G1 X124.000 Y97.950 E1.68487
G1 X122.800 Y97.950 E1.72476
G1 X122.800 Y95.110 E1.81919
G0 X122.860 Y95.050 F7200
G0 X124.000 Y95.050
G0 X124.000 Y95.511
G0 F3000 E0.81919
G0 X126.400 Y95.545 F7200
G0 X126.800 Y95.550
G0 F3000 E1.81919
;segType:Loop
G1 X126.800 Y97.550 E1.88569 F1200
G1 X126.400 Y97.550 E1.89897
G1 X126.400 Y95.450 E1.96879
G1 X126.700 Y95.450 E1.97874
G0 X126.400 Y95.708 F7200
G0 X126.267 Y95.823
;segType:Perimeter
G1 X126.060 Y95.050 E2.00535 F600
G1 X127.200 Y95.050 E2.04325
G1 X127.200 Y97.950 E2.13967
G1 X126.000 Y97.950 E2.17956
G1 X126.000 Y95.110 E2.27399
G0 X126.060 Y95.050 F7200
G0 X127.200 Y95.050
G0 X127.200 Y95.511
G0 F3000 E1.27399
G0 X127.200 Y97.950 F7200
G0 X136.401 Y98.950
G0 X136.401 Y99.005
G0 X136.800 Y99.050
G0 F3000 E2.27399
;segType:Loop
G1 X136.800 Y101.050 E2.34049 F1200
G1 X136.401 Y101.050 E2.35377
G1 X136.401 Y98.950 E2.42360
G1 X136.700 Y98.950 E2.43354
G0 X136.401 Y99.208 F7200
G0 X136.268 Y99.323
;segType:Perimeter
G1 X136.061 Y98.550 E2.46015 F600
G1 X137.200 Y98.550 E2.49804
G1 X137.200 Y101.450 E2.59447
G1 X136.001 Y101.450 E2.63435
G1 X136.001 Y98.610 E2.72879
G0 X136.061 Y98.550 F7200
G0 X137.200 Y98.550
G0 X137.200 Y99.011
; ------------------------------------
; Layer #19
; ------------------------------------
G92 E0 ;reset extr
G0 F3000 E-1.00000
G0 F600 Z5.000
G0 X136.800 Y99.016 F7200
G0 X136.401 Y99.020
G0 X133.600 Y99.050
G0 F3000 E0.00000
;segType:Loop
G1 X133.600 Y101.050 E0.06650 F1200
G1 X133.201 Y101.050 E0.07977
G1 X133.201 Y98.950 E0.14960
G1 X133.500 Y98.950 E0.15955
G0 X133.201 Y99.208 F7200
G0 X133.068 Y99.323
;segType:Perimeter
G1 X132.861 Y98.550 E0.18616 F600
G1 X134.000 Y98.550 E0.22404
G1 X134.000 Y101.450 E0.32048
G1 X132.801 Y101.450 E0.36036
G1 X132.801 Y98.610 E0.45480
G0 X132.861 Y98.550 F7200
G0 X134.000 Y98.550
G0 X134.000 Y99.011
G0 F3000 E-0.54520
G0 X133.600 Y98.950 F7200
G0 X133.600 Y99.208
G0 X133.201 Y99.404
G0 X133.201 Y101.050
G0 X126.800 Y102.450
G0 X126.800 Y102.550
G0 F3000 E0.45480
;segType:Loop
G1 X126.800 Y104.550 E0.52129 F1200
G1 X126.400 Y104.550 E0.53457
G1 X126.400 Y102.450 E0.60439
G1 X126.700 Y102.450 E0.61435
G0 X126.400 Y102.709 F7200
G0 X126.267 Y102.823
;segType:Perimeter
G1 X126.060 Y102.050 E0.64095 F600
G1 X127.200 Y102.050 E0.67885
G1 X127.200 Y104.950 E0.77528
G1 X126.000 Y104.950 E0.81516
G1 X126.000 Y102.110 E0.90960
G0 X126.060 Y102.050 F7200
G0 X127.200 Y102.050
G0 X127.200 Y102.511
G0 F3000 E-0.09040
G0 X126.800 Y102.516 F7200
G0 X126.400 Y102.520
G0 X123.600 Y102.550
G0 X123.200 Y102.555
G0 X123.200 Y102.450
G0 X123.600 Y102.450
G0 X123.600 Y102.550
G0 F3000 E0.90960
;segType:Loop
G1 X123.600 Y104.550 E0.97609 F1200
G1 X123.200 Y104.550 E0.98937
G1 X123.200 Y102.450 E1.05919
G1 X123.500 Y102.450 E1.06914
G0 X123.500 Y102.450 F7200
G0 X123.200 Y102.709
G0 X123.067 Y102.823
;segType:Perimeter
G1 X122.860 Y102.050 E1.09575 F600
G1 X124.000 Y102.050 E1.13365
G1 X124.000 Y104.950 E1.23007
G1 X122.800 Y104.950 E1.26996
G1 X122.800 Y102.110 E1.36439
G0 X122.860 Y102.050 F7200
G0 X124.000 Y102.050
G0 X124.000 Y102.511
G0 F3000 E0.36439
G0 X124.000 Y102.511 F7200
G0 X123.973 Y102.050
G0 X123.600 Y97.550
G0 X123.600 Y95.550
G0 X123.594 Y95.450
G0 X123.600 Y95.450
G0 X123.600 Y95.550
G0 F3000 E1.36439
;segType:Loop
G1 X123.600 Y97.550 E1.43089 F1200
G1 X123.200 Y97.550 E1.44417
G1 X123.200 Y95.450 E1.51399
G1 X123.500 Y95.450 E1.52394
G0 X123.500 Y95.450 F7200
G0 X123.200 Y95.708
G0 X123.067 Y95.823
;segType:Perimeter
G1 X122.860 Y95.050 E1.55055 F600
G1 X124.000 Y95.050 E1.58844
G1 X124.000 Y97.950 E1.68487
G1 X122.800 Y97.950 E1.72476
G1 X122.800 Y95.110 E1.81919
G0 X122.860 Y95.050 F7200
G0 X124.000 Y95.050
G0 X124.000 Y95.511
G0 F3000 E0.81919
G0 X126.400 Y95.545 F7200
G0 X126.800 Y95.550
G0 F3000 E1.81919
;segType:Loop
G1 X126.800 Y97.550 E1.88568 F1200
G1 X126.400 Y97.550 E1.89897
G1 X126.400 Y95.450 E1.96879
G1 X126.700 Y95.450 E1.97874
G0 X126.400 Y95.708 F7200
G0 X126.267 Y95.823
;segType:Perimeter
G1 X126.060 Y95.050 E2.00535 F600
G1 X127.200 Y95.050 E2.04324
G1 X127.200 Y97.950 E2.13967
G1 X126.000 Y97.950 E2.17956
G1 X126.000 Y95.110 E2.27399
G0 X126.060 Y95.050 F7200
G0 X127.200 Y95.050
G0 X127.200 Y95.511
G0 F3000 E1.27399
G0 X127.200 Y97.950 F7200
G0 X136.401 Y98.950
G0 X136.401 Y99.005
G0 X136.800 Y99.050
G0 F3000 E2.27399
;segType:Loop
G1 X136.800 Y101.050 E2.34049 F1200
G1 X136.401 Y101.050 E2.35376
G1 X136.401 Y98.950 E2.42359
G1 X136.700 Y98.950 E2.43354
G0 X136.401 Y99.208 F7200
G0 X136.268 Y99.323
;segType:Perimeter
G1 X136.061 Y98.550 E2.46015 F600
G1 X137.200 Y98.550 E2.49803
G1 X137.200 Y101.450 E2.59447
G1 X136.001 Y101.450 E2.63435
G1 X136.001 Y98.610 E2.72879
G0 X136.061 Y98.550 F7200
G0 X137.200 Y98.550
G0 X137.200 Y99.011
; ------------------------------------
; Layer #20
; ------------------------------------
G92 E0 ;reset extr
G0 F3000 E-1.00000
G0 F600 Z5.200
G0 X136.800 Y99.016 F7200
G0 X136.401 Y99.020
G0 X133.600 Y99.050
G0 F3000 E0.00000
;segType:Loop
G1 X133.600 Y101.050 E0.06650 F1200
G1 X133.201 Y101.050 E0.07977
G1 X133.201 Y98.950 E0.14960
G1 X133.500 Y98.950 E0.15955
G0 X133.201 Y99.208 F7200
G0 X133.068 Y99.323
;segType:Perimeter
G1 X132.861 Y98.550 E0.18616 F600
G1 X134.000 Y98.550 E0.22404
G1 X134.000 Y101.450 E0.32048
G1 X132.801 Y101.450 E0.36036
G1 X132.801 Y98.610 E0.45480
G0 X132.861 Y98.550 F7200
G0 X134.000 Y98.550
G0 X134.000 Y99.011
G0 F3000 E-0.54520
G0 X133.600 Y98.950 F7200
G0 X133.600 Y99.208
G0 X133.201 Y99.404
G0 X133.201 Y101.050
G0 X126.800 Y102.450
G0 X126.800 Y102.550
G0 F3000 E0.45480
;segType:Loop
G1 X126.800 Y104.550 E0.52129 F1200
G1 X126.400 Y104.550 E0.53457
G1 X126.400 Y102.450 E0.60439
G1 X126.700 Y102.450 E0.61435
G0 X126.400 Y102.709 F7200
G0 X126.267 Y102.823
;segType:Perimeter
G1 X126.060 Y102.050 E0.64095 F600
G1 X127.200 Y102.050 E0.67885
G1 X127.200 Y104.950 E0.77528
G1 X126.000 Y104.950 E0.81516
G1 X126.000 Y102.110 E0.90960
G0 X126.060 Y102.050 F7200
G0 X127.200 Y102.050
G0 X127.200 Y102.511
G0 F3000 E-0.09040
G0 X126.800 Y102.516 F7200
G0 X126.400 Y102.520
G0 X123.600 Y102.550
G0 X123.200 Y102.555
G0 X123.200 Y102.450
G0 X123.600 Y102.450
G0 X123.600 Y102.550
G0 F3000 E0.90960
;segType:Loop
G1 X123.600 Y104.550 E0.97609 F1200
G1 X123.200 Y104.550 E0.98937
G1 X123.200 Y102.450 E1.05919
G1 X123.500 Y102.450 E1.06914
G0 X123.500 Y102.450 F7200
G0 X123.200 Y102.709
G0 X123.067 Y102.823
;segType:Perimeter
G1 X122.860 Y102.050 E1.09575 F600
G1 X124.000 Y102.050 E1.13365
G1 X124.000 Y104.950 E1.23007
G1 X122.800 Y104.950 E1.26996
G1 X122.800 Y102.110 E1.36439
G0 X122.860 Y102.050 F7200
G0 X124.000 Y102.050
G0 X124.000 Y102.511
G0 F3000 E0.36439
G0 X124.000 Y102.511 F7200
G0 X123.973 Y102.050
G0 X123.600 Y97.550
G0 X123.600 Y95.550
G0 X123.594 Y95.450
G0 X123.600 Y95.450
G0 X123.600 Y95.550
G0 F3000 E1.36439
;segType:Loop
G1 X123.600 Y97.550 E1.43089 F1200
G1 X123.200 Y97.550 E1.44417
G1 X123.200 Y95.450 E1.51399
G1 X123.500 Y95.450 E1.52394
G0 X123.500 Y95.450 F7200
G0 X123.200 Y95.708
G0 X123.067 Y95.823
;segType:Perimeter
G1 X122.860 Y95.050 E1.55055 F600
G1 X124.000 Y95.050 E1.58844
G1 X124.000 Y97.950 E1.68487
G1 X122.800 Y97.950 E1.72476
G1 X122.800 Y95.110 E1.81919
G0 X122.860 Y95.050 F7200
G0 X124.000 Y95.050
G0 X124.000 Y95.511
G0 F3000 E0.81919
G0 X126.400 Y95.545 F7200
G0 X126.800 Y95.550
G0 F3000 E1.81919
;segType:Loop
G1 X126.800 Y97.550 E1.88568 F1200
G1 X126.400 Y97.550 E1.89897
G1 X126.400 Y95.450 E1.96879
G1 X126.700 Y95.450 E1.97874
G0 X126.400 Y95.708 F7200
G0 X126.267 Y95.823
;segType:Perimeter
G1 X126.060 Y95.050 E2.00535 F600
G1 X127.200 Y95.050 E2.04324
G1 X127.200 Y97.950 E2.13967
G1 X126.000 Y97.950 E2.17956
G1 X126.000 Y95.110 E2.27399
G0 X126.060 Y95.050 F7200
G0 X127.200 Y95.050
G0 X127.200 Y95.511
G0 F3000 E1.27399
G0 X127.200 Y97.950 F7200
G0 X136.401 Y98.950
G0 X136.401 Y99.005
G0 X136.800 Y99.050
G0 F3000 E2.27399
;segType:Loop
G1 X136.800 Y101.050 E2.34049 F1200
G1 X136.401 Y101.050 E2.35376
G1 X136.401 Y98.950 E2.42359
G1 X136.700 Y98.950 E2.43354
G0 X136.401 Y99.208 F7200
G0 X136.268 Y99.323
;segType:Perimeter
G1 X136.061 Y98.550 E2.46015 F600
G1 X137.200 Y98.550 E2.49803
G1 X137.200 Y101.450 E2.59447
G1 X136.001 Y101.450 E2.63435
G1 X136.001 Y98.610 E2.72879
G0 X136.061 Y98.550 F7200
G0 X137.200 Y98.550
G0 X137.200 Y99.011
; ------------------------------------
; Layer #21
; ------------------------------------
G92 E0 ;reset extr
G0 F3000 E-1.00000
G0 F600 Z5.400
G0 X136.800 Y99.016 F7200
G0 X136.401 Y99.020
G0 X133.600 Y99.050
G0 F3000 E0.00000
;segType:Loop
G1 X133.600 Y101.050 E0.06650 F1200
G1 X133.201 Y101.050 E0.07977
G1 X133.201 Y98.950 E0.14960
G1 X133.500 Y98.950 E0.15955
G0 X133.201 Y99.208 F7200
G0 X133.068 Y99.323
;segType:Perimeter
G1 X132.861 Y98.550 E0.18616 F600
G1 X134.000 Y98.550 E0.22404
G1 X134.000 Y101.450 E0.32048
G1 X132.801 Y101.450 E0.36036
G1 X132.801 Y98.610 E0.45480
G0 X132.861 Y98.550 F7200
G0 X134.000 Y98.550
G0 X134.000 Y99.011
G0 F3000 E-0.54520
G0 X133.600 Y98.950 F7200
G0 X133.600 Y99.208
G0 X133.201 Y99.404
G0 X133.201 Y101.050
G0 X126.800 Y102.450
G0 X126.800 Y102.550
G0 F3000 E0.45480
;segType:Loop
G1 X126.800 Y104.550 E0.52129 F1200
G1 X126.400 Y104.550 E0.53457
G1 X126.400 Y102.450 E0.60439
G1 X126.700 Y102.450 E0.61435
G0 X126.400 Y102.709 F7200
G0 X126.267 Y102.823
;segType:Perimeter
G1 X126.060 Y102.050 E0.64096 F600
G1 X127.200 Y102.050 E0.67885
G1 X127.200 Y104.950 E0.77528
G1 X126.000 Y104.950 E0.81517
G1 X126.000 Y102.110 E0.90960
G0 X126.060 Y102.050 F7200
G0 X127.200 Y102.050
G0 X127.200 Y102.511
G0 F3000 E-0.09040
G0 X126.800 Y102.516 F7200
G0 X126.400 Y102.520
G0 X123.600 Y102.550
G0 X123.200 Y102.555
G0 X123.200 Y102.450
G0 X123.600 Y102.450
G0 X123.600 Y102.550
G0 F3000 E0.90960
;segType:Loop
G1 X123.600 Y104.550 E0.97609 F1200
G1 X123.200 Y104.550 E0.98937
G1 X123.200 Y102.450 E1.05919
G1 X123.500 Y102.450 E1.06915
G0 X123.500 Y102.450 F7200
G0 X123.200 Y102.709
G0 X123.067 Y102.823
;segType:Perimeter
G1 X122.860 Y102.050 E1.09575 F600
G1 X124.000 Y102.050 E1.13365
G1 X124.000 Y104.950 E1.23008
G1 X122.800 Y104.950 E1.26997
G1 X122.800 Y102.110 E1.36440
G0 X122.860 Y102.050 F7200
G0 X124.000 Y102.050
G0 X124.000 Y102.511
G0 F3000 E0.36440
G0 X124.000 Y102.511 F7200
G0 X123.973 Y102.050
G0 X123.600 Y97.550
G0 X123.600 Y95.550
G0 X123.594 Y95.450
G0 X123.600 Y95.450
G0 X123.600 Y95.550
G0 F3000 E1.36440
;segType:Loop
G1 X123.600 Y97.550 E1.43089 F1200
G1 X123.200 Y97.550 E1.44417
G1 X123.200 Y95.450 E1.51399
G1 X123.500 Y95.450 E1.52395
G0 X123.500 Y95.450 F7200
G0 X123.200 Y95.708
G0 X123.067 Y95.823
;segType:Perimeter
G1 X122.860 Y95.050 E1.55055 F600
G1 X124.000 Y95.050 E1.58845
G1 X124.000 Y97.950 E1.68488
G1 X122.800 Y97.950 E1.72477
G1 X122.800 Y95.110 E1.81920
G0 X122.860 Y95.050 F7200
G0 X124.000 Y95.050
G0 X124.000 Y95.511
G0 F3000 E0.81920
G0 X126.400 Y95.545 F7200
G0 X126.800 Y95.550
G0 F3000 E1.81920
;segType:Loop
G1 X126.800 Y97.550 E1.88569 F1200
G1 X126.400 Y97.550 E1.89897
G1 X126.400 Y95.450 E1.96879
G1 X126.700 Y95.450 E1.97875
G0 X126.400 Y95.708 F7200
G0 X126.267 Y95.823
;segType:Perimeter
G1 X126.060 Y95.050 E2.00535 F600
G1 X127.200 Y95.050 E2.04325
G1 X127.200 Y97.950 E2.13968
G1 X126.000 Y97.950 E2.17957
G1 X126.000 Y95.110 E2.27400
G0 X126.060 Y95.050 F7200
G0 X127.200 Y95.050
G0 X127.200 Y95.511
G0 F3000 E1.27400
G0 X127.200 Y97.950 F7200
G0 X136.401 Y98.950
G0 X136.401 Y99.005
G0 X136.800 Y99.050
G0 F3000 E2.27400
;segType:Loop
G1 X136.800 Y101.050 E2.34050 F1200
G1 X136.401 Y101.050 E2.35377
G1 X136.401 Y98.950 E2.42360
G1 X136.700 Y98.950 E2.43355
G0 X136.401 Y99.208 F7200
G0 X136.268 Y99.323
;segType:Perimeter
G1 X136.061 Y98.550 E2.46015 F600
G1 X137.200 Y98.550 E2.49804
G1 X137.200 Y101.450 E2.59447
G1 X136.001 Y101.450 E2.63436
G1 X136.001 Y98.610 E2.72880
G0 X136.061 Y98.550 F7200
G0 X137.200 Y98.550
G0 X137.200 Y99.011
; ------------------------------------
; Layer #22
; ------------------------------------
G92 E0 ;reset extr
G0 F3000 E-1.00000
G0 F600 Z5.600
G0 X136.800 Y99.016 F7200
G0 X136.401 Y99.020
G0 X133.600 Y99.050
G0 F3000 E0.00000
;segType:Loop
G1 X133.600 Y101.050 E0.06650 F1200
G1 X133.201 Y101.050 E0.07977
G1 X133.201 Y98.950 E0.14960
G1 X133.500 Y98.950 E0.15955
G0 X133.201 Y99.208 F7200
G0 X133.068 Y99.323
;segType:Perimeter
G1 X132.861 Y98.550 E0.18616 F600
G1 X134.000 Y98.550 E0.22404
G1 X134.000 Y101.450 E0.32048
G1 X132.801 Y101.450 E0.36036
G1 X132.801 Y98.610 E0.45480
G0 X132.861 Y98.550 F7200
G0 X134.000 Y98.550
G0 X134.000 Y99.011
G0 F3000 E-0.54520
G0 X133.600 Y98.950 F7200
G0 X133.600 Y99.208
G0 X133.201 Y99.404
G0 X133.201 Y101.050
G0 X126.800 Y102.450
G0 X126.800 Y102.550
G0 F3000 E0.45480
;segType:Loop
G1 X126.800 Y104.550 E0.52129 F1200
G1 X126.400 Y104.550 E0.53457
G1 X126.400 Y102.450 E0.60439
G1 X126.700 Y102.450 E0.61435
G0 X126.400 Y102.709 F7200
G0 X126.267 Y102.823
;segType:Perimeter
G1 X126.060 Y102.050 E0.64095 F600
G1 X127.200 Y102.050 E0.67885
G1 X127.200 Y104.950 E0.77528
G1 X126.000 Y104.950 E0.81516
G1 X126.000 Y102.110 E0.90960
G0 X126.060 Y102.050 F7200
G0 X127.200 Y102.050
G0 X127.200 Y102.511
G0 F3000 E-0.09040
G0 X126.800 Y102.516 F7200
G0 X126.400 Y102.520
G0 X123.600 Y102.550
G0 X123.200 Y102.555
G0 X123.200 Y102.450
G0 X123.600 Y102.450
G0 X123.600 Y102.550
G0 F3000 E0.90960
;segType:Loop
G1 X123.600 Y104.550 E0.97609 F1200
G1 X123.200 Y104.550 E0.98937
G1 X123.200 Y102.450 E1.05919
G1 X123.500 Y102.450 E1.06914
G0 X123.500 Y102.450 F7200
G0 X123.200 Y102.709
G0 X123.067 Y102.823
;segType:Perimeter
G1 X122.860 Y102.050 E1.09575 F600
G1 X124.000 Y102.050 E1.13365
G1 X124.000 Y104.950 E1.23007
G1 X122.800 Y104.950 E1.26996
G1 X122.800 Y102.110 E1.36439
G0 X122.860 Y102.050 F7200
G0 X124.000 Y102.050
G0 X124.000 Y102.511
G0 F3000 E0.36439
G0 X124.000 Y102.511 F7200
G0 X123.973 Y102.050
G0 X123.600 Y97.550
G0 X123.600 Y95.550
G0 X123.594 Y95.450
G0 X123.600 Y95.450
G0 X123.600 Y95.550
G0 F3000 E1.36439
;segType:Loop
G1 X123.600 Y97.550 E1.43089 F1200
G1 X123.200 Y97.550 E1.44417
G1 X123.200 Y95.450 E1.51399
G1 X123.500 Y95.450 E1.52394
G0 X123.500 Y95.450 F7200
G0 X123.200 Y95.708
G0 X123.067 Y95.823
;segType:Perimeter
G1 X122.860 Y95.050 E1.55055 F600
G1 X124.000 Y95.050 E1.58844
G1 X124.000 Y97.950 E1.68487
G1 X122.800 Y97.950 E1.72476
G1 X122.800 Y95.110 E1.81919
G0 X122.860 Y95.050 F7200
G0 X124.000 Y95.050
G0 X124.000 Y95.511
G0 F3000 E0.81919
G0 X126.400 Y95.545 F7200
G0 X126.800 Y95.550
G0 F3000 E1.81919
;segType:Loop
G1 X126.800 Y97.550 E1.88568 F1200
G1 X126.400 Y97.550 E1.89897
G1 X126.400 Y95.450 E1.96879
G1 X126.700 Y95.450 E1.97874
G0 X126.400 Y95.708 F7200
G0 X126.267 Y95.823
;segType:Perimeter
G1 X126.060 Y95.050 E2.00535 F600
G1 X127.200 Y95.050 E2.04324
G1 X127.200 Y97.950 E2.13967
G1 X126.000 Y97.950 E2.17956
G1 X126.000 Y95.110 E2.27399
G0 X126.060 Y95.050 F7200
G0 X127.200 Y95.050
G0 X127.200 Y95.511
G0 F3000 E1.27399
G0 X127.200 Y97.950 F7200
G0 X136.401 Y98.950
G0 X136.401 Y99.005
G0 X136.800 Y99.050
G0 F3000 E2.27399
;segType:Loop
G1 X136.800 Y101.050 E2.34049 F1200
G1 X136.401 Y101.050 E2.35376
G1 X136.401 Y98.950 E2.42359
G1 X136.700 Y98.950 E2.43354
G0 X136.401 Y99.208 F7200
G0 X136.268 Y99.323
;segType:Perimeter
G1 X136.061 Y98.550 E2.46015 F600
G1 X137.200 Y98.550 E2.49803
G1 X137.200 Y101.450 E2.59447
G1 X136.001 Y101.450 E2.63435
G1 X136.001 Y98.610 E2.72879
G0 X136.061 Y98.550 F7200
G0 X137.200 Y98.550
G0 X137.200 Y99.011
; ------------------------------------
; Layer #23
; ------------------------------------
G92 E0 ;reset extr
G0 F3000 E-1.00000
G0 F600 Z5.800
G0 X136.800 Y99.016 F7200
G0 X136.401 Y99.020
G0 X133.600 Y99.050
G0 F3000 E0.00000
;segType:Loop
G1 X133.600 Y101.050 E0.06650 F1200
G1 X133.201 Y101.050 E0.07977
G1 X133.201 Y98.950 E0.14960
G1 X133.500 Y98.950 E0.15955
G0 X133.201 Y99.208 F7200
G0 X133.068 Y99.323
;segType:Perimeter
G1 X132.861 Y98.550 E0.18616 F600
G1 X134.000 Y98.550 E0.22404
G1 X134.000 Y101.450 E0.32048
G1 X132.801 Y101.450 E0.36036
G1 X132.801 Y98.610 E0.45480
G0 X132.861 Y98.550 F7200
G0 X134.000 Y98.550
G0 X134.000 Y99.011
G0 F3000 E-0.54520
G0 X133.600 Y98.950 F7200
G0 X133.600 Y99.208
G0 X133.201 Y99.404
G0 X133.201 Y101.050
G0 X126.800 Y102.450
G0 X126.800 Y102.550
G0 F3000 E0.45480
;segType:Loop
G1 X126.800 Y104.550 E0.52129 F1200
G1 X126.400 Y104.550 E0.53457
G1 X126.400 Y102.450 E0.60439
G1 X126.700 Y102.450 E0.61435
G0 X126.400 Y102.709 F7200
G0 X126.267 Y102.823
;segType:Perimeter
G1 X126.060 Y102.050 E0.64095 F600
G1 X127.200 Y102.050 E0.67885
G1 X127.200 Y104.950 E0.77528
G1 X126.000 Y104.950 E0.81516
G1 X126.000 Y102.110 E0.90960
G0 X126.060 Y102.050 F7200
G0 X127.200 Y102.050
G0 X127.200 Y102.511
G0 F3000 E-0.09040
G0 X126.800 Y102.516 F7200
G0 X126.400 Y102.520
G0 X123.600 Y102.550
G0 X123.200 Y102.555
G0 X123.200 Y102.450
G0 X123.600 Y102.450
G0 X123.600 Y102.550
G0 F3000 E0.90960
;segType:Loop
G1 X123.600 Y104.550 E0.97609 F1200
G1 X123.200 Y104.550 E0.98937
G1 X123.200 Y102.450 E1.05919
G1 X123.500 Y102.450 E1.06914
G0 X123.500 Y102.450 F7200
G0 X123.200 Y102.709
G0 X123.067 Y102.823
;segType:Perimeter
G1 X122.860 Y102.050 E1.09575 F600
G1 X124.000 Y102.050 E1.13365
G1 X124.000 Y104.950 E1.23007
G1 X122.800 Y104.950 E1.26996
G1 X122.800 Y102.110 E1.36439
G0 X122.860 Y102.050 F7200
G0 X124.000 Y102.050
G0 X124.000 Y102.511
G0 F3000 E0.36439
G0 X124.000 Y102.511 F7200
G0 X123.973 Y102.050
G0 X123.600 Y97.550
G0 X123.600 Y95.550
G0 X123.594 Y95.450
G0 X123.600 Y95.450
G0 X123.600 Y95.550
G0 F3000 E1.36439
;segType:Loop
G1 X123.600 Y97.550 E1.43089 F1200
G1 X123.200 Y97.550 E1.44417
G1 X123.200 Y95.450 E1.51399
G1 X123.500 Y95.450 E1.52394
G0 X123.500 Y95.450 F7200
G0 X123.200 Y95.708
G0 X123.067 Y95.823
;segType:Perimeter
G1 X122.860 Y95.050 E1.55055 F600
G1 X124.000 Y95.050 E1.58844
G1 X124.000 Y97.950 E1.68487
G1 X122.800 Y97.950 E1.72476
G1 X122.800 Y95.110 E1.81919
G0 X122.860 Y95.050 F7200
G0 X124.000 Y95.050
G0 X124.000 Y95.511
G0 F3000 E0.81919
G0 X126.400 Y95.545 F7200
G0 X126.800 Y95.550
G0 F3000 E1.81919
;segType:Loop
G1 X126.800 Y97.550 E1.88568 F1200
G1 X126.400 Y97.550 E1.89897
G1 X126.400 Y95.450 E1.96879
G1 X126.700 Y95.450 E1.97874
G0 X126.400 Y95.708 F7200
G0 X126.267 Y95.823
;segType:Perimeter
G1 X126.060 Y95.050 E2.00535 F600
G1 X127.200 Y95.050 E2.04324
G1 X127.200 Y97.950 E2.13967
G1 X126.000 Y97.950 E2.17956
G1 X126.000 Y95.110 E2.27399
G0 X126.060 Y95.050 F7200
G0 X127.200 Y95.050
G0 X127.200 Y95.511
G0 F3000 E1.27399
G0 X127.200 Y97.950 F7200
G0 X136.401 Y98.950
G0 X136.401 Y99.005
G0 X136.800 Y99.050
G0 F3000 E2.27399
;segType:Loop
G1 X136.800 Y101.050 E2.34049 F1200
G1 X136.401 Y101.050 E2.35376
G1 X136.401 Y98.950 E2.42359
G1 X136.700 Y98.950 E2.43354
G0 X136.401 Y99.208 F7200
G0 X136.268 Y99.323
;segType:Perimeter
G1 X136.061 Y98.550 E2.46015 F600
G1 X137.200 Y98.550 E2.49803
G1 X137.200 Y101.450 E2.59447
G1 X136.001 Y101.450 E2.63435
G1 X136.001 Y98.610 E2.72879
G0 X136.061 Y98.550 F7200
G0 X137.200 Y98.550
G0 X137.200 Y99.011
; ------------------------------------
; Layer #24
; ------------------------------------
G92 E0 ;reset extr
G0 F3000 E-1.00000
G0 F600 Z6.000
G0 X136.800 Y99.016 F7200
G0 X136.401 Y99.020
G0 X133.600 Y99.050
G0 F3000 E0.00000
;segType:Loop
G1 X133.600 Y101.050 E0.06650 F1200
G1 X133.201 Y101.050 E0.07977
G1 X133.201 Y98.950 E0.14960
G1 X133.500 Y98.950 E0.15955
G0 X133.201 Y99.208 F7200
G0 X133.068 Y99.323
;segType:Perimeter
G1 X132.861 Y98.550 E0.18616 F600
G1 X134.000 Y98.550 E0.22404
G1 X134.000 Y101.450 E0.32048
G1 X132.801 Y101.450 E0.36036
G1 X132.801 Y98.610 E0.45480
G0 X132.861 Y98.550 F7200
G0 X134.000 Y98.550
G0 X134.000 Y99.011
G0 F3000 E-0.54520
G0 X133.600 Y98.950 F7200
G0 X133.600 Y99.208
G0 X133.201 Y99.404
G0 X133.201 Y101.050
G0 X126.800 Y102.450
G0 X126.800 Y102.550
G0 F3000 E0.45480
;segType:Loop
G1 X126.800 Y104.550 E0.52129 F1200
G1 X126.400 Y104.550 E0.53457
G1 X126.400 Y102.450 E0.60439
G1 X126.700 Y102.450 E0.61435
G0 X126.400 Y102.709 F7200
G0 X126.267 Y102.823
;segType:Perimeter
G1 X126.060 Y102.050 E0.64096 F600
G1 X127.200 Y102.050 E0.67885
G1 X127.200 Y104.950 E0.77528
G1 X126.000 Y104.950 E0.81517
G1 X126.000 Y102.110 E0.90960
G0 X126.060 Y102.050 F7200
G0 X127.200 Y102.050
G0 X127.200 Y102.511
G0 F3000 E-0.09040
G0 X126.800 Y102.516 F7200
G0 X126.400 Y102.520
G0 X123.600 Y102.550
G0 X123.200 Y102.555
G0 X123.200 Y102.450
G0 X123.600 Y102.450
G0 X123.600 Y102.550
G0 F3000 E0.90960
;segType:Loop
G1 X123.600 Y104.550 E0.97609 F1200
G1 X123.200 Y104.550 E0.98937
G1 X123.200 Y102.450 E1.05919
G1 X123.500 Y102.450 E1.06915
G0 X123.500 Y102.450 F7200
G0 X123.200 Y102.709
G0 X123.067 Y102.823
;segType:Perimeter
G1 X122.860 Y102.050 E1.09575 F600
G1 X124.000 Y102.050 E1.13365
G1 X124.000 Y104.950 E1.23008
G1 X122.800 Y104.950 E1.26997
G1 X122.800 Y102.110 E1.36440
G0 X122.860 Y102.050 F7200
G0 X124.000 Y102.050
G0 X124.000 Y102.511
G0 F3000 E0.36440
G0 X124.000 Y102.511 F7200
G0 X123.973 Y102.050
G0 X123.600 Y97.550
G0 X123.600 Y95.550
G0 X123.594 Y95.450
G0 X123.600 Y95.450
G0 X123.600 Y95.550
G0 F3000 E1.36440
;segType:Loop
G1 X123.600 Y97.550 E1.43089 F1200
G1 X123.200 Y97.550 E1.44417
G1 X123.200 Y95.450 E1.51399
G1 X123.500 Y95.450 E1.52395
G0 X123.500 Y95.450 F7200
G0 X123.200 Y95.708
G0 X123.067 Y95.823
;segType:Perimeter
G1 X122.860 Y95.050 E1.55055 F600
G1 X124.000 Y95.050 E1.58845
G1 X124.000 Y97.950 E1.68488
G1 X122.800 Y97.950 E1.72477
G1 X122.800 Y95.110 E1.81920
G0 X122.860 Y95.050 F7200
G0 X124.000 Y95.050
G0 X124.000 Y95.511
G0 F3000 E0.81920
G0 X126.400 Y95.545 F7200
G0 X126.800 Y95.550
G0 F3000 E1.81920
;segType:Loop
G1 X126.800 Y97.550 E1.88569 F1200
G1 X126.400 Y97.550 E1.89897
G1 X126.400 Y95.450 E1.96879
G1 X126.700 Y95.450 E1.97875
G0 X126.400 Y95.708 F7200
G0 X126.267 Y95.823
;segType:Perimeter
G1 X126.060 Y95.050 E2.00535 F600
G1 X127.200 Y95.050 E2.04325
G1 X127.200 Y97.950 E2.13968
G1 X126.000 Y97.950 E2.17957
G1 X126.000 Y95.110 E2.27400
G0 X126.060 Y95.050 F7200
G0 X127.200 Y95.050
G0 X127.200 Y95.511
G0 F3000 E1.27400
G0 X127.200 Y97.950 F7200
G0 X136.401 Y98.950
G0 X136.401 Y99.005
G0 X136.800 Y99.050
G0 F3000 E2.27400
;segType:Loop
G1 X136.800 Y101.050 E2.34050 F1200
G1 X136.401 Y101.050 E2.35377
G1 X136.401 Y98.950 E2.42360
G1 X136.700 Y98.950 E2.43355
G0 X136.401 Y99.208 F7200
G0 X136.268 Y99.323
;segType:Perimeter
G1 X136.061 Y98.550 E2.46015 F600
G1 X137.200 Y98.550 E2.49804
G1 X137.200 Y101.450 E2.59447
G1 X136.001 Y101.450 E2.63436
G1 X136.001 Y98.610 E2.72880
G0 X136.061 Y98.550 F7200
G0 X137.200 Y98.550
G0 X137.200 Y99.011
; ------------------------------------
; Layer #25
; ------------------------------------
G92 E0 ;reset extr
G0 F3000 E-1.00000
G0 F600 Z6.200
G0 X136.800 Y99.016 F7200
G0 X136.401 Y99.020
G0 X133.600 Y99.050
G0 F3000 E0.00000
;segType:Loop
G1 X133.600 Y101.050 E0.06650 F1200
G1 X133.201 Y101.050 E0.07977
G1 X133.201 Y98.950 E0.14960
G1 X133.500 Y98.950 E0.15955
G0 X133.201 Y99.208 F7200
G0 X133.068 Y99.323
;segType:Perimeter
G1 X132.861 Y98.550 E0.18616 F600
G1 X134.000 Y98.550 E0.22404
G1 X134.000 Y101.450 E0.32048
G1 X132.801 Y101.450 E0.36036
G1 X132.801 Y98.610 E0.45480
G0 X132.861 Y98.550 F7200
G0 X134.000 Y98.550
G0 X134.000 Y99.011
G0 F3000 E-0.54520
G0 X133.600 Y98.950 F7200
G0 X133.600 Y99.208
G0 X133.201 Y99.404
G0 X133.201 Y101.050
G0 X126.800 Y102.450
G0 X126.800 Y102.550
G0 F3000 E0.45480
;segType:Loop
G1 X126.800 Y104.550 E0.52129 F1200
G1 X126.400 Y104.550 E0.53457
G1 X126.400 Y102.450 E0.60439
G1 X126.700 Y102.450 E0.61435
G0 X126.400 Y102.709 F7200
G0 X126.267 Y102.823
;segType:Perimeter
G1 X126.060 Y102.050 E0.64095 F600
G1 X127.200 Y102.050 E0.67885
G1 X127.200 Y104.950 E0.77528
G1 X126.000 Y104.950 E0.81516
G1 X126.000 Y102.110 E0.90960
G0 X126.060 Y102.050 F7200
G0 X127.200 Y102.050
G0 X127.200 Y102.511
G0 F3000 E-0.09040
G0 X126.800 Y102.516 F7200
G0 X126.400 Y102.520
G0 X123.600 Y102.550
G0 X123.200 Y102.555
G0 X123.200 Y102.450
G0 X123.600 Y102.450
G0 X123.600 Y102.550
G0 F3000 E0.90960
;segType:Loop
G1 X123.600 Y104.550 E0.97609 F1200
G1 X123.200 Y104.550 E0.98937
G1 X123.200 Y102.450 E1.05919
G1 X123.500 Y102.450 E1.06914
G0 X123.500 Y102.450 F7200
G0 X123.200 Y102.709
G0 X123.067 Y102.823
;segType:Perimeter
G1 X122.860 Y102.050 E1.09575 F600
G1 X124.000 Y102.050 E1.13365
G1 X124.000 Y104.950 E1.23007
G1 X122.800 Y104.950 E1.26996
G1 X122.800 Y102.110 E1.36439
G0 X122.860 Y102.050 F7200
G0 X124.000 Y102.050
G0 X124.000 Y102.511
G0 F3000 E0.36439
G0 X124.000 Y102.511 F7200
G0 X123.973 Y102.050
G0 X123.600 Y97.550
G0 X123.600 Y95.550
G0 X123.594 Y95.450
G0 X123.600 Y95.450
G0 X123.600 Y95.550
G0 F3000 E1.36439
;segType:Loop
G1 X123.600 Y97.550 E1.43089 F1200
G1 X123.200 Y97.550 E1.44417
G1 X123.200 Y95.450 E1.51399
G1 X123.500 Y95.450 E1.52394
G0 X123.500 Y95.450 F7200
G0 X123.200 Y95.708
G0 X123.067 Y95.823
;segType:Perimeter
G1 X122.860 Y95.050 E1.55055 F600
G1 X124.000 Y95.050 E1.58844
G1 X124.000 Y97.950 E1.68487
G1 X122.800 Y97.950 E1.72476
G1 X122.800 Y95.110 E1.81919
G0 X122.860 Y95.050 F7200
G0 X124.000 Y95.050
G0 X124.000 Y95.511
G0 F3000 E0.81919
G0 X126.400 Y95.545 F7200
G0 X126.800 Y95.550
G0 F3000 E1.81919
;segType:Loop
G1 X126.800 Y97.550 E1.88568 F1200
G1 X126.400 Y97.550 E1.89897
G1 X126.400 Y95.450 E1.96879
G1 X126.700 Y95.450 E1.97874
G0 X126.400 Y95.708 F7200
G0 X126.267 Y95.823
;segType:Perimeter
G1 X126.060 Y95.050 E2.00535 F600
G1 X127.200 Y95.050 E2.04324
G1 X127.200 Y97.950 E2.13967
G1 X126.000 Y97.950 E2.17956
G1 X126.000 Y95.110 E2.27399
G0 X126.060 Y95.050 F7200
G0 X127.200 Y95.050
G0 X127.200 Y95.511
G0 F3000 E1.27399
G0 X127.200 Y97.950 F7200
G0 X136.401 Y98.950
G0 X136.401 Y99.005
G0 X136.800 Y99.050
G0 F3000 E2.27399
;segType:Loop
G1 X136.800 Y101.050 E2.34049 F1200
G1 X136.401 Y101.050 E2.35376
G1 X136.401 Y98.950 E2.42359
G1 X136.700 Y98.950 E2.43354
G0 X136.401 Y99.208 F7200
G0 X136.268 Y99.323
;segType:Perimeter
G1 X136.061 Y98.550 E2.46015 F600
G1 X137.200 Y98.550 E2.49803
G1 X137.200 Y101.450 E2.59447
G1 X136.001 Y101.450 E2.63435
G1 X136.001 Y98.610 E2.72879
G0 X136.061 Y98.550 F7200
G0 X137.200 Y98.550
G0 X137.200 Y99.011
; ------------------------------------
; Layer #26
; ------------------------------------
G92 E0 ;reset extr
G0 F3000 E-1.00000
G0 F600 Z6.400
G0 X136.800 Y99.016 F7200
G0 X136.401 Y99.020
G0 X133.600 Y99.050
G0 F3000 E0.00000
;segType:Loop
G1 X133.600 Y101.050 E0.06650 F1200
G1 X133.201 Y101.050 E0.07977
G1 X133.201 Y98.950 E0.14960
G1 X133.500 Y98.950 E0.15955
G0 X133.201 Y99.208 F7200
G0 X133.068 Y99.323
;segType:Perimeter
G1 X132.861 Y98.550 E0.18616 F600
G1 X134.000 Y98.550 E0.22404
G1 X134.000 Y101.450 E0.32048
G1 X132.801 Y101.450 E0.36036
G1 X132.801 Y98.610 E0.45480
G0 X132.861 Y98.550 F7200
G0 X134.000 Y98.550
G0 X134.000 Y99.011
G0 F3000 E-0.54520
G0 X133.600 Y98.950 F7200
G0 X133.600 Y99.208
G0 X133.201 Y99.404
G0 X133.201 Y101.050
G0 X126.800 Y102.450
G0 X126.800 Y102.550
G0 F3000 E0.45480
;segType:Loop
G1 X126.800 Y104.550 E0.52129 F1200
G1 X126.400 Y104.550 E0.53457
G1 X126.400 Y102.450 E0.60439
G1 X126.700 Y102.450 E0.61435
G0 X126.400 Y102.709 F7200
G0 X126.267 Y102.823
;segType:Perimeter
G1 X126.060 Y102.050 E0.64096 F600
G1 X127.200 Y102.050 E0.67885
G1 X127.200 Y104.950 E0.77528
G1 X126.000 Y104.950 E0.81517
G1 X126.000 Y102.110 E0.90960
G0 X126.060 Y102.050 F7200
