; #disp params :
; Printmode:0
; Layer:198
; Zmax:114.831 mm
; Xmax:146.856 mm
; Ymax:20.9 mm
; Xmin:113.069 mm
; Ymin:0.3 mm
; E0diam:0.4 mm
; E0len:0.471663 m
; E0temp:215 C
; Bedtemp:215 C
; Time:26.4041 min
; #params end
; GCode generated by CraftWare

G28 X Y ; home horizontally
G28 Z ; home vertically


M104 S215 ;set head temp (no wait)
M190 S60 ;set bed temp (wait)
M109 S215 ;set head temp (wait)

; ------------------------------------
; Raft Layer #0
; ------------------------------------
M106 S0 ;turn off fan
G21 ; mm
G90 ; abs
G92 E0 ;reset extr
G0 F600 Z0.300
;segType:Raft
G0 F3000 E-1.00000
G0 F600 Z2.300
G0 X131.444 Y114.766 F5400
G0 F600 Z0.300
G0 F3000 E0.00000
G1 X118.319 Y114.766 E0.65481 F600
G1 X113.331 Y109.778 E1.00671
G1 X113.134 Y109.450 E1.02582
G1 X113.134 Y90.550 E1.96874
G1 X118.122 Y85.562 E2.32064
G1 X118.450 Y85.365 E2.33975
G1 X131.575 Y85.365 E2.99456
G1 X134.988 Y88.778 E3.23533
G1 X141.288 Y88.778 E3.54964
G1 X141.616 Y88.975 E3.56875
G1 X142.206 Y89.565 E3.61040
G0 X142.338 Y89.697 F5400
G1 X146.538 Y93.897 E3.90673 F600
G1 X146.735 Y94.225 E3.92584
G1 X146.735 Y96.325 E4.03061
G0 X146.735 Y96.587 F5400
G1 X146.735 Y106.038 E4.50207 F600
G1 X141.747 Y111.025 E4.85397
G1 X141.419 Y111.222 E4.87308
G1 X135.119 Y111.222 E5.18739
G1 X134.791 Y111.419 E5.20646
G1 X131.510 Y114.700 E5.43797
G0 X129.803 Y114.438 F5400
G1 X129.803 Y85.825 E6.86546 F600
G0 X127.136 Y85.825 F5400
G1 X127.136 Y114.438 E8.29295 F600
G0 X124.470 Y114.438 F5400
G1 X124.470 Y85.825 E9.72043 F600
G0 X121.803 Y85.825 F5400
G1 X121.803 Y114.438 E11.14792 F600
G0 X119.136 Y114.438 F5400
G1 X119.136 Y85.825 E12.57541 F600
G0 X116.470 Y87.925 F5400
G1 X116.470 Y112.338 E13.79336 F600
G0 X113.803 Y109.713 F5400
G1 X113.803 Y90.550 E14.74938 F600
G0 X132.470 Y87.006 F5400
G1 X132.470 Y113.125 E16.05245 F600
G0 X135.136 Y110.894 F5400
G1 X135.136 Y89.237 E17.13289 F600
G0 X137.803 Y89.237 F5400
G1 X137.803 Y110.894 E18.21333 F600
G0 X140.470 Y110.894 F5400
G1 X140.470 Y89.237 E19.29377 F600
G0 X143.136 Y91.206 F5400
G1 X143.136 Y109.056 E20.18431 F600
G0 X145.803 Y106.431 F5400
G1 X145.803 Y93.831 E20.81293 F600



; ------------------------------------
; Raft Layer #1
; ------------------------------------
G92 E0 ;reset extr
G0 F600 Z0.600
;segType:Raft
G0 X146.056 Y93.437 F7200
G1 X124.662 Y114.831 E1.50944 F1800
G0 X122.777 Y114.831 F7200
G1 X145.089 Y92.519 E3.08370 F1800
G0 X144.122 Y91.600 F7200
G1 X120.891 Y114.831 E4.72278 F1800
G0 X119.005 Y114.831 F7200
G1 X143.286 Y90.550 E6.43594 F1800
G0 X142.320 Y89.631 F7200
G1 X117.776 Y114.175 E8.16763 F1800
G0 X116.809 Y113.256 F7200
G1 X141.221 Y88.844 E9.89005 F1800
G0 X139.336 Y88.844 F7200
G1 X115.842 Y112.338 E11.54765 F1800
G0 X114.972 Y111.323 F7200
G1 X137.415 Y88.879 E13.13117 F1800
G0 X135.578 Y88.831 F7200
G1 X114.053 Y110.356 E14.64987 F1800
G0 X113.069 Y109.323 F7200
G1 X134.331 Y88.061 E16.15006 F1800
G0 X133.413 Y87.094 F7200
G1 X113.069 Y107.438 E17.58543 F1800
G0 X113.069 Y105.552 F7200
G1 X132.363 Y86.259 E18.94670 F1800
G0 X131.444 Y85.291 F7200
G1 X113.069 Y103.666 E20.24316 F1800
G0 X113.069 Y101.781 F7200
G1 X129.606 Y85.244 E21.40996 F1800
G0 X127.637 Y85.326 F7200
G1 X113.069 Y99.895 E22.43787 F1800
G0 X113.069 Y98.010 F7200
G1 X125.800 Y85.279 E23.33612 F1800
G0 X123.831 Y85.361 F7200
G1 X113.069 Y96.124 E24.09547 F1800
G0 X113.069 Y94.238 F7200
G1 X121.994 Y85.313 E24.72518 F1800
G0 X120.156 Y85.265 F7200
G1 X113.069 Y92.353 E25.22525 F1800
G0 X126.548 Y114.831 F7200
G1 X146.760 Y94.619 E26.65134 F1800
G0 X146.808 Y96.456 F7200
G1 X128.434 Y114.831 E27.94779 F1800
G0 X130.319 Y114.831 F7200
G1 X146.856 Y98.294 E29.11459 F1800
G0 X146.773 Y100.263 F7200
G1 X135.748 Y111.288 E29.89246 F1800
G0 X137.634 Y111.288 F7200
G1 X146.821 Y102.100 E30.54068 F1800
G0 X146.738 Y104.069 F7200
G1 X139.520 Y111.288 E31.05000 F1800
G0 X141.405 Y111.288 F7200
G1 X146.787 Y105.906 E31.42968 F1800



; ------------------------------------
; Raft Layer #2
; ------------------------------------
G92 E0 ;reset extr
G0 F600 Z0.800
;segType:Raft
G0 F3000 E-1.00000
G0 F600 Z2.800
G0 X131.575 Y114.597 F7200
G0 F600 Z0.800
G0 F3000 E0.00000
G1 X118.056 Y114.597 E0.44964 F2400
G1 X117.662 Y114.197 E0.46830
G1 X131.969 Y114.197 E0.94413
G1 X132.363 Y113.797 E0.96280
G1 X117.269 Y113.797 E1.46482
G1 X116.875 Y113.397 E1.48349
G1 X132.756 Y113.397 E2.01171
G1 X133.150 Y112.997 E2.03037
G1 X116.481 Y112.997 E2.58478
G1 X116.087 Y112.597 E2.60345
G1 X133.544 Y112.597 E3.18405
G1 X133.938 Y112.197 E3.20272
G1 X115.694 Y112.197 E3.80951
G1 X115.300 Y111.797 E3.82818
G1 X134.331 Y111.797 E4.46116
G1 X134.725 Y111.397 E4.47983
G1 X114.906 Y111.397 E5.13900
G1 X114.512 Y110.997 E5.15767
G1 X141.681 Y110.997 E6.06131
G1 X142.075 Y110.597 E6.07998
G1 X114.119 Y110.597 E7.00981
G1 X113.725 Y110.197 E7.02848
G1 X142.469 Y110.197 E7.98450
G1 X142.863 Y109.797 E8.00317
G1 X113.331 Y109.797 E8.98539
G1 X113.069 Y109.397 E9.00130
G1 X143.256 Y109.397 E10.00534
G1 X143.650 Y108.997 E10.02401
G1 X113.069 Y108.997 E11.04115
G1 X113.069 Y108.597 E11.05445
G1 X144.175 Y108.597 E12.08905
G1 X144.569 Y108.197 E12.10772
G1 X113.069 Y108.197 E13.15542
G1 X113.069 Y107.797 E13.16872
G1 X144.963 Y107.797 E14.22952
G1 X145.356 Y107.397 E14.24818
G1 X113.069 Y107.397 E15.32207
G1 X113.069 Y106.997 E15.33538
G1 X145.750 Y106.997 E16.42236
G1 X146.144 Y106.597 E16.44103
G1 X113.069 Y106.597 E17.54111
G1 X113.069 Y106.197 E17.55442
G1 X146.538 Y106.197 E18.66760
G1 X146.669 Y105.797 E18.68160
G1 X113.069 Y105.797 E19.79914
G1 X113.069 Y105.397 E19.81245
G1 X146.669 Y105.397 E20.92999
G1 X146.669 Y104.997 E20.94329
G1 X113.069 Y104.997 E22.06084
G1 X113.069 Y104.597 E22.07414
G1 X146.669 Y104.597 E23.19169
G1 X146.669 Y104.197 E23.20499
G1 X113.069 Y104.197 E24.32253
G1 X113.069 Y103.797 E24.33584
G1 X146.669 Y103.797 E25.45338
G1 X146.669 Y103.397 E25.46669
G1 X113.069 Y103.397 E26.58423
G1 X113.069 Y102.997 E26.59753
G1 X146.669 Y102.997 E27.71508
G1 X146.669 Y102.597 E27.72838
G1 X113.069 Y102.597 E28.84593
G1 X113.069 Y102.197 E28.85923
G1 X146.669 Y102.197 E29.97677
G1 X146.669 Y101.797 E29.99008
G1 X113.069 Y101.797 E31.10762
G1 X113.069 Y101.397 E31.12093
G1 X146.669 Y101.397 E32.23847
G1 X146.669 Y100.997 E32.25178
G1 X113.069 Y100.997 E33.36932
G1 X113.069 Y100.597 E33.38262
G1 X146.669 Y100.597 E34.50017
G1 X146.669 Y100.197 E34.51347
G1 X113.069 Y100.197 E35.63101
G1 X113.069 Y99.797 E35.64432
G1 X146.669 Y99.797 E36.76186
G1 X146.669 Y99.397 E36.77517
G1 X113.069 Y99.397 E37.89271
G1 X113.069 Y98.997 E37.90601
G1 X146.669 Y98.997 E39.02356
G1 X146.669 Y98.597 E39.03686
G1 X113.069 Y98.597 E40.15440
G1 X113.069 Y98.197 E40.16771
G1 X146.669 Y98.197 E41.28525
G1 X146.669 Y97.797 E41.29856
G1 X113.069 Y97.797 E42.41610
G1 X113.069 Y97.397 E42.42941
G1 X146.669 Y97.397 E43.54695
G1 X146.669 Y96.997 E43.56026
G1 X113.069 Y96.997 E44.67780
G1 X113.069 Y96.597 E44.69110
G1 X146.669 Y96.597 E45.80865
G1 X146.669 Y96.197 E45.82195
G1 X113.069 Y96.197 E46.93949
G1 X113.069 Y95.797 E46.95280
G1 X146.669 Y95.797 E48.07034
G1 X146.669 Y95.397 E48.08365
G1 X113.069 Y95.397 E49.20119
G1 X113.069 Y94.997 E49.21450
G1 X146.669 Y94.997 E50.33204
G1 X146.669 Y94.597 E50.34534
G1 X113.069 Y94.597 E51.46289
G1 X113.069 Y94.197 E51.47619
G1 X146.669 Y94.197 E52.59373
G1 X146.406 Y93.797 E52.60965
G1 X113.069 Y93.797 E53.71846
G1 X113.069 Y93.397 E53.73177
G1 X146.013 Y93.397 E54.82749
G1 X145.619 Y92.997 E54.84616
G1 X113.069 Y92.997 E55.92877
G1 X113.069 Y92.597 E55.94208
G1 X145.225 Y92.597 E57.01160
G1 X144.831 Y92.197 E57.03027
G1 X113.069 Y92.197 E58.08670
G1 X113.069 Y91.797 E58.10000
G1 X144.438 Y91.797 E59.14334
G1 X143.913 Y91.397 E59.16529
G1 X113.069 Y91.397 E60.19116
G1 X113.069 Y90.997 E60.20447
G1 X143.519 Y90.997 E61.21724
G1 X143.125 Y90.597 E61.23591
G1 X113.069 Y90.597 E62.23559
G1 X113.462 Y90.197 E62.25426
G1 X142.731 Y90.197 E63.22774
G1 X142.338 Y89.797 E63.24641
G1 X113.856 Y89.797 E64.19371
G1 X114.250 Y89.397 E64.21237
G1 X141.944 Y89.397 E65.13347
G1 X141.550 Y88.997 E65.15214
G1 X114.644 Y88.997 E66.04705
G1 X115.037 Y88.597 E66.06571
G1 X134.725 Y88.597 E66.72052
G1 X134.331 Y88.197 E66.73919
G1 X115.431 Y88.197 E67.36781
G1 X115.825 Y87.797 E67.38648
G1 X133.938 Y87.797 E67.98890
G1 X133.544 Y87.397 E68.00757
G1 X116.219 Y87.397 E68.58380
G1 X116.612 Y86.997 E68.60247
G1 X133.150 Y86.997 E69.15251
G1 X132.756 Y86.597 E69.17118
G1 X117.006 Y86.597 E69.69503
G1 X117.400 Y86.197 E69.71370
G1 X132.363 Y86.197 E70.21136
G1 X131.969 Y85.797 E70.23003
G1 X117.794 Y85.797 E70.70149
G1 X118.187 Y85.397 E70.72016
G1 X131.575 Y85.397 E71.16544



; ------------------------------------
; Raft Layer #3
; ------------------------------------
M106 S255 ;set fan speed
G92 E0 ;reset extr
G0 F600 Z1.000
;segType:Raft
G0 F3000 E-1.00000
G0 F600 Z3.000
G0 X146.603 Y106.300 F7200
G0 F600 Z1.000
G0 F3000 E0.00000
G1 X146.603 Y93.962 E0.41035 F2400
G1 X146.203 Y93.569 E0.42902
G1 X146.203 Y106.694 E0.86556
G1 X145.803 Y107.088 E0.88422
G1 X145.803 Y93.175 E1.34696
G1 X145.403 Y92.781 E1.36563
G1 X145.403 Y107.481 E1.85455
G1 X145.003 Y107.875 E1.87322
G1 X145.003 Y92.387 E2.38834
G1 X144.603 Y91.994 E2.40701
G1 X144.603 Y108.269 E2.94832
G1 X144.203 Y108.663 E2.96698
G1 X144.203 Y91.600 E3.53449
G1 X143.803 Y91.206 E3.55316
G1 X143.803 Y109.056 E4.14685
G1 X143.403 Y109.450 E4.16552
G1 X143.403 Y90.812 E4.78541
G1 X143.003 Y90.419 E4.80407
G1 X143.003 Y109.844 E5.45015
G1 X142.603 Y110.238 E5.46882
G1 X142.603 Y90.025 E6.14109
G1 X142.203 Y89.631 E6.15976
G1 X142.203 Y110.631 E6.85823
G1 X141.803 Y111.025 E6.87690
G1 X141.803 Y89.237 E7.60155
G1 X141.403 Y88.844 E7.62022
G1 X141.403 Y111.288 E8.36671
G1 X141.003 Y111.288 E8.38001
G1 X141.003 Y88.844 E9.12649
G1 X140.603 Y88.844 E9.13980
G1 X140.603 Y111.288 E9.88628
G1 X140.203 Y111.288 E9.89959
G1 X140.203 Y88.844 E10.64607
G1 X139.803 Y88.844 E10.65937
G1 X139.803 Y111.288 E11.40586
G1 X139.403 Y111.288 E11.41916
G1 X139.403 Y88.844 E12.16565
G1 X139.003 Y88.844 E12.17895
G1 X139.003 Y111.288 E12.92543
G1 X138.603 Y111.288 E12.93874
G1 X138.603 Y88.844 E13.68522
G1 X138.203 Y88.844 E13.69853
G1 X138.203 Y111.288 E14.44501
G1 X137.803 Y111.288 E14.45831
G1 X137.803 Y88.844 E15.20480
G1 X137.403 Y88.844 E15.21810
G1 X137.403 Y111.288 E15.96458
G1 X137.003 Y111.288 E15.97789
G1 X137.003 Y88.844 E16.72437
G1 X136.603 Y88.844 E16.73768
G1 X136.603 Y111.288 E17.48416
G1 X136.203 Y111.288 E17.49747
G1 X136.203 Y88.844 E18.24395
G1 X135.803 Y88.844 E18.25725
G1 X135.803 Y111.288 E19.00374
G1 X135.403 Y111.288 E19.01704
G1 X135.403 Y88.844 E19.76353
G1 X135.003 Y88.844 E19.77683
G1 X135.003 Y111.288 E20.52332
G1 X134.603 Y111.681 E20.54199
G1 X134.603 Y88.450 E21.31466
G1 X134.203 Y88.056 E21.33333
G1 X134.203 Y112.075 E22.13220
G1 X133.803 Y112.469 E22.15087
G1 X133.803 Y87.662 E22.97593
G1 X133.403 Y87.269 E22.99460
G1 X133.403 Y112.863 E23.84585
G1 X133.003 Y113.256 E23.86452
G1 X133.003 Y86.875 E24.74197
G1 X132.603 Y86.481 E24.76064
G1 X132.603 Y113.650 E25.66428
G1 X132.203 Y114.044 E25.68294
G1 X132.203 Y86.087 E26.61277
G1 X131.803 Y85.694 E26.63144
G1 X131.803 Y114.438 E27.58747
G1 X131.403 Y114.831 E27.60614
G1 X131.403 Y85.431 E28.58399
G1 X131.003 Y85.431 E28.59729
G1 X131.003 Y114.831 E29.57514
G1 X130.603 Y114.831 E29.58844
G1 X130.603 Y85.431 E30.56629
G1 X130.203 Y85.431 E30.57960
G1 X130.203 Y114.831 E31.55745
G1 X129.803 Y114.831 E31.57075
G1 X129.803 Y85.431 E32.54860
G1 X129.403 Y85.431 E32.56191
G1 X129.403 Y114.831 E33.53976
G1 X129.003 Y114.831 E33.55306
G1 X129.003 Y85.431 E34.53092
G1 X128.603 Y85.431 E34.54422
G1 X128.603 Y114.831 E35.52207
G1 X128.203 Y114.831 E35.53538
G1 X128.203 Y85.431 E36.51323
G1 X127.803 Y85.431 E36.52654
G1 X127.803 Y114.831 E37.50439
G1 X127.403 Y114.831 E37.51769
G1 X127.403 Y85.431 E38.49555
G1 X127.003 Y85.431 E38.50885
G1 X127.003 Y114.831 E39.48670
G1 X126.603 Y114.831 E39.50001
G1 X126.603 Y85.431 E40.47786
G1 X126.203 Y85.431 E40.49117
G1 X126.203 Y114.831 E41.46902
G1 X125.803 Y114.831 E41.48232
G1 X125.803 Y85.431 E42.46018
G1 X125.403 Y85.431 E42.47348
G1 X125.403 Y114.831 E43.45133
G1 X125.003 Y114.831 E43.46464
G1 X125.003 Y85.431 E44.44249
G1 X124.603 Y85.431 E44.45580
G1 X124.603 Y114.831 E45.43365
G1 X124.203 Y114.831 E45.44696
G1 X124.203 Y85.431 E46.42481
G1 X123.803 Y85.431 E46.43811
G1 X123.803 Y114.831 E47.41596
G1 X123.403 Y114.831 E47.42927
G1 X123.403 Y85.431 E48.40712
G1 X123.003 Y85.431 E48.42043
G1 X123.003 Y114.831 E49.39828
G1 X122.603 Y114.831 E49.41159
G1 X122.603 Y85.431 E50.38944
G1 X122.203 Y85.431 E50.40274
G1 X122.203 Y114.831 E51.38059
G1 X121.803 Y114.831 E51.39390
G1 X121.803 Y85.431 E52.37175
G1 X121.403 Y85.431 E52.38506
G1 X121.403 Y114.831 E53.36291
G1 X121.003 Y114.831 E53.37622
G1 X121.003 Y85.431 E54.35407
G1 X120.603 Y85.431 E54.36737
G1 X120.603 Y114.831 E55.34522
G1 X120.203 Y114.831 E55.35853
G1 X120.203 Y85.431 E56.33638
G1 X119.803 Y85.431 E56.34969
G1 X119.803 Y114.831 E57.32754
G1 X119.403 Y114.831 E57.34085
G1 X119.403 Y85.431 E58.31870
G1 X119.003 Y85.431 E58.33200
G1 X119.003 Y114.831 E59.30986
G1 X118.603 Y114.831 E59.32316
G1 X118.603 Y85.431 E60.30101
G1 X118.203 Y85.562 E60.31502
G1 X118.203 Y114.700 E61.28414
G1 X117.803 Y114.306 E61.30281
G1 X117.803 Y85.956 E62.24573
G1 X117.403 Y86.350 E62.26440
G1 X117.403 Y113.913 E63.18114
G1 X117.003 Y113.519 E63.19981
G1 X117.003 Y86.744 E64.09035
G1 X116.603 Y87.137 E64.10902
G1 X116.603 Y113.125 E64.97337
G1 X116.203 Y112.731 E64.99204
G1 X116.203 Y87.531 E65.83020
G1 X115.803 Y87.925 E65.84886
G1 X115.803 Y112.338 E66.66083
G1 X115.403 Y111.944 E66.67950
G1 X115.403 Y88.319 E67.46527
G1 X115.003 Y88.712 E67.48394
G1 X115.003 Y111.550 E68.24353
G1 X114.603 Y111.156 E68.26219
G1 X114.603 Y89.106 E68.99559
G1 X114.203 Y89.500 E69.01425
G1 X114.203 Y110.763 E69.72145
G1 X113.803 Y110.369 E69.74012
G1 X113.803 Y89.894 E70.42112
G1 X113.403 Y90.287 E70.43979
G1 X113.403 Y109.975 E71.09460


; ------------------------------------
; Layer #0
; ------------------------------------
G21 ; mm
G90 ; abs
G92 E0 ;reset extr
G0 F600 Z1.350
;segType:HShell
G0 F3000 E-1.00000
G0 X125.800 Y96.500 F5400
G0 F3000 E0.00000
G1 X125.200 Y96.500 E0.04989 F2400
G1 X124.800 Y96.500 E0.08315
G1 X124.400 Y96.500 E0.11641
G0 X124.512 Y95.871 F5400
;segType:Loop
G1 X126.188 Y95.871 E0.17213 F2400
G1 X126.188 Y97.129 E0.21397
G1 X123.812 Y97.129 E0.29297
G1 X123.812 Y95.871 E0.33480
G1 X124.312 Y95.871 E0.35143
G0 X124.312 Y95.871 F5400
G0 X123.812 Y96.165
G0 X123.679 Y96.244
;segType:Perimeter
G1 X123.472 Y95.471 E0.37804 F1200
G1 X126.588 Y95.471 E0.48165
G1 X126.588 Y97.529 E0.55010
G1 X123.412 Y97.529 E0.65571
G1 X123.412 Y95.531 E0.72216
G0 X123.472 Y95.471 F5400
G0 X125.072 Y95.471
G0 F3000 E-0.27784
G0 X126.061 Y95.871 F5400
G0 X126.188 Y95.922
G0 X126.188 Y97.129
G0 X133.812 Y99.371
G0 X134.297 Y99.371
G0 X136.188 Y99.894
G0 X135.600 Y99.731
G0 F3000 E0.72216
;segType:HShell
G0 X135.800 Y100.000 F5400
G1 X135.200 Y100.000 E0.77205 F2400
G1 X134.800 Y100.000 E0.80531
G1 X134.400 Y100.000 E0.83857
G0 X134.512 Y99.371 F5400
;segType:Loop
G1 X136.188 Y99.371 E0.89429 F2400
G1 X136.188 Y100.629 E0.93611
G1 X133.812 Y100.629 E1.01511
G1 X133.812 Y99.371 E1.05694
G1 X134.312 Y99.371 E1.07357
G0 X133.812 Y99.666 F5400
G0 X133.679 Y99.744
;segType:Perimeter
G1 X133.472 Y98.971 E1.10018 F1200
G1 X136.588 Y98.971 E1.20379
G1 X136.588 Y101.029 E1.27223
G1 X133.412 Y101.029 E1.37784
G1 X133.412 Y99.031 E1.44428
G0 X133.472 Y98.971 F5400
G0 X135.072 Y98.971
G0 F3000 E0.44428
G0 X134.183 Y99.371 F5400
G0 X133.812 Y99.538
G0 X133.812 Y100.629
G0 X126.188 Y102.871
G0 X125.600 Y103.231
G0 F3000 E1.44428
;segType:HShell
G0 X125.800 Y103.500 F5400
G1 X125.200 Y103.500 E1.49417 F2400
G1 X124.800 Y103.500 E1.52743
G1 X124.400 Y103.500 E1.56069
G0 X124.512 Y102.871 F5400
;segType:Loop
G1 X126.188 Y102.871 E1.61641 F2400
G1 X126.188 Y104.129 E1.65824
G1 X123.812 Y104.129 E1.73725
G1 X123.812 Y102.871 E1.77908
G1 X124.312 Y102.871 E1.79571
G0 X123.812 Y103.166 F5400
G0 X123.679 Y103.244
;segType:Perimeter
G1 X123.472 Y102.471 E1.82232 F1200
G1 X126.588 Y102.471 E1.92593
G1 X126.588 Y104.529 E1.99438
G1 X123.412 Y104.529 E2.09999
G1 X123.412 Y102.531 E2.16644
G0 X123.472 Y102.471 F5400
G0 X125.072 Y102.471
; ------------------------------------
; Layer #1
; ------------------------------------
G92 E0 ;reset extr
G0 F3000 E-1.00000
G0 F600 Z1.300
G0 X123.741 Y102.822 F7200
G0 X123.741 Y97.178
G0 X124.101 Y96.700
G0 F3000 E0.00000
;segType:HShell
G1 X125.899 Y96.700 E0.02991 F1200
G0 X125.899 Y96.300 F7200
G1 X124.101 Y96.300 E0.05983 F1200
G0 F3000 E-0.94017
G0 X124.441 Y95.822 F7200
G0 F3000 E0.05983
;segType:Loop
G1 X126.260 Y95.822 E0.09008 F1200
G1 X126.260 Y97.178 E0.11264
G1 X123.741 Y97.178 E0.15454
G1 X123.741 Y95.822 E0.17710
G1 X124.241 Y95.822 E0.18541
G0 X123.741 Y96.116 F7200
G0 X123.608 Y96.194
;segType:Perimeter
G1 X123.401 Y95.422 E0.19872 F600
G1 X126.660 Y95.422 E0.25292
G1 X126.660 Y97.578 E0.28878
G1 X123.341 Y97.578 E0.34398
G1 X123.341 Y95.482 E0.37885
G0 X123.401 Y95.422 F7200
G0 X125.001 Y95.422
G0 F3000 E-0.62115
G0 X125.747 Y95.822 F7200
G0 X126.260 Y96.097
G0 X126.260 Y97.178
G0 X133.740 Y99.322
G0 X134.101 Y100.300
G0 F3000 E0.37885
;segType:HShell
G1 X135.900 Y100.300 E0.40877 F1200
G0 F3000 E-0.59123
G0 X135.900 Y99.900 F7200
G0 F3000 E0.40877
G1 X134.101 Y99.900 E0.43869 F1200
G0 F3000 E-0.56131
G0 X134.440 Y99.322 F7200
G0 F3000 E0.43869
;segType:Loop
G1 X136.260 Y99.322 E0.46894 F1200
G1 X136.260 Y100.678 E0.49150
G1 X133.740 Y100.678 E0.53340
G1 X133.740 Y99.322 E0.55596
G1 X134.240 Y99.322 E0.56427
G0 X133.740 Y99.616 F7200
G0 X133.607 Y99.694
;segType:Perimeter
G1 X133.400 Y98.922 E0.57758 F600
G1 X136.660 Y98.922 E0.63178
G1 X136.660 Y101.078 E0.66764
G1 X133.340 Y101.078 E0.72284
G1 X133.340 Y98.982 E0.75771
G0 X133.400 Y98.922 F7200
G0 X135.000 Y98.922
G0 F3000 E-0.24229
G0 X134.205 Y99.322 F7200
G0 X133.740 Y99.556
G0 X133.740 Y100.678
G0 X126.260 Y102.822
G0 X125.899 Y103.500
G0 F3000 E0.75771
;segType:HShell
G1 X124.101 Y103.500 E0.78762 F1200
G0 F3000 E-0.21238
G0 X124.441 Y102.822 F7200
G0 F3000 E0.78762
;segType:Loop
G1 X126.260 Y102.822 E0.81787 F1200
G1 X126.260 Y104.178 E0.84044
G1 X123.741 Y104.178 E0.88233
G1 X123.741 Y102.822 E0.90489
G1 X124.241 Y102.822 E0.91321
G0 X123.741 Y102.953 F7200
G0 X123.556 Y103.001
;segType:Perimeter
G1 X123.401 Y102.422 E0.92319 F600
G1 X126.660 Y102.422 E0.97739
G1 X126.660 Y104.578 E1.01325
G1 X123.341 Y104.578 E1.06845
G1 X123.341 Y102.482 E1.10332
G0 X123.401 Y102.422 F7200
G0 X125.001 Y102.422
; ------------------------------------
; Layer #2
; ------------------------------------
G92 E0 ;reset extr
G0 F3000 E-1.00000
G0 F600 Z1.400
G0 X125.496 Y97.228 F7200
G0 X125.634 Y95.772
G0 X125.600 Y96.132
G0 F3000 E0.00000
;segType:HShell
G1 X125.600 Y96.868 E0.01223 F1200
G0 X125.200 Y96.868 F7200
G1 X125.200 Y96.132 E0.02446 F1200
G0 X124.800 Y96.132 F7200
G1 X124.800 Y96.868 E0.03669 F1200
G0 X124.400 Y96.868 F7200
G1 X124.400 Y96.132 E0.04892 F1200
G0 X124.368 Y95.772 F7200
;segType:Loop
G1 X126.332 Y95.772 E0.08157 F1200
G1 X126.332 Y97.228 E0.10578
G1 X123.668 Y97.228 E0.15007
G1 X123.668 Y95.772 E0.17428
G1 X124.168 Y95.772 E0.18259
G0 X124.168 Y95.772 F7200
G0 X123.668 Y95.903
G0 X123.484 Y95.952
;segType:Perimeter
G1 X123.328 Y95.372 E0.19257 F600
G1 X126.732 Y95.372 E0.24917
G1 X126.732 Y97.628 E0.28668
G1 X123.268 Y97.628 E0.34427
G1 X123.268 Y95.432 E0.38079
G0 X123.328 Y95.372 F7200
G0 X124.928 Y95.372
G0 F3000 E-0.61921
G0 X125.930 Y95.772 F7200
G0 X126.332 Y95.932
G0 X126.332 Y97.228
G0 X133.668 Y99.272
G0 X134.212 Y99.272
G0 X136.332 Y99.822
G0 X135.600 Y99.632
G0 F3000 E0.38079
;segType:HShell
G1 X135.600 Y100.368 E0.39301 F1200
G0 X135.200 Y100.368 F7200
G1 X135.200 Y99.632 E0.40524 F1200
G0 X134.800 Y99.632 F7200
G1 X134.800 Y100.368 E0.41747 F1200
G0 X134.400 Y100.368 F7200
G1 X134.400 Y99.632 E0.42969 F1200
G0 X134.368 Y99.272 F7200
;segType:Loop
G1 X136.332 Y99.272 E0.46234 F1200
G1 X136.332 Y100.728 E0.48654
G1 X133.668 Y100.728 E0.53083
G1 X133.668 Y99.272 E0.55504
G1 X134.168 Y99.272 E0.56335
G0 X133.668 Y99.567 F7200
G0 X133.535 Y99.645
;segType:Perimeter
G1 X133.328 Y98.872 E0.57666 F600
G1 X136.732 Y98.872 E0.63325
G1 X136.732 Y101.128 E0.67076
G1 X133.268 Y101.128 E0.72835
G1 X133.268 Y98.932 E0.76486
G0 X133.328 Y98.872 F7200
G0 X134.928 Y98.872
G0 F3000 E-0.23514
G0 X134.052 Y99.272 F7200
G0 X133.668 Y99.448
G0 X133.668 Y100.728
G0 X126.332 Y102.772
G0 X125.600 Y103.132
G0 F3000 E0.76486
;segType:HShell
G1 X125.600 Y103.868 E0.77709 F1200
G0 X125.200 Y103.868 F7200
G1 X125.200 Y103.132 E0.78933 F1200
G0 X124.800 Y103.132 F7200
G1 X124.800 Y103.868 E0.80156 F1200
G0 X124.400 Y103.868 F7200
G1 X124.400 Y103.132 E0.81379 F1200
G0 X124.368 Y102.772 F7200
;segType:Loop
G1 X126.332 Y102.772 E0.84643 F1200
G1 X126.332 Y104.228 E0.87064
G1 X123.668 Y104.228 E0.91493
G1 X123.668 Y102.772 E0.93914
G1 X124.168 Y102.772 E0.94746
G0 X124.168 Y102.772 F7200
G0 X123.668 Y103.067
G0 X123.536 Y103.145
;segType:Perimeter
G1 X123.328 Y102.372 E0.96076 F600
G1 X126.732 Y102.372 E1.01735
G1 X126.732 Y104.628 E1.05487
G1 X123.268 Y104.628 E1.11246
G1 X123.268 Y102.432 E1.14897
G0 X123.328 Y102.372 F7200
G0 X124.928 Y102.372
; ------------------------------------
; Layer #3
; ------------------------------------
G92 E0 ;reset extr
G0 F3000 E-1.00000
G0 F600 Z1.500
G0 X123.596 Y102.723 F7200
G0 X123.596 Y97.277
G0 X123.902 Y97.277
G0 X123.989 Y95.723
G0 X123.957 Y96.300
G0 F3000 E0.00000
;segType:HShell
G1 X126.044 Y96.300 E0.03471 F1200
G0 X126.044 Y96.700 F7200
G1 X123.957 Y96.700 E0.06941 F1200
G0 F3000 E-0.93059
G0 X124.296 Y95.723 F7200
G0 F3000 E0.06941
;segType:Loop
G1 X126.404 Y95.723 E0.10445 F1200
G1 X126.404 Y97.277 E0.13031
G1 X123.596 Y97.277 E0.17699
G1 X123.596 Y95.723 E0.20285
G1 X124.096 Y95.723 E0.21116
G0 X124.096 Y95.723 F7200
G0 X123.596 Y96.017
G0 X123.464 Y96.095
;segType:Perimeter
G1 X123.256 Y95.323 E0.22447 F600
G1 X126.804 Y95.323 E0.28346
G1 X126.804 Y97.677 E0.32262
G1 X123.196 Y97.677 E0.38260
G1 X123.196 Y95.383 E0.42076
G0 X123.256 Y95.323 F7200
G0 X124.856 Y95.323
G0 F3000 E-0.57924
G0 X125.652 Y95.723 F7200
G0 X126.404 Y96.101
G0 X126.404 Y97.277
G0 X133.596 Y99.223
G0 X133.956 Y99.900
G0 F3000 E0.42076
;segType:HShell
G1 X136.043 Y99.900 E0.45547 F1200
G0 X136.043 Y100.300 F7200
G1 X133.956 Y100.300 E0.49018 F1200
G0 X133.806 Y100.777 F7200
G0 X134.296 Y99.223
;segType:Loop
G1 X136.404 Y99.223 E0.52522 F1200
G1 X136.404 Y100.777 E0.55108
G1 X133.596 Y100.777 E0.59776
G1 X133.596 Y99.223 E0.62362
G1 X134.096 Y99.223 E0.63194
G0 X133.596 Y99.517 F7200
G0 X133.463 Y99.595
;segType:Perimeter
G1 X133.256 Y98.823 E0.64524 F600
G1 X136.804 Y98.823 E0.70423
G1 X136.804 Y101.177 E0.74339
G1 X133.196 Y101.177 E0.80338
G1 X133.196 Y98.883 E0.84155
G0 X133.256 Y98.823 F7200
G0 X134.856 Y98.823
G0 F3000 E-0.15845
G0 X134.162 Y99.223 F7200
G0 X133.596 Y99.548
G0 X133.596 Y100.777
G0 X126.404 Y102.723
G0 X126.044 Y103.900
G0 F3000 E0.84155
;segType:HShell
G1 X123.957 Y103.900 E0.87625 F1200
G0 F3000 E-0.12375
G0 X123.957 Y103.500 F7200
G0 F3000 E0.87625
G1 X126.044 Y103.500 E0.91096 F1200
G0 F3000 E-0.08904
G0 X126.044 Y103.100 F7200
G0 F3000 E0.91096
G1 X123.957 Y103.100 E0.94566 F1200
G0 F3000 E-0.05434
G0 X124.296 Y102.723 F7200
G0 F3000 E0.94566
;segType:Loop
G1 X126.404 Y102.723 E0.98071 F1200
G1 X126.404 Y104.277 E1.00656
G1 X123.596 Y104.277 E1.05325
G1 X123.596 Y102.723 E1.07910
G1 X124.096 Y102.723 E1.08742
G0 X124.096 Y102.723 F7200
G0 X123.596 Y103.017
G0 X123.464 Y103.095
;segType:Perimeter
G1 X123.256 Y102.323 E1.10072 F600
G1 X126.804 Y102.323 E1.15971
G1 X126.804 Y104.677 E1.19887
G1 X123.196 Y104.677 E1.25886
G1 X123.196 Y102.383 E1.29702
G0 X123.256 Y102.323 F7200
G0 X124.856 Y102.323
; ------------------------------------
; Layer #4
; ------------------------------------
G92 E0 ;reset extr
G0 F3000 E-1.00000
G0 F600 Z1.600
G0 X124.810 Y97.327 F7200
G0 X124.795 Y95.673
G0 X124.800 Y96.231
G0 F3000 E0.00000
;segType:HShell
G1 X124.800 Y96.033 E0.00329 F1200
G0 X125.200 Y96.033 F7200
G1 X125.200 Y96.231 E0.00658 F1200
G0 X125.600 Y96.231 F7200
G1 X125.600 Y96.033 E0.00987 F1200
G0 X126.000 Y96.033 F7200
G1 X126.000 Y96.967 E0.02540 F1200
G0 X125.800 Y96.868 F7200
G1 X125.200 Y96.868 E0.03774 F1200
G1 X124.800 Y96.868 E0.04596
G1 X124.400 Y96.868 E0.05419
G0 X124.000 Y96.967 F7200
G1 X124.000 Y96.033 E0.06971 F1200
G0 X124.400 Y96.231 F7200
G1 X124.400 Y96.033 E0.07301 F1200
G0 F3000 E-0.92699
G0 X124.632 Y96.769 F7200
G0 F3000 E0.07301
;segType:Infill
G1 X124.942 Y96.231 E0.08333 F1500
G0 X125.186 Y96.231 F7200
G1 X125.496 Y96.769 E0.09365 F1500
G0 X125.827 Y96.580 F7200
G1 X124.172 Y96.580 E0.12117 F1500
G0 F3000 E-0.87883
G0 X124.224 Y95.673 F7200
G0 F3000 E0.12117
;segType:Loop
G1 X126.476 Y95.673 E0.15861 F1200
G1 X126.476 Y97.327 E0.18611
G1 X123.524 Y97.327 E0.23519
G1 X123.524 Y95.673 E0.26269
G1 X124.024 Y95.673 E0.27101
G0 X124.024 Y95.673 F7200
G0 X123.524 Y95.968
G0 X123.391 Y96.046
;segType:Perimeter
G1 X123.184 Y95.273 E0.28431 F600
G1 X126.876 Y95.273 E0.34570
G1 X126.876 Y97.727 E0.38650
G1 X123.124 Y97.727 E0.44889
G1 X123.124 Y95.333 E0.48869
G0 X123.184 Y95.273 F7200
G0 X124.784 Y95.273
G0 F3000 E-0.51131
G0 X124.765 Y95.673 F7200
G0 X124.683 Y97.327
G0 X124.400 Y103.033
G0 F3000 E0.48869
;segType:HShell
G0 X124.200 Y103.132 F7200
G1 X124.800 Y103.132 E0.50103 F1200
G0 X124.000 Y103.033 F7200
G1 X124.000 Y103.967 E0.51656 F1200
G0 X124.200 Y103.868 F7200
G1 X124.800 Y103.868 E0.52890 F1200
G1 X125.200 Y103.868 E0.53713
G1 X125.600 Y103.868 E0.54535
G0 X126.000 Y103.967 F7200
G1 X126.000 Y103.033 E0.56088 F1200
G0 X125.200 Y103.033 F7200
G0 X125.000 Y103.132
G1 X125.600 Y103.132 E0.57322 F1200
G0 X125.519 Y103.231 F7200
;segType:Infill
G1 X125.209 Y103.769 E0.58354 F1500
G0 X124.919 Y103.769 F7200
G1 X124.609 Y103.231 E0.59386 F1500
G0 X124.224 Y102.673 F7200
;segType:Loop
G1 X126.476 Y102.673 E0.63130 F1200
G1 X126.476 Y104.327 E0.65880
G1 X123.524 Y104.327 E0.70788
G1 X123.524 Y102.673 E0.73538
G1 X124.024 Y102.673 E0.74370
G0 X124.024 Y102.673 F7200
G0 X123.524 Y102.968
G0 X123.391 Y103.046
;segType:Perimeter
G1 X123.184 Y102.273 E0.75700 F600
G1 X126.876 Y102.273 E0.81839
G1 X126.876 Y104.727 E0.85919
G1 X123.124 Y104.727 E0.92157
G1 X123.124 Y102.333 E0.96138
G0 X123.184 Y102.273 F7200
G0 X124.784 Y102.273
G0 F3000 E-0.03862
G0 X126.876 Y102.273 F7200
G0 X133.524 Y100.827
G0 X134.800 Y99.731
G0 F3000 E0.96138
;segType:HShell
G1 X134.800 Y99.533 E0.96468 F1200
G0 X135.200 Y99.533 F7200
G1 X135.200 Y99.731 E0.96797 F1200
G0 X135.600 Y99.731 F7200
G1 X135.600 Y99.533 E0.97127 F1200
G0 X136.000 Y99.533 F7200
G1 X136.000 Y100.467 E0.98679 F1200
G0 X135.800 Y100.368 F7200
G1 X135.200 Y100.368 E0.99915 F1200
G1 X134.800 Y100.368 E1.00739
G1 X134.400 Y100.368 E1.01563
G0 X134.000 Y100.467 F7200
G1 X134.000 Y99.533 E1.03115 F1200
G0 X134.400 Y99.731 F7200
G1 X134.400 Y99.533 E1.03445 F1200
G0 X134.468 Y99.731 F7200
;segType:Infill
G1 X134.173 Y100.244 E1.04429 F1500
G0 X134.173 Y99.796 F7200
G1 X134.445 Y100.269 E1.05336 F1500
G0 F3000 E0.05336
G0 X134.224 Y99.173 F7200
G0 F3000 E1.05336
;segType:Loop
G1 X136.476 Y99.173 E1.09080 F1200
G1 X136.476 Y100.827 E1.11830
G1 X133.524 Y100.827 E1.16738
G1 X133.524 Y99.173 E1.19488
G1 X134.024 Y99.173 E1.20320
G0 X133.524 Y99.468 F7200
G0 X133.391 Y99.546
;segType:Perimeter
G1 X133.184 Y98.773 E1.21650 F600
G1 X136.876 Y98.773 E1.27789
G1 X136.876 Y101.227 E1.31870
G1 X133.124 Y101.227 E1.38108
G1 X133.124 Y98.833 E1.42089
G0 X133.184 Y98.773 F7200
G0 X134.784 Y98.773
; ------------------------------------
; Layer #5
; ------------------------------------
G92 E0 ;reset extr
G0 F3000 E-1.00000
G0 F600 Z1.700
G0 X133.053 Y98.724 F7200
G0 X126.548 Y97.376
G0 X125.899 Y96.700
G0 F3000 E0.00000
;segType:HShell
G1 X126.188 Y96.700 E0.00479 F1200
G0 X125.899 Y96.300 F7200
G1 X126.188 Y96.300 E0.00958 F1200
G0 F3000 E-0.99042
G0 X126.548 Y96.231 F7200
G0 X123.452 Y96.824
G0 X124.101 Y96.700
G0 F3000 E0.00958
G0 X123.957 Y96.900 F7200
G1 X123.957 Y96.300 E0.02755 F1200
G0 X124.563 Y96.818 F7200
;segType:Infill
G1 X124.930 Y96.182 E0.03978 F1500
G0 X125.198 Y96.182 F7200
G1 X125.565 Y96.818 E0.05200 F1500
G0 X125.899 Y96.650 F7200
G1 X124.101 Y96.650 E0.08191 F1500
G0 F3000 E-0.91809
G0 X124.152 Y95.624 F7200
G0 F3000 E0.08191
;segType:Loop
G1 X126.548 Y95.624 E0.12175 F1200
G1 X126.548 Y97.376 E0.15089
G1 X123.452 Y97.376 E0.20237
G1 X123.452 Y95.624 E0.23151
G1 X123.952 Y95.624 E0.23983
G0 X123.952 Y95.624 F7200
G0 X123.452 Y95.918
G0 X123.319 Y95.996
;segType:Perimeter
G1 X123.112 Y95.224 E0.25313 F600
G1 X126.948 Y95.224 E0.31692
G1 X126.948 Y97.776 E0.35937
G1 X123.052 Y97.776 E0.42414
G1 X123.052 Y95.284 E0.46560
G0 X123.112 Y95.224 F7200
G0 X124.712 Y95.224
G0 F3000 E-0.53440
G0 X125.452 Y95.624 F7200
G0 X126.548 Y96.216
G0 X126.548 Y97.376
G0 X133.053 Y98.724
G0 X134.101 Y100.300
G0 F3000 E0.46560
;segType:HShell
G1 X133.813 Y100.300 E0.47038 F1200
G0 F3000 E-0.52962
G0 X133.453 Y100.361 F7200
G0 X136.548 Y99.839
G0 X136.187 Y99.900
G0 F3000 E0.47038
G0 X136.044 Y99.700 F7200
G1 X136.044 Y100.300 E0.48834 F1200
G0 F3000 E-0.51166
G0 X136.187 Y99.500 F7200
G0 F3000 E0.48834
G1 X133.813 Y99.500 E0.52783 F1200
G0 X133.813 Y99.900 F7200
G1 X134.101 Y99.900 E0.53262 F1200
G0 X134.456 Y99.682 F7200
;segType:Infill
G1 X134.101 Y100.298 E0.54446 F1500
G0 X134.514 Y100.318 F7200
G1 X134.147 Y99.682 E0.55667 F1500
G0 X134.153 Y99.124 F7200
;segType:Loop
G1 X136.548 Y99.124 E0.59650 F1200
G1 X136.548 Y100.876 E0.62565
G1 X133.453 Y100.876 E0.67713
G1 X133.453 Y99.124 E0.70628
G1 X133.953 Y99.124 E0.71459
G0 X133.453 Y99.418 F7200
G0 X133.320 Y99.496
;segType:Perimeter
G1 X133.113 Y98.724 E0.72789 F600
G1 X136.948 Y98.724 E0.79167
G1 X136.948 Y101.276 E0.83413
G1 X133.053 Y101.276 E0.89890
G1 X133.053 Y98.784 E0.94036
G0 X133.113 Y98.724 F7200
G0 X134.713 Y98.724
G0 F3000 E-0.05964
G0 X134.713 Y98.724 F7200
G0 X133.053 Y99.576
G0 X133.053 Y101.276
G0 X126.548 Y102.624
G0 X126.188 Y103.100
G0 F3000 E0.94036
;segType:HShell
G1 X123.813 Y103.100 E0.97986 F1200
G0 X123.813 Y103.500 F7200
G1 X124.101 Y103.500 E0.98465 F1200
G0 X123.813 Y103.900 F7200
G1 X126.188 Y103.900 E1.02415 F1200
G0 X125.899 Y103.500 F7200
G1 X126.188 Y103.500 E1.02894 F1200
G0 X125.508 Y103.182 F7200
;segType:Infill
G1 X125.140 Y103.818 E1.04116 F1500
G0 X124.988 Y103.818 F7200
G1 X124.621 Y103.182 E1.05338 F1500
G0 X124.152 Y102.624 F7200
;segType:Loop
G1 X126.548 Y102.624 E1.09322 F1200
G1 X126.548 Y104.376 E1.12236
G1 X123.452 Y104.376 E1.17384
G1 X123.452 Y102.624 E1.20298
G1 X123.952 Y102.624 E1.21130
G0 X123.452 Y102.918 F7200
G0 X123.319 Y102.997
;segType:Perimeter
G1 X123.112 Y102.224 E1.22460 F600
G1 X126.948 Y102.224 E1.28839
G1 X126.948 Y104.776 E1.33084
G1 X123.052 Y104.776 E1.39562
G1 X123.052 Y102.284 E1.43707
G0 X123.112 Y102.224 F7200
G0 X124.712 Y102.224
; ------------------------------------
; Layer #6
; ------------------------------------
G92 E0 ;reset extr
G0 F3000 E-1.00000
G0 F600 Z1.800
G0 X125.600 Y97.066 F7200
G0 F3000 E0.00000
;segType:HShell
G0 X125.800 Y96.967 F7200
G1 X125.200 Y96.967 E0.01236 F1200
G0 X126.000 Y97.066 F7200
G1 X126.000 Y95.934 E0.03118 F1200
G0 X125.800 Y96.033 F7200
G1 X125.200 Y96.033 E0.04352 F1200
G1 X124.800 Y96.033 E0.05174
G1 X124.400 Y96.033 E0.05997
G0 X124.000 Y95.934 F7200
G1 X124.000 Y97.066 E0.07879 F1200
G0 X124.800 Y97.066 F7200
G0 X125.000 Y96.967
G1 X124.400 Y96.967 E0.09115 F1200
G0 X124.494 Y96.868 F7200
;segType:Infill
G1 X124.918 Y96.132 E0.10527 F1500
G0 X125.210 Y96.132 F7200
G1 X125.634 Y96.868 E0.11939 F1500
G0 X125.971 Y96.720 F7200
G1 X124.029 Y96.720 E0.15170 F1500
G0 X123.247 Y95.947 F7200
;segType:Perimeter
G1 X123.040 Y95.174 E0.16501 F600
G1 X127.020 Y95.174 E0.23118
G1 X127.020 Y97.826 E0.27528
G1 X122.980 Y97.826 E0.34245
G1 X122.980 Y95.234 E0.38555
G0 X123.040 Y95.174 F7200
G0 X124.640 Y95.174
G0 X124.080 Y95.574
;segType:Loop
G1 X126.620 Y95.574 E0.42778 F1200
G1 X126.620 Y97.426 E0.45858
G1 X123.380 Y97.426 E0.51244
G1 X123.380 Y95.574 E0.54324
G1 X123.880 Y95.574 E0.55155
G0 F3000 E-0.44845
G0 X123.880 Y95.574 F7200
G0 X126.620 Y96.508
G0 X126.620 Y97.426
G0 X133.381 Y99.074
G0 X135.200 Y99.434
G0 F3000 E0.55155
;segType:HShell
G0 X135.000 Y99.533 F7200
G1 X135.600 Y99.533 E0.56391 F1200
G0 X136.000 Y99.434 F7200
G1 X136.000 Y100.566 E0.58273 F1200
G0 X135.600 Y100.566 F7200
G1 X135.600 Y100.368 E0.58602 F1200
G0 X135.200 Y100.368 F7200
G1 X135.200 Y100.566 E0.58932 F1200
G0 X134.800 Y100.566 F7200
G1 X134.800 Y100.368 E0.59262 F1200
G0 X134.400 Y100.368 F7200
G1 X134.400 Y100.566 E0.59591 F1200
G0 X134.000 Y100.566 F7200
G1 X134.000 Y99.434 E0.61473 F1200
G0 X134.200 Y99.533 F7200
G1 X134.800 Y99.533 E0.62709 F1200
G0 X134.445 Y99.632 F7200
;segType:Infill
G1 X134.029 Y100.353 E0.64092 F1500
G0 X134.583 Y100.368 F7200
G1 X134.159 Y99.632 E0.65504 F1500
G0 X134.080 Y99.074 F7200
;segType:Loop
G1 X136.620 Y99.074 E0.69727 F1200
G1 X136.620 Y100.926 E0.72806
G1 X133.381 Y100.926 E0.78193
G1 X133.381 Y99.074 E0.81273
G1 X133.881 Y99.074 E0.82104
G0 X133.381 Y99.369 F7200
G0 X133.248 Y99.447
;segType:Perimeter
G1 X133.041 Y98.674 E0.83435 F600
G1 X137.020 Y98.674 E0.90052
G1 X137.020 Y101.326 E0.94462
G1 X132.981 Y101.326 E1.01179
G1 X132.981 Y98.734 E1.05489
G0 X133.041 Y98.674 F7200
G0 X134.640 Y98.674
G0 F3000 E0.05489
G0 X133.792 Y99.074 F7200
G0 X133.381 Y99.268
G0 X133.381 Y100.926
G0 X126.620 Y102.574
G0 X125.600 Y102.934
G0 F3000 E1.05489
;segType:HShell
G0 X125.800 Y103.033 F7200
G1 X125.200 Y103.033 E1.06725 F1200
G1 X124.800 Y103.033 E1.07549
G1 X124.400 Y103.033 E1.08373
G0 X124.000 Y102.934 F7200
G1 X124.000 Y104.066 E1.10254 F1200
G0 X124.400 Y104.066 F7200
G0 X124.200 Y103.967
G1 X124.800 Y103.967 E1.11489 F1200
G1 X125.200 Y103.967 E1.12311
G1 X125.600 Y103.967 E1.13134
G0 X126.000 Y104.066 F7200
G1 X126.000 Y102.934 E1.15016 F1200
G0 X125.496 Y103.132 F7200
;segType:Infill
G1 X125.071 Y103.868 E1.16428 F1500
G0 X125.057 Y103.868 F7200
G1 X124.632 Y103.132 E1.17841 F1500
G0 X124.080 Y102.574 F7200
;segType:Loop
G1 X126.620 Y102.574 E1.22063 F1200
G1 X126.620 Y104.426 E1.25143
G1 X123.380 Y104.426 E1.30529
G1 X123.380 Y102.574 E1.33609
G1 X123.880 Y102.574 E1.34441
G0 X123.880 Y102.574 F7200
G0 X123.380 Y102.868
G0 X123.247 Y102.947
;segType:Perimeter
G1 X123.040 Y102.174 E1.35771 F600
G1 X127.020 Y102.174 E1.42388
G1 X127.020 Y104.826 E1.46798
G1 X122.980 Y104.826 E1.53515
G1 X122.980 Y102.234 E1.57826
G0 X123.040 Y102.174 F7200
G0 X124.640 Y102.174
; ------------------------------------
; Layer #7
; ------------------------------------
G92 E0 ;reset extr
G0 F3000 E-1.00000
G0 F600 Z1.900
G0 X123.308 Y102.525 F7200
G0 X123.308 Y97.475
G0 X123.583 Y97.475
G0 X123.689 Y95.525
G0 X123.668 Y95.900
G0 F3000 E0.00000
;segType:HShell
G1 X126.331 Y95.900 E0.04429 F1200
G0 X126.187 Y96.100 F7200
G1 X126.187 Y96.700 E0.06224 F1200
G0 X126.331 Y97.100 F7200
G1 X123.668 Y97.100 E0.10652 F1200
G0 X123.957 Y96.700 F7200
G1 X123.668 Y96.700 E0.11131 F1200
G0 X124.425 Y96.917 F7200
;segType:Infill
G1 X124.907 Y96.083 E0.12734 F1500
G0 X125.222 Y96.083 F7200
G1 X125.703 Y96.917 E0.14336 F1500
G0 X126.044 Y96.790 F7200
G1 X123.957 Y96.790 E0.17807 F1500
G0 X123.175 Y95.897 F7200
;segType:Perimeter
G1 X122.968 Y95.125 E0.19137 F600
G1 X127.092 Y95.125 E0.25994
G1 X127.092 Y97.875 E0.30569
G1 X122.908 Y97.875 E0.37525
G1 X122.908 Y95.185 E0.42000
G0 X122.968 Y95.125 F7200
G0 X124.568 Y95.125
G0 X124.008 Y95.525
;segType:Loop
G1 X126.692 Y95.525 E0.46462 F1200
G1 X126.692 Y97.475 E0.49706
G1 X123.308 Y97.475 E0.55333
G1 X123.308 Y95.525 E0.58577
G1 X123.808 Y95.525 E0.59408
G0 X123.957 Y96.300 F7200
;segType:HShell
G1 X123.668 Y96.300 E0.59887 F1200
G0 F3000 E-0.40113
G0 X123.637 Y95.525 F7200
G0 X123.715 Y97.475
G0 X123.957 Y103.500
G0 F3000 E0.59887
G0 X123.813 Y103.700 F7200
G1 X123.813 Y103.100 E0.61684 F1200
G0 X123.957 Y103.900 F7200
G1 X123.668 Y103.900 E0.62164 F1200
G0 F3000 E-0.37836
G0 X123.308 Y103.900 F7200
G0 X126.692 Y103.900
G0 X126.044 Y103.900
G0 F3000 E0.62164
G1 X126.331 Y103.900 E0.62642 F1200
G0 X126.331 Y103.500 F7200
G1 X126.044 Y103.500 E0.63121 F1200
G0 X126.044 Y103.100 F7200
G1 X126.331 Y103.100 E0.63600 F1200
G0 X125.484 Y103.083 F7200
;segType:Infill
G1 X125.002 Y103.917 E0.65202 F1500
G0 X125.126 Y103.917 F7200
G1 X124.644 Y103.083 E0.66804 F1500
G0 X124.008 Y102.525 F7200
;segType:Loop
G1 X126.692 Y102.525 E0.71267 F1200
G1 X126.692 Y104.475 E0.74511
G1 X123.308 Y104.475 E0.80137
G1 X123.308 Y102.525 E0.83381
G1 X123.808 Y102.525 E0.84213
G0 X123.808 Y102.525 F7200
G0 X123.308 Y102.656
G0 X123.124 Y102.704
;segType:Perimeter
G1 X122.968 Y102.125 E0.85210 F600
G1 X127.092 Y102.125 E0.92067
G1 X127.092 Y104.875 E0.96642
G1 X122.908 Y104.875 E1.03599
G1 X122.908 Y102.185 E1.08073
G0 X122.968 Y102.125 F7200
G0 X124.568 Y102.125
G0 F3000 E0.08073
G0 X127.092 Y102.125 F7200
G0 X133.308 Y100.975
G0 X133.956 Y100.300
G0 F3000 E1.08073
;segType:HShell
G1 X133.669 Y100.300 E1.08552 F1200
G0 F3000 E0.08552
G0 X133.308 Y100.300 F7200
G0 X136.692 Y100.300
G0 X136.043 Y100.300
G0 F3000 E1.08552
G1 X136.332 Y100.300 E1.09031 F1200
G0 X136.332 Y99.900 F7200
G1 X136.043 Y99.900 E1.09510 F1200
G0 X136.332 Y99.500 F7200
G1 X133.669 Y99.500 E1.13939 F1200
G0 X133.669 Y99.900 F7200
G1 X133.956 Y99.900 E1.14418 F1200
G0 X134.433 Y99.583 F7200
;segType:Infill
G1 X133.956 Y100.408 E1.16002 F1500
G0 X134.652 Y100.417 F7200
G1 X134.171 Y99.583 E1.17605 F1500
G0 X134.008 Y99.025 F7200
;segType:Loop
G1 X136.692 Y99.025 E1.22067 F1200
G1 X136.692 Y100.975 E1.25311
G1 X133.308 Y100.975 E1.30938
G1 X133.308 Y99.025 E1.34182
G1 X133.808 Y99.025 E1.35013
G0 X133.308 Y99.319 F7200
G0 X133.176 Y99.397
;segType:Perimeter
G1 X132.968 Y98.625 E1.36344 F600
G1 X137.092 Y98.625 E1.43200
G1 X137.092 Y101.375 E1.47775
G1 X132.908 Y101.375 E1.54732
G1 X132.908 Y98.685 E1.59206
G0 X132.968 Y98.625 F7200
G0 X134.568 Y98.625
; ------------------------------------
; Layer #8
; ------------------------------------
G92 E0 ;reset extr
G0 F3000 E-1.00000
G0 F600 Z2.000
G0 X132.836 Y98.575 F7200
G0 X126.764 Y97.525
G0 X124.800 Y95.835
G0 F3000 E0.00000
;segType:HShell
G1 X124.800 Y96.033 E0.00329 F1200
G0 X125.200 Y96.033 F7200
G1 X125.200 Y95.835 E0.00658 F1200
G0 X125.600 Y95.835 F7200
G1 X125.600 Y96.033 E0.00987 F1200
G0 X126.000 Y96.033 F7200
G1 X126.000 Y95.835 E0.01316 F1200
G0 X126.400 Y95.835 F7200
G1 X126.400 Y97.165 E0.03527 F1200
G0 X126.200 Y97.066 F7200
G1 X125.600 Y97.066 E0.04763 F1200
G1 X125.200 Y97.066 E0.05587
G1 X124.800 Y97.066 E0.06411
G1 X124.400 Y97.066 E0.07235
G1 X124.000 Y97.066 E0.08058
G0 X124.356 Y96.967 F7200
;segType:Infill
G1 X124.895 Y96.033 E0.09851 F1500
G0 X125.233 Y96.033 F7200
G1 X125.772 Y96.967 E0.11643 F1500
G0 X126.116 Y96.860 F7200
G1 X123.885 Y96.860 E0.15353 F1500
G0 X123.237 Y95.475 F7200
G0 X123.052 Y95.655
;segType:Perimeter
G1 X122.897 Y95.075 E0.16351 F600
G1 X127.164 Y95.075 E0.23447
G1 X127.164 Y97.925 E0.28186
G1 X122.837 Y97.925 E0.35382
G1 X122.837 Y95.135 E0.40021
G0 X122.897 Y95.075 F7200
G0 X124.497 Y95.075
G0 X123.937 Y95.475
;segType:Loop
G1 X126.764 Y95.475 E0.44723 F1200
G1 X126.764 Y97.525 E0.48131
G1 X123.237 Y97.525 E0.53997
G1 X123.237 Y95.475 E0.57406
G1 X123.737 Y95.475 E0.58237
G0 X123.600 Y95.835 F7200
;segType:HShell
G1 X123.600 Y97.165 E0.60448 F1200
G0 X124.400 Y95.835 F7200
G0 X124.600 Y95.934
G1 X124.000 Y95.934 E0.61682 F1200
G0 F3000 E-0.38318
G0 X126.764 Y97.525 F7200
G0 X132.836 Y98.575
G0 X133.600 Y99.335
G0 F3000 E0.61682
G1 X133.600 Y100.665 E0.63893 F1200
G0 X133.800 Y100.566 F7200
G1 X134.400 Y100.566 E0.65127 F1200
G1 X134.800 Y100.566 E0.65950
G1 X135.200 Y100.566 E0.66773
G1 X135.600 Y100.566 E0.67595
G1 X136.000 Y100.566 E0.68418
G0 X136.400 Y100.665 F7200
G1 X136.400 Y99.335 E0.70629 F1200
G0 X136.000 Y99.335 F7200
G0 X136.200 Y99.434
G1 X135.600 Y99.434 E0.71863 F1200
G1 X135.200 Y99.434 E0.72686
G1 X134.800 Y99.434 E0.73509
G1 X134.400 Y99.434 E0.74332
G1 X134.000 Y99.434 E0.75154
G0 X134.421 Y99.533 F7200
;segType:Infill
G1 X133.884 Y100.463 E0.76939 F1500
G0 X134.721 Y100.467 F7200
G1 X134.182 Y99.533 E0.78732 F1500
G0 X133.103 Y99.348 F7200
;segType:Perimeter
G1 X132.896 Y98.575 E0.80062 F600
G1 X137.164 Y98.575 E0.87159
G1 X137.164 Y101.425 E0.91898
G1 X132.836 Y101.425 E0.99094
G1 X132.836 Y98.635 E1.03733
G0 X132.896 Y98.575 F7200
G0 X134.496 Y98.575
G0 X133.936 Y98.975
;segType:Loop
G1 X136.764 Y98.975 E1.08435 F1200
G1 X136.764 Y101.025 E1.11844
G1 X133.236 Y101.025 E1.17710
G1 X133.236 Y98.975 E1.21118
G1 X133.736 Y98.975 E1.21950
G0 F3000 E0.21950
G0 X132.836 Y101.425 F7200
G0 X126.764 Y102.475
G0 X125.958 Y102.475
G0 X123.237 Y102.891
G0 X123.600 Y102.835
G0 F3000 E1.21950
;segType:HShell
G1 X123.600 Y104.165 E1.24161 F1200
G0 X123.800 Y104.066 F7200
G1 X124.400 Y104.066 E1.25395 F1200
G1 X124.800 Y104.066 E1.26218
G1 X125.200 Y104.066 E1.27041
G1 X125.600 Y104.066 E1.27863
G1 X126.000 Y104.066 E1.28686
G0 X126.400 Y104.165 F7200
G1 X126.400 Y102.835 E1.30897 F1200
G0 X126.000 Y102.835 F7200
G0 X126.200 Y102.934
G1 X125.600 Y102.934 E1.32133 F1200
G1 X125.200 Y102.934 E1.32957
G0 X125.472 Y103.033 F7200
;segType:Infill
G1 X124.933 Y103.967 E1.34749 F1500
G0 X125.195 Y103.967 F7200
G1 X124.656 Y103.033 E1.36541 F1500
G0 X123.052 Y102.655 F7200
;segType:Perimeter
G1 X122.897 Y102.075 E1.37539 F600
G1 X127.164 Y102.075 E1.44635
G1 X127.164 Y104.925 E1.49374
G1 X122.837 Y104.925 E1.56570
G1 X122.837 Y102.135 E1.61209
G0 X122.897 Y102.075 F7200
G0 X124.497 Y102.075
G0 X123.937 Y102.475
;segType:Loop
G1 X126.764 Y102.475 E1.65911 F1200
G1 X126.764 Y104.525 E1.69319
G1 X123.237 Y104.525 E1.75185
G1 X123.237 Y102.475 E1.78594
G1 X123.737 Y102.475 E1.79425
G0 X124.000 Y102.835 F7200
;segType:HShell
G0 X123.800 Y102.934
G1 X124.400 Y102.934 E1.80661 F1200
G1 X124.800 Y102.934 E1.81485
; ------------------------------------
; Layer #9
; ------------------------------------
G92 E0 ;reset extr
G0 F3000 E-1.00000
G0 F600 Z2.100
G0 X123.200 Y102.450 F7200
G0 X123.200 Y97.550
G0 X123.470 Y97.550
G0 X123.585 Y95.450
G0 X123.561 Y95.900
G0 F3000 E0.00000
;segType:HShell
G1 X126.440 Y95.900 E0.04788 F1200
G0 X126.440 Y96.300 F7200
G1 X126.188 Y96.300 E0.05207 F1200
G0 X126.188 Y96.700 F7200
G1 X126.440 Y96.700 E0.05626 F1200
G0 X126.440 Y97.100 F7200
G1 X123.561 Y97.100 E0.10414 F1200
G0 X123.561 Y96.700 F7200
G1 X123.813 Y96.700 E0.10833 F1200
G0 X124.287 Y97.016 F7200
;segType:Infill
G1 X124.883 Y95.984 E0.12815 F1500
G0 X125.245 Y95.984 F7200
G1 X125.841 Y97.016 E0.14798 F1500
G0 X126.188 Y96.930 F7200
G1 X123.813 Y96.930 E0.18747 F1500
G0 F3000 E-0.81253
G0 X123.016 Y95.630 F7200
G0 F3000 E0.18747
;segType:Perimeter
G1 X122.860 Y95.050 E0.19745 F600
G1 X127.200 Y95.050 E0.26962
G1 X127.200 Y97.950 E0.31783
G1 X122.800 Y97.950 E0.39099
G1 X122.800 Y95.110 E0.43821
G0 X122.860 Y95.050 F7200
G0 X124.460 Y95.050
G0 X123.900 Y95.450
;segType:Loop
G1 X126.800 Y95.450 E0.48642 F1200
G1 X126.800 Y97.550 E0.52133
G1 X123.200 Y97.550 E0.58119
G1 X123.200 Y95.450 E0.61610
G1 X123.700 Y95.450 E0.62441
G0 X123.561 Y96.300 F7200
;segType:HShell
G1 X123.813 Y96.300 E0.62860 F1200
G0 F3000 E-0.37140
G0 X123.200 Y96.049 F7200
G0 X126.800 Y97.526
G0 X126.800 Y97.550
G0 X133.201 Y98.950
G0 X133.561 Y100.300
G0 F3000 E0.62860
G0 X133.687 Y100.500 F7200
G1 X133.687 Y99.900 E0.64432 F1200
G1 X133.687 Y99.500 E0.65479
G0 X136.187 Y99.500 F7200
G1 X136.439 Y99.500 E0.65898 F1200
G0 X136.187 Y99.900 F7200
G0 X136.313 Y99.700
G1 X136.313 Y100.300 E0.67470 F1200
G0 X136.122 Y100.516 F7200
;segType:Infill
G1 X136.187 Y100.404 E0.67687 F1500
G0 X134.409 Y99.484 F7200
G1 X133.813 Y100.516 E0.69669 F1500
G0 X134.790 Y100.516 F7200
G1 X134.194 Y99.484 E0.71652 F1500
G0 X133.901 Y98.950 F7200
;segType:Loop
G1 X136.800 Y98.950 E0.76473 F1200
G1 X136.800 Y101.050 E0.79965
G1 X133.201 Y101.050 E0.85950
G1 X133.201 Y98.950 E0.89441
G1 X133.701 Y98.950 E0.90273
G0 X133.201 Y99.245 F7200
G0 X133.068 Y99.323
;segType:Perimeter
G1 X132.861 Y98.550 E0.91603 F600
G1 X137.200 Y98.550 E0.98819
G1 X137.200 Y101.450 E1.03641
G1 X132.801 Y101.450 E1.10957
G1 X132.801 Y98.610 E1.15679
G0 X132.861 Y98.550 F7200
G0 X134.461 Y98.550
G0 F3000 E0.15679
G0 X133.524 Y98.950 F7200
G0 X133.201 Y99.089
G0 X133.201 Y101.050
G0 X126.800 Y102.450
G0 X126.787 Y102.450
G0 X123.200 Y103.234
G0 X123.813 Y103.100
G0 F3000 E1.15679
;segType:HShell
G1 X123.561 Y103.100 E1.16098 F1200
G0 X123.561 Y103.500 F7200
G1 X123.813 Y103.500 E1.16517 F1200
G0 X123.813 Y103.900 F7200
G1 X123.561 Y103.900 E1.16936 F1200
G0 F3000 E0.16936
G0 X123.200 Y103.955 F7200
G0 X126.800 Y103.407
G0 X126.188 Y103.500
G0 F3000 E1.16936
G0 X126.314 Y103.300 F7200
G1 X126.314 Y103.900 E1.18507 F1200
G0 X126.188 Y103.100 F7200
G1 X126.440 Y103.100 E1.18926 F1200
G0 X125.460 Y102.984 F7200
;segType:Infill
G1 X124.864 Y104.016 E1.20909 F1500
G0 X125.264 Y104.016 F7200
G1 X124.668 Y102.984 E1.22891 F1500
G0 X123.900 Y102.450 F7200
;segType:Loop
G1 X126.800 Y102.450 E1.27713 F1200
G1 X126.800 Y104.550 E1.31204
G1 X123.200 Y104.550 E1.37189
G1 X123.200 Y102.450 E1.40680
G1 X123.700 Y102.450 E1.41512
G0 X123.700 Y102.450 F7200
G0 X123.200 Y102.582
G0 X123.016 Y102.630
;segType:Perimeter
G1 X122.860 Y102.050 E1.42509 F600
G1 X127.200 Y102.050 E1.49726
G1 X127.200 Y104.950 E1.54547
G1 X122.800 Y104.950 E1.61863
G1 X122.800 Y102.110 E1.66585
G0 X122.860 Y102.050 F7200
G0 X124.460 Y102.050
; ------------------------------------
; Layer #10
; ------------------------------------
G92 E0 ;reset extr
G0 F3000 E-1.00000
G0 F600 Z2.200
G0 X126.800 Y102.450 F7200
G0 X126.800 Y97.550
G0 X126.400 Y97.189
G0 F3000 E0.00000
;segType:HShell
G1 X126.400 Y95.810 E0.02293 F1200
G0 X126.200 Y95.872 F7200
G1 X125.600 Y95.872 E0.03291 F1200
G1 X125.200 Y95.872 E0.03956
G1 X124.800 Y95.872 E0.04621
G1 X124.400 Y95.872 E0.05287
G1 X124.000 Y95.872 E0.05952
G0 X123.600 Y95.811 F7200
G1 X123.600 Y97.189 E0.08245 F1200
G0 X124.000 Y97.189 F7200
G0 X123.800 Y97.128
G1 X124.400 Y97.128 E0.09243 F1200
G1 X124.800 Y97.128 E0.09908
G0 X124.218 Y97.066 F7200
;segType:Infill
G1 X124.871 Y95.934 E0.12081 F1500
G0 X125.257 Y95.934 F7200
G1 X125.910 Y97.066 E0.14254 F1500
G0 X126.259 Y97.000 F7200
G1 X123.740 Y97.000 E0.18443 F1500
G0 F3000 E-0.81557
G0 X123.016 Y95.630 F7200
G0 F3000 E0.18443
;segType:Perimeter
G1 X122.860 Y95.050 E0.19440 F600
G1 X127.200 Y95.050 E0.26657
G1 X127.200 Y97.950 E0.31478
G1 X122.800 Y97.950 E0.38794
G1 X122.800 Y95.110 E0.43516
G0 X122.860 Y95.050 F7200
G0 X124.460 Y95.050
G0 X123.900 Y95.450
;segType:Loop
G1 X126.800 Y95.450 E0.48337 F1200
G1 X126.800 Y97.550 E0.51828
G1 X123.200 Y97.550 E0.57814
G1 X123.200 Y95.450 E0.61305
G1 X123.700 Y95.450 E0.62136
G0 F3000 E-0.37864
G0 X126.476 Y97.550 F7200
G0 X126.000 Y97.189
G0 F3000 E0.62136
;segType:HShell
G0 X126.200 Y97.128 F7200
G1 X125.600 Y97.128 E0.63134 F1200
G1 X125.200 Y97.128 E0.63799
G0 F3000 E-0.36201
G0 X126.800 Y97.550 F7200
G0 X133.201 Y98.950
G0 X133.201 Y99.643
G0 X136.800 Y100.820
G0 X136.400 Y100.690
G0 F3000 E0.63799
G1 X136.400 Y99.310 E0.66093 F1200
G0 X136.200 Y99.372 F7200
G1 X135.600 Y99.372 E0.67091 F1200
G1 X135.200 Y99.372 E0.67756
G1 X134.800 Y99.372 E0.68421
G1 X134.400 Y99.372 E0.69086
G1 X134.000 Y99.372 E0.69752
G0 X133.600 Y99.310 F7200
G1 X133.600 Y100.690 E0.72045 F1200
G0 X134.000 Y100.690 F7200
G0 X133.800 Y100.628
G1 X134.400 Y100.628 E0.73043 F1200
G1 X134.800 Y100.628 E0.73708
G1 X135.200 Y100.628 E0.74373
G1 X135.600 Y100.628 E0.75038
G1 X136.000 Y100.628 E0.75704
G0 X136.053 Y100.566 F7200
;segType:Infill
G1 X136.260 Y100.209 E0.76389 F1500
G0 X134.397 Y99.434 F7200
G1 X133.744 Y100.566 E0.78562 F1500
G0 X134.859 Y100.566 F7200
G1 X134.206 Y99.434 E0.80735 F1500
G0 X133.068 Y99.323 F7200
;segType:Perimeter
G1 X132.861 Y98.550 E0.82065 F600
G1 X137.200 Y98.550 E0.89281
G1 X137.200 Y101.450 E0.94103
G1 X132.801 Y101.450 E1.01419
G1 X132.801 Y98.610 E1.06141
G0 X132.861 Y98.550 F7200
G0 X134.461 Y98.550
G0 X133.901 Y98.950
;segType:Loop
G1 X136.800 Y98.950 E1.10962 F1200
G1 X136.800 Y101.050 E1.14453
G1 X133.201 Y101.050 E1.20438
G1 X133.201 Y98.950 E1.23930
G1 X133.701 Y98.950 E1.24761
G0 F3000 E0.24761
G0 X133.201 Y99.215 F7200
G0 X133.201 Y101.050
G0 X126.800 Y102.450
G0 X126.400 Y102.811
G0 F3000 E1.24761
;segType:HShell
G1 X126.400 Y104.190 E1.27054 F1200
G0 X126.000 Y104.190 F7200
G1 X126.000 Y104.066 E1.27260 F1200
G0 X125.600 Y104.066 F7200
G1 X125.600 Y104.190 E1.27466 F1200
G0 X125.200 Y104.190 F7200
G1 X125.200 Y104.066 E1.27672 F1200
G0 X124.800 Y104.066 F7200
G1 X124.800 Y104.190 E1.27878 F1200
G0 X124.400 Y104.190 F7200
G1 X124.400 Y104.066 E1.28084 F1200
G0 X124.000 Y104.066 F7200
G1 X124.000 Y104.190 E1.28290 F1200
G0 X123.600 Y104.190 F7200
G1 X123.600 Y102.811 E1.30583 F1200
G0 X123.800 Y102.872 F7200
G1 X124.400 Y102.872 E1.31581 F1200
G1 X124.800 Y102.872 E1.32246
G1 X125.200 Y102.872 E1.32911
G0 X124.680 Y102.934 F7200
;segType:Infill
G1 X125.333 Y104.066 E1.35084 F1500
G0 X124.795 Y104.066 F7200
G1 X125.448 Y102.934 E1.37257 F1500
G0 X126.259 Y103.000 F7200
G1 X123.740 Y103.000 E1.41446 F1500
G0 X123.016 Y102.630 F7200
;segType:Perimeter
G1 X122.860 Y102.050 E1.42444 F600
G1 X127.200 Y102.050 E1.49660
G1 X127.200 Y104.950 E1.54481
G1 X122.800 Y104.950 E1.61797
G1 X122.800 Y102.110 E1.66519
G0 X122.860 Y102.050 F7200
G0 X124.460 Y102.050
G0 X123.900 Y102.450
;segType:Loop
G1 X126.800 Y102.450 E1.71341 F1200
G1 X126.800 Y104.550 E1.74832
G1 X123.200 Y104.550 E1.80817
G1 X123.200 Y102.450 E1.84308
G1 X123.700 Y102.450 E1.85140
G0 X126.000 Y102.811 F7200
;segType:HShell
G0 X126.200 Y102.872
G1 X125.600 Y102.872 E1.86138 F1200
; ------------------------------------
; Layer #11
; ------------------------------------
G92 E0 ;reset extr
G0 F3000 E-1.00000
G0 F600 Z2.300
G0 X126.800 Y102.450 F7200
G0 X126.800 Y97.550
G0 X126.331 Y97.100
G0 F3000 E0.00000
;segType:HShell
G0 X126.385 Y97.300 F7200
G1 X126.385 Y96.700 E0.00998 F1200
G1 X126.385 Y96.300 E0.01663
G1 X126.385 Y95.900 E0.02328
G0 F3000 E-0.97672
G0 X126.800 Y95.900 F7200
G0 X123.200 Y95.900
G0 X123.561 Y95.900
G0 F3000 E0.02328
G0 X123.614 Y95.700 F7200
G1 X123.614 Y96.300 E0.03326 F1200
G1 X123.614 Y96.700 E0.03991
G1 X123.614 Y97.100 E0.04656
G0 X123.668 Y97.112 F7200
;segType:Infill
G1 X123.670 Y97.115 E0.04662 F1500
G0 X124.149 Y97.115 F7200
G1 X124.859 Y95.885 E0.07025 F1500
G0 X125.269 Y95.885 F7200
G1 X125.979 Y97.115 E0.09388 F1500
G0 X126.331 Y97.070 F7200
G1 X123.668 Y97.070 E0.13816 F1500
G0 X123.600 Y97.550 F7200
G0 X123.900 Y95.450
G0 X123.900 Y95.450
;segType:Loop
G1 X126.800 Y95.450 E0.18638 F1200
G1 X126.800 Y97.550 E0.22129
G1 X123.200 Y97.550 E0.28114
G1 X123.200 Y95.450 E0.31605
G1 X123.700 Y95.450 E0.32437
G0 X123.700 Y95.450 F7200
G0 X123.200 Y95.581
G0 X123.016 Y95.630
;segType:Perimeter
G1 X122.860 Y95.050 E0.33435 F600
G1 X127.200 Y95.050 E0.40651
G1 X127.200 Y97.950 E0.45472
G1 X122.800 Y97.950 E0.52788
G1 X122.800 Y95.110 E0.57510
G0 X122.860 Y95.050 F7200
G0 X124.460 Y95.050
G0 F3000 E-0.42490
G0 X124.559 Y95.450 F7200
G0 X125.075 Y97.550
G0 X126.800 Y97.550
G0 X126.800 Y102.450
G0 X126.440 Y103.100
G0 F3000 E0.57510
;segType:HShell
G0 X126.385 Y102.900 F7200
G1 X126.385 Y103.500 E0.58508 F1200
G1 X126.385 Y103.900 E0.59173
G0 F3000 E-0.40827
G0 X126.800 Y103.900 F7200
G0 X123.200 Y103.900
G0 X123.561 Y103.900
G0 F3000 E0.59173
G0 X123.614 Y104.100 F7200
G1 X123.614 Y103.500 E0.60171 F1200
G1 X123.614 Y103.100 E0.60836
G0 X124.692 Y102.885 F7200
;segType:Infill
G1 X125.402 Y104.115 E0.63199 F1500
G0 X124.726 Y104.115 F7200
G1 X125.437 Y102.885 E0.65562 F1500
G0 X126.331 Y103.070 F7200
G1 X123.668 Y103.070 E0.69990 F1500
G0 X123.900 Y102.450 F7200
;segType:Loop
G1 X126.800 Y102.450 E0.74812 F1200
G1 X126.800 Y104.550 E0.78303
G1 X123.200 Y104.550 E0.84288
G1 X123.200 Y102.450 E0.87779
G1 X123.700 Y102.450 E0.88611
G0 X123.700 Y102.450 F7200
G0 X123.200 Y102.582
G0 X123.016 Y102.630
;segType:Perimeter
G1 X122.860 Y102.050 E0.89609 F600
G1 X127.200 Y102.050 E0.96825
G1 X127.200 Y104.950 E1.01646
G1 X122.800 Y104.950 E1.08962
G1 X122.800 Y102.110 E1.13684
G0 X122.860 Y102.050 F7200
G0 X124.460 Y102.050
G0 F3000 E0.13684
G0 X127.200 Y102.050 F7200
G0 X133.201 Y101.050
G0 X133.201 Y100.900
G0 X136.800 Y100.210
G0 X136.332 Y100.300
G0 F3000 E1.13684
;segType:HShell
G1 X136.439 Y100.300 E1.13863 F1200
G0 X136.439 Y99.900 F7200
G1 X136.332 Y99.900 E1.14043 F1200
G0 X136.332 Y99.500 F7200
G1 X136.439 Y99.500 E1.14222 F1200
G0 F3000 E0.14222
G0 X136.800 Y99.500 F7200
G0 X133.201 Y99.500
G0 X133.669 Y99.500
G0 F3000 E1.14222
G0 X133.615 Y99.300 F7200
G1 X133.615 Y99.900 E1.15220 F1200
G1 X133.615 Y100.300 E1.15885
G0 X133.675 Y100.615 F7200
;segType:Infill
G1 X134.385 Y99.385 E1.18248 F1500
G0 X136.332 Y100.014 F7200
G1 X135.984 Y100.615 E1.19403 F1500
G0 X134.928 Y100.615 F7200
G1 X134.218 Y99.385 E1.21766 F1500
G0 X133.901 Y98.950 F7200
;segType:Loop
G1 X136.800 Y98.950 E1.26587 F1200
G1 X136.800 Y101.050 E1.30078
G1 X133.201 Y101.050 E1.36064
G1 X133.201 Y98.950 E1.39555
G1 X133.701 Y98.950 E1.40386
G0 X133.201 Y99.245 F7200
G0 X133.068 Y99.323
;segType:Perimeter
G1 X132.861 Y98.550 E1.41717 F600
G1 X137.200 Y98.550 E1.48933
G1 X137.200 Y101.450 E1.53755
G1 X132.801 Y101.450 E1.61070
G1 X132.801 Y98.610 E1.65792
G0 X132.861 Y98.550 F7200
G0 X134.461 Y98.550
; ------------------------------------
; Layer #12
; ------------------------------------
G92 E0 ;reset extr
G0 F3000 E-1.00000
G0 F600 Z2.400
G0 X132.801 Y98.550 F7200
G0 X126.800 Y97.550
G0 X126.800 Y96.763
G0 X123.200 Y95.692
G0 X123.600 Y95.810
G0 F3000 E0.00000
;segType:HShell
G1 X123.600 Y95.835 E0.00041 F1200
G0 X124.000 Y95.835 F7200
G1 X124.000 Y95.811 E0.00083 F1200
G0 X124.400 Y95.811 F7200
G1 X124.400 Y95.835 E0.00124 F1200
G0 X124.800 Y95.835 F7200
G1 X124.800 Y95.811 E0.00165 F1200
G0 X125.200 Y95.811 F7200
G1 X125.200 Y95.835 E0.00207 F1200
G0 X125.600 Y95.835 F7200
G1 X125.600 Y95.811 E0.00248 F1200
G0 X126.000 Y95.811 F7200
G1 X126.000 Y95.835 E0.00289 F1200
G0 X126.400 Y95.835 F7200
G1 X126.400 Y95.811 E0.00331 F1200
G0 F3000 E-0.99669
G0 X126.400 Y97.165 F7200
G0 F3000 E0.00331
G0 X126.600 Y97.177 F7200
G1 X126.000 Y97.177 E0.01329 F1200
G1 X125.600 Y97.177 E0.01994
G1 X125.200 Y97.177 E0.02659
G1 X124.800 Y97.177 E0.03324
G1 X124.400 Y97.177 E0.03989
G1 X124.000 Y97.177 E0.04655
G1 X123.600 Y97.177 E0.05320
G0 X123.597 Y97.140 F7200
;segType:Infill
G1 X126.403 Y97.140 E0.09987 F1500
G0 X126.403 Y97.140 F7200
G1 X126.389 Y97.165 E0.10035 F1500
G0 X126.048 Y97.165 F7200
G1 X125.281 Y95.835 E0.12588 F1500
G0 X124.847 Y95.835 F7200
G1 X124.080 Y97.165 E0.15141 F1500
G0 X123.597 Y96.918 F7200
G1 X123.739 Y97.165 E0.15615 F1500
G0 X123.703 Y97.550 F7200
G0 X123.900 Y95.450
G0 X123.900 Y95.450
;segType:Loop
G1 X126.800 Y95.450 E0.20436 F1200
G1 X126.800 Y97.550 E0.23927
G1 X123.200 Y97.550 E0.29913
G1 X123.200 Y95.450 E0.33404
G1 X123.700 Y95.450 E0.34235
G0 X123.700 Y95.450 F7200
G0 X123.200 Y95.581
G0 X123.016 Y95.630
;segType:Perimeter
G1 X122.860 Y95.050 E0.35233 F600
G1 X127.200 Y95.050 E0.42449
G1 X127.200 Y97.950 E0.47271
G1 X122.800 Y97.950 E0.54587
G1 X122.800 Y95.110 E0.59308
G0 X122.860 Y95.050 F7200
G0 X124.460 Y95.050
G0 F3000 E-0.40692
G0 X125.319 Y95.450 F7200
G0 X126.800 Y96.141
G0 X126.800 Y97.550
G0 X132.801 Y98.550
G0 X133.600 Y99.310
G0 F3000 E0.59308
;segType:HShell
G1 X133.600 Y99.335 E0.59350 F1200
G0 X134.000 Y99.335 F7200
G1 X134.000 Y99.310 E0.59391 F1200
G0 X134.400 Y99.310 F7200
G1 X134.400 Y99.335 E0.59432 F1200
G0 X134.800 Y99.335 F7200
G1 X134.800 Y99.310 E0.59474 F1200
G0 X135.200 Y99.310 F7200
G1 X135.200 Y99.335 E0.59515 F1200
G0 X135.600 Y99.335 F7200
G1 X135.600 Y99.310 E0.59557 F1200
G0 X136.000 Y99.310 F7200
G1 X136.000 Y99.335 E0.59598 F1200
G0 X136.400 Y99.335 F7200
G1 X136.400 Y99.310 E0.59639 F1200
G0 F3000 E-0.40361
G0 X136.400 Y100.665 F7200
G0 F3000 E0.59639
G0 X136.600 Y100.677 F7200
G1 X136.000 Y100.677 E0.60637 F1200
G1 X135.600 Y100.677 E0.61302
G1 X135.200 Y100.677 E0.61967
G1 X134.800 Y100.677 E0.62633
G1 X134.400 Y100.677 E0.63298
G1 X134.000 Y100.677 E0.63963
G1 X133.600 Y100.677 E0.64628
G0 X133.606 Y100.665 F7200
;segType:Infill
G1 X134.374 Y99.335 E0.67181 F1500
G0 X136.404 Y99.819 F7200
G1 X135.915 Y100.665 E0.68805 F1500
G0 X134.997 Y100.665 F7200
G1 X134.230 Y99.335 E0.71358 F1500
G0 X133.901 Y98.950 F7200
;segType:Loop
G1 X136.800 Y98.950 E0.76179 F1200
G1 X136.800 Y101.050 E0.79670
G1 X133.201 Y101.050 E0.85656
G1 X133.201 Y98.950 E0.89147
G1 X133.701 Y98.950 E0.89978
G0 X133.201 Y99.245 F7200
G0 X133.068 Y99.323
;segType:Perimeter
G1 X132.861 Y98.550 E0.91309 F600
G1 X137.200 Y98.550 E0.98525
G1 X137.200 Y101.450 E1.03346
G1 X132.801 Y101.450 E1.10662
G1 X132.801 Y98.610 E1.15384
G0 X132.861 Y98.550 F7200
G0 X134.461 Y98.550
G0 F3000 E0.15384
G0 X132.801 Y99.408 F7200
G0 X132.801 Y101.450
G0 X126.800 Y102.450
G0 X126.800 Y103.220
G0 X123.200 Y104.283
G0 X123.600 Y104.165
G0 F3000 E1.15384
;segType:HShell
G0 X123.400 Y104.177 F7200
G1 X124.000 Y104.177 E1.16382 F1200
G1 X124.400 Y104.177 E1.17047
G1 X124.800 Y104.177 E1.17712
G1 X125.200 Y104.177 E1.18377
G1 X125.600 Y104.177 E1.19043
G1 X126.000 Y104.177 E1.19708
G1 X126.400 Y104.177 E1.20373
G0 F3000 E0.20373
G0 X126.400 Y102.811 F7200
G0 F3000 E1.20373
G0 X126.600 Y102.823 F7200
G1 X126.000 Y102.823 E1.21371 F1200
G1 X125.600 Y102.823 E1.22036
G1 X125.200 Y102.823 E1.22701
G1 X124.800 Y102.823 E1.23366
G1 X124.400 Y102.823 E1.24032
G0 X124.703 Y102.835 F7200
;segType:Infill
G1 X125.471 Y104.165 E1.26585 F1500
G0 X124.657 Y104.165 F7200
G1 X125.425 Y102.835 E1.29137 F1500
G0 X126.403 Y103.140 F7200
G1 X123.597 Y103.140 E1.33805 F1500
G0 X123.016 Y102.630 F7200
;segType:Perimeter
G1 X122.860 Y102.050 E1.34803 F600
G1 X127.200 Y102.050 E1.42019
G1 X127.200 Y104.950 E1.46841
G1 X122.800 Y104.950 E1.54157
G1 X122.800 Y102.110 E1.58878
G0 X122.860 Y102.050 F7200
G0 X124.460 Y102.050
G0 X123.900 Y102.450
;segType:Loop
G1 X126.800 Y102.450 E1.63700 F1200
G1 X126.800 Y104.550 E1.67191
G1 X123.200 Y104.550 E1.73176
G1 X123.200 Y102.450 E1.76667
G1 X123.700 Y102.450 E1.77499
G0 X123.600 Y102.811 F7200
;segType:HShell
G0 X123.400 Y102.823
G1 X124.000 Y102.823 E1.78497 F1200
; ------------------------------------
; Layer #13
; ------------------------------------
G92 E0 ;reset extr
G0 F3000 E-1.00000
G0 F600 Z2.500
G0 X126.800 Y102.450 F7200
G0 X126.800 Y97.550
G0 X126.440 Y97.007
G0 F3000 E0.00000
;segType:Infill
G1 X126.334 Y97.189 E0.00350 F1500
G0 X126.103 Y97.189 F7200
G1 X125.307 Y95.810 E0.02998 F1500
G0 X124.821 Y95.810 F7200
G1 X124.025 Y97.189 E0.05645 F1500
G0 X123.561 Y96.786 F7200
G1 X123.794 Y97.189 E0.06421 F1500
G0 X123.772 Y97.550 F7200
G0 X123.900 Y95.450
;segType:Loop
G1 X126.800 Y95.450 E0.11243 F1200
G1 X126.800 Y97.550 E0.14734
G1 X123.200 Y97.550 E0.20719
G1 X123.200 Y95.450 E0.24210
G1 X123.700 Y95.450 E0.25042
G0 X123.700 Y95.450 F7200
G0 X123.200 Y95.581
G0 X123.016 Y95.630
;segType:Perimeter
G1 X122.860 Y95.050 E0.26040 F600
G1 X127.200 Y95.050 E0.33256
G1 X127.200 Y97.950 E0.38077
G1 X122.800 Y97.950 E0.45393
G1 X122.800 Y95.110 E0.50115
G0 X122.860 Y95.050 F7200
G0 X124.460 Y95.050
G0 F3000 E-0.49885
G0 X125.108 Y95.450 F7200
G0 X126.800 Y96.496
G0 X126.800 Y97.550
G0 X133.201 Y98.950
G0 X133.561 Y100.673
G0 F3000 E0.50115
;segType:Infill
G1 X134.347 Y99.310 E0.52732 F1500
G0 X136.439 Y99.687 F7200
G1 X135.861 Y100.690 E0.54657 F1500
G0 X135.052 Y100.690 F7200
G1 X134.256 Y99.310 E0.57305 F1500
G0 X133.901 Y98.950 F7200
;segType:Loop
G1 X136.800 Y98.950 E0.62127 F1200
G1 X136.800 Y101.050 E0.65618
G1 X133.201 Y101.050 E0.71603
G1 X133.201 Y98.950 E0.75095
G1 X133.701 Y98.950 E0.75926
G0 X133.201 Y99.245 F7200
G0 X133.068 Y99.323
;segType:Perimeter
G1 X132.861 Y98.550 E0.77257 F600
G1 X137.200 Y98.550 E0.84472
G1 X137.200 Y101.450 E0.89294
G1 X132.801 Y101.450 E0.96610
G1 X132.801 Y98.610 E1.01332
G0 X132.861 Y98.550 F7200
G0 X134.461 Y98.550
G0 F3000 E0.01332
G0 X133.547 Y98.950 F7200
G0 X133.201 Y99.102
G0 X133.201 Y101.050
G0 X126.800 Y102.450
G0 X124.730 Y102.811
G0 F3000 E1.01332
;segType:Infill
G1 X125.526 Y104.190 E1.03980 F1500
G0 X124.602 Y104.190 F7200
G1 X125.398 Y102.811 E1.06628 F1500
G0 X126.440 Y103.210 F7200
G1 X123.561 Y103.210 E1.11415 F1500
G0 X123.900 Y102.450 F7200
;segType:Loop
G1 X126.800 Y102.450 E1.16237 F1200
G1 X126.800 Y104.550 E1.19728
G1 X123.200 Y104.550 E1.25714
G1 X123.200 Y102.450 E1.29205
G1 X123.700 Y102.450 E1.30036
G0 X123.700 Y102.450 F7200
G0 X123.200 Y102.582
G0 X123.016 Y102.630
;segType:Perimeter
G1 X122.860 Y102.050 E1.31034 F600
G1 X127.200 Y102.050 E1.38250
G1 X127.200 Y104.950 E1.43072
G1 X122.800 Y104.950 E1.50388
G1 X122.800 Y102.110 E1.55109
G0 X122.860 Y102.050 F7200
G0 X124.460 Y102.050
; ------------------------------------
; Layer #14
; ------------------------------------
G92 E0 ;reset extr
G0 F3000 E-1.00000
G0 F600 Z2.600
G0 X126.800 Y102.450 F7200
G0 X126.800 Y97.550
G0 X126.440 Y96.937
G0 F3000 E0.00000
;segType:Infill
G1 X126.294 Y97.189 E0.00484 F1500
G0 X126.144 Y97.189 F7200
G1 X125.347 Y95.810 E0.03132 F1500
G0 X124.781 Y95.810 F7200
G1 X123.985 Y97.189 E0.05780 F1500
G0 X123.561 Y96.715 F7200
G1 X123.834 Y97.189 E0.06690 F1500
G0 X123.820 Y97.550 F7200
G0 X123.900 Y95.450
;segType:Loop
G1 X126.800 Y95.450 E0.11512 F1200
G1 X126.800 Y97.550 E0.15002
G1 X123.200 Y97.550 E0.20988
G1 X123.200 Y95.450 E0.24479
G1 X123.700 Y95.450 E0.25311
G0 X123.700 Y95.450 F7200
G0 X123.200 Y95.581
G0 X123.016 Y95.630
;segType:Perimeter
G1 X122.860 Y95.050 E0.26308 F600
G1 X127.200 Y95.050 E0.33525
G1 X127.200 Y97.950 E0.38346
G1 X122.800 Y97.950 E0.45662
G1 X122.800 Y95.110 E0.50384
G0 X122.860 Y95.050 F7200
G0 X124.460 Y95.050
G0 F3000 E-0.49616
G0 X125.116 Y95.450 F7200
G0 X126.800 Y96.478
G0 X126.800 Y97.550
G0 X133.201 Y98.950
G0 X133.561 Y100.603
G0 F3000 E0.50384
;segType:Infill
G1 X134.307 Y99.310 E0.52866 F1500
G0 X136.439 Y99.617 F7200
G1 X135.820 Y100.690 E0.54926 F1500
G0 X135.093 Y100.690 F7200
G1 X134.296 Y99.310 E0.57574 F1500
G0 X133.901 Y98.950 F7200
;segType:Loop
G1 X136.800 Y98.950 E0.62395 F1200
G1 X136.800 Y101.050 E0.65887
G1 X133.201 Y101.050 E0.71872
G1 X133.201 Y98.950 E0.75363
G1 X133.701 Y98.950 E0.76195
G0 X133.201 Y99.245 F7200
G0 X133.068 Y99.323
;segType:Perimeter
G1 X132.861 Y98.550 E0.77525 F600
G1 X137.200 Y98.550 E0.84741
G1 X137.200 Y101.450 E0.89563
G1 X132.801 Y101.450 E0.96879
G1 X132.801 Y98.610 E1.01601
G0 X132.861 Y98.550 F7200
G0 X134.461 Y98.550
G0 F3000 E0.01601
G0 X133.551 Y98.950 F7200
G0 X133.201 Y99.104
G0 X133.201 Y101.050
G0 X126.800 Y102.450
G0 X124.770 Y102.811
G0 F3000 E1.01601
;segType:Infill
G1 X125.566 Y104.190 E1.04248 F1500
G0 X124.562 Y104.190 F7200
G1 X125.358 Y102.811 E1.06896 F1500
G0 X126.440 Y103.280 F7200
G1 X123.561 Y103.280 E1.11684 F1500
G0 X123.900 Y102.450 F7200
;segType:Loop
G1 X126.800 Y102.450 E1.16506 F1200
G1 X126.800 Y104.550 E1.19997
G1 X123.200 Y104.550 E1.25982
G1 X123.200 Y102.450 E1.29473
G1 X123.700 Y102.450 E1.30305
G0 X123.700 Y102.450 F7200
G0 X123.200 Y102.582
G0 X123.016 Y102.630
;segType:Perimeter
G1 X122.860 Y102.050 E1.31303 F600
G1 X127.200 Y102.050 E1.38519
G1 X127.200 Y104.950 E1.43340
G1 X122.800 Y104.950 E1.50656
G1 X122.800 Y102.110 E1.55378
G0 X122.860 Y102.050 F7200
G0 X124.460 Y102.050
; ------------------------------------
; Layer #15
; ------------------------------------
G92 E0 ;reset extr
G0 F3000 E-1.00000
G0 F600 Z2.700
G0 X126.800 Y102.450 F7200
G0 X126.800 Y97.550
G0 X126.440 Y96.867
G0 F3000 E0.00000
;segType:Infill
G1 X126.254 Y97.189 E0.00619 F1500
G0 X126.184 Y97.189 F7200
G1 X125.388 Y95.810 E0.03267 F1500
G0 X124.740 Y95.810 F7200
G1 X123.944 Y97.189 E0.05914 F1500
G0 X123.875 Y97.189 F7200
G1 X123.561 Y96.645 E0.06959 F1500
G0 X123.900 Y95.450 F7200
;segType:Loop
G1 X126.800 Y95.450 E0.11780 F1200
G1 X126.800 Y97.550 E0.15271
G1 X123.200 Y97.550 E0.21257
G1 X123.200 Y95.450 E0.24748
G1 X123.700 Y95.450 E0.25580
G0 X123.700 Y95.450 F7200
G0 X123.200 Y95.581
G0 X123.016 Y95.630
;segType:Perimeter
G1 X122.860 Y95.050 E0.26577 F600
G1 X127.200 Y95.050 E0.33794
G1 X127.200 Y97.950 E0.38615
G1 X122.800 Y97.950 E0.45931
G1 X122.800 Y95.110 E0.50653
G0 X122.860 Y95.050 F7200
G0 X124.460 Y95.050
G0 F3000 E-0.49347
G0 X125.124 Y95.450 F7200
G0 X126.800 Y96.460
G0 X126.800 Y97.550
G0 X133.201 Y98.950
G0 X133.561 Y100.533
G0 F3000 E0.50653
;segType:Infill
G1 X134.267 Y99.310 E0.53001 F1500
G0 X134.337 Y99.310 F7200
G1 X135.133 Y100.690 E0.55649 F1500
G0 X135.780 Y100.690 F7200
G1 X136.439 Y99.547 E0.57843 F1500
G0 X136.439 Y99.350 F7200
G1 X133.561 Y99.350 E0.62631 F1500
G0 F3000 E-0.37369
G0 X133.901 Y98.950 F7200
G0 F3000 E0.62631
;segType:Loop
G1 X136.800 Y98.950 E0.67452 F1200
G1 X136.800 Y101.050 E0.70943
G1 X133.201 Y101.050 E0.76929
G1 X133.201 Y98.950 E0.80420
G1 X133.701 Y98.950 E0.81251
G0 X133.201 Y99.245 F7200
G0 X133.068 Y99.323
;segType:Perimeter
G1 X132.861 Y98.550 E0.82582 F600
G1 X137.200 Y98.550 E0.89798
G1 X137.200 Y101.450 E0.94619
G1 X132.801 Y101.450 E1.01935
G1 X132.801 Y98.610 E1.06657
G0 X132.861 Y98.550 F7200
G0 X134.461 Y98.550
G0 F3000 E0.06657
G0 X133.756 Y98.950 F7200
G0 X133.201 Y99.265
G0 X133.201 Y101.050
G0 X126.800 Y102.450
G0 X124.521 Y104.190
G0 F3000 E1.06657
;segType:Infill
G1 X125.318 Y102.811 E1.09305 F1500
G0 X124.811 Y102.811 F7200
G1 X125.607 Y104.190 E1.11953 F1500
G0 X126.440 Y103.350 F7200
G1 X123.561 Y103.350 E1.16741 F1500
G0 X123.900 Y102.450 F7200
;segType:Loop
G1 X126.800 Y102.450 E1.21562 F1200
G1 X126.800 Y104.550 E1.25053
G1 X123.200 Y104.550 E1.31039
G1 X123.200 Y102.450 E1.34530
G1 X123.700 Y102.450 E1.35361
G0 X123.700 Y102.450 F7200
G0 X123.200 Y102.582
G0 X123.016 Y102.630
;segType:Perimeter
G1 X122.860 Y102.050 E1.36359 F600
G1 X127.200 Y102.050 E1.43576
G1 X127.200 Y104.950 E1.48397
G1 X122.800 Y104.950 E1.55713
G1 X122.800 Y102.110 E1.60435
G0 X122.860 Y102.050 F7200
G0 X124.460 Y102.050
; ------------------------------------
; Layer #16
; ------------------------------------
G92 E0 ;reset extr
G0 F3000 E-1.00000
G0 F600 Z2.800
G0 X126.800 Y102.450 F7200
G0 X126.800 Y97.550
G0 X126.440 Y96.797
G0 F3000 E0.00000
;segType:Infill
G1 X126.213 Y97.189 E0.00753 F1500
G0 X126.224 Y97.189 F7200
G1 X125.428 Y95.810 E0.03401 F1500
G0 X124.700 Y95.810 F7200
G1 X123.904 Y97.189 E0.06049 F1500
G0 X123.915 Y97.189 F7200
G1 X123.561 Y96.575 E0.07228 F1500
G0 X123.900 Y95.450 F7200
;segType:Loop
G1 X126.800 Y95.450 E0.12049 F1200
G1 X126.800 Y97.550 E0.15540
G1 X123.200 Y97.550 E0.21526
G1 X123.200 Y95.450 E0.25017
G1 X123.700 Y95.450 E0.25848
G0 X123.700 Y95.450 F7200
G0 X123.200 Y95.581
G0 X123.016 Y95.630
;segType:Perimeter
G1 X122.860 Y95.050 E0.26846 F600
G1 X127.200 Y95.050 E0.34063
G1 X127.200 Y97.950 E0.38884
G1 X122.800 Y97.950 E0.46200
G1 X122.800 Y95.110 E0.50922
G0 X122.860 Y95.050 F7200
G0 X124.460 Y95.050
G0 F3000 E-0.49078
G0 X124.461 Y95.450 F7200
G0 X124.466 Y97.550
G0 X124.477 Y102.450
G0 X124.482 Y104.550
G0 X124.481 Y104.190
G0 F3000 E0.50922
;segType:Infill
G1 X125.277 Y102.811 E0.53569 F1500
G0 X124.851 Y102.811 F7200
G1 X125.647 Y104.190 E0.56217 F1500
G0 X126.440 Y103.420 F7200
G1 X123.561 Y103.420 E0.61005 F1500
G0 X123.900 Y102.450 F7200
;segType:Loop
G1 X126.800 Y102.450 E0.65827 F1200
G1 X126.800 Y104.550 E0.69318
G1 X123.200 Y104.550 E0.75304
G1 X123.200 Y102.450 E0.78794
G1 X123.700 Y102.450 E0.79626
G0 X123.700 Y102.450 F7200
G0 X123.200 Y102.582
G0 X123.016 Y102.630
;segType:Perimeter
G1 X122.860 Y102.050 E0.80624 F600
G1 X127.200 Y102.050 E0.87840
G1 X127.200 Y104.950 E0.92661
G1 X122.800 Y104.950 E0.99978
G1 X122.800 Y102.110 E1.04699
G0 X122.860 Y102.050 F7200
G0 X124.460 Y102.050
G0 F3000 E0.04699
G0 X127.200 Y102.050 F7200
G0 X133.201 Y101.050
G0 X133.561 Y100.463
G0 F3000 E1.04699
;segType:Infill
G1 X134.226 Y99.310 E1.06913 F1500
G0 X134.377 Y99.310 F7200
G1 X135.173 Y100.690 E1.09561 F1500
G0 X135.739 Y100.690 F7200
G1 X136.439 Y99.477 E1.11890 F1500
G0 X136.439 Y99.420 F7200
G1 X133.561 Y99.420 E1.16677 F1500
G0 F3000 E0.16677
G0 X133.901 Y98.950 F7200
G0 F3000 E1.16677
;segType:Loop
G1 X136.800 Y98.950 E1.21498 F1200
G1 X136.800 Y101.050 E1.24990
G1 X133.201 Y101.050 E1.30975
G1 X133.201 Y98.950 E1.34466
G1 X133.701 Y98.950 E1.35298
G0 X133.201 Y99.245 F7200
G0 X133.068 Y99.323
;segType:Perimeter
G1 X132.861 Y98.550 E1.36628 F600
G1 X137.200 Y98.550 E1.43844
G1 X137.200 Y101.450 E1.48666
G1 X132.801 Y101.450 E1.55982
G1 X132.801 Y98.610 E1.60704
G0 X132.861 Y98.550 F7200
G0 X134.461 Y98.550
; ------------------------------------
; Layer #17
; ------------------------------------
G92 E0 ;reset extr
G0 F3000 E-1.00000
G0 F600 Z2.900
G0 X132.801 Y98.550 F7200
G0 X126.800 Y97.550
G0 X126.440 Y96.727
G0 F3000 E0.00000
;segType:Infill
G1 X126.173 Y97.189 E0.00888 F1500
G0 X126.265 Y97.189 F7200
G1 X125.469 Y95.810 E0.03535 F1500
G0 X124.659 Y95.810 F7200
G1 X123.863 Y97.189 E0.06183 F1500
G0 X123.955 Y97.189 F7200
G1 X123.561 Y96.505 E0.07497 F1500
G0 X123.900 Y95.450 F7200
;segType:Loop
G1 X126.800 Y95.450 E0.12318 F1200
G1 X126.800 Y97.550 E0.15809
G1 X123.200 Y97.550 E0.21795
G1 X123.200 Y95.450 E0.25286
G1 X123.700 Y95.450 E0.26117
G0 X123.700 Y95.450 F7200
G0 X123.200 Y95.581
G0 X123.016 Y95.630
;segType:Perimeter
G1 X122.860 Y95.050 E0.27115 F600
G1 X127.200 Y95.050 E0.34332
G1 X127.200 Y97.950 E0.39153
G1 X122.800 Y97.950 E0.46469
G1 X122.800 Y95.110 E0.51191
G0 X122.860 Y95.050 F7200
G0 X124.460 Y95.050
G0 F3000 E-0.48809
G0 X125.142 Y95.450 F7200
G0 X126.800 Y96.424
G0 X126.800 Y97.550
G0 X132.801 Y98.550
G0 X133.561 Y100.393
G0 F3000 E0.51191
;segType:Infill
G1 X134.186 Y99.310 E0.53270 F1500
G0 X134.418 Y99.310 F7200
G1 X135.214 Y100.690 E0.55918 F1500
G0 X135.699 Y100.690 F7200
G1 X136.439 Y99.407 E0.58381 F1500
G0 X136.439 Y99.490 F7200
G1 X133.561 Y99.490 E0.63169 F1500
G0 F3000 E-0.36831
G0 X133.901 Y98.950 F7200
G0 F3000 E0.63169
;segType:Loop
G1 X136.800 Y98.950 E0.67990 F1200
G1 X136.800 Y101.050 E0.71481
G1 X133.201 Y101.050 E0.77466
G1 X133.201 Y98.950 E0.80958
G1 X133.701 Y98.950 E0.81789
G0 X133.201 Y99.245 F7200
G0 X133.068 Y99.323
;segType:Perimeter
G1 X132.861 Y98.550 E0.83120 F600
G1 X137.200 Y98.550 E0.90336
G1 X137.200 Y101.450 E0.95157
G1 X132.801 Y101.450 E1.02473
G1 X132.801 Y98.610 E1.07195
G0 X132.861 Y98.550 F7200
G0 X134.461 Y98.550
G0 F3000 E0.07195
G0 X132.801 Y99.485 F7200
G0 X132.801 Y101.450
G0 X126.800 Y102.450
G0 X124.441 Y104.190
G0 F3000 E1.07195
;segType:Infill
G1 X125.237 Y102.811 E1.09843 F1500
G0 X124.891 Y102.811 F7200
G1 X125.688 Y104.190 E1.12491 F1500
G0 X126.440 Y103.490 F7200
G1 X123.561 Y103.490 E1.17279 F1500
G0 X123.900 Y102.450 F7200
;segType:Loop
G1 X126.800 Y102.450 E1.22100 F1200
G1 X126.800 Y104.550 E1.25591
G1 X123.200 Y104.550 E1.31577
G1 X123.200 Y102.450 E1.35068
G1 X123.700 Y102.450 E1.35899
G0 X123.700 Y102.450 F7200
G0 X123.200 Y102.582
G0 X123.016 Y102.630
;segType:Perimeter
G1 X122.860 Y102.050 E1.36897 F600
G1 X127.200 Y102.050 E1.44113
G1 X127.200 Y104.950 E1.48935
G1 X122.800 Y104.950 E1.56251
G1 X122.800 Y102.110 E1.60972
G0 X122.860 Y102.050 F7200
G0 X124.460 Y102.050
; ------------------------------------
; Layer #18
; ------------------------------------
G92 E0 ;reset extr
G0 F3000 E-1.00000
G0 F600 Z3.000
G0 X126.800 Y102.450 F7200
G0 X126.800 Y97.550
G0 X126.132 Y97.189
G0 F3000 E0.00000
;segType:Infill
G1 X126.440 Y96.657 E0.01022 F1500
G0 X126.305 Y97.189 F7200
G1 X125.509 Y95.810 E0.03670 F1500
G0 X124.619 Y95.810 F7200
G1 X123.823 Y97.189 E0.06318 F1500
G0 X123.996 Y97.189 F7200
G1 X123.561 Y96.435 E0.07766 F1500
G0 X123.900 Y95.450 F7200
;segType:Loop
G1 X126.800 Y95.450 E0.12587 F1200
G1 X126.800 Y97.550 E0.16078
G1 X123.200 Y97.550 E0.22064
G1 X123.200 Y95.450 E0.25555
G1 X123.700 Y95.450 E0.26386
G0 X123.700 Y95.450 F7200
G0 X123.200 Y95.581
G0 X123.016 Y95.630
;segType:Perimeter
G1 X122.860 Y95.050 E0.27384 F600
G1 X127.200 Y95.050 E0.34600
G1 X127.200 Y97.950 E0.39422
G1 X122.800 Y97.950 E0.46738
G1 X122.800 Y95.110 E0.51459
G0 X122.860 Y95.050 F7200
G0 X124.460 Y95.050
G0 F3000 E-0.48541
G0 X125.151 Y95.450 F7200
G0 X126.800 Y96.406
G0 X126.800 Y97.550
G0 X133.201 Y98.950
G0 X133.561 Y100.323
G0 F3000 E0.51459
;segType:Infill
G1 X134.145 Y99.310 E0.53404 F1500
G0 X134.458 Y99.310 F7200
G1 X135.254 Y100.690 E0.56052 F1500
G0 X135.659 Y100.690 F7200
G1 X136.439 Y99.337 E0.58650 F1500
G0 X136.439 Y99.560 F7200
G1 X133.561 Y99.560 E0.63437 F1500
G0 F3000 E-0.36563
G0 X133.901 Y98.950 F7200
G0 F3000 E0.63437
;segType:Loop
G1 X136.800 Y98.950 E0.68259 F1200
G1 X136.800 Y101.050 E0.71750
G1 X133.201 Y101.050 E0.77735
G1 X133.201 Y98.950 E0.81227
G1 X133.701 Y98.950 E0.82058
G0 X133.201 Y99.245 F7200
G0 X133.068 Y99.323
;segType:Perimeter
G1 X132.861 Y98.550 E0.83388 F600
G1 X137.200 Y98.550 E0.90604
G1 X137.200 Y101.450 E0.95426
G1 X132.801 Y101.450 E1.02742
G1 X132.801 Y98.610 E1.07464
G0 X132.861 Y98.550 F7200
G0 X134.461 Y98.550
G0 F3000 E0.07464
G0 X133.747 Y98.950 F7200
G0 X133.201 Y99.257
G0 X133.201 Y101.050
G0 X126.800 Y102.450
G0 X124.400 Y104.190
G0 F3000 E1.07464
;segType:Infill
G1 X125.196 Y102.811 E1.10112 F1500
G0 X124.932 Y102.811 F7200
G1 X125.728 Y104.190 E1.12759 F1500
G0 X126.440 Y103.560 F7200
G1 X123.561 Y103.560 E1.17547 F1500
G0 X123.900 Y102.450 F7200
;segType:Loop
G1 X126.800 Y102.450 E1.22369 F1200
G1 X126.800 Y104.550 E1.25860
G1 X123.200 Y104.550 E1.31846
G1 X123.200 Y102.450 E1.35337
G1 X123.700 Y102.450 E1.36168
G0 X123.700 Y102.450 F7200
G0 X123.200 Y102.582
G0 X123.016 Y102.630
;segType:Perimeter
G1 X122.860 Y102.050 E1.37166 F600
G1 X127.200 Y102.050 E1.44382
G1 X127.200 Y104.950 E1.49203
G1 X122.800 Y104.950 E1.56520
G1 X122.800 Y102.110 E1.61241
G0 X122.860 Y102.050 F7200
G0 X124.460 Y102.050
; ------------------------------------
; Layer #19
; ------------------------------------
G92 E0 ;reset extr
G0 F3000 E-1.00000
G0 F600 Z3.100
G0 X126.800 Y102.450 F7200
G0 X126.800 Y97.550
G0 X126.440 Y96.587
G0 F3000 E0.00000
;segType:Infill
G1 X126.092 Y97.189 E0.01156 F1500
G0 X126.346 Y97.189 F7200
G1 X125.550 Y95.810 E0.03804 F1500
G0 X124.579 Y95.810 F7200
G1 X123.782 Y97.189 E0.06452 F1500
G0 X124.036 Y97.189 F7200
G1 X123.561 Y96.365 E0.08035 F1500
G0 X123.900 Y95.450 F7200
;segType:Loop
G1 X126.800 Y95.450 E0.12856 F1200
G1 X126.800 Y97.550 E0.16347
G1 X123.200 Y97.550 E0.22333
G1 X123.200 Y95.450 E0.25824
G1 X123.700 Y95.450 E0.26655
G0 X123.700 Y95.450 F7200
G0 X123.200 Y95.581
G0 X123.016 Y95.630
;segType:Perimeter
G1 X122.860 Y95.050 E0.27653 F600
G1 X127.200 Y95.050 E0.34869
G1 X127.200 Y97.950 E0.39691
G1 X122.800 Y97.950 E0.47007
G1 X122.800 Y95.110 E0.51728
G0 X122.860 Y95.050 F7200
G0 X124.460 Y95.050
G0 F3000 E-0.48272
G0 X125.160 Y95.450 F7200
G0 X126.800 Y96.388
G0 X126.800 Y97.550
G0 X133.201 Y98.950
G0 X133.561 Y100.253
G0 F3000 E0.51728
;segType:Infill
G1 X134.105 Y99.310 E0.53539 F1500
G0 X134.498 Y99.310 F7200
G1 X135.295 Y100.690 E0.56187 F1500
G0 X135.618 Y100.690 F7200
G1 X136.414 Y99.310 E0.58835 F1500
G0 X136.439 Y99.630 F7200
G1 X133.561 Y99.630 E0.63623 F1500
G0 X133.901 Y98.950 F7200
;segType:Loop
G1 X136.800 Y98.950 E0.68444 F1200
G1 X136.800 Y101.050 E0.71935
G1 X133.201 Y101.050 E0.77921
G1 X133.201 Y98.950 E0.81412
G1 X133.701 Y98.950 E0.82243
G0 X133.201 Y99.245 F7200
G0 X133.068 Y99.323
;segType:Perimeter
G1 X132.861 Y98.550 E0.83574 F600
G1 X137.200 Y98.550 E0.90790
G1 X137.200 Y101.450 E0.95611
G1 X132.801 Y101.450 E1.02927
G1 X132.801 Y98.610 E1.07649
G0 X132.861 Y98.550 F7200
G0 X134.461 Y98.550
G0 F3000 E0.07649
G0 X133.744 Y98.950 F7200
G0 X133.201 Y99.254
G0 X133.201 Y101.050
G0 X126.800 Y102.450
G0 X124.360 Y104.190
G0 F3000 E1.07649
;segType:Infill
G1 X125.156 Y102.811 E1.10297 F1500
G0 X124.972 Y102.811 F7200
G1 X125.768 Y104.190 E1.12945 F1500
G0 X126.440 Y103.630 F7200
G1 X123.561 Y103.630 E1.17733 F1500
G0 X123.900 Y102.450 F7200
;segType:Loop
G1 X126.800 Y102.450 E1.22554 F1200
G1 X126.800 Y104.550 E1.26045
G1 X123.200 Y104.550 E1.32031
G1 X123.200 Y102.450 E1.35522
G1 X123.700 Y102.450 E1.36353
G0 X123.700 Y102.450 F7200
G0 X123.200 Y102.582
G0 X123.016 Y102.630
;segType:Perimeter
G1 X122.860 Y102.050 E1.37351 F600
G1 X127.200 Y102.050 E1.44567
G1 X127.200 Y104.950 E1.49389
G1 X122.800 Y104.950 E1.56705
G1 X122.800 Y102.110 E1.61426
G0 X122.860 Y102.050 F7200
G0 X124.460 Y102.050
; ------------------------------------
; Layer #20
; ------------------------------------
G92 E0 ;reset extr
G0 F3000 E-1.00000
G0 F600 Z3.200
G0 X126.800 Y102.450 F7200
G0 X126.800 Y97.550
G0 X126.440 Y96.517
G0 F3000 E0.00000
;segType:Infill
G1 X126.051 Y97.189 E0.01291 F1500
G0 X126.386 Y97.189 F7200
G1 X125.590 Y95.810 E0.03939 F1500
G0 X124.538 Y95.810 F7200
G1 X123.742 Y97.189 E0.06587 F1500
G0 X124.077 Y97.189 F7200
G1 X123.561 Y96.295 E0.08303 F1500
G0 X123.900 Y95.450 F7200
;segType:Loop
G1 X126.800 Y95.450 E0.13125 F1200
G1 X126.800 Y97.550 E0.16616
G1 X123.200 Y97.550 E0.22602
G1 X123.200 Y95.450 E0.26093
G1 X123.700 Y95.450 E0.26924
G0 X123.700 Y95.450 F7200
G0 X123.200 Y95.581
G0 X123.016 Y95.630
;segType:Perimeter
G1 X122.860 Y95.050 E0.27922 F600
G1 X127.200 Y95.050 E0.35138
G1 X127.200 Y97.950 E0.39960
G1 X122.800 Y97.950 E0.47276
G1 X122.800 Y95.110 E0.51997
G0 X122.860 Y95.050 F7200
G0 X124.460 Y95.050
G0 F3000 E-0.48003
G0 X124.454 Y95.450 F7200
G0 X124.422 Y97.550
G0 X124.346 Y102.450
G0 X124.314 Y104.550
G0 X124.319 Y104.190
G0 F3000 E0.51997
;segType:Infill
G1 X125.115 Y102.811 E0.54645 F1500
G0 X125.013 Y102.811 F7200
G1 X125.809 Y104.190 E0.57293 F1500
G0 X126.440 Y103.700 F7200
G1 X123.561 Y103.700 E0.62081 F1500
G0 X123.900 Y102.450 F7200
;segType:Loop
G1 X126.800 Y102.450 E0.66903 F1200
G1 X126.800 Y104.550 E0.70394
G1 X123.200 Y104.550 E0.76379
G1 X123.200 Y102.450 E0.79870
G1 X123.700 Y102.450 E0.80702
G0 X123.700 Y102.450 F7200
G0 X123.200 Y102.582
G0 X123.016 Y102.630
;segType:Perimeter
G1 X122.860 Y102.050 E0.81699 F600
G1 X127.200 Y102.050 E0.88916
G1 X127.200 Y104.950 E0.93737
G1 X122.800 Y104.950 E1.01053
G1 X122.800 Y102.110 E1.05775
G0 X122.860 Y102.050 F7200
G0 X124.460 Y102.050
G0 F3000 E0.05775
G0 X127.200 Y102.050 F7200
G0 X132.801 Y101.450
G0 X133.561 Y100.183
G0 F3000 E1.05775
;segType:Infill
G1 X134.065 Y99.310 E1.07451 F1500
G0 X134.539 Y99.310 F7200
G1 X135.335 Y100.690 E1.10099 F1500
G0 X135.578 Y100.690 F7200
G1 X136.374 Y99.310 E1.12747 F1500
G0 X136.439 Y99.700 F7200
G1 X133.561 Y99.700 E1.17535 F1500
G0 X133.901 Y98.950 F7200
;segType:Loop
G1 X136.800 Y98.950 E1.22356 F1200
G1 X136.800 Y101.050 E1.25847
G1 X133.201 Y101.050 E1.31833
G1 X133.201 Y98.950 E1.35324
G1 X133.701 Y98.950 E1.36156
G0 F3000 E0.36156
G0 X133.068 Y99.323 F7200
G0 F3000 E1.36156
;segType:Perimeter
G1 X132.861 Y98.550 E1.37486 F600
G1 X137.200 Y98.550 E1.44702
G1 X137.200 Y101.450 E1.49524
G1 X132.801 Y101.450 E1.56839
G1 X132.801 Y98.610 E1.61561
G0 X132.861 Y98.550 F7200
G0 X134.461 Y98.550
; ------------------------------------
; Layer #21
; ------------------------------------
G92 E0 ;reset extr
G0 F3000 E-1.00000
G0 F600 Z3.300
G0 X132.801 Y98.550 F7200
G0 X126.800 Y97.550
G0 X126.440 Y96.447
G0 F3000 E0.00000
;segType:Infill
G1 X126.011 Y97.189 E0.01425 F1500
G0 X126.427 Y97.189 F7200
G1 X125.630 Y95.810 E0.04073 F1500
G0 X124.498 Y95.810 F7200
G1 X123.702 Y97.189 E0.06721 F1500
G0 X124.117 Y97.189 F7200
G1 X123.561 Y96.225 E0.08572 F1500
G0 X123.900 Y95.450 F7200
;segType:Loop
G1 X126.800 Y95.450 E0.13394 F1200
G1 X126.800 Y97.550 E0.16885
G1 X123.200 Y97.550 E0.22871
G1 X123.200 Y95.450 E0.26362
G1 X123.700 Y95.450 E0.27193
G0 X123.700 Y95.450 F7200
G0 X123.200 Y95.581
G0 X123.016 Y95.630
;segType:Perimeter
G1 X122.860 Y95.050 E0.28191 F600
G1 X127.200 Y95.050 E0.35407
G1 X127.200 Y97.950 E0.40229
G1 X122.800 Y97.950 E0.47545
G1 X122.800 Y95.110 E0.52266
G0 X122.860 Y95.050 F7200
G0 X124.460 Y95.050
G0 F3000 E-0.47734
G0 X124.452 Y95.450 F7200
G0 X124.411 Y97.550
G0 X124.313 Y102.450
G0 X124.272 Y104.550
G0 X124.279 Y104.190
G0 F3000 E0.52266
;segType:Infill
G1 X125.075 Y102.811 E0.54914 F1500
G0 X125.053 Y102.811 F7200
G1 X125.849 Y104.190 E0.57562 F1500
G0 X126.440 Y103.770 F7200
G1 X123.561 Y103.770 E0.62350 F1500
G0 X123.900 Y102.450 F7200
;segType:Loop
G1 X126.800 Y102.450 E0.67172 F1200
G1 X126.800 Y104.550 E0.70662
G1 X123.200 Y104.550 E0.76648
G1 X123.200 Y102.450 E0.80139
G1 X123.700 Y102.450 E0.80971
G0 X123.700 Y102.450 F7200
G0 X123.200 Y102.582
G0 X123.016 Y102.630
;segType:Perimeter
G1 X122.860 Y102.050 E0.81968 F600
G1 X127.200 Y102.050 E0.89185
G1 X127.200 Y104.950 E0.94006
G1 X122.800 Y104.950 E1.01322
G1 X122.800 Y102.110 E1.06044
G0 X122.860 Y102.050 F7200
G0 X124.460 Y102.050
G0 F3000 E0.06044
G0 X127.200 Y102.050 F7200
G0 X132.801 Y101.450
G0 X133.561 Y100.113
G0 F3000 E1.06044
;segType:Infill
G1 X134.024 Y99.310 E1.07585 F1500
G0 X134.579 Y99.310 F7200
G1 X135.376 Y100.690 E1.10233 F1500
G0 X135.537 Y100.690 F7200
G1 X136.333 Y99.310 E1.12882 F1500
G0 X136.439 Y99.770 F7200
G1 X133.561 Y99.770 E1.17669 F1500
G0 X133.901 Y98.950 F7200
;segType:Loop
G1 X136.800 Y98.950 E1.22490 F1200
G1 X136.800 Y101.050 E1.25982
G1 X133.201 Y101.050 E1.31967
G1 X133.201 Y98.950 E1.35458
G1 X133.701 Y98.950 E1.36290
G0 X133.201 Y99.245 F7200
G0 X133.068 Y99.323
;segType:Perimeter
G1 X132.861 Y98.550 E1.37620 F600
G1 X137.200 Y98.550 E1.44836
G1 X137.200 Y101.450 E1.49658
G1 X132.801 Y101.450 E1.56974
G1 X132.801 Y98.610 E1.61696
G0 X132.861 Y98.550 F7200
G0 X134.461 Y98.550
; ------------------------------------
; Layer #22
; ------------------------------------
G92 E0 ;reset extr
G0 F3000 E-1.00000
G0 F600 Z3.400
G0 X132.801 Y98.550 F7200
G0 X126.800 Y97.550
G0 X126.800 Y96.995
G0 X123.200 Y96.062
G0 X123.561 Y96.155
G0 F3000 E0.00000
;segType:Infill
G1 X124.158 Y97.189 E0.01986 F1500
G0 X123.661 Y97.189 F7200
G1 X124.457 Y95.810 E0.04634 F1500
G0 X125.671 Y95.810 F7200
G1 X126.440 Y97.142 E0.07190 F1500
G0 X125.971 Y97.189 F7200
G1 X126.440 Y96.377 E0.08750 F1500
G0 X126.440 Y95.840 F7200
G1 X123.561 Y95.840 E0.13538 F1500
G0 F3000 E-0.86462
G0 X123.900 Y95.450 F7200
G0 F3000 E0.13538
;segType:Loop
G1 X126.800 Y95.450 E0.18360 F1200
G1 X126.800 Y97.550 E0.21851
G1 X123.200 Y97.550 E0.27836
G1 X123.200 Y95.450 E0.31327
G1 X123.700 Y95.450 E0.32159
G0 X123.700 Y95.450 F7200
G0 X123.200 Y95.581
G0 X123.016 Y95.630
;segType:Perimeter
G1 X122.860 Y95.050 E0.33157 F600
G1 X127.200 Y95.050 E0.40373
G1 X127.200 Y97.950 E0.45194
G1 X122.800 Y97.950 E0.52510
G1 X122.800 Y95.110 E0.57232
G0 X122.860 Y95.050 F7200
G0 X124.460 Y95.050
G0 F3000 E-0.42768
G0 X124.422 Y95.450 F7200
G0 X124.220 Y97.550
G0 X123.200 Y97.550
G0 X123.200 Y102.450
G0 X123.481 Y102.450
G0 X123.601 Y104.550
G0 X123.580 Y104.190
G0 F3000 E0.57232
;segType:Infill
G1 X123.561 Y104.155 E0.57298 F1500
G0 X124.238 Y104.190 F7200
G1 X125.035 Y102.811 E0.59945 F1500
G0 X125.094 Y102.811 F7200
G1 X125.890 Y104.190 E0.62593 F1500
G0 X126.440 Y103.840 F7200
G1 X123.561 Y103.840 E0.67381 F1500
G0 F3000 E-0.32619
G0 X123.900 Y102.450 F7200
G0 F3000 E0.67381
;segType:Loop
G1 X126.800 Y102.450 E0.72203 F1200
G1 X126.800 Y104.550 E0.75694
G1 X123.200 Y104.550 E0.81679
G1 X123.200 Y102.450 E0.85170
G1 X123.700 Y102.450 E0.86002
G0 X123.700 Y102.450 F7200
G0 X123.200 Y102.582
G0 X123.016 Y102.630
;segType:Perimeter
G1 X122.860 Y102.050 E0.87000 F600
G1 X127.200 Y102.050 E0.94216
G1 X127.200 Y104.950 E0.99037
G1 X122.800 Y104.950 E1.06353
G1 X122.800 Y102.110 E1.11075
G0 X122.860 Y102.050 F7200
G0 X124.460 Y102.050
G0 F3000 E0.11075
G0 X127.200 Y102.050 F7200
G0 X132.801 Y101.450
G0 X133.561 Y100.043
G0 F3000 E1.11075
;segType:Infill
G1 X133.984 Y99.310 E1.12482 F1500
G0 X134.620 Y99.310 F7200
G1 X135.416 Y100.690 E1.15130 F1500
G0 X135.497 Y100.690 F7200
G1 X136.293 Y99.310 E1.17778 F1500
G0 X136.439 Y99.840 F7200
G1 X133.561 Y99.840 E1.22566 F1500
G0 X133.901 Y98.950 F7200
;segType:Loop
G1 X136.800 Y98.950 E1.27387 F1200
G1 X136.800 Y101.050 E1.30878
G1 X133.201 Y101.050 E1.36864
G1 X133.201 Y98.950 E1.40355
G1 X133.701 Y98.950 E1.41187
G0 X133.201 Y99.245 F7200
G0 X133.068 Y99.323
;segType:Perimeter
G1 X132.861 Y98.550 E1.42517 F600
G1 X137.200 Y98.550 E1.49733
G1 X137.200 Y101.450 E1.54555
G1 X132.801 Y101.450 E1.61870
G1 X132.801 Y98.610 E1.66592
G0 X132.861 Y98.550 F7200
G0 X134.461 Y98.550
; ------------------------------------
; Layer #23
; ------------------------------------
G92 E0 ;reset extr
G0 F3000 E-1.00000
G0 F600 Z3.500
G0 X132.801 Y98.550 F7200
G0 X126.800 Y97.550
G0 X126.800 Y96.949
G0 X123.200 Y95.989
G0 X123.561 Y96.085
G0 F3000 E0.00000
;segType:Infill
G1 X124.198 Y97.189 E0.02120 F1500
G0 X123.621 Y97.189 F7200
G1 X124.417 Y95.810 E0.04768 F1500
G0 X125.711 Y95.810 F7200
G1 X126.440 Y97.072 E0.07190 F1500
G0 X125.930 Y97.189 F7200
G1 X126.440 Y96.307 E0.08885 F1500
G0 X126.440 Y95.910 F7200
G1 X123.561 Y95.910 E0.13673 F1500
G0 F3000 E-0.86327
G0 X123.900 Y95.450 F7200
G0 F3000 E0.13673
;segType:Loop
G1 X126.800 Y95.450 E0.18494 F1200
G1 X126.800 Y97.550 E0.21985
G1 X123.200 Y97.550 E0.27971
G1 X123.200 Y95.450 E0.31462
G1 X123.700 Y95.450 E0.32293
G0 X123.700 Y95.450 F7200
G0 X123.200 Y95.581
G0 X123.016 Y95.630
;segType:Perimeter
G1 X122.860 Y95.050 E0.33291 F600
G1 X127.200 Y95.050 E0.40507
G1 X127.200 Y97.950 E0.45329
G1 X122.800 Y97.950 E0.52645
G1 X122.800 Y95.110 E0.57366
G0 X122.860 Y95.050 F7200
G0 X124.460 Y95.050
G0 F3000 E-0.42634
G0 X125.200 Y95.450 F7200
G0 X126.800 Y96.316
G0 X126.800 Y97.550
G0 X132.801 Y98.550
G0 X133.561 Y99.973
G0 F3000 E0.57366
;segType:Infill
G1 X133.943 Y99.310 E0.58639 F1500
G0 X134.660 Y99.310 F7200
G1 X135.456 Y100.690 E0.61287 F1500
G0 X135.456 Y100.690 F7200
G1 X136.253 Y99.310 E0.63935 F1500
G0 X136.439 Y99.910 F7200
G1 X133.561 Y99.910 E0.68723 F1500
G0 X133.901 Y98.950 F7200
;segType:Loop
G1 X136.800 Y98.950 E0.73544 F1200
G1 X136.800 Y101.050 E0.77035
G1 X133.201 Y101.050 E0.83021
G1 X133.201 Y98.950 E0.86512
G1 X133.701 Y98.950 E0.87344
G0 X133.201 Y99.245 F7200
G0 X133.068 Y99.323
;segType:Perimeter
G1 X132.861 Y98.550 E0.88674 F600
G1 X137.200 Y98.550 E0.95890
G1 X137.200 Y101.450 E1.00712
G1 X132.801 Y101.450 E1.08027
G1 X132.801 Y98.610 E1.12749
G0 X132.861 Y98.550 F7200
G0 X134.461 Y98.550
G0 F3000 E0.12749
G0 X132.801 Y99.414 F7200
G0 X132.801 Y101.450
G0 X126.800 Y102.450
G0 X126.800 Y103.241
G0 X123.200 Y104.315
G0 X123.621 Y104.190
G0 F3000 E1.12749
;segType:Infill
G1 X123.561 Y104.085 E1.12949 F1500
G0 X124.198 Y104.190 F7200
G1 X124.994 Y102.811 E1.15597 F1500
G0 X125.134 Y102.811 F7200
G1 X125.930 Y104.190 E1.18245 F1500
G0 X126.440 Y103.910 F7200
G1 X123.561 Y103.910 E1.23033 F1500
G0 X123.412 Y104.550 F7200
G0 X123.900 Y102.450
G0 X123.900 Y102.450
;segType:Loop
G1 X126.800 Y102.450 E1.27855 F1200
G1 X126.800 Y104.550 E1.31345
G1 X123.200 Y104.550 E1.37331
G1 X123.200 Y102.450 E1.40822
G1 X123.700 Y102.450 E1.41654
G0 X123.700 Y102.450 F7200
G0 X123.200 Y102.582
G0 X123.016 Y102.630
;segType:Perimeter
G1 X122.860 Y102.050 E1.42651 F600
G1 X127.200 Y102.050 E1.49868
G1 X127.200 Y104.950 E1.54689
G1 X122.800 Y104.950 E1.62005
G1 X122.800 Y102.110 E1.66727
G0 X122.860 Y102.050 F7200
G0 X124.460 Y102.050
; ------------------------------------
; Layer #24
; ------------------------------------
G92 E0 ;reset extr
G0 F3000 E-1.00000
G0 F600 Z3.600
G0 X123.200 Y102.450 F7200
G0 X123.200 Y97.550
G0 X123.475 Y97.550
G0 X123.592 Y95.450
G0 X123.561 Y96.015
G0 F3000 E0.00000
;segType:Infill
G1 X124.238 Y97.189 E0.02255 F1500
G0 X123.580 Y97.189 F7200
G1 X124.376 Y95.810 E0.04903 F1500
G0 X125.752 Y95.810 F7200
G1 X126.440 Y97.002 E0.07190 F1500
G0 X125.890 Y97.189 F7200
G1 X126.440 Y96.237 E0.09019 F1500
G0 X126.440 Y95.981 F7200
G1 X123.561 Y95.981 E0.13807 F1500
G0 F3000 E-0.86193
G0 X123.900 Y95.450 F7200
G0 F3000 E0.13807
;segType:Loop
G1 X126.800 Y95.450 E0.18629 F1200
G1 X126.800 Y97.550 E0.22120
G1 X123.200 Y97.550 E0.28105
G1 X123.200 Y95.450 E0.31596
G1 X123.700 Y95.450 E0.32428
G0 X123.700 Y95.450 F7200
G0 X123.200 Y95.581
G0 X123.016 Y95.630
;segType:Perimeter
G1 X122.860 Y95.050 E0.33426 F600
G1 X127.200 Y95.050 E0.40642
G1 X127.200 Y97.950 E0.45463
G1 X122.800 Y97.950 E0.52779
G1 X122.800 Y95.110 E0.57501
G0 X122.860 Y95.050 F7200
G0 X124.460 Y95.050
G0 F3000 E-0.42499
G0 X125.422 Y95.450 F7200
G0 X126.800 Y96.024
G0 X126.800 Y97.550
G0 X133.201 Y98.950
G0 X134.701 Y99.310
G0 F3000 E0.57501
;segType:Infill
G1 X135.497 Y100.690 E0.60149 F1500
G0 X135.416 Y100.690 F7200
G1 X136.212 Y99.310 E0.62798 F1500
G0 X136.439 Y99.981 F7200
G1 X133.561 Y99.981 E0.67585 F1500
G0 X133.903 Y99.310 F7200
G1 X133.561 Y99.903 E0.68723 F1500
G0 X133.901 Y98.950 F7200
;segType:Loop
G1 X136.800 Y98.950 E0.73544 F1200
G1 X136.800 Y101.050 E0.77036
G1 X133.201 Y101.050 E0.83021
G1 X133.201 Y98.950 E0.86512
G1 X133.701 Y98.950 E0.87344
G0 X133.201 Y99.245 F7200
G0 X133.068 Y99.323
;segType:Perimeter
G1 X132.861 Y98.550 E0.88674 F600
G1 X137.200 Y98.550 E0.95890
G1 X137.200 Y101.450 E1.00712
G1 X132.801 Y101.450 E1.08028
G1 X132.801 Y98.610 E1.12750
G0 X132.861 Y98.550 F7200
G0 X134.461 Y98.550
G0 F3000 E0.12750
G0 X133.695 Y98.950 F7200
G0 X133.201 Y99.208
G0 X133.201 Y101.050
G0 X126.800 Y102.450
G0 X126.800 Y103.156
G0 X123.200 Y104.341
G0 X123.661 Y104.190
G0 F3000 E1.12750
;segType:Infill
G1 X123.561 Y104.015 E1.13084 F1500
G0 X124.158 Y104.190 F7200
G1 X124.954 Y102.811 E1.15732 F1500
G0 X125.174 Y102.811 F7200
G1 X125.971 Y104.190 E1.18380 F1500
G0 X126.440 Y103.981 F7200
G1 X123.561 Y103.981 E1.23168 F1500
G0 X123.434 Y104.550 F7200
G0 X123.900 Y102.450
G0 X123.900 Y102.450
;segType:Loop
G1 X126.800 Y102.450 E1.27989 F1200
G1 X126.800 Y104.550 E1.31480
G1 X123.200 Y104.550 E1.37466
G1 X123.200 Y102.450 E1.40957
G1 X123.700 Y102.450 E1.41788
G0 X123.700 Y102.450 F7200
G0 X123.200 Y102.582
G0 X123.016 Y102.630
;segType:Perimeter
G1 X122.860 Y102.050 E1.42786 F600
G1 X127.200 Y102.050 E1.50003
G1 X127.200 Y104.950 E1.54824
G1 X122.800 Y104.950 E1.62140
G1 X122.800 Y102.110 E1.66862
G0 X122.860 Y102.050 F7200
G0 X124.460 Y102.050
; ------------------------------------
; Layer #25
; ------------------------------------
G92 E0 ;reset extr
G0 F3000 E-1.00000
G0 F600 Z3.700
G0 X123.200 Y102.450 F7200
G0 X123.200 Y97.550
G0 X123.561 Y97.100
G0 F3000 E0.00000
;segType:HShell
G1 X126.440 Y97.100 E0.04788 F1200
G0 X126.440 Y96.700 F7200
G1 X123.561 Y96.700 E0.09576 F1200
G0 X123.561 Y96.300 F7200
G1 X126.440 Y96.300 E0.14364 F1200
G0 X126.440 Y95.900 F7200
G1 X123.561 Y95.900 E0.19152 F1200
G0 X123.016 Y95.630 F7200
;segType:Perimeter
G1 X122.860 Y95.050 E0.20149 F600
G1 X127.200 Y95.050 E0.27366
G1 X127.200 Y97.950 E0.32187
G1 X122.800 Y97.950 E0.39503
G1 X122.800 Y95.110 E0.44225
G0 X122.860 Y95.050 F7200
G0 X124.460 Y95.050
G0 X123.900 Y95.450
;segType:Loop
G1 X126.800 Y95.450 E0.49046 F1200
G1 X126.800 Y97.550 E0.52537
G1 X123.200 Y97.550 E0.58523
G1 X123.200 Y95.450 E0.62014
G1 X123.700 Y95.450 E0.62845
G0 F3000 E-0.37155
G0 X123.700 Y95.450 F7200
G0 X126.800 Y96.630
G0 X126.800 Y97.550
G0 X133.201 Y98.950
G0 X133.201 Y99.376
G0 X136.800 Y100.403
G0 X136.439 Y100.300
G0 F3000 E0.62845
;segType:HShell
G1 X133.561 Y100.300 E0.67633 F1200
G0 X133.561 Y99.900 F7200
G1 X136.439 Y99.900 E0.72420 F1200
G0 X136.439 Y99.500 F7200
G1 X133.561 Y99.500 E0.77208 F1200
G0 F3000 E-0.22792
G0 X133.901 Y98.950 F7200
G0 F3000 E0.77208
;segType:Loop
G1 X136.800 Y98.950 E0.82029 F1200
G1 X136.800 Y101.050 E0.85520
G1 X133.201 Y101.050 E0.91505
G1 X133.201 Y98.950 E0.94997
G1 X133.701 Y98.950 E0.95828
G0 X133.201 Y99.245 F7200
G0 X133.068 Y99.323
;segType:Perimeter
G1 X132.861 Y98.550 E0.97159 F600
G1 X137.200 Y98.550 E1.04375
G1 X137.200 Y101.450 E1.09196
G1 X132.801 Y101.450 E1.16512
G1 X132.801 Y98.610 E1.21234
G0 X132.861 Y98.550 F7200
G0 X134.461 Y98.550
G0 F3000 E0.21234
G0 X133.861 Y98.950 F7200
G0 X133.201 Y99.391
G0 X133.201 Y101.050
G0 X126.800 Y102.450
G0 X126.440 Y103.900
G0 F3000 E1.21234
;segType:HShell
G1 X123.561 Y103.900 E1.26022 F1200
G0 X123.561 Y103.500 F7200
G1 X126.440 Y103.500 E1.30810 F1200
G0 X126.440 Y103.100 F7200
G1 X123.561 Y103.100 E1.35598 F1200
G0 F3000 E0.35598
G0 X123.900 Y102.450 F7200
G0 F3000 E1.35598
;segType:Loop
G1 X126.800 Y102.450 E1.40419 F1200
G1 X126.800 Y104.550 E1.43910
G1 X123.200 Y104.550 E1.49896
G1 X123.200 Y102.450 E1.53387
G1 X123.700 Y102.450 E1.54218
G0 X123.700 Y102.450 F7200
G0 X123.200 Y102.582
G0 X123.016 Y102.630
;segType:Perimeter
G1 X122.860 Y102.050 E1.55216 F600
G1 X127.200 Y102.050 E1.62432
G1 X127.200 Y104.950 E1.67254
G1 X122.800 Y104.950 E1.74570
G1 X122.800 Y102.110 E1.79291
G0 X122.860 Y102.050 F7200
G0 X124.460 Y102.050
; ------------------------------------
; Layer #26
; ------------------------------------
G92 E0 ;reset extr
G0 F3000 E-1.00000
G0 F600 Z3.800
G0 X126.800 Y102.450 F7200
G0 X126.800 Y97.550
G0 X126.505 Y97.550
G0 X126.378 Y95.450
G0 X126.400 Y95.810
G0 F3000 E0.00000
;segType:HShell
G1 X126.400 Y97.189 E0.02293 F1200
G0 X126.000 Y97.189 F7200
G1 X126.000 Y95.810 E0.04586 F1200
G0 X125.600 Y95.810 F7200
G1 X125.600 Y97.189 E0.06879 F1200
G0 X125.200 Y97.189 F7200
G1 X125.200 Y95.810 E0.09173 F1200
G0 X124.800 Y95.810 F7200
G1 X124.800 Y97.189 E0.11466 F1200
G0 X124.400 Y97.189 F7200
G1 X124.400 Y95.810 E0.13759 F1200
G0 X124.000 Y95.810 F7200
G1 X124.000 Y97.189 E0.16052 F1200
G0 X123.600 Y97.189 F7200
G1 X123.600 Y95.810 E0.18345 F1200
G0 X123.016 Y95.630 F7200
;segType:Perimeter
G1 X122.860 Y95.050 E0.19343 F600
G1 X127.200 Y95.050 E0.26559
G1 X127.200 Y97.950 E0.31381
G1 X122.800 Y97.950 E0.38697
G1 X122.800 Y95.110 E0.43418
G0 X122.860 Y95.050 F7200
G0 X124.460 Y95.050
G0 X123.900 Y95.450
;segType:Loop
G1 X126.800 Y95.450 E0.48240 F1200
G1 X126.800 Y97.550 E0.51731
G1 X123.200 Y97.550 E0.57717
G1 X123.200 Y95.450 E0.61208
G1 X123.700 Y95.450 E0.62039
G0 F3000 E-0.37961
G0 X123.700 Y95.450 F7200
G0 X124.470 Y97.550
G0 X126.800 Y97.550
G0 X126.800 Y102.450
G0 X126.400 Y102.811
G0 F3000 E0.62039
;segType:HShell
G1 X126.400 Y104.190 E0.64332 F1200
G0 X126.000 Y104.190 F7200
G1 X126.000 Y102.811 E0.66625 F1200
G0 X125.600 Y102.811 F7200
G1 X125.600 Y104.190 E0.68918 F1200
G0 X125.200 Y104.190 F7200
G1 X125.200 Y102.811 E0.71212 F1200
G0 X124.800 Y102.811 F7200
G1 X124.800 Y104.190 E0.73505 F1200
G0 X124.400 Y104.190 F7200
G1 X124.400 Y102.811 E0.75798 F1200
G0 X124.000 Y102.811 F7200
G1 X124.000 Y104.190 E0.78091 F1200
G0 X123.600 Y104.190 F7200
G1 X123.600 Y102.811 E0.80384 F1200
G0 X123.016 Y102.630 F7200
;segType:Perimeter
G1 X122.860 Y102.050 E0.81382 F600
G1 X127.200 Y102.050 E0.88598
G1 X127.200 Y104.950 E0.93420
G1 X122.800 Y104.950 E1.00736
G1 X122.800 Y102.110 E1.05457
G0 X122.860 Y102.050 F7200
G0 X124.460 Y102.050
G0 X123.900 Y102.450
;segType:Loop
G1 X126.800 Y102.450 E1.10279 F1200
G1 X126.800 Y104.550 E1.13770
G1 X123.200 Y104.550 E1.19756
G1 X123.200 Y102.450 E1.23246
G1 X123.700 Y102.450 E1.24078
G0 F3000 E0.24078
G0 X126.800 Y102.450 F7200
G0 X133.201 Y101.050
G0 X133.201 Y100.357
G0 X136.800 Y99.180
G0 X136.400 Y99.310
G0 F3000 E1.24078
;segType:HShell
G1 X136.400 Y100.690 E1.26372 F1200
G0 X136.000 Y100.690 F7200
G1 X136.000 Y99.310 E1.28665 F1200
G0 X135.600 Y99.310 F7200
G1 X135.600 Y100.690 E1.30959 F1200
G0 X135.200 Y100.690 F7200
G1 X135.200 Y99.310 E1.33252 F1200
G0 X134.800 Y99.310 F7200
G1 X134.800 Y100.690 E1.35546 F1200
G0 X134.400 Y100.690 F7200
G1 X134.400 Y99.310 E1.37839 F1200
G0 X134.000 Y99.310 F7200
G1 X134.000 Y100.690 E1.40133 F1200
G0 X133.600 Y100.690 F7200
G1 X133.600 Y99.310 E1.42426 F1200
G0 X133.068 Y99.323 F7200
;segType:Perimeter
G1 X132.861 Y98.550 E1.43757 F600
G1 X137.200 Y98.550 E1.50973
G1 X137.200 Y101.450 E1.55794
G1 X132.801 Y101.450 E1.63110
G1 X132.801 Y98.610 E1.67832
G0 X132.861 Y98.550 F7200
G0 X134.461 Y98.550
G0 X133.901 Y98.950
;segType:Loop
G1 X136.800 Y98.950 E1.72653 F1200
G1 X136.800 Y101.050 E1.76145
G1 X133.201 Y101.050 E1.82130
G1 X133.201 Y98.950 E1.85621
G1 X133.701 Y98.950 E1.86453
; ------------------------------------
; Layer #27
; ------------------------------------
G92 E0 ;reset extr
G0 F3000 E-1.00000
G0 F600 Z3.900
G0 X133.201 Y98.950 F7200
G0 X126.800 Y97.550
G0 X125.903 Y97.550
G0 X123.200 Y97.031
G0 X123.561 Y97.100
G0 F3000 E0.00000
;segType:HShell
G1 X126.440 Y97.100 E0.04788 F1200
G0 X126.440 Y96.700 F7200
G1 X123.561 Y96.700 E0.09576 F1200
G0 X123.561 Y96.300 F7200
G1 X126.440 Y96.300 E0.14364 F1200
G0 X126.440 Y95.900 F7200
G1 X123.561 Y95.900 E0.19152 F1200
G0 X123.016 Y95.630 F7200
;segType:Perimeter
G1 X122.860 Y95.050 E0.20149 F600
G1 X127.200 Y95.050 E0.27366
G1 X127.200 Y97.950 E0.32187
G1 X122.800 Y97.950 E0.39503
G1 X122.800 Y95.110 E0.44225
G0 X122.860 Y95.050 F7200
G0 X124.460 Y95.050
G0 X123.900 Y95.450
;segType:Loop
G1 X126.800 Y95.450 E0.49046 F1200
G1 X126.800 Y97.550 E0.52537
G1 X123.200 Y97.550 E0.58523
G1 X123.200 Y95.450 E0.62014
G1 X123.700 Y95.450 E0.62845
G0 F3000 E-0.37155
G0 X126.800 Y96.630 F7200
G0 X126.800 Y97.550
G0 X133.201 Y98.950
G0 X133.201 Y99.376
G0 X136.800 Y100.403
G0 X136.439 Y100.300
G0 F3000 E0.62845
;segType:HShell
G1 X133.561 Y100.300 E0.67633 F1200
G0 X133.561 Y99.900 F7200
G1 X136.439 Y99.900 E0.72420 F1200
G0 X136.439 Y99.500 F7200
G1 X133.561 Y99.500 E0.77208 F1200
G0 F3000 E-0.22792
G0 X133.901 Y98.950 F7200
G0 F3000 E0.77208
;segType:Loop
G1 X136.800 Y98.950 E0.82029 F1200
G1 X136.800 Y101.050 E0.85520
G1 X133.201 Y101.050 E0.91505
G1 X133.201 Y98.950 E0.94997
G1 X133.701 Y98.950 E0.95828
G0 X133.201 Y99.245 F7200
G0 X133.068 Y99.323
;segType:Perimeter
G1 X132.861 Y98.550 E0.97159 F600
G1 X137.200 Y98.550 E1.04375
G1 X137.200 Y101.450 E1.09196
G1 X132.801 Y101.450 E1.16512
G1 X132.801 Y98.610 E1.21234
G0 X132.861 Y98.550 F7200
G0 X134.461 Y98.550
G0 F3000 E0.21234
G0 X133.861 Y98.950 F7200
G0 X133.201 Y99.391
G0 X133.201 Y101.050
G0 X126.800 Y102.450
G0 X126.440 Y103.900
G0 F3000 E1.21234
;segType:HShell
G1 X123.561 Y103.900 E1.26022 F1200
G0 X123.561 Y103.500 F7200
G1 X126.440 Y103.500 E1.30810 F1200
G0 X126.440 Y103.100 F7200
G1 X123.561 Y103.100 E1.35598 F1200
G0 F3000 E0.35598
G0 X123.900 Y102.450 F7200
G0 F3000 E1.35598
;segType:Loop
G1 X126.800 Y102.450 E1.40419 F1200
G1 X126.800 Y104.550 E1.43910
G1 X123.200 Y104.550 E1.49896
G1 X123.200 Y102.450 E1.53387
G1 X123.700 Y102.450 E1.54218
G0 X123.700 Y102.450 F7200
G0 X123.200 Y102.582
G0 X123.016 Y102.630
;segType:Perimeter
G1 X122.860 Y102.050 E1.55216 F600
G1 X127.200 Y102.050 E1.62432
G1 X127.200 Y104.950 E1.67254
G1 X122.800 Y104.950 E1.74570
G1 X122.800 Y102.110 E1.79291
G0 X122.860 Y102.050 F7200
G0 X124.460 Y102.050
; ------------------------------------
; Layer #28
; ------------------------------------
G92 E0 ;reset extr
G0 F3000 E-1.00000
G0 F600 Z4.000
G0 X126.800 Y102.450 F7200
G0 X126.800 Y97.550
G0 X126.505 Y97.550
G0 X126.378 Y95.450
G0 X126.400 Y95.810
G0 F3000 E0.00000
;segType:HShell
G1 X126.400 Y97.189 E0.02293 F1200
G0 X126.000 Y97.189 F7200
G1 X126.000 Y95.810 E0.04586 F1200
G0 X125.600 Y95.810 F7200
G1 X125.600 Y97.189 E0.06879 F1200
G0 X125.200 Y97.189 F7200
G1 X125.200 Y95.810 E0.09173 F1200
G0 X124.800 Y95.810 F7200
G1 X124.800 Y97.189 E0.11466 F1200
G0 X124.400 Y97.189 F7200
G1 X124.400 Y95.810 E0.13759 F1200
G0 X124.000 Y95.810 F7200
G1 X124.000 Y97.189 E0.16052 F1200
G0 X123.600 Y97.189 F7200
G1 X123.600 Y95.810 E0.18345 F1200
G0 X123.016 Y95.630 F7200
;segType:Perimeter
G1 X122.860 Y95.050 E0.19343 F600
G1 X127.200 Y95.050 E0.26559
G1 X127.200 Y97.950 E0.31381
G1 X122.800 Y97.950 E0.38697
G1 X122.800 Y95.110 E0.43418
G0 X122.860 Y95.050 F7200
G0 X124.460 Y95.050
G0 X123.900 Y95.450
;segType:Loop
G1 X126.800 Y95.450 E0.48240 F1200
G1 X126.800 Y97.550 E0.51731
G1 X123.200 Y97.550 E0.57716
G1 X123.200 Y95.450 E0.61207
G1 X123.700 Y95.450 E0.62039
G0 F3000 E-0.37961
G0 X123.700 Y95.450 F7200
G0 X126.800 Y96.392
G0 X126.800 Y97.550
G0 X133.201 Y98.950
G0 X134.437 Y98.950
G0 X136.800 Y99.384
G0 X136.400 Y99.310
G0 F3000 E0.62039
;segType:HShell
G1 X136.400 Y100.690 E0.64332 F1200
G0 X136.000 Y100.690 F7200
G1 X136.000 Y99.310 E0.66626 F1200
G0 X135.600 Y99.310 F7200
