;FLAVOR:RepRap
;TIME:829
;Filament used: 0.919585m
;Layer height: 0.2
;MINX:103.41
;MINY:80.469
;MINZ:0.36
;MAXX:146.589
;MAXY:119.53
;MAXZ:21.31

M300 ; play beep    Snnn (freq in Hz) Pnnn (time in ms)

M82 ; absolute extrusion mode

; Craftbot+ Custom Start G-code

G28 X Y ; home horizontally

G28 Z ; home vertically

G92 E0 ; Reset Extruder

G1 Z5.0 F3000 ; Move Z Axis up little to prevent scratching of Heat Bed

G1 X0.5 Y20 Z0.3 F5000.0 ; Move to start position

G1 X0.5 Y150.0 Z0.3 F1500.0 E15 ; Draw the first line

G1 X1.0 Y150.0 Z0.3 F5000.0 ; Move to side a little

G1 X1.0 Y20 Z0.3 F1500.0 E30 ; Draw the second line

G92 E0 ; Reset Extruder

G1 Z2.0 F3000 ; Move Z Axis up little to prevent scratching of Heat Bed

; End of custom start GCode

M300 ; play beep    Snnn (freq in Hz) Pnnn (time in ms)

M83 ; relative extrusion mode

G1 F4800 E-1.2
;LAYER_COUNT:99
;LAYER:-7
M106 S0 ;turn off fan
G0 F9000 X106.711 Y86.279 Z0.36
;TYPE:SUPPORT-INTERFACE
G1 F4800 E1.2
G1 F2250 X107.287 Y85.588 E0.10771
G1 X107.388 Y85.475 E0.01815
G1 X108.013 Y84.826 E0.10788
G1 X108.138 Y84.706 E0.02075
G1 X108.809 Y84.103 E0.10802
G1 X108.925 Y84.007 E0.01803
G1 X109.637 Y83.457 E0.10773
G1 X109.796 Y83.344 E0.02336
G1 X110.534 Y82.854 E0.10607
G1 X110.66 Y82.778 E0.01762
G1 X111.454 Y82.332 E0.10904
G1 X111.604 Y82.254 E0.02024
G1 X112.419 Y81.871 E0.10782
G1 X112.562 Y81.811 E0.01857
G1 X113.421 Y81.482 E0.11014
G1 X113.571 Y81.43 E0.01901
G1 X114.421 Y81.175 E0.10626
G1 X114.594 Y81.128 E0.02147
G1 X115.489 Y80.928 E0.10981
G1 X115.619 Y80.905 E0.01581
G1 X116.524 Y80.771 E0.10954
G1 X116.693 Y80.753 E0.02035
G1 X117.582 Y80.687 E0.10674
G1 X117.766 Y80.678 E0.02206
G1 X118.271 Y80.67 E0.06047
G1 X121.792 Y80.671 E0.42159
G1 X122.793 Y80.707 E0.11993
G1 X122.916 Y80.716 E0.01477
G1 X123.833 Y80.818 E0.11048
G1 X124.008 Y80.843 E0.02117
G1 X124.897 Y81.007 E0.10824
G1 X125.02 Y81.035 E0.0151
G1 X125.914 Y81.269 E0.11065
G1 X126.077 Y81.318 E0.02038
G1 X126.919 Y81.604 E0.10648
G1 X127.085 Y81.668 E0.0213
G1 X127.888 Y82.009 E0.10446
G1 X128.077 Y82.097 E0.02496
G1 X128.871 Y82.505 E0.10689
G1 X128.988 Y82.572 E0.01614
G1 X129.767 Y83.046 E0.10918
G1 X129.93 Y83.154 E0.02341
G1 X130.02 Y83.219 E0.01329
G1 X130.588 Y83.574 E0.0802
G1 X131.208 Y83.859 E0.0817
G1 X131.863 Y84.064 E0.08218
G1 X132.732 Y84.203 E0.10537
G1 X132.919 Y84.217 E0.02245
G1 X133.833 Y84.318 E0.11011
G1 X134.008 Y84.343 E0.02117
G1 X134.897 Y84.507 E0.10824
G1 X135.02 Y84.535 E0.0151
G1 X135.914 Y84.769 E0.11065
G1 X136.077 Y84.818 E0.02038
G1 X136.919 Y85.104 E0.10648
G1 X137.085 Y85.168 E0.0213
G1 X137.888 Y85.509 E0.10446
G1 X138.077 Y85.597 E0.02496
G1 X138.871 Y86.005 E0.10689
G1 X138.988 Y86.072 E0.01614
G1 X139.767 Y86.546 E0.10918
G1 X139.918 Y86.646 E0.02169
G1 X140.642 Y87.164 E0.10659
G1 X140.765 Y87.258 E0.01854
G1 X141.471 Y87.846 E0.11001
G1 X141.584 Y87.947 E0.01815
G1 X142.233 Y88.572 E0.10788
G1 X142.353 Y88.697 E0.02075
G1 X142.956 Y89.368 E0.10802
G1 X143.052 Y89.484 E0.01803
G1 X143.602 Y90.196 E0.10773
G1 X143.715 Y90.355 E0.02336
G1 X144.205 Y91.093 E0.10607
G1 X144.281 Y91.219 E0.01762
G1 X144.727 Y92.013 E0.10904
G1 X144.805 Y92.163 E0.02024
G1 X145.188 Y92.978 E0.10782
G1 X145.248 Y93.121 E0.01857
G1 X145.577 Y93.98 E0.11014
G1 X145.629 Y94.13 E0.01901
G1 X145.884 Y94.98 E0.10626
G1 X145.931 Y95.153 E0.02147
G1 X146.129 Y96.039 E0.1087
G1 X146.154 Y96.178 E0.01691
G1 X146.287 Y97.077 E0.10881
G1 X146.305 Y97.239 E0.01952
G1 X146.372 Y98.14 E0.10818
G1 X146.38 Y98.305 E0.01978
G1 X146.389 Y98.826 E0.06239
G1 X146.389 Y101.216 E0.28617
G1 X146.353 Y102.222 E0.12053
G1 X146.343 Y102.357 E0.01621
G1 X146.241 Y103.274 E0.11048
G1 X146.216 Y103.449 E0.02117
G1 X146.054 Y104.327 E0.1069
G1 X146.024 Y104.461 E0.01644
G1 X145.79 Y105.355 E0.11065
G1 X145.741 Y105.518 E0.02038
G1 X145.455 Y106.36 E0.10648
G1 X145.391 Y106.526 E0.0213
G1 X145.05 Y107.329 E0.10446
G1 X144.969 Y107.504 E0.02309
G1 X144.554 Y108.312 E0.10876
G1 X144.487 Y108.429 E0.01614
G1 X144.013 Y109.208 E0.10918
G1 X143.913 Y109.359 E0.02169
G1 X143.402 Y110.073 E0.10513
G1 X143.289 Y110.221 E0.0223
G1 X142.713 Y110.912 E0.10771
G1 X142.612 Y111.025 E0.01815
G1 X141.987 Y111.674 E0.10788
G1 X141.862 Y111.794 E0.02075
G1 X141.192 Y112.396 E0.10785
G1 X141.075 Y112.493 E0.0182
G1 X140.363 Y113.043 E0.10773
G1 X140.204 Y113.156 E0.02336
G1 X139.466 Y113.646 E0.10607
G1 X139.34 Y113.722 E0.01762
G1 X138.546 Y114.168 E0.10904
G1 X138.395 Y114.246 E0.02035
G1 X137.585 Y114.627 E0.10718
G1 X137.438 Y114.689 E0.0191
G1 X136.579 Y115.018 E0.11014
G1 X136.429 Y115.07 E0.01901
G1 X135.579 Y115.325 E0.10626
G1 X135.406 Y115.372 E0.02147
G1 X134.511 Y115.572 E0.10981
G1 X134.381 Y115.595 E0.01581
G1 X133.481 Y115.728 E0.10893
G1 X133.309 Y115.747 E0.02072
G1 X132.749 Y115.789 E0.06724
G1 X132.086 Y115.881 E0.08015
G1 X131.426 Y116.059 E0.08185
G1 X130.795 Y116.32 E0.08176
G1 X130.193 Y116.664 E0.08302
G1 X129.479 Y117.138 E0.10262
G1 X129.34 Y117.222 E0.01945
G1 X128.546 Y117.668 E0.10904
G1 X128.395 Y117.746 E0.02035
G1 X127.581 Y118.129 E0.10772
G1 X127.438 Y118.189 E0.01857
G1 X126.579 Y118.518 E0.11014
G1 X126.429 Y118.57 E0.01901
G1 X125.579 Y118.825 E0.10626
G1 X125.406 Y118.872 E0.02147
G1 X124.511 Y119.072 E0.10981
G1 X124.381 Y119.095 E0.01581
G1 X123.476 Y119.229 E0.10954
G1 X123.308 Y119.247 E0.02023
G1 X122.418 Y119.313 E0.10686
G1 X122.234 Y119.322 E0.02206
G1 X121.729 Y119.33 E0.06047
G1 X118.208 Y119.329 E0.42159
G1 X117.207 Y119.293 E0.11993
G1 X117.084 Y119.284 E0.01477
G1 X116.167 Y119.182 E0.11048
G1 X115.992 Y119.157 E0.02117
G1 X115.103 Y118.993 E0.10824
G1 X114.98 Y118.965 E0.0151
G1 X114.086 Y118.731 E0.11065
G1 X113.923 Y118.682 E0.02038
G1 X113.081 Y118.396 E0.10648
G1 X112.915 Y118.332 E0.0213
G1 X112.112 Y117.991 E0.10446
G1 X111.923 Y117.903 E0.02496
G1 X111.129 Y117.495 E0.10689
G1 X111.012 Y117.428 E0.01614
G1 X110.233 Y116.954 E0.10918
G1 X110.082 Y116.854 E0.02169
G1 X109.368 Y116.343 E0.10513
G1 X109.22 Y116.23 E0.0223
G1 X108.529 Y115.654 E0.10771
G1 X108.416 Y115.553 E0.01815
G1 X107.767 Y114.928 E0.10788
G1 X107.647 Y114.803 E0.02075
G1 X107.044 Y114.132 E0.10802
G1 X106.947 Y114.014 E0.01829
G1 X106.389 Y113.292 E0.10926
G1 X106.285 Y113.145 E0.02156
G1 X105.789 Y112.397 E0.10746
G1 X105.719 Y112.281 E0.01622
G1 X105.267 Y111.476 E0.11054
G1 X105.195 Y111.337 E0.01874
G1 X104.812 Y110.521 E0.10793
G1 X104.747 Y110.367 E0.02001
G1 X104.423 Y109.52 E0.10858
G1 X104.37 Y109.367 E0.01939
G1 X104.116 Y108.52 E0.10588
G1 X104.069 Y108.347 E0.02147
G1 X103.868 Y107.446 E0.11053
G1 X103.846 Y107.322 E0.01508
G1 X103.711 Y106.408 E0.11063
G1 X103.694 Y106.248 E0.01927
G1 X103.626 Y105.336 E0.1095
G1 X103.619 Y105.176 E0.01918
G1 X103.611 Y104.674 E0.06012
G1 X103.611 Y102.284 E0.28617
G1 X103.647 Y101.278 E0.12053
G1 X103.657 Y101.143 E0.01621
G1 X103.716 Y100.607 E0.06457
G1 X103.747 Y99.941 E0.07983
G1 X103.716 Y99.444 E0.05962
G1 X103.692 Y99.226 E0.02626
G1 X103.628 Y98.356 E0.10445
G1 X103.619 Y98.175 E0.0217
G1 X103.611 Y97.674 E0.06
G1 X103.611 Y95.284 E0.28617
G1 X103.647 Y94.278 E0.12053
G1 X103.657 Y94.143 E0.01621
G1 X103.759 Y93.226 E0.11048
G1 X103.784 Y93.051 E0.02117
G1 X103.951 Y92.15 E0.10972
G1 X103.976 Y92.039 E0.01362
G1 X104.207 Y91.154 E0.10952
G1 X104.259 Y90.982 E0.02152
G1 X104.545 Y90.14 E0.10648
G1 X104.609 Y89.974 E0.0213
G1 X104.95 Y89.171 E0.10446
G1 X105.031 Y88.996 E0.02309
G1 X105.446 Y88.188 E0.10876
G1 X105.513 Y88.071 E0.01614
G1 X105.978 Y87.306 E0.10719
G1 X106.104 Y87.117 E0.0272
G1 X106.598 Y86.427 E0.10161
G1 X106.711 Y86.279 E0.0223
G0 F9000 X107.2 Y85.692
G1 F2250 X107.2 Y114.305 E3.42602
G0 F9000 X108.8 Y115.879
G1 F2250 X108.8 Y84.111 E3.80379
G0 F9000 X110.4 Y82.942
G1 F2250 X110.4 Y117.055 E4.08457
G0 F9000 X112 Y117.938
G1 F2250 X112 Y82.067 E4.29507
G0 F9000 X113.6 Y81.421
G1 F2250 X113.6 Y118.572 E4.44833
G0 F9000 X115.2 Y119.01
G1 F2250 X115.2 Y80.992 E4.55214
G0 F9000 X116.8 Y80.745
G1 F2250 X116.8 Y119.252 E4.61069
G0 F9000 X118.4 Y119.329
G1 F2250 X118.4 Y80.671 E4.62877
G0 F9000 X120 Y80.671
G1 F2250 X120 Y119.329 E4.62877
G0 F9000 X121.6 Y119.329
G1 F2250 X121.6 Y80.671 E4.62877
G0 F9000 X123.2 Y80.748
G1 F2250 X123.2 Y119.256 E4.61081
G0 F9000 X124.8 Y119.008
G1 F2250 X124.8 Y80.99 E4.55214
G0 F9000 X126.4 Y81.428
G1 F2250 X126.4 Y118.579 E4.44833
G0 F9000 X128 Y117.932
G1 F2250 X128 Y82.062 E4.29495
G0 F9000 X129.6 Y82.945
G1 F2250 X129.6 Y117.058 E4.08457
G0 F9000 X131.2 Y116.153
G1 F2250 X131.2 Y83.856 E3.86713
G0 F9000 X132.8 Y84.209
G1 F2250 X132.8 Y115.786 E3.78092
G0 F9000 X134.4 Y115.592
G1 F2250 X134.4 Y84.416 E3.7329
G0 F9000 X136 Y84.795
G1 F2250 X136 Y115.199 E3.64047
G0 F9000 X137.6 Y114.62
G1 F2250 X137.6 Y85.387 E3.50026
G0 F9000 X139.2 Y86.201
G1 F2250 X139.2 Y113.801 E3.30473
G0 F9000 X140.8 Y112.706
G1 F2250 X140.8 Y87.288 E3.04346
G0 F9000 X142.4 Y88.75
G1 F2250 X142.4 Y111.246 E2.69359
G0 F9000 X144 Y109.228
G1 F2250 X144 Y90.785 E2.2083
G0 F9000 X145.6 Y94.047
G1 F2250 X145.6 Y105.934 E1.42331
G0 F9000 X105.6 Y112.069
G1 F2250 X105.6 Y87.927 E2.89068
G0 F9000 X104 Y91.947
G1 F2250 X104 Y108.037 E1.92656
G0 F600 X104 Y108.037 Z0.66
G0 F9000 X106.967 Y114.038
;TIME_ELAPSED:30.871615
;LAYER:-6
;TYPE:SUPPORT
G1 F2250 X108.849 Y115.92 E0.26557
G1 X108.528 Y115.653 E0.04166
G1 X108.415 Y115.551 E0.01519
G1 X107.767 Y114.927 E0.08976
G1 X107.646 Y114.802 E0.01736
G1 X107.044 Y114.131 E0.08995
G0 F9000 X108.849 Y115.92
G1 F2250 X109.22 Y116.229 E0.04818
G1 X109.367 Y116.342 E0.0185
G1 X110.081 Y116.852 E0.08755
G1 X110.232 Y116.953 E0.01813
G1 X111.012 Y117.427 E0.09107
G1 X111.128 Y117.494 E0.01337
G1 X111.922 Y117.902 E0.08907
G1 X112.111 Y117.99 E0.0208
G1 X112.497 Y118.154 E0.04185
G1 X104.774 Y110.431 E1.0898
G1 X104.747 Y110.365 E0.00712
G1 X104.422 Y109.519 E0.09043
G1 X104.369 Y109.366 E0.01616
G1 X104.115 Y108.519 E0.08823
G1 X104.068 Y108.346 E0.01789
G1 X104.057 Y108.3 E0.00472
G1 X114.629 Y118.872 E1.49182
G1 X114.98 Y118.964 E0.03621
G1 X115.102 Y118.991 E0.01247
G1 X115.992 Y119.155 E0.0903
G1 X116.167 Y119.18 E0.01764
G1 X116.374 Y119.203 E0.02078
G1 X103.733 Y106.561 E1.78385
G1 X103.71 Y106.407 E0.01554
G1 X103.694 Y106.247 E0.01604
G1 X103.625 Y105.335 E0.09126
G1 X103.619 Y105.175 E0.01598
G1 X103.616 Y105.03 E0.01447
G1 X117.902 Y119.317 E2.01598
G1 X118.208 Y119.328 E0.03055
G1 X119.328 Y119.328 E0.11175
G1 X103.61 Y103.61 E2.21798
G1 X103.61 Y102.283 E0.13241
G1 X103.613 Y102.198 E0.00849
G1 X120.743 Y119.329 E2.4173
G1 X121.728 Y119.329 E0.09828
G1 X122.15 Y119.322 E0.04211
G1 X103.687 Y100.858 E2.6054
G1 X103.715 Y100.607 E0.0252
G1 X103.746 Y99.941 E0.06653
G1 X103.716 Y99.473 E0.04679
G1 X123.471 Y119.228 E2.78764
G0 F9000 X123.475 Y119.228
G1 F2250 X124.38 Y119.095 E0.09127
G1 X124.51 Y119.072 E0.01317
G1 X124.689 Y119.032 E0.0183
G1 X103.614 Y97.957 E2.97391
G1 X103.61 Y97.673 E0.02834
G1 X103.61 Y96.539 E0.11315
G1 X125.822 Y118.751 E3.13435
G1 X126.428 Y118.569 E0.06314
G1 X126.577 Y118.518 E0.01571
G1 X126.885 Y118.4 E0.03291
G1 X103.615 Y95.13 E3.28365
G1 X103.646 Y94.278 E0.08507
G1 X103.656 Y94.142 E0.01361
G1 X103.694 Y93.794 E0.03493
G1 X127.884 Y117.985 E3.41354
G1 X128.393 Y117.746 E0.05611
G1 X128.544 Y117.668 E0.01696
G1 X128.824 Y117.51 E0.03208
G1 X103.873 Y92.56 E3.52079
G1 X103.95 Y92.15 E0.04163
G1 X103.975 Y92.039 E0.01135
G1 X104.139 Y91.411 E0.06476
G1 X129.71 Y116.983 E3.60841
G1 X130.192 Y116.664 E0.05767
G1 X130.582 Y116.44 E0.04488
G1 X104.477 Y90.335 E3.6837
G1 X104.544 Y90.14 E0.02057
G1 X104.607 Y89.973 E0.01781
G1 X104.883 Y89.326 E0.07019
G1 X131.574 Y116.018 E3.76646
G1 X132.085 Y115.881 E0.05279
G1 X132.747 Y115.788 E0.0667
G1 X132.757 Y115.787 E0.001
G1 X105.347 Y88.377 E3.86785
G1 X105.445 Y88.187 E0.02133
G1 X105.512 Y88.07 E0.01345
G1 X105.868 Y87.483 E0.0685
G1 X134.03 Y115.645 E3.97396
G1 X134.379 Y115.594 E0.03519
G1 X134.51 Y115.572 E0.01325
G1 X135.212 Y115.413 E0.07182
G1 X106.442 Y86.643 E4.05976
G1 X106.597 Y86.426 E0.02661
G1 X106.71 Y86.279 E0.0185
G1 X107.065 Y85.852 E0.05541
G1 X136.316 Y115.102 E4.12756
G1 X136.428 Y115.069 E0.01165
G1 X136.577 Y115.017 E0.01575
G1 X137.349 Y114.722 E0.08246
G1 X107.737 Y85.11 E4.17857
G1 X108.011 Y84.825 E0.03945
G1 X108.137 Y84.706 E0.01729
G1 X108.459 Y84.417 E0.04317
G1 X138.321 Y114.279 E4.21385
G1 X138.394 Y114.246 E0.00799
G1 X138.544 Y114.168 E0.01687
G1 X139.235 Y113.779 E0.07912
G1 X109.228 Y83.773 E4.23424
G1 X109.636 Y83.456 E0.05155
G1 X109.795 Y83.343 E0.01946
G1 X110.047 Y83.176 E0.03016
G1 X140.096 Y113.226 E4.24031
G1 X140.203 Y113.156 E0.01276
G1 X140.362 Y113.043 E0.01946
G1 X140.906 Y112.622 E0.06864
G1 X110.917 Y82.633 E4.23177
G1 X111.453 Y82.331 E0.06139
G1 X111.603 Y82.254 E0.01682
G1 X111.84 Y82.142 E0.02616
G1 X141.666 Y111.968 E4.20877
G1 X141.861 Y111.793 E0.02614
G1 X141.986 Y111.674 E0.01722
G1 X142.379 Y111.266 E0.05652
G1 X112.823 Y81.711 E4.1706
G1 X113.42 Y81.482 E0.0638
G1 X113.57 Y81.429 E0.01587
G1 X113.868 Y81.341 E0.031
G1 X143.042 Y110.515 E4.11677
G1 X143.288 Y110.22 E0.03833
G1 X143.401 Y110.072 E0.01858
G1 X143.657 Y109.716 E0.04375
G1 X114.982 Y81.041 E4.04635
G1 X115.488 Y80.927 E0.05175
G1 X115.618 Y80.905 E0.01316
G1 X116.177 Y80.822 E0.05639
G1 X144.22 Y108.865 E3.95717
G1 X144.485 Y108.429 E0.05091
G1 X144.553 Y108.312 E0.0135
G1 X144.732 Y107.963 E0.03914
G1 X117.465 Y80.696 E3.84767
G1 X117.581 Y80.687 E0.01161
G1 X117.765 Y80.678 E0.01838
G1 X118.269 Y80.67 E0.0503
G1 X118.854 Y80.67 E0.05837
G1 X145.187 Y107.003 E3.71587
G1 X145.39 Y106.526 E0.05173
G1 X145.454 Y106.36 E0.01775
G1 X145.582 Y105.984 E0.03963
G1 X120.268 Y80.67 E3.57208
G1 X121.683 Y80.67 E0.14119
G1 X145.909 Y104.897 E3.41862
G1 X146.023 Y104.46 E0.04506
G1 X146.053 Y104.327 E0.0136
G1 X146.162 Y103.736 E0.05996
G1 X123.171 Y80.745 E3.24428
G1 X123.832 Y80.818 E0.06636
G1 X124.007 Y80.842 E0.01763
G1 X124.837 Y80.996 E0.08423
G1 X146.327 Y102.487 E3.03254
G1 X146.342 Y102.357 E0.01306
G1 X146.352 Y102.222 E0.01351
G1 X146.388 Y101.215 E0.10054
G1 X146.388 Y101.133 E0.00818
G1 X126.828 Y81.573 E2.76013
G1 X126.918 Y81.604 E0.0095
G1 X127.084 Y81.668 E0.01775
G1 X127.887 Y82.008 E0.08701
G1 X128.076 Y82.097 E0.02084
G1 X128.87 Y82.505 E0.08907
G1 X128.987 Y82.571 E0.0134
G1 X129.636 Y82.966 E0.07581
G1 X146.388 Y99.719 E2.36396
G1 X146.388 Y98.825 E0.0892
G1 X146.379 Y98.304 E0.05199
G1 X146.379 Y98.296 E0.0008
G1 X132.202 Y84.118 E2.0006
G1 X132.731 Y84.202 E0.05345
G1 X132.918 Y84.217 E0.01872
G1 X133.814 Y84.316 E0.08995
G1 X146.236 Y96.739 E1.75295
G1 X146.153 Y96.177 E0.05668
G1 X146.127 Y96.039 E0.01401
G1 X145.93 Y95.153 E0.09056
G1 X145.883 Y94.979 E0.01798
G1 X145.879 Y94.967 E0.00126
G1 X135.599 Y84.687 E1.45062
G1 X135.912 Y84.769 E0.03229
G1 X136.076 Y84.818 E0.01708
G1 X136.917 Y85.103 E0.0886
G1 X137.083 Y85.168 E0.01779
G1 X137.796 Y85.47 E0.07726
G1 X145.084 Y92.758 E1.02842
G0 F9000 X144.804 Y92.162
G1 F2250 X144.726 Y92.012 E0.01687
G1 X144.28 Y91.218 E0.09087
G1 X144.203 Y91.093 E0.01465
G1 X143.714 Y90.354 E0.08842
G1 X143.601 Y90.196 E0.01938
G1 X143.051 Y89.483 E0.08985
G1 X142.955 Y89.367 E0.01502
G1 X142.352 Y88.697 E0.08994
G1 X142.232 Y88.571 E0.01736
G1 X141.583 Y87.946 E0.0899
G1 X141.47 Y87.845 E0.01512
G1 X140.764 Y87.257 E0.09168
G1 X140.641 Y87.164 E0.01539
G1 X139.916 Y86.646 E0.08891
G1 X139.766 Y86.546 E0.01799
G1 X138.987 Y86.071 E0.09104
G1 X138.87 Y86.005 E0.0134
G1 X138.076 Y85.597 E0.08907
G1 X137.887 Y85.509 E0.0208
G1 X137.796 Y85.47 E0.00988
G0 F600 X137.796 Y85.47 Z0.86
G0 F9000 X146.325 Y96
;TIME_ELAPSED:69.101480
;LAYER:-5
;TYPE:SUPPORT-INTERFACE
G1 F3000 X103.411 Y96 E1.42733
G1 X103.411 Y95.6 E0.0133
G1 X146.236 Y95.6 E1.42437
G1 X146.146 Y95.2 E0.01364
G1 X103.414 Y95.2 E1.42127
G1 X103.429 Y94.8 E0.01331
G1 X146.04 Y94.8 E1.41725
G1 X145.919 Y94.4 E0.0139
G1 X103.443 Y94.4 E1.41276
G1 X103.448 Y94.256 E0.00479
G1 X103.458 Y94.121 E0.0045
G1 X103.472 Y94 E0.00405
G1 X145.796 Y94 E1.4077
G1 X145.764 Y93.908 E0.00324
G1 X145.647 Y93.6 E0.01096
G1 X103.516 Y93.6 E1.40128
G1 X103.559 Y93.21 E0.01305
