; G-Code generated by Simplify3D(R) Version 4.1.2
; Feb 20, 2021 at 11:05:48 PM
; Settings Summary
;   processName,A [0.002]
;   applyToModels,frontCastor_0.1.2(2)
;   profileName,0.002 (modified)
;   profileVersion,2021-02-20 22:48:49
;   baseProfile,Simplify3D PLA for CraftBot(2)
;   printMaterial,PLA
;   printQuality,Fast
;   printExtruders,
;   extruderName,Primary Extruder
;   extruderToolheadNumber,0
;   extruderDiameter,0.4
;   extruderAutoWidth,0
;   extruderWidth,0.4
;   extrusionMultiplier,1
;   extruderUseRetract,1
;   extruderRetractionDistance,0.6
;   extruderExtraRestartDistance,0
;   extruderRetractionZLift,0
;   extruderRetractionSpeed,2400
;   extruderUseCoasting,0
;   extruderCoastingDistance,0.2
;   extruderUseWipe,0
;   extruderWipeDistance,5
;   primaryExtruder,0
;   layerHeight,0.2
;   topSolidLayers,4
;   bottomSolidLayers,4
;   perimeterOutlines,2
;   printPerimetersInsideOut,1
;   startPointOption,2
;   startPointOriginX,0
;   startPointOriginY,0
;   sequentialIslands,0
;   spiralVaseMode,0
;   firstLayerHeightPercentage,100
;   firstLayerWidthPercentage,100
;   firstLayerUnderspeed,0.8
;   useRaft,1
;   raftExtruder,0
;   raftTopLayers,3
;   raftBaseLayers,2
;   raftOffset,3
;   raftSeparationDistance,0.14
;   raftTopInfill,100
;   aboveRaftSpeedMultiplier,0.3
;   useSkirt,0
;   skirtExtruder,0
;   skirtLayers,1
;   skirtOutlines,2
;   skirtOffset,4
;   usePrimePillar,0
;   primePillarExtruder,999
;   primePillarWidth,12
;   primePillarLocation,7
;   primePillarSpeedMultiplier,1
;   useOozeShield,0
;   oozeShieldExtruder,999
;   oozeShieldOffset,2
;   oozeShieldOutlines,1
;   oozeShieldSidewallShape,1
;   oozeShieldSidewallAngle,30
;   oozeShieldSpeedMultiplier,1
;   infillExtruder,0
;   internalInfillPattern,Full Honeycomb
;   externalInfillPattern,Rectilinear
;   infillPercentage,40
;   outlineOverlapPercentage,20
;   infillExtrusionWidthPercentage,100
;   minInfillLength,5
;   infillLayerInterval,1
;   internalInfillAngles,0,120,-120
;   overlapInternalInfillAngles,0
;   externalInfillAngles,45,-45
;   generateSupport,1
;   supportExtruder,0
;   supportInfillPercentage,30
;   supportExtraInflation,0
;   supportBaseLayers,0
;   denseSupportExtruder,0
;   denseSupportLayers,0
;   denseSupportInfillPercentage,70
;   supportLayerInterval,1
;   supportHorizontalPartOffset,0.3
;   supportUpperSeparationLayers,1
;   supportLowerSeparationLayers,1
;   supportType,0
;   supportGridSpacing,4
;   maxOverhangAngle,65
;   supportAngles,0
;   temperatureName,Primary Extruder,Heated Bed
;   temperatureNumber,0,0
;   temperatureSetpointCount,1,1
;   temperatureSetpointLayers,1,1
;   temperatureSetpointTemperatures,215,60
;   temperatureStabilizeAtStartup,1,0
;   temperatureHeatedBed,0,1
;   fanLayers,1
;   fanSpeeds,100
;   blipFanToFullPower,1
;   adjustSpeedForCooling,1
;   minSpeedLayerTime,5
;   minCoolingSpeedSlowdown,20
;   increaseFanForCooling,0
;   minFanLayerTime,45
;   maxCoolingFanSpeed,100
;   increaseFanForBridging,0
;   bridgingFanSpeed,100
;   use5D,1
;   relativeEdistances,0
;   allowEaxisZeroing,1
;   independentExtruderAxes,0
;   includeM10123,0
;   stickySupport,1
;   applyToolheadOffsets,0
;   gcodeXoffset,0
;   gcodeYoffset,0
;   gcodeZoffset,0
;   overrideMachineDefinition,1
;   machineTypeOverride,0
;   strokeXoverride,250
;   strokeYoverride,200
;   strokeZoverride,200
;   originOffsetXoverride,0
;   originOffsetYoverride,0
;   originOffsetZoverride,0
;   homeXdirOverride,-1
;   homeYdirOverride,-1
;   homeZdirOverride,-1
;   flipXoverride,1
;   flipYoverride,-1
;   flipZoverride,1
;   toolheadOffsets,0,0|0,0|0,0|0,0|0,0|0,0
;   overrideFirmwareConfiguration,1
;   firmwareTypeOverride,RepRap (Marlin/Repetier/Sprinter)
;   GPXconfigOverride,r2
;   baudRateOverride,115200
;   overridePrinterModels,0
;   printerModelsOverride
;   startingGcode,M906 X50 ,M906 E50,M4003 S270 ,M1203 A3000 D3000  F1200,G28 X0 Y0,G28 Z0,G1 X1 Y1 E0 F240,G1 X1 Y100 E20 F240,G1 X1 Y20 E40 F240,G1 X8 Y1 F240,G92 E0 ,G92 X0 Y0 ,
;   layerChangeGcode,
;   retractionGcode,
;   toolChangeGcode,
;   endingGcode,G1 X0 Y0 F2400 ,;G1 Z195 F2400 ; move bed to bottom,M140 S0,M104 S0,M106 S0,
;   exportFileFormat,gcode
;   celebration,0
;   celebrationSong,Random Song
;   postProcessing,
;   defaultSpeed,4800
;   outlineUnderspeed,0.5
;   solidInfillUnderspeed,0.8
;   supportUnderspeed,1
;   rapidXYspeed,6000
;   rapidZspeed,500
;   minBridgingArea,20
;   bridgingExtraInflation,0
;   bridgingExtrusionMultiplier,1
;   bridgingSpeedMultiplier,1
;   useFixedBridgingAngle,0
;   fixedBridgingAngle,0
;   applyBridgingToPerimeters,0
;   filamentDiameters,1.75|1.75|1.75|1.75|1.75|1.75
;   filamentPricesPerKg,46|46|46|46|46|46
;   filamentDensities,1.25|1.25|1.25|1.25|1.25|1.25
;   useMinPrintHeight,0
;   minPrintHeight,0
;   useMaxPrintHeight,1
;   maxPrintHeight,11
;   useDiaphragm,0
;   diaphragmLayerInterval,20
;   robustSlicing,1
;   mergeAllIntoSolid,0
;   onlyRetractWhenCrossingOutline,1
;   retractBetweenLayers,1
;   useRetractionMinTravel,1
;   retractionMinTravel,2
;   retractWhileWiping,0
;   onlyWipeOutlines,0
;   avoidCrossingOutline,0
;   maxMovementDetourFactor,3
;   toolChangeRetractionDistance,0
;   toolChangeExtraRestartDistance,0
;   toolChangeRetractionSpeed,360
;   externalThinWallType,0
;   internalThinWallType,2
;   thinWallAllowedOverlapPercentage,10
;   singleExtrusionMinLength,1
;   singleExtrusionMinPrintingWidthPercentage,50
;   singleExtrusionMaxPrintingWidthPercentage,200
;   singleExtrusionEndpointExtension,0.2
;   horizontalSizeCompensation,0
G90
M82
M106 S255
M140 S60
M104 S215 T0
M109 S215 T0
M906 X50 
M906 E50
M4003 S270 
M1203 A3000 D3000  F1200
G28 X0 Y0
G28 Z0
G1 X1 Y1 E0 F240
G1 X1 Y100 E20 F240
G1 X1 Y20 E40 F240
G1 X8 Y1 F240
G92 E0 
G92 X0 Y0 
; process A [0.002]
; layer 1, Z = 0.500
T0
G92 E0.0000
G1 E-0.6000 F2400
; feature raft
; tool H0.500 W0.800
G1 Z0.500 F500
G1 X115.648 Y94.219 F6000
G1 E0.0000 F2400
G92 E0.0000
G1 X117.171 Y92.695 E0.3582 F960
G1 X122.829 Y92.695 E1.2991
G1 X124.352 Y94.219 E1.6573
G1 X124.352 Y98.781 E2.4161
G1 X123.133 Y100.000 E2.7027
G1 X124.352 Y101.219 E2.9893
G1 X124.352 Y105.781 E3.7481
G1 X122.829 Y107.304 E4.1063
G1 X117.171 Y107.304 E5.0472
G1 X115.648 Y105.781 E5.4054
G1 X115.648 Y101.219 E6.1642
G1 X116.867 Y100.000 E6.4508
G1 X115.648 Y98.781 E6.7374
G1 X115.648 Y94.219 E7.4962
G1 X116.288 Y95.429 F6000
G92 E0.0000
G1 X123.712 Y95.429 E1.2346 F960
G1 X123.712 Y97.714 E1.6147
G1 X116.288 Y97.714 E2.8493
G1 X116.288 Y98.516 E2.9827
G1 X117.772 Y100.000 E3.3317
G1 X122.228 Y100.000 E4.0728
G1 X123.712 Y101.484 E4.4217
G1 X123.712 Y102.286 E4.5551
G1 X116.288 Y102.286 E5.7898
G1 X116.288 Y104.571 E6.1699
G1 X123.712 Y104.571 E7.4045
G92 E0.0000
G1 E-0.6000 F2400
G1 X125.648 Y102.281 F6000
G1 E0.0000 F2400
G92 E0.0000
G1 X125.648 Y97.719 E0.7588 F960
G1 X127.171 Y96.195 E1.1170
G1 X132.829 Y96.195 E2.0579
G1 X134.352 Y97.719 E2.4161
G1 X134.352 Y102.281 E3.1749
G1 X132.829 Y103.804 E3.5331
G1 X127.171 Y103.804 E4.4740
G1 X125.648 Y102.281 E4.8322
G92 E0.0000
G1 E-0.6000 F2400
G1 X126.557 Y97.714 F6000
G1 E0.0000 F2400
G92 E0.0000
G1 X133.443 Y97.714 E1.1450 F960
G1 X133.712 Y97.984 E1.2084
G1 X133.712 Y100.000 E1.5437
G1 X126.288 Y100.000 E2.7783
G1 X126.288 Y102.016 E3.1136
G1 X126.557 Y102.286 E3.1770
G1 X133.443 Y102.286 E4.3220
G92 E0.0000
G1 E-0.6000 F2400
; layer 2, Z = 1.000
G1 Z1.000 F500
G1 X134.352 Y102.281 F6000
G1 E0.0000 F2400
G92 E0.0000
G1 X132.829 Y103.804 E0.3582 F1200
G1 X127.171 Y103.804 E1.2991
G1 X125.648 Y102.281 E1.6573
G1 X125.648 Y97.719 E2.4161
G1 X127.171 Y96.195 E2.7743
G1 X132.829 Y96.195 E3.7152
G1 X134.352 Y97.719 E4.0734
G1 X134.352 Y102.281 E4.8322
G1 X133.443 Y102.286 F6000
G92 E0.0000
G1 X126.557 Y102.286 E1.1450 F1200
G1 X126.288 Y102.016 E1.2084
G1 X126.288 Y100.000 E1.5437
G1 X133.712 Y100.000 E2.7783
G1 X133.712 Y97.984 E3.1136
G1 X133.443 Y97.714 E3.1770
G1 X126.557 Y97.714 E4.3220
G92 E0.0000
G1 E-0.6000 F2400
G1 X124.352 Y98.781 F6000
G1 E0.0000 F2400
G92 E0.0000
G1 X123.133 Y100.000 E0.2866 F1200
G1 X124.352 Y101.219 E0.5732
G1 X124.352 Y105.781 E1.3320
G1 X122.829 Y107.304 E1.6902
G1 X117.171 Y107.304 E2.6311
G1 X115.648 Y105.781 E2.9893
G1 X115.648 Y101.219 E3.7481
G1 X116.867 Y100.000 E4.0347
G1 X115.648 Y98.781 E4.3213
G1 X115.648 Y94.219 E5.0801
G1 X117.171 Y92.695 E5.4383
G1 X122.829 Y92.695 E6.3792
G1 X124.352 Y94.219 E6.7374
G1 X124.352 Y98.781 E7.4962
G92 E0.0000
G1 E-0.6000 F2400
G1 X123.712 Y104.571 F6000
G1 E0.0000 F2400
G92 E0.0000
G1 X116.288 Y104.571 E1.2346 F1200
G1 X116.288 Y102.286 E1.6147
G1 X123.712 Y102.286 E2.8493
G1 X123.712 Y101.484 E2.9827
G1 X122.228 Y100.000 E3.3317
G1 X117.772 Y100.000 E4.0728
G1 X116.288 Y98.516 E4.4218
G1 X116.288 Y97.714 E4.5551
G1 X123.712 Y97.714 E5.7898
G1 X123.712 Y95.429 E6.1699
G1 X116.288 Y95.429 E7.4045
G92 E0.0000
G1 E-0.6000 F2400
; layer 3, Z = 1.222
; tool H0.222 W0.400
G1 Z1.222 F500
G1 X115.448 Y94.279 F6000
G1 E0.0000 F2400
G92 E0.0000
G1 X117.231 Y92.496 E0.0932 F3600
G1 X117.797 Y92.496 E0.1141
G1 X115.448 Y94.844 E0.2368
G1 X115.448 Y95.410 E0.2577
G1 X118.362 Y92.496 E0.4101
G1 X118.928 Y92.496 E0.4310
G1 X115.448 Y95.976 E0.6128
G1 X115.448 Y96.541 E0.6338
G1 X119.494 Y92.496 E0.8452
G1 X120.059 Y92.496 E0.8661
G1 X115.448 Y97.107 E1.1071
G1 X115.448 Y97.673 E1.1280
G1 X120.625 Y92.496 E1.3986
G1 X121.191 Y92.496 E1.4195
G1 X115.448 Y98.238 E1.7196
G1 X115.448 Y98.804 E1.7405
G1 X121.757 Y92.496 E2.0702
G1 X122.322 Y92.496 E2.0911
G1 X115.701 Y99.117 E2.4372
G1 X115.984 Y99.400 E2.4520
G1 X122.888 Y92.496 E2.8128
G1 X122.912 Y92.496 E2.8137
G1 X123.183 Y92.766 E2.8279
G1 X116.266 Y99.683 E3.1893
G1 X116.549 Y99.966 E3.2041
G1 X123.466 Y93.049 E3.5656
G1 X123.748 Y93.332 E3.5804
G1 X115.448 Y101.632 E4.0142
G1 X115.448 Y102.198 E4.0351
G1 X124.031 Y93.615 E4.4837
G1 X124.314 Y93.898 E4.4984
G1 X115.448 Y102.764 E4.9618
G1 X115.448 Y103.329 E4.9827
G1 X124.552 Y94.225 E5.4585
G1 X124.552 Y94.791 E5.4794
G1 X115.448 Y103.895 E5.9552
G1 X115.448 Y104.461 E5.9761
G1 X124.552 Y95.357 E6.4519
G1 X124.552 Y95.923 E6.4729
G1 X115.448 Y105.027 E6.9487
G1 X115.448 Y105.592 E6.9696
G1 X124.552 Y96.488 E7.4454
G1 X124.552 Y97.054 E7.4663
G1 X115.595 Y106.011 E7.9344
G1 X115.878 Y106.294 E7.9492
G1 X124.552 Y97.620 E8.4025
G1 X124.552 Y98.185 E8.4234
G1 X116.161 Y106.577 E8.8620
G1 X116.443 Y106.860 E8.8768
G1 X124.552 Y98.751 E9.3006
G1 X124.552 Y98.864 E9.3048
G1 X123.416 Y100.000 E9.3641
G1 X123.642 Y100.226 E9.3759
G1 X116.726 Y107.142 E9.7374
G1 X117.009 Y107.425 E9.7522
G1 X123.925 Y100.509 E10.1137
G1 X124.208 Y100.792 E10.1284
G1 X117.496 Y107.504 E10.4793
G1 X118.061 Y107.504 E10.5002
G1 X124.491 Y101.075 E10.8362
G1 X124.552 Y101.136 E10.8394
G1 X124.552 Y101.579 E10.8558
G1 X118.627 Y107.504 E11.1655
G1 X119.193 Y107.504 E11.1864
G1 X124.552 Y102.145 E11.4665
G1 X124.552 Y102.711 E11.4874
G1 X119.758 Y107.504 E11.7379
G1 X120.324 Y107.504 E11.7588
G1 X124.552 Y103.276 E11.9798
G1 X124.552 Y103.842 E12.0007
G1 X120.890 Y107.504 E12.1921
G1 X121.455 Y107.504 E12.2130
G1 X124.552 Y104.408 E12.3748
G1 X124.552 Y104.973 E12.3958
G1 X122.021 Y107.504 E12.5280
G1 X122.587 Y107.504 E12.5489
G1 X124.552 Y105.539 E12.6517
G92 E0.0000
G1 E-0.6000 F2400
G1 X125.448 Y97.855 F6000
G1 E0.0000 F2400
G92 E0.0000
G1 X127.307 Y95.996 E0.0972 F3600
G1 X127.873 Y95.996 E0.1181
G1 X125.448 Y98.421 E0.2448
G1 X125.448 Y98.986 E0.2657
G1 X128.439 Y95.996 E0.4220
G1 X129.005 Y95.996 E0.4430
G1 X125.448 Y99.552 E0.6288
G1 X125.448 Y100.118 E0.6497
G1 X129.570 Y95.996 E0.8652
G1 X130.136 Y95.996 E0.8861
G1 X125.448 Y100.683 E1.1311
G1 X125.448 Y101.249 E1.1520
G1 X130.702 Y95.996 E1.4266
G1 X131.267 Y95.996 E1.4475
G1 X125.448 Y101.815 E1.7516
G1 X125.448 Y102.364 E1.7719
G1 X125.456 Y102.372 E1.7723
G1 X131.833 Y95.996 E2.1056
G1 X132.399 Y95.996 E2.1265
G1 X125.739 Y102.655 E2.4746
G1 X126.022 Y102.938 E2.4893
G1 X132.938 Y96.022 E2.8508
G1 X133.221 Y96.305 E2.8656
G1 X126.305 Y103.221 E3.2271
G1 X126.587 Y103.504 E3.2418
G1 X133.504 Y96.587 E3.6033
G1 X133.787 Y96.870 E3.6181
G1 X126.870 Y103.787 E3.9796
G1 X127.088 Y104.004 E3.9910
G1 X127.218 Y104.004 E3.9958
G1 X134.069 Y97.153 E4.3538
G1 X134.352 Y97.436 E4.3686
G1 X127.784 Y104.004 E4.7119
G1 X128.349 Y104.004 E4.7328
G1 X134.552 Y97.802 E5.0570
G1 X134.552 Y98.368 E5.0779
G1 X128.915 Y104.004 E5.3725
G1 X129.481 Y104.004 E5.3934
G1 X134.552 Y98.933 E5.6584
G1 X134.552 Y99.499 E5.6793
G1 X130.047 Y104.004 E5.9148
G1 X130.612 Y104.004 E5.9357
G1 X134.552 Y100.065 E6.1416
G1 X134.552 Y100.630 E6.1625
G1 X131.178 Y104.004 E6.3389
G1 X131.744 Y104.004 E6.3598
G1 X134.552 Y101.196 E6.5065
G1 X134.552 Y101.762 E6.5274
G1 X132.309 Y104.004 E6.6447
G1 X132.875 Y104.004 E6.6656
G1 X134.552 Y102.327 E6.7532
G92 E0.0000
G1 E-0.6000 F2400
; layer 4, Z = 1.444
G1 Z1.444 F500
G1 X132.875 Y95.996 F6000
G1 E0.0000 F2400
G92 E0.0000
G1 X134.552 Y97.673 E0.0877 F3600
G1 X134.552 Y98.238 E0.1086
G1 X132.309 Y95.996 E0.2258
G1 X131.744 Y95.996 E0.2467
G1 X134.552 Y98.804 E0.3935
G1 X134.552 Y99.370 E0.4144
G1 X131.178 Y95.996 E0.5907
G1 X130.612 Y95.996 E0.6116
G1 X134.552 Y99.935 E0.8175
G1 X134.552 Y100.501 E0.8384
G1 X130.046 Y95.996 E1.0739
G1 X129.481 Y95.996 E1.0948
G1 X134.552 Y101.067 E1.3598
G1 X134.552 Y101.632 E1.3807
G1 X128.915 Y95.996 E1.6754
G1 X128.349 Y95.996 E1.6963
G1 X134.552 Y102.198 E2.0204
G1 X134.552 Y102.364 E2.0266
G1 X134.352 Y102.564 E2.0370
G1 X127.784 Y95.996 E2.3803
G1 X127.218 Y95.996 E2.4012
G1 X134.069 Y102.847 E2.7593
G1 X133.787 Y103.130 E2.7741
G1 X126.870 Y96.213 E3.1355
G1 X126.587 Y96.496 E3.1503
G1 X133.504 Y103.413 E3.5118
G1 X133.221 Y103.695 E3.5266
G1 X126.305 Y96.779 E3.8880
G1 X126.022 Y97.062 E3.9028
G1 X132.938 Y103.978 E4.2643
G1 X132.912 Y104.004 E4.2657
G1 X132.399 Y104.004 E4.2846
G1 X125.739 Y97.345 E4.6327
G1 X125.456 Y97.628 E4.6475
G1 X131.833 Y104.004 E4.9807
G1 X131.267 Y104.004 E5.0016
G1 X125.448 Y98.185 E5.3058
G1 X125.448 Y98.751 E5.3267
G1 X130.702 Y104.004 E5.6012
G1 X130.136 Y104.004 E5.6221
G1 X125.448 Y99.317 E5.8671
G1 X125.448 Y99.882 E5.8881
G1 X129.570 Y104.004 E6.1035
G1 X129.005 Y104.004 E6.1244
G1 X125.448 Y100.448 E6.3103
G1 X125.448 Y101.014 E6.3312
G1 X128.439 Y104.004 E6.4875
G1 X127.873 Y104.004 E6.5084
G1 X125.448 Y101.579 E6.6351
G1 X125.448 Y102.145 E6.6560
G1 X127.307 Y104.004 E6.7532
G92 E0.0000
G1 E-0.6000 F2400
G1 X117.231 Y107.504 F6000
G1 E0.0000 F2400
G92 E0.0000
G1 X115.448 Y105.722 E0.0932 F3600
G1 X115.448 Y105.156 E0.1141
G1 X117.797 Y107.504 E0.2368
G1 X118.362 Y107.504 E0.2577
G1 X115.448 Y104.590 E0.4101
G1 X115.448 Y104.024 E0.4310
G1 X118.928 Y107.504 E0.6128
G1 X119.494 Y107.504 E0.6337
G1 X115.448 Y103.459 E0.8452
G1 X115.448 Y102.893 E0.8661
G1 X120.059 Y107.504 E1.1071
G1 X120.625 Y107.504 E1.1280
G1 X115.448 Y102.327 E1.3986
G1 X115.448 Y101.762 E1.4195
G1 X121.191 Y107.504 E1.7196
G1 X121.756 Y107.504 E1.7405
G1 X115.448 Y101.196 E2.0702
G1 X115.448 Y101.136 E2.0725
G1 X115.701 Y100.883 E2.0857
G1 X122.322 Y107.504 E2.4317
G1 X122.888 Y107.504 E2.4526
G1 X115.984 Y100.600 E2.8135
G1 X116.266 Y100.317 E2.8282
G1 X123.183 Y107.234 E3.1897
G1 X123.466 Y106.951 E3.2045
G1 X116.549 Y100.034 E3.5660
G1 X116.584 Y100.000 E3.5678
G1 X115.448 Y98.864 E3.6271
G1 X115.448 Y98.368 E3.6455
G1 X123.748 Y106.668 E4.0793
G1 X124.031 Y106.385 E4.0941
G1 X115.448 Y97.802 E4.5427
G1 X115.448 Y97.236 E4.5636
G1 X124.314 Y106.102 E5.0269
G1 X124.552 Y105.864 E5.0394
G1 X124.552 Y105.775 E5.0427
G1 X115.448 Y96.671 E5.5185
G1 X115.448 Y96.105 E5.5394
G1 X124.552 Y105.209 E6.0152
G1 X124.552 Y104.643 E6.0361
G1 X115.448 Y95.539 E6.5119
G1 X115.448 Y94.973 E6.5328
G1 X124.552 Y104.077 E7.0086
G1 X124.552 Y103.512 E7.0295
G1 X115.448 Y94.408 E7.5053
G1 X115.448 Y94.136 E7.5154
G1 X115.595 Y93.989 E7.5230
G1 X124.552 Y102.946 E7.9912
G1 X124.552 Y102.380 E8.0121
G1 X115.878 Y93.706 E8.4654
G1 X116.160 Y93.423 E8.4802
G1 X124.552 Y101.815 E8.9188
G1 X124.552 Y101.249 E8.9397
G1 X116.443 Y93.140 E9.3635
G1 X116.726 Y92.858 E9.3783
