; #disp params :
; Printmode:0
; Layer:99
; Zmax:114.831 mm
; Xmax:146.773 mm
; Ymax:20.8 mm
; Xmin:113.069 mm
; Ymin:0.3 mm
; E0diam:0.4 mm
; E0len:0.499268 m
; E0temp:215 C
; Bedtemp:215 C
; Time:14.9567 min
; #params end
; GCode generated by CraftWare

G28 X Y ; home horizontally
G28 Z ; home vertically


M104 S215 ;set head temp (no wait)
M190 S60 ;set bed temp (wait)
M109 S215 ;set head temp (wait)

; ------------------------------------
; Raft Layer #0
; ------------------------------------
M106 S0 ;turn off fan
G21 ; mm
G90 ; abs
G92 E0 ;reset extr
G0 F600 Z0.300
;segType:Raft
G0 F3000 E-1.00000
G0 F600 Z2.300
G0 X131.444 Y114.766 F5400
G0 F600 Z0.300
G0 F3000 E0.00000
G1 X118.844 Y114.766 E0.62862 F600
G1 X118.384 Y114.700 E0.65178
G1 X113.134 Y109.450 E1.02220
G1 X113.134 Y90.550 E1.96513
G1 X113.200 Y90.484 E1.96978
G0 X113.265 Y90.419 F5400
G1 X118.253 Y85.431 E2.32167 F600
G1 X118.712 Y85.365 E2.34484
G1 X131.313 Y85.365 E2.97346
G1 X131.641 Y85.562 E2.99256
G1 X133.347 Y87.269 E3.11295
G0 X133.478 Y87.400 F5400
G1 X134.856 Y88.778 E3.21017 F600
G1 X141.419 Y88.778 E3.53757
G1 X146.669 Y94.028 E3.90799
G1 X146.735 Y94.487 E3.93115
G1 X146.735 Y99.344 E4.17343
G0 X146.735 Y99.475 F5400
G1 X146.735 Y106.038 E4.50084 F600
G1 X141.747 Y111.025 E4.85273
G1 X141.419 Y111.222 E4.87184
G1 X135.119 Y111.222 E5.18615
G1 X134.791 Y111.419 E5.20522
G1 X131.510 Y114.700 E5.43673
G0 X129.803 Y114.438 F5400
G1 X129.803 Y85.825 E6.86422 F600
G0 X127.136 Y85.825 F5400
G1 X127.136 Y114.438 E8.29171 F600
G0 X124.470 Y114.438 F5400
G1 X124.470 Y85.825 E9.71919 F600
G0 X121.803 Y85.825 F5400
G1 X121.803 Y114.438 E11.14668 F600
G0 X119.136 Y114.438 F5400
G1 X119.136 Y85.825 E12.57417 F600
G0 X116.470 Y87.925 F5400
G1 X116.470 Y112.206 E13.78557 F600
G0 X113.803 Y109.581 F5400
G1 X113.803 Y90.550 E14.73504 F600
G0 X132.470 Y87.137 F5400
G1 X132.470 Y113.125 E16.03157 F600
G0 X135.136 Y110.894 F5400
G1 X135.136 Y89.237 E17.11200 F600
G0 X137.803 Y89.237 F5400
G1 X137.803 Y110.894 E18.19244 F600
G0 X140.470 Y110.894 F5400
G1 X140.470 Y89.237 E19.27288 F600
G0 X143.136 Y91.206 F5400
G1 X143.136 Y109.056 E20.16342 F600
G0 X145.803 Y106.431 F5400
G1 X145.803 Y93.831 E20.79203 F600



; ------------------------------------
; Raft Layer #1
; ------------------------------------
G92 E0 ;reset extr
G0 F600 Z0.600
;segType:Raft
G0 X145.991 Y93.372 F7200
G1 X124.728 Y114.635 E1.50018 F1800
G0 X126.482 Y114.766 F7200
G1 X146.695 Y94.553 E2.92628 F1800
G0 X146.612 Y96.522 F7200
G1 X128.368 Y114.766 E4.21348 F1800
G0 X130.254 Y114.766 F7200
G1 X146.660 Y98.359 E5.37103 F1800
G0 X146.773 Y100.263 F7200
G1 X135.748 Y111.288 E6.14890 F1800
G0 X137.700 Y111.091 F7200
G1 X146.625 Y102.166 E6.77860 F1800
G0 X146.673 Y104.003 F7200
G1 X139.454 Y111.222 E7.28793 F1800
G0 X141.340 Y111.222 F7200
G1 X146.721 Y105.841 E7.66760 F1800
G0 X145.155 Y92.322 F7200
G1 X122.842 Y114.635 E9.24186 F1800
G0 X120.957 Y114.635 F7200
G1 X144.188 Y91.404 E10.88094 F1800
G0 X143.221 Y90.485 F7200
G1 X119.071 Y114.635 E12.58485 F1800
G0 X117.842 Y113.978 F7200
G1 X142.254 Y89.566 E14.30727 F1800
G0 X141.288 Y88.647 F7200
G1 X116.875 Y113.060 E16.02970 F1800
G0 X115.908 Y112.141 F7200
G1 X139.402 Y88.647 E17.68730 F1800
G0 X137.481 Y88.682 F7200
G1 X114.906 Y111.257 E19.28008 F1800
G0 X113.987 Y110.290 F7200
G1 X135.513 Y88.765 E20.79878 F1800
G0 X134.200 Y88.192 F7200
G1 X113.069 Y109.323 E22.28969 F1800
G0 X113.069 Y107.438 F7200
G1 X133.281 Y87.225 E23.71579 F1800
G0 X132.363 Y86.259 F7200
G1 X113.069 Y105.552 E25.07706 F1800
G0 X113.069 Y103.666 F7200
G1 X131.444 Y85.292 E26.37351 F1800
G0 X129.606 Y85.244 F7200
G1 X113.069 Y101.781 E27.54031 F1800
G0 X113.069 Y99.895 F7200
G1 X127.638 Y85.327 E28.56821 F1800
G0 X125.800 Y85.279 F7200
G1 X113.069 Y98.010 E29.46646 F1800
G0 X113.069 Y96.124 F7200
G1 X123.831 Y85.362 E30.22581 F1800
G0 X121.994 Y85.314 F7200
G1 X113.069 Y94.238 E30.85551 F1800
G0 X113.069 Y92.353 F7200
G1 X120.156 Y85.265 E31.35557 F1800



; ------------------------------------
; Raft Layer #2
; ------------------------------------
G92 E0 ;reset extr
G0 F600 Z0.800
;segType:Raft
G0 F3000 E-1.00000
G0 F600 Z2.800
G0 X131.444 Y85.397 F7200
G0 F600 Z0.800
G0 F3000 E0.00000
G1 X118.187 Y85.397 E0.44091 F2400
G1 X117.794 Y85.797 E0.45957
G1 X131.838 Y85.797 E0.92667
G1 X132.231 Y86.197 E0.94534
G1 X117.400 Y86.197 E1.43863
G1 X117.006 Y86.597 E1.45730
G1 X132.625 Y86.597 E1.97678
G1 X133.019 Y86.997 E1.99545
G1 X116.612 Y86.997 E2.54113
G1 X116.219 Y87.397 E2.55979
G1 X133.413 Y87.397 E3.13166
G1 X133.806 Y87.797 E3.15033
G1 X115.825 Y87.797 E3.74839
G1 X115.431 Y88.197 E3.76706
G1 X134.200 Y88.197 E4.39131
G1 X134.594 Y88.597 E4.40998
G1 X115.037 Y88.597 E5.06042
G1 X114.644 Y88.997 E5.07909
G1 X141.550 Y88.997 E5.97400
G1 X141.944 Y89.397 E5.99267
G1 X114.250 Y89.397 E6.91377
G1 X113.856 Y89.797 E6.93244
G1 X142.338 Y89.797 E7.87973
G1 X142.731 Y90.197 E7.89840
G1 X113.462 Y90.197 E8.87188
G1 X113.069 Y90.597 E8.89055
G1 X143.125 Y90.597 E9.89023
G1 X143.519 Y90.997 E9.90890
G1 X113.069 Y90.997 E10.92167
G1 X113.069 Y91.397 E10.93498
G1 X143.913 Y91.397 E11.96084
G1 X144.438 Y91.797 E11.98280
G1 X113.069 Y91.797 E13.02613
G1 X113.069 Y92.197 E13.03943
G1 X144.831 Y92.197 E14.09586
G1 X145.225 Y92.597 E14.11453
G1 X113.069 Y92.597 E15.18405
G1 X113.069 Y92.997 E15.19736
G1 X145.619 Y92.997 E16.27998
G1 X146.013 Y93.397 E16.29865
G1 X113.069 Y93.397 E17.39436
G1 X113.069 Y93.797 E17.40767
G1 X146.406 Y93.797 E18.51648
G1 X146.669 Y94.197 E18.53239
G1 X113.069 Y94.197 E19.64994
G1 X113.069 Y94.597 E19.66324
G1 X146.669 Y94.597 E20.78078
G1 X146.669 Y94.997 E20.79409
G1 X113.069 Y94.997 E21.91163
G1 X113.069 Y95.397 E21.92494
G1 X146.669 Y95.397 E23.04248
G1 X146.669 Y95.797 E23.05578
G1 X113.069 Y95.797 E24.17333
G1 X113.069 Y96.197 E24.18663
G1 X146.669 Y96.197 E25.30418
G1 X146.669 Y96.597 E25.31748
G1 X113.069 Y96.597 E26.43502
G1 X113.069 Y96.997 E26.44833
G1 X146.669 Y96.997 E27.56587
G1 X146.669 Y97.397 E27.57918
G1 X113.069 Y97.397 E28.69672
G1 X113.069 Y97.797 E28.71002
G1 X146.669 Y97.797 E29.82757
G1 X146.669 Y98.197 E29.84087
G1 X113.069 Y98.197 E30.95842
G1 X113.069 Y98.597 E30.97172
G1 X146.669 Y98.597 E32.08926
G1 X146.669 Y98.997 E32.10257
G1 X113.069 Y98.997 E33.22011
G1 X113.069 Y99.397 E33.23341
G1 X146.669 Y99.397 E34.35096
G1 X146.669 Y99.797 E34.36426
G1 X113.069 Y99.797 E35.48181
G1 X113.069 Y100.197 E35.49511
G1 X146.669 Y100.197 E36.61265
G1 X146.669 Y100.597 E36.62596
G1 X113.069 Y100.597 E37.74350
G1 X113.069 Y100.997 E37.75681
G1 X146.669 Y100.997 E38.87435
G1 X146.669 Y101.397 E38.88765
G1 X113.069 Y101.397 E40.00520
G1 X113.069 Y101.797 E40.01850
G1 X146.669 Y101.797 E41.13604
G1 X146.669 Y102.197 E41.14935
G1 X113.069 Y102.197 E42.26689
G1 X113.069 Y102.597 E42.28020
G1 X146.669 Y102.597 E43.39774
G1 X146.669 Y102.997 E43.41105
G1 X113.069 Y102.997 E44.52859
G1 X113.069 Y103.397 E44.54190
G1 X146.669 Y103.397 E45.65944
G1 X146.669 Y103.797 E45.67274
G1 X113.069 Y103.797 E46.79029
G1 X113.069 Y104.197 E46.80359
G1 X146.669 Y104.197 E47.92113
G1 X146.669 Y104.597 E47.93444
G1 X113.069 Y104.597 E49.05198
G1 X113.069 Y104.997 E49.06529
G1 X146.669 Y104.997 E50.18283
G1 X146.669 Y105.397 E50.19614
G1 X113.069 Y105.397 E51.31368
G1 X113.069 Y105.797 E51.32698
G1 X146.669 Y105.797 E52.44453
G1 X146.538 Y106.197 E52.45853
G1 X113.069 Y106.197 E53.57170
G1 X113.069 Y106.597 E53.58501
G1 X146.144 Y106.597 E54.68509
G1 X145.750 Y106.997 E54.70376
G1 X113.069 Y106.997 E55.79075
G1 X113.069 Y107.397 E55.80405
G1 X145.356 Y107.397 E56.87794
G1 X144.963 Y107.797 E56.89661
G1 X113.069 Y107.797 E57.95741
G1 X113.069 Y108.197 E57.97071
G1 X144.569 Y108.197 E59.01841
G1 X144.175 Y108.597 E59.03708
G1 X113.069 Y108.597 E60.07168
G1 X113.069 Y108.997 E60.08498
G1 X143.650 Y108.997 E61.10212
G1 X143.256 Y109.397 E61.12079
G1 X113.069 Y109.397 E62.12483
G1 X113.462 Y109.797 E62.14350
G1 X142.863 Y109.797 E63.12136
G1 X142.469 Y110.197 E63.14002
G1 X113.856 Y110.197 E64.09168
G1 X114.250 Y110.597 E64.11035
G1 X142.075 Y110.597 E65.03582
G1 X141.681 Y110.997 E65.05449
G1 X114.644 Y110.997 E65.95377
G1 X115.037 Y111.397 E65.97244
G1 X134.725 Y111.397 E66.62725
G1 X134.331 Y111.797 E66.64591
G1 X115.431 Y111.797 E67.27453
G1 X115.825 Y112.197 E67.29320
G1 X133.938 Y112.197 E67.89562
G1 X133.544 Y112.597 E67.91429
G1 X116.219 Y112.597 E68.49053
G1 X116.612 Y112.997 E68.50920
G1 X133.150 Y112.997 E69.05924
G1 X132.756 Y113.397 E69.07791
G1 X117.006 Y113.397 E69.60176
G1 X117.400 Y113.797 E69.62042
G1 X132.363 Y113.797 E70.11808
G1 X131.969 Y114.197 E70.13675
G1 X117.794 Y114.197 E70.60822
G1 X118.187 Y114.597 E70.62689
G1 X131.575 Y114.597 E71.07216



; ------------------------------------
; Raft Layer #3
; ------------------------------------
M106 S255 ;set fan speed
G92 E0 ;reset extr
G0 F600 Z1.000
;segType:Raft
G0 F3000 E-1.00000
G0 F600 Z3.000
G0 X146.603 Y106.300 F7200
G0 F600 Z1.000
G0 F3000 E0.00000
G1 X146.603 Y93.962 E0.41035 F2400
G1 X146.203 Y93.569 E0.42902
G1 X146.203 Y106.694 E0.86556
G1 X145.803 Y107.088 E0.88422
G1 X145.803 Y93.175 E1.34696
G1 X145.403 Y92.781 E1.36563
G1 X145.403 Y107.481 E1.85455
G1 X145.003 Y107.875 E1.87322
G1 X145.003 Y92.387 E2.38834
G1 X144.603 Y91.994 E2.40700
G1 X144.603 Y108.269 E2.94831
G1 X144.203 Y108.663 E2.96698
G1 X144.203 Y91.600 E3.53449
G1 X143.803 Y91.206 E3.55315
G1 X143.803 Y109.056 E4.14685
G1 X143.403 Y109.450 E4.16552
G1 X143.403 Y90.812 E4.78540
G1 X143.003 Y90.419 E4.80407
G1 X143.003 Y109.844 E5.45015
G1 X142.603 Y110.238 E5.46882
G1 X142.603 Y90.025 E6.14109
G1 X142.203 Y89.631 E6.15976
G1 X142.203 Y110.631 E6.85823
G1 X141.803 Y111.025 E6.87689
G1 X141.803 Y89.237 E7.60155
G1 X141.403 Y88.844 E7.62022
G1 X141.403 Y111.288 E8.36670
G1 X141.003 Y111.288 E8.38001
G1 X141.003 Y88.844 E9.12649
G1 X140.603 Y88.844 E9.13979
G1 X140.603 Y111.288 E9.88628
G1 X140.203 Y111.288 E9.89958
G1 X140.203 Y88.844 E10.64607
G1 X139.803 Y88.844 E10.65937
G1 X139.803 Y111.288 E11.40585
G1 X139.403 Y111.288 E11.41916
G1 X139.403 Y88.844 E12.16564
G1 X139.003 Y88.844 E12.17895
G1 X139.003 Y111.288 E12.92543
G1 X138.603 Y111.288 E12.93873
G1 X138.603 Y88.844 E13.68522
G1 X138.203 Y88.844 E13.69852
G1 X138.203 Y111.288 E14.44501
G1 X137.803 Y111.288 E14.45831
G1 X137.803 Y88.844 E15.20479
G1 X137.403 Y88.844 E15.21810
G1 X137.403 Y111.288 E15.96458
G1 X137.003 Y111.288 E15.97789
G1 X137.003 Y88.844 E16.72437
G1 X136.603 Y88.844 E16.73767
G1 X136.603 Y111.288 E17.48416
G1 X136.203 Y111.288 E17.49746
G1 X136.203 Y88.844 E18.24395
G1 X135.803 Y88.844 E18.25725
G1 X135.803 Y111.288 E19.00374
G1 X135.403 Y111.288 E19.01704
G1 X135.403 Y88.844 E19.76352
G1 X135.003 Y88.844 E19.77683
G1 X135.003 Y111.288 E20.52331
G1 X134.603 Y111.681 E20.54198
G1 X134.603 Y88.581 E21.31029
G1 X134.203 Y88.187 E21.32896
G1 X134.203 Y112.075 E22.12347
G1 X133.803 Y112.469 E22.14213
G1 X133.803 Y87.794 E22.96283
G1 X133.403 Y87.400 E22.98150
G1 X133.403 Y112.863 E23.82838
G1 X133.003 Y113.256 E23.84705
G1 X133.003 Y87.006 E24.72013
G1 X132.603 Y86.612 E24.73880
G1 X132.603 Y113.650 E25.63808
G1 X132.203 Y114.044 E25.65675
G1 X132.203 Y86.219 E26.58221
G1 X131.803 Y85.825 E26.60088
G1 X131.803 Y114.438 E27.55254
G1 X131.403 Y114.831 E27.57121
G1 X131.403 Y85.431 E28.54906
G1 X131.003 Y85.431 E28.56236
G1 X131.003 Y114.831 E29.54021
G1 X130.603 Y114.831 E29.55351
G1 X130.603 Y85.431 E30.53136
G1 X130.203 Y85.431 E30.54467
G1 X130.203 Y114.831 E31.52252
G1 X129.803 Y114.831 E31.53582
G1 X129.803 Y85.431 E32.51367
G1 X129.403 Y85.431 E32.52698
G1 X129.403 Y114.831 E33.50483
G1 X129.003 Y114.831 E33.51814
G1 X129.003 Y85.431 E34.49599
G1 X128.603 Y85.431 E34.50929
G1 X128.603 Y114.831 E35.48715
G1 X128.203 Y114.831 E35.50045
G1 X128.203 Y85.431 E36.47830
G1 X127.803 Y85.431 E36.49161
G1 X127.803 Y114.831 E37.46946
G1 X127.403 Y114.831 E37.48277
G1 X127.403 Y85.431 E38.46062
G1 X127.003 Y85.431 E38.47392
G1 X127.003 Y114.831 E39.45178
G1 X126.603 Y114.831 E39.46508
G1 X126.603 Y85.431 E40.44293
G1 X126.203 Y85.431 E40.45624
G1 X126.203 Y114.831 E41.43409
G1 X125.803 Y114.831 E41.44740
G1 X125.803 Y85.431 E42.42525
G1 X125.403 Y85.431 E42.43856
G1 X125.403 Y114.831 E43.41641
G1 X125.003 Y114.831 E43.42971
G1 X125.003 Y85.431 E44.40756
G1 X124.603 Y85.431 E44.42087
G1 X124.603 Y114.831 E45.39872
G1 X124.203 Y114.831 E45.41203
G1 X124.203 Y85.431 E46.38988
G1 X123.803 Y85.431 E46.40319
G1 X123.803 Y114.831 E47.38104
G1 X123.403 Y114.831 E47.39434
G1 X123.403 Y85.431 E48.37219
G1 X123.003 Y85.431 E48.38550
G1 X123.003 Y114.831 E49.36335
G1 X122.603 Y114.831 E49.37666
G1 X122.603 Y85.431 E50.35451
G1 X122.203 Y85.431 E50.36782
G1 X122.203 Y114.831 E51.34567
G1 X121.803 Y114.831 E51.35897
G1 X121.803 Y85.431 E52.33683
G1 X121.403 Y85.431 E52.35013
G1 X121.403 Y114.831 E53.32798
G1 X121.003 Y114.831 E53.34129
G1 X121.003 Y85.431 E54.31914
G1 X120.603 Y85.431 E54.33245
G1 X120.603 Y114.831 E55.31030
G1 X120.203 Y114.831 E55.32360
G1 X120.203 Y85.431 E56.30146
G1 X119.803 Y85.431 E56.31476
G1 X119.803 Y114.831 E57.29261
G1 X119.403 Y114.831 E57.30592
G1 X119.403 Y85.431 E58.28377
G1 X119.003 Y85.431 E58.29708
G1 X119.003 Y114.831 E59.27493
G1 X118.603 Y114.831 E59.28823
G1 X118.603 Y85.431 E60.26609
G1 X118.203 Y85.562 E60.28009
G1 X118.203 Y114.569 E61.24484
G1 X117.803 Y114.175 E61.26351
G1 X117.803 Y85.956 E62.20207
G1 X117.403 Y86.350 E62.22074
G1 X117.403 Y113.781 E63.13310
G1 X117.003 Y113.388 E63.15177
G1 X117.003 Y86.744 E64.03795
G1 X116.603 Y87.137 E64.05662
G1 X116.603 Y112.994 E64.91661
G1 X116.203 Y112.600 E64.93527
G1 X116.203 Y87.531 E65.76907
G1 X115.803 Y87.925 E65.78774
G1 X115.803 Y112.206 E66.59534
G1 X115.403 Y111.813 E66.61401
G1 X115.403 Y88.319 E67.39542
G1 X115.003 Y88.712 E67.41409
G1 X115.003 Y111.419 E68.16930
G1 X114.603 Y111.025 E68.18797
G1 X114.603 Y89.106 E68.91699
G1 X114.203 Y89.500 E68.93566
G1 X114.203 Y110.631 E69.63848
G1 X113.803 Y110.238 E69.65715
G1 X113.803 Y89.894 E70.33379
G1 X113.403 Y90.287 E70.35246
G1 X113.403 Y109.844 E71.00290


; ------------------------------------
; Layer #0
; ------------------------------------
G21 ; mm
G90 ; abs
G92 E0 ;reset extr
G0 F600 Z1.450
;segType:HShell
G0 F3000 E-1.00000
G0 X125.800 Y96.500 F5400
G0 F3000 E0.00000
G1 X125.200 Y96.500 E0.04989 F2400
G1 X124.800 Y96.500 E0.08315
G1 X124.400 Y96.500 E0.11641
G0 X124.548 Y95.896 F5400
;segType:Loop
G1 X126.152 Y95.896 E0.16973 F2400
G1 X126.152 Y97.104 E0.20992
G1 X123.848 Y97.104 E0.28652
G1 X123.848 Y95.896 E0.32670
G1 X124.348 Y95.896 E0.34333
G0 X124.348 Y95.896 F5400
G0 X123.848 Y96.027
G0 X123.664 Y96.075
;segType:Perimeter
G1 X123.508 Y95.496 E0.36329 F1200
G1 X126.552 Y95.496 E0.46451
G1 X126.552 Y97.504 E0.53130
G1 X123.448 Y97.504 E0.63451
G1 X123.448 Y95.556 E0.69931
G0 X123.508 Y95.496 F5400
G0 X125.108 Y95.496
G0 F3000 E-0.30069
G0 X126.094 Y95.896 F5400
G0 X126.152 Y95.919
G0 X126.152 Y97.104
G0 X133.848 Y99.396
G0 X134.317 Y99.396
G0 X136.152 Y99.911
G0 X135.600 Y99.756
G0 F3000 E0.69931
;segType:HShell
G0 X135.800 Y100.000 F5400
G1 X135.200 Y100.000 E0.74920 F2400
G1 X134.800 Y100.000 E0.78246
G1 X134.400 Y100.000 E0.81572
G0 X134.548 Y99.396 F5400
;segType:Loop
G1 X136.152 Y99.396 E0.86904 F2400
G1 X136.152 Y100.604 E0.90923
G1 X133.848 Y100.604 E0.98584
G1 X133.848 Y99.396 E1.02603
G1 X134.348 Y99.396 E1.04266
G0 X133.848 Y99.690 F5400
G0 X133.715 Y99.769
;segType:Perimeter
G1 X133.508 Y98.996 E1.06926 F1200
G1 X136.552 Y98.996 E1.17048
G1 X136.552 Y101.004 E1.23728
G1 X133.448 Y101.004 E1.34049
G1 X133.448 Y99.056 E1.40530
G0 X133.508 Y98.996 F5400
G0 X135.108 Y98.996
G0 F3000 E0.40530
G0 X134.216 Y99.396 F5400
G0 X133.848 Y99.560
G0 X133.848 Y100.604
G0 X126.152 Y102.896
G0 X125.600 Y103.256
G0 F3000 E1.40530
;segType:HShell
G0 X125.800 Y103.500 F5400
G1 X125.200 Y103.500 E1.45519 F2400
G1 X124.800 Y103.500 E1.48845
G1 X124.400 Y103.500 E1.52171
G0 X124.548 Y102.896 F5400
;segType:Loop
G1 X126.152 Y102.896 E1.57503 F2400
G1 X126.152 Y104.104 E1.61521
G1 X123.848 Y104.104 E1.69182
G1 X123.848 Y102.896 E1.73200
G1 X124.348 Y102.896 E1.74863
G0 X124.348 Y102.896 F5400
G0 X123.848 Y103.027
G0 X123.664 Y103.076
;segType:Perimeter
G1 X123.508 Y102.496 E1.76859 F1200
G1 X126.552 Y102.496 E1.86980
G1 X126.552 Y104.504 E1.93659
G1 X123.448 Y104.504 E2.03981
G1 X123.448 Y102.556 E2.10460
G0 X123.508 Y102.496 F5400
G0 X125.108 Y102.496
; ------------------------------------
; Layer #1
; ------------------------------------
G92 E0 ;reset extr
G0 F3000 E-1.00000
G0 F600 Z1.400
G0 X123.704 Y102.797 F7200
G0 X123.704 Y97.203
G0 X124.065 Y96.700
G0 F3000 E0.00000
;segType:HShell
G1 X125.936 Y96.700 E0.06223 F1200
G0 X125.936 Y96.300 F7200
G1 X124.065 Y96.300 E0.12447 F1200
G0 F3000 E-0.87553
G0 X124.404 Y95.797 F7200
G0 F3000 E0.12447
;segType:Loop
G1 X126.296 Y95.797 E0.18737 F1200
G1 X126.296 Y97.203 E0.23415
G1 X123.704 Y97.203 E0.32033
G1 X123.704 Y95.797 E0.36711
G1 X124.204 Y95.797 E0.38374
G0 X124.204 Y95.797 F7200
G0 X123.704 Y95.928
G0 X123.520 Y95.977
;segType:Perimeter
G1 X123.364 Y95.397 E0.40369 F600
G1 X126.696 Y95.397 E0.51449
G1 X126.696 Y97.603 E0.58788
G1 X123.304 Y97.603 E0.70067
G1 X123.304 Y95.457 E0.77206
G0 X123.364 Y95.397 F7200
G0 X124.964 Y95.397
G0 F3000 E-0.22794
G0 X125.707 Y95.797 F7200
G0 X126.296 Y96.114
G0 X126.296 Y97.203
G0 X133.705 Y99.297
G0 X134.065 Y100.300
G0 F3000 E0.77206
;segType:HShell
G1 X135.936 Y100.300 E0.83428 F1200
G0 X135.936 Y99.900 F7200
G1 X134.065 Y99.900 E0.89651 F1200
G0 F3000 E-0.10349
G0 X134.405 Y99.297 F7200
G0 F3000 E0.89651
;segType:Loop
G1 X136.296 Y99.297 E0.95941 F1200
G1 X136.296 Y100.703 E1.00618
G1 X133.705 Y100.703 E1.09236
G1 X133.705 Y99.297 E1.13913
G1 X134.205 Y99.297 E1.15576
G0 X133.705 Y99.591 F7200
G0 X133.572 Y99.670
;segType:Perimeter
G1 X133.365 Y98.897 E1.18237 F600
G1 X136.696 Y98.897 E1.29316
G1 X136.696 Y101.103 E1.36654
G1 X133.305 Y101.103 E1.47933
G1 X133.305 Y98.957 E1.55072
G0 X133.365 Y98.897 F7200
G0 X134.965 Y98.897
G0 F3000 E0.55072
G0 X134.180 Y99.297 F7200
G0 X133.705 Y99.539
G0 X133.705 Y100.703
G0 X126.296 Y102.797
G0 X125.936 Y103.500
G0 F3000 E1.55072
;segType:HShell
G1 X124.065 Y103.500 E1.61295 F1200
G0 F3000 E0.61295
G0 X124.404 Y102.797 F7200
G0 F3000 E1.61295
;segType:Loop
G1 X126.296 Y102.797 E1.67586 F1200
G1 X126.296 Y104.203 E1.72263
G1 X123.704 Y104.203 E1.80882
G1 X123.704 Y102.797 E1.85559
G1 X124.204 Y102.797 E1.87222
G0 X124.204 Y102.797 F7200
G0 X123.704 Y102.928
G0 X123.520 Y102.976
;segType:Perimeter
G1 X123.364 Y102.397 E1.89218 F600
G1 X126.696 Y102.397 E2.00298
G1 X126.696 Y104.603 E2.07636
G1 X123.304 Y104.603 E2.18916
G1 X123.304 Y102.457 E2.26054
G0 X123.364 Y102.397 F7200
G0 X124.964 Y102.397
; ------------------------------------
; Layer #2
; ------------------------------------
G92 E0 ;reset extr
G0 F3000 E-1.00000
G0 F600 Z1.600
G0 X126.440 Y102.698 F7200
G0 X126.440 Y97.302
G0 X126.082 Y97.302
G0 X125.976 Y95.698
G0 X126.000 Y96.058
G0 F3000 E0.00000
;segType:HShell
G1 X126.000 Y96.942 E0.02940 F1200
G0 X125.600 Y96.942 F7200
G1 X125.600 Y96.058 E0.05880 F1200
G0 X125.200 Y96.058 F7200
G1 X125.200 Y96.942 E0.08820 F1200
G0 X124.800 Y96.942 F7200
G1 X124.800 Y96.058 E0.11760 F1200
G0 X124.400 Y96.058 F7200
G1 X124.400 Y96.942 E0.14699 F1200
G0 X124.000 Y96.942 F7200
G1 X124.000 Y96.058 E0.17639 F1200
G0 F3000 E-0.82361
G0 X124.260 Y95.698 F7200
G0 F3000 E0.17639
;segType:Loop
G1 X126.440 Y95.698 E0.24887 F1200
G1 X126.440 Y97.302 E0.30223
G1 X123.560 Y97.302 E0.39799
G1 X123.560 Y95.698 E0.45135
G1 X124.060 Y95.698 E0.46798
G0 X124.060 Y95.698 F7200
G0 X123.560 Y95.829
G0 X123.376 Y95.878
;segType:Perimeter
G1 X123.220 Y95.298 E0.48793 F600
G1 X126.840 Y95.298 E0.60831
G1 X126.840 Y97.702 E0.68827
G1 X123.160 Y97.702 E0.81064
G1 X123.160 Y95.358 E0.88861
G0 X123.220 Y95.298 F7200
G0 X124.820 Y95.298
G0 F3000 E-0.11139
G0 X125.870 Y95.698 F7200
G0 X126.440 Y95.915
G0 X126.440 Y97.302
G0 X133.560 Y99.198
G0 X134.474 Y99.198
G0 X136.440 Y99.662
G0 X136.000 Y99.558
G0 F3000 E0.88861
;segType:HShell
G1 X136.000 Y100.442 E0.91801 F1200
G0 X135.600 Y100.442 F7200
G1 X135.600 Y99.558 E0.94741 F1200
G0 X135.200 Y99.558 F7200
G1 X135.200 Y100.442 E0.97681 F1200
G0 X134.800 Y100.442 F7200
G1 X134.800 Y99.558 E1.00621 F1200
G0 X134.400 Y99.558 F7200
G1 X134.400 Y100.442 E1.03561 F1200
G0 X134.000 Y100.442 F7200
G1 X134.000 Y99.558 E1.06500 F1200
G0 F3000 E0.06500
G0 X134.260 Y99.198 F7200
G0 F3000 E1.06500
;segType:Loop
G1 X136.440 Y99.198 E1.13749 F1200
G1 X136.440 Y100.802 E1.19084
G1 X133.560 Y100.802 E1.28661
G1 X133.560 Y99.198 E1.33996
G1 X134.060 Y99.198 E1.35659
G0 X133.560 Y99.492 F7200
G0 X133.428 Y99.571
;segType:Perimeter
G1 X133.220 Y98.798 E1.38320 F600
G1 X136.840 Y98.798 E1.50357
G1 X136.840 Y101.202 E1.58354
G1 X133.160 Y101.202 E1.70591
G1 X133.160 Y98.858 E1.78388
G0 X133.220 Y98.798 F7200
G0 X134.820 Y98.798
G0 F3000 E0.78388
G0 X133.992 Y99.198 F7200
G0 X133.560 Y99.406
G0 X133.560 Y100.802
G0 X126.440 Y102.698
G0 X126.000 Y103.058
G0 F3000 E1.78388
;segType:HShell
G1 X126.000 Y103.942 E1.81327 F1200
G0 X125.600 Y103.942 F7200
G1 X125.600 Y103.058 E1.84267 F1200
G0 X125.200 Y103.058 F7200
G1 X125.200 Y103.942 E1.87207 F1200
G0 X124.800 Y103.942 F7200
G1 X124.800 Y103.058 E1.90147 F1200
G0 X124.400 Y103.058 F7200
G1 X124.400 Y103.942 E1.93087 F1200
G0 X124.000 Y103.942 F7200
G1 X124.000 Y103.058 E1.96027 F1200
G0 F3000 E0.96027
G0 X124.260 Y102.698 F7200
G0 F3000 E1.96027
;segType:Loop
G1 X126.440 Y102.698 E2.03275 F1200
G1 X126.440 Y104.302 E2.08611
G1 X123.560 Y104.302 E2.18187
G1 X123.560 Y102.698 E2.23522
G1 X124.060 Y102.698 E2.25185
G0 X124.060 Y102.698 F7200
G0 X123.560 Y102.829
G0 X123.376 Y102.877
;segType:Perimeter
G1 X123.220 Y102.298 E2.27181 F600
G1 X126.840 Y102.298 E2.39219
G1 X126.840 Y104.702 E2.47215
G1 X123.160 Y104.702 E2.59452
G1 X123.160 Y102.358 E2.67249
G0 X123.220 Y102.298 F7200
G0 X124.820 Y102.298
; ------------------------------------
; Layer #3
; ------------------------------------
G92 E0 ;reset extr
G0 F3000 E-1.00000
G0 F600 Z1.800
G0 X123.417 Y102.599 F7200
G0 X123.417 Y97.401
G0 X123.714 Y97.401
G0 X123.817 Y95.599
G0 X123.777 Y96.300
G0 F3000 E0.00000
;segType:HShell
G1 X126.223 Y96.300 E0.08138 F1200
G0 X126.223 Y96.700 F7200
G1 X123.777 Y96.700 E0.16277 F1200
G0 F3000 E-0.83723
G0 X124.117 Y95.599 F7200
G0 F3000 E0.16277
;segType:Loop
G1 X126.584 Y95.599 E0.24482 F1200
G1 X126.584 Y97.401 E0.30477
G1 X123.417 Y97.401 E0.41011
G1 X123.417 Y95.599 E0.47005
G1 X123.917 Y95.599 E0.48668
G0 X123.917 Y95.599 F7200
G0 X123.417 Y95.730
G0 X123.232 Y95.778
;segType:Perimeter
G1 X123.077 Y95.199 E0.50664 F600
G1 X126.984 Y95.199 E0.63659
G1 X126.984 Y97.801 E0.72314
G1 X123.017 Y97.801 E0.85509
G1 X123.017 Y95.259 E0.93965
G0 X123.077 Y95.199 F7200
G0 X124.677 Y95.199
G0 F3000 E-0.06035
G0 X124.748 Y95.599 F7200
G0 X125.068 Y97.401
G0 X126.584 Y97.401
G0 X126.584 Y102.599
G0 X126.296 Y102.599
G0 X126.196 Y104.401
G0 X126.223 Y103.900
G0 F3000 E0.93965
;segType:HShell
G1 X123.777 Y103.900 E1.02103 F1200
G0 X123.777 Y103.500 F7200
G1 X126.223 Y103.500 E1.10241 F1200
G0 X126.223 Y103.100 F7200
G1 X123.777 Y103.100 E1.18380 F1200
G0 F3000 E0.18380
G0 X124.117 Y102.599 F7200
G0 F3000 E1.18380
;segType:Loop
G1 X126.584 Y102.599 E1.26585 F1200
G1 X126.584 Y104.401 E1.32580
G1 X123.417 Y104.401 E1.43114
G1 X123.417 Y102.599 E1.49108
G1 X123.917 Y102.599 E1.50771
G0 X123.417 Y102.730 F7200
G0 X123.232 Y102.778
;segType:Perimeter
G1 X123.077 Y102.199 E1.52767 F600
G1 X126.984 Y102.199 E1.65762
G1 X126.984 Y104.801 E1.74417
G1 X123.017 Y104.801 E1.87612
G1 X123.017 Y102.259 E1.96068
G0 X123.077 Y102.199 F7200
G0 X124.677 Y102.199
G0 F3000 E0.96068
G0 X126.984 Y102.199 F7200
G0 X133.416 Y100.901
G0 X133.416 Y100.877
G0 X136.584 Y100.226
G0 X136.223 Y100.300
G0 F3000 E1.96068
;segType:HShell
G1 X133.777 Y100.300 E2.04206 F1200
G0 X133.777 Y99.900 F7200
G1 X136.223 Y99.900 E2.12344 F1200
G0 X136.223 Y99.500 F7200
G1 X133.777 Y99.500 E2.20483 F1200
G0 F3000 E1.20483
G0 X134.116 Y99.099 F7200
G0 F3000 E2.20483
;segType:Loop
G1 X136.584 Y99.099 E2.28688 F1200
G1 X136.584 Y100.901 E2.34682
G1 X133.416 Y100.901 E2.45216
G1 X133.416 Y99.099 E2.51210
G1 X133.916 Y99.099 E2.52873
G0 X133.416 Y99.393 F7200
G0 X133.283 Y99.472
;segType:Perimeter
G1 X133.076 Y98.699 E2.55533 F600
G1 X136.984 Y98.699 E2.68528
G1 X136.984 Y101.301 E2.77183
G1 X133.016 Y101.301 E2.90378
G1 X133.016 Y98.759 E2.98833
G0 X133.076 Y98.699 F7200
G0 X134.676 Y98.699
; ------------------------------------
; Layer #4
; ------------------------------------
G92 E0 ;reset extr
G0 F3000 E-1.00000
G0 F600 Z2.000
G0 X132.872 Y98.600 F7200
G0 X126.728 Y97.500
G0 X125.200 Y96.256
G0 F3000 E0.00000
;segType:HShell
G0 X125.400 Y96.058 F7200
G1 X124.800 Y96.058 E0.04940 F1200
G1 X124.400 Y96.058 E0.08233
G0 X124.000 Y95.860 F7200
G1 X124.000 Y97.140 E0.12490 F1200
G0 X124.200 Y96.942 F7200
G1 X124.800 Y96.942 E0.17430 F1200
G1 X125.200 Y96.942 E0.20723
G1 X125.600 Y96.942 E0.24017
G0 X126.000 Y97.140 F7200
G1 X126.000 Y95.860 E0.28274 F1200
G0 X125.600 Y96.256 F7200
G1 X125.600 Y95.860 E0.29591 F1200
G0 X125.362 Y96.256 F7200
;segType:Infill
G1 X125.644 Y96.744 E0.31465 F1500
G0 X124.484 Y96.744 F7200
G1 X124.766 Y96.256 E0.33338 F1500
G0 X123.972 Y95.500 F7200
;segType:Loop
G1 X126.728 Y95.500 E0.42502 F1200
G1 X126.728 Y97.500 E0.49155
G1 X123.272 Y97.500 E0.60647
G1 X123.272 Y95.500 E0.67300
G1 X123.772 Y95.500 E0.68963
G0 X123.772 Y95.500 F7200
G0 X123.272 Y95.631
G0 X123.088 Y95.679
;segType:Perimeter
G1 X122.932 Y95.100 E0.70959 F600
G1 X127.128 Y95.100 E0.84912
G1 X127.128 Y97.900 E0.94226
G1 X122.872 Y97.900 E1.08379
G1 X122.872 Y95.160 E1.17493
G0 X122.932 Y95.100 F7200
G0 X124.532 Y95.100
G0 F3000 E0.17493
G0 X125.415 Y95.500 F7200
G0 X126.728 Y96.095
G0 X126.728 Y97.500
G0 X132.872 Y98.600
G0 X134.800 Y99.756
G0 F3000 E1.17493
;segType:HShell
G1 X134.800 Y99.360 E1.18809 F1200
G0 X135.200 Y99.360 F7200
G1 X135.200 Y99.756 E1.20126 F1200
G0 X135.600 Y99.756 F7200
G1 X135.600 Y99.360 E1.21442 F1200
G0 X136.000 Y99.360 F7200
G1 X136.000 Y100.640 E1.25698 F1200
G0 X135.800 Y100.442 F7200
G1 X135.200 Y100.442 E1.30635 F1200
G1 X134.800 Y100.442 E1.33926
G1 X134.400 Y100.442 E1.37217
G0 X134.000 Y100.640 F7200
G1 X134.000 Y99.360 E1.41474 F1200
G0 X134.400 Y99.756 F7200
G1 X134.400 Y99.360 E1.42790 F1200
G0 X134.311 Y99.756 F7200
;segType:Infill
G1 X134.593 Y100.244 E1.44665 F1500
G0 X134.208 Y99.901 F7200
G1 X134.292 Y99.756 E1.45223 F1500
G0 X133.972 Y99.000 F7200
;segType:Loop
G1 X136.728 Y99.000 E1.54387 F1200
G1 X136.728 Y101.000 E1.61039
G1 X133.272 Y101.000 E1.72531
G1 X133.272 Y99.000 E1.79183
G1 X133.772 Y99.000 E1.80846
G0 X133.272 Y99.294 F7200
G0 X133.139 Y99.373
;segType:Perimeter
G1 X132.932 Y98.600 E1.83507 F600
G1 X137.128 Y98.600 E1.97460
G1 X137.128 Y101.400 E2.06773
G1 X132.872 Y101.400 E2.20926
G1 X132.872 Y98.660 E2.30039
G0 X132.932 Y98.600 F7200
G0 X134.532 Y98.600
G0 F3000 E1.30039
G0 X132.872 Y99.298 F7200
G0 X132.872 Y101.400
G0 X126.728 Y102.500
G0 X124.400 Y102.860
G0 F3000 E2.30039
;segType:HShell
G1 X124.400 Y103.256 E2.31356 F1200
G0 X124.000 Y102.860 F7200
G1 X124.000 Y104.140 E2.35613 F1200
G0 X124.200 Y103.942 F7200
G1 X124.800 Y103.942 E2.40553 F1200
G1 X125.200 Y103.942 E2.43847
G1 X125.600 Y103.942 E2.47140
G0 X126.000 Y104.140 F7200
G1 X126.000 Y102.860 E2.51397 F1200
G0 X125.600 Y102.860 F7200
G0 X125.800 Y103.058
G1 X125.200 Y103.058 E2.56337 F1200
G1 X124.800 Y103.058 E2.59630
G0 X125.343 Y103.256 F7200
;segType:Infill
G1 X125.062 Y103.744 E2.61504 F1500
G0 X124.785 Y103.256 F7200
G1 X125.066 Y103.744 E2.63377 F1500
G0 X123.972 Y102.500 F7200
;segType:Loop
G1 X126.728 Y102.500 E2.72541 F1200
G1 X126.728 Y104.500 E2.79194
G1 X123.272 Y104.500 E2.90686
G1 X123.272 Y102.500 E2.97339
G1 X123.772 Y102.500 E2.99002
G0 X123.772 Y102.500 F7200
G0 X123.272 Y102.631
G0 X123.088 Y102.679
;segType:Perimeter
G1 X122.932 Y102.100 E3.00998 F600
G1 X127.128 Y102.100 E3.14951
G1 X127.128 Y104.900 E3.24265
G1 X122.872 Y104.900 E3.38418
G1 X122.872 Y102.160 E3.47532
G0 X122.932 Y102.100 F7200
G0 X124.532 Y102.100
; ------------------------------------
; Layer #5
; ------------------------------------
G92 E0 ;reset extr
G0 F3000 E-1.00000
G0 F600 Z2.200
G0 X126.800 Y102.450 F7200
G0 X126.800 Y97.550
G0 X126.440 Y97.100
G0 F3000 E0.00000
;segType:HShell
G1 X123.561 Y97.100 E0.09576 F1200
G0 X123.813 Y96.900 F7200
G1 X123.813 Y96.300 E0.14565 F1200
G0 X123.561 Y95.900 F7200
G1 X126.440 Y95.900 E0.24141 F1200
G0 X125.936 Y96.300 F7200
G1 X126.440 Y96.300 E0.25817 F1200
G0 X125.782 Y96.843 F7200
;segType:Infill
G1 X125.386 Y96.157 E0.28451 F1500
G0 X124.742 Y96.157 F7200
G1 X124.346 Y96.843 E0.31086 F1500
G0 X123.016 Y95.630 F7200
;segType:Perimeter
G1 X122.860 Y95.050 E0.33082 F600
G1 X127.200 Y95.050 E0.47514
G1 X127.200 Y97.950 E0.57157
G1 X122.800 Y97.950 E0.71789
G1 X122.800 Y95.110 E0.81232
G0 X122.860 Y95.050 F7200
G0 X124.460 Y95.050
G0 X123.900 Y95.450
;segType:Loop
G1 X126.800 Y95.450 E0.90875 F1200
G1 X126.800 Y97.550 E0.97857
G1 X123.200 Y97.550 E1.09829
G1 X123.200 Y95.450 E1.16811
G1 X123.700 Y95.450 E1.18474
G0 X125.936 Y96.700 F7200
;segType:HShell
G1 X126.440 Y96.700 E1.20150 F1200
G0 F3000 E0.20150
G0 X126.440 Y103.100 F7200
G0 F3000 E1.20150
G1 X123.561 Y103.100 E1.29725 F1200
G0 X123.561 Y103.500 F7200
G1 X124.065 Y103.500 E1.31402 F1200
G0 X123.561 Y103.900 F7200
G1 X126.440 Y103.900 E1.40977 F1200
G0 X125.936 Y103.500 F7200
G1 X126.440 Y103.500 E1.42654 F1200
G0 X125.320 Y103.157 F7200
;segType:Infill
G1 X124.924 Y103.843 E1.45288 F1500
G0 X125.204 Y103.843 F7200
G1 X124.808 Y103.157 E1.47923 F1500
G0 X123.900 Y102.450 F7200
;segType:Loop
G1 X126.800 Y102.450 E1.57566 F1200
G1 X126.800 Y104.550 E1.64548
G1 X123.200 Y104.550 E1.76519
G1 X123.200 Y102.450 E1.83501
G1 X123.700 Y102.450 E1.85164
G0 X123.200 Y102.582 F7200
G0 X123.016 Y102.630
;segType:Perimeter
G1 X122.860 Y102.050 E1.87160 F600
G1 X127.200 Y102.050 E2.01592
G1 X127.200 Y104.950 E2.11235
G1 X122.800 Y104.950 E2.25867
G1 X122.800 Y102.110 E2.35310
G0 X122.860 Y102.050 F7200
G0 X124.460 Y102.050
G0 F3000 E1.35310
G0 X127.200 Y102.050 F7200
G0 X133.201 Y101.050
G0 X133.201 Y100.654
G0 X136.800 Y99.816
G0 X136.439 Y99.900
G0 F3000 E2.35310
;segType:HShell
G0 X136.187 Y99.700 F7200
G1 X136.187 Y100.300 E2.40299 F1200
G0 X136.439 Y99.500 F7200
G1 X133.561 Y99.500 E2.49874 F1200
G0 X133.561 Y99.900 F7200
G1 X134.065 Y99.900 E2.51551 F1200
G0 X134.065 Y100.300 F7200
G1 X133.561 Y100.300 E2.53227 F1200
G0 X134.731 Y100.343 F7200
;segType:Infill
G1 X134.335 Y99.657 E2.55862 F1500
G0 X134.065 Y100.010 F7200
G1 X134.269 Y99.657 E2.57219 F1500
G0 X133.901 Y98.950 F7200
;segType:Loop
G1 X136.800 Y98.950 E2.66861 F1200
G1 X136.800 Y101.050 E2.73844
G1 X133.201 Y101.050 E2.85814
G1 X133.201 Y98.950 E2.92797
G1 X133.701 Y98.950 E2.94460
G0 X133.201 Y99.245 F7200
G0 X133.068 Y99.323
;segType:Perimeter
G1 X132.861 Y98.550 E2.97121 F600
G1 X137.200 Y98.550 E3.11553
G1 X137.200 Y101.450 E3.21196
G1 X132.801 Y101.450 E3.35827
G1 X132.801 Y98.610 E3.45271
G0 X132.861 Y98.550 F7200
G0 X134.461 Y98.550
; ------------------------------------
; Layer #6
; ------------------------------------
G92 E0 ;reset extr
G0 F3000 E-1.00000
G0 F600 Z2.400
G0 X132.801 Y98.550 F7200
G0 X126.800 Y97.550
G0 X126.400 Y97.189
G0 F3000 E0.00000
;segType:HShell
G1 X126.400 Y95.810 E0.04586 F1200
G0 X126.200 Y95.934 F7200
G1 X125.600 Y95.934 E0.07675 F1200
G1 X125.200 Y95.934 E0.09734
G1 X124.800 Y95.934 E0.11793
G1 X124.400 Y95.934 E0.13852
G1 X124.000 Y95.934 E0.15911
G0 X123.600 Y95.810 F7200
G1 X123.600 Y97.189 E0.20497 F1200
G0 X124.000 Y97.189 F7200
G0 X123.800 Y97.066
G1 X124.400 Y97.066 E0.23583 F1200
G1 X124.800 Y97.066 E0.25640
G1 X125.200 Y97.066 E0.27697
G1 X125.600 Y97.066 E0.29754
G1 X126.000 Y97.066 E0.31811
G0 X125.920 Y96.942 F7200
;segType:Infill
G1 X125.410 Y96.058 E0.35205 F1500
G0 X124.208 Y96.942 F7200
G1 X124.719 Y96.058 E0.38600 F1500
G0 X123.016 Y95.630 F7200
;segType:Perimeter
G1 X122.860 Y95.050 E0.40596 F600
G1 X127.200 Y95.050 E0.55028
G1 X127.200 Y97.950 E0.64671
G1 X122.800 Y97.950 E0.79303
G1 X122.800 Y95.110 E0.88746
G0 X122.860 Y95.050 F7200
G0 X124.460 Y95.050
G0 X123.900 Y95.450
;segType:Loop
G1 X126.800 Y95.450 E0.98389 F1200
G1 X126.800 Y97.550 E1.05371
G1 X123.200 Y97.550 E1.17343
G1 X123.200 Y95.450 E1.24324
G1 X123.700 Y95.450 E1.25987
G0 F3000 E0.25987
G0 X123.700 Y95.450 F7200
G0 X126.800 Y96.729
G0 X126.800 Y97.550
G0 X132.801 Y98.550
G0 X136.400 Y100.690
G0 F3000 E1.25987
;segType:HShell
G1 X136.400 Y99.310 E1.30575 F1200
G0 X136.200 Y99.434 F7200
G1 X135.600 Y99.434 E1.33663 F1200
G1 X135.200 Y99.434 E1.35722
G1 X134.800 Y99.434 E1.37781
G1 X134.400 Y99.434 E1.39840
G1 X134.000 Y99.434 E1.41899
G0 X133.600 Y99.310 F7200
G1 X133.600 Y100.690 E1.46487 F1200
G0 X134.000 Y100.690 F7200
G0 X133.800 Y100.566
G1 X134.400 Y100.566 E1.49575 F1200
G1 X134.800 Y100.566 E1.51634
G1 X135.200 Y100.566 E1.53693
G1 X135.600 Y100.566 E1.55752
G1 X136.000 Y100.566 E1.57811
G0 X136.044 Y100.442 F7200
;segType:Infill
G1 X136.080 Y100.380 E1.58048 F1500
G0 X134.869 Y100.442 F7200
G1 X134.358 Y99.558 E1.61443 F1500
G0 X134.245 Y99.558 F7200
G1 X133.921 Y100.120 E1.63600 F1500
G0 X133.068 Y99.323 F7200
;segType:Perimeter
G1 X132.861 Y98.550 E1.66261 F600
G1 X137.200 Y98.550 E1.80693
G1 X137.200 Y101.450 E1.90336
G1 X132.801 Y101.450 E2.04968
G1 X132.801 Y98.610 E2.14412
G0 X132.861 Y98.550 F7200
G0 X134.461 Y98.550
G0 X133.901 Y98.950
;segType:Loop
G1 X136.800 Y98.950 E2.24054 F1200
G1 X136.800 Y101.050 E2.31037
G1 X133.201 Y101.050 E2.43007
G1 X133.201 Y98.950 E2.49990
G1 X133.701 Y98.950 E2.51653
G0 F3000 E1.51653
G0 X132.801 Y101.450 F7200
G0 X126.800 Y102.450
G0 X126.400 Y102.811
G0 F3000 E2.51653
;segType:HShell
G1 X126.400 Y104.190 E2.56239 F1200
G0 X126.000 Y104.190 F7200
G1 X126.000 Y103.942 E2.57063 F1200
G0 X125.600 Y103.942 F7200
G1 X125.600 Y104.190 E2.57887 F1200
G0 X125.200 Y104.190 F7200
G1 X125.200 Y103.942 E2.58710 F1200
G0 X124.800 Y103.942 F7200
G1 X124.800 Y104.190 E2.59534 F1200
G0 X124.400 Y104.190 F7200
G1 X124.400 Y103.942 E2.60357 F1200
G0 X124.000 Y103.942 F7200
G1 X124.000 Y104.190 E2.61181 F1200
G0 X123.600 Y104.190 F7200
G1 X123.600 Y102.811 E2.65767 F1200
G0 X123.800 Y102.934 F7200
G1 X124.400 Y102.934 E2.68853 F1200
G1 X124.800 Y102.934 E2.70910
G1 X125.200 Y102.934 E2.72967
G0 X124.832 Y103.058 F7200
;segType:Infill
G1 X125.342 Y103.942 E2.76361 F1500
G0 X124.786 Y103.942 F7200
G1 X125.296 Y103.058 E2.79756 F1500
G0 X126.079 Y103.140 F7200
G1 X123.920 Y103.140 E2.86937 F1500
G0 X123.016 Y102.630 F7200
;segType:Perimeter
G1 X122.860 Y102.050 E2.88932 F600
G1 X127.200 Y102.050 E3.03365
G1 X127.200 Y104.950 E3.13008
G1 X122.800 Y104.950 E3.27640
G1 X122.800 Y102.110 E3.37083
G0 X122.860 Y102.050 F7200
G0 X124.460 Y102.050
G0 X123.900 Y102.450
;segType:Loop
G1 X126.800 Y102.450 E3.46726 F1200
G1 X126.800 Y104.550 E3.53708
G1 X123.200 Y104.550 E3.65679
G1 X123.200 Y102.450 E3.72661
G1 X123.700 Y102.450 E3.74324
G0 X126.000 Y102.811 F7200
;segType:HShell
G0 X126.200 Y102.934
G1 X125.600 Y102.934 E3.77410 F1200
; ------------------------------------
; Layer #7
; ------------------------------------
G92 E0 ;reset extr
G0 F3000 E-1.00000
G0 F600 Z2.600
G0 X126.800 Y102.450 F7200
G0 X126.800 Y97.550
G0 X126.440 Y96.700
G0 F3000 E0.00000
;segType:HShell
G0 X126.332 Y96.900 F7200
G1 X126.332 Y96.300 E0.02695 F1200
G0 X126.440 Y95.900 F7200
G1 X123.561 Y95.900 E0.12271 F1200
G0 X123.561 Y96.700 F7200
G0 X123.669 Y96.900
G1 X123.669 Y96.300 E0.14966 F1200
G0 X123.561 Y97.100 F7200
G1 X126.440 Y97.100 E0.24542 F1200
G0 X126.058 Y97.041 F7200
;segType:Infill
G1 X125.433 Y95.959 E0.28698 F1500
G0 X124.070 Y97.041 F7200
G1 X124.695 Y95.959 E0.32854 F1500
G0 X123.016 Y95.630 F7200
;segType:Perimeter
G1 X122.860 Y95.050 E0.34849 F600
G1 X127.200 Y95.050 E0.49282
G1 X127.200 Y97.950 E0.58924
G1 X122.800 Y97.950 E0.73557
G1 X122.800 Y95.110 E0.83000
G0 X122.860 Y95.050 F7200
G0 X124.460 Y95.050
G0 X123.900 Y95.450
;segType:Loop
G1 X126.800 Y95.450 E0.92643 F1200
G1 X126.800 Y97.550 E0.99625
G1 X123.200 Y97.550 E1.11596
G1 X123.200 Y95.450 E1.18578
G1 X123.700 Y95.450 E1.20241
G0 F3000 E0.20241
G0 X126.800 Y96.975 F7200
G0 X126.800 Y97.550
G0 X132.801 Y98.550
G0 X133.561 Y100.300
G0 F3000 E1.20241
;segType:HShell
G0 X133.669 Y100.500 F7200
G1 X133.669 Y99.900 E1.22933 F1200
G1 X133.669 Y99.500 E1.24728
G0 X136.439 Y99.500 F7200
G0 X136.331 Y99.300
G1 X136.331 Y99.900 E1.27423 F1200
G1 X136.331 Y100.300 E1.29220
G0 X136.223 Y99.991 F7200
;segType:Infill
G1 X135.906 Y100.541 E1.31331 F1500
G0 X135.007 Y100.541 F7200
G1 X134.382 Y99.459 E1.35486 F1500
G0 X134.221 Y99.459 F7200
G1 X133.777 Y100.229 E1.38444 F1500
G0 X133.901 Y98.950 F7200
;segType:Loop
G1 X136.800 Y98.950 E1.48086 F1200
G1 X136.800 Y101.050 E1.55069
G1 X133.201 Y101.050 E1.67040
G1 X133.201 Y98.950 E1.74022
G1 X133.701 Y98.950 E1.75685
G0 F3000 E0.75685
G0 X133.068 Y99.323 F7200
G0 F3000 E1.75685
;segType:Perimeter
G1 X132.861 Y98.550 E1.78346 F600
G1 X137.200 Y98.550 E1.92778
G1 X137.200 Y101.450 E2.02421
G1 X132.801 Y101.450 E2.17053
G1 X132.801 Y98.610 E2.26497
G0 X132.861 Y98.550 F7200
G0 X134.461 Y98.550
G0 F3000 E1.26497
G0 X134.461 Y98.550 F7200
G0 X132.801 Y99.492
G0 X132.801 Y101.450
G0 X126.800 Y102.450
G0 X126.440 Y103.100
G0 F3000 E2.26497
;segType:HShell
G0 X126.332 Y102.900 F7200
G1 X126.332 Y103.500 E2.29192 F1200
G1 X126.332 Y103.900 E2.30989
G0 F3000 E1.30989
G0 X126.800 Y103.900 F7200
G0 X123.200 Y103.900
G0 X123.561 Y103.900
G0 F3000 E2.30989
G0 X123.669 Y104.100 F7200
G1 X123.669 Y103.500 E2.33684 F1200
G1 X123.669 Y103.100 E2.35481
G0 X124.856 Y102.959 F7200
;segType:Infill
G1 X125.481 Y104.041 E2.39637 F1500
G0 X124.648 Y104.041 F7200
G1 X125.272 Y102.959 E2.43792 F1500
G0 X126.223 Y103.280 F7200
G1 X123.777 Y103.280 E2.51931 F1500
G0 X123.900 Y102.450 F7200
;segType:Loop
G1 X126.800 Y102.450 E2.61574 F1200
G1 X126.800 Y104.550 E2.68556
G1 X123.200 Y104.550 E2.80527
G1 X123.200 Y102.450 E2.87509
G1 X123.700 Y102.450 E2.89172
G0 X123.200 Y102.582 F7200
G0 X123.016 Y102.630
;segType:Perimeter
G1 X122.860 Y102.050 E2.91168 F600
G1 X127.200 Y102.050 E3.05600
G1 X127.200 Y104.950 E3.15243
G1 X122.800 Y104.950 E3.29875
G1 X122.800 Y102.110 E3.39318
G0 X122.860 Y102.050 F7200
G0 X124.460 Y102.050
; ------------------------------------
; Layer #8
; ------------------------------------
G92 E0 ;reset extr
G0 F3000 E-1.00000
G0 F600 Z2.800
G0 X126.800 Y102.450 F7200
G0 X126.800 Y97.550
G0 X125.600 Y97.140
G0 F3000 E0.00000
;segType:HShell
G0 X125.800 Y97.165 F7200
G1 X125.200 Y97.165 E0.01996 F1200
G1 X124.800 Y97.165 E0.03326
G1 X124.400 Y97.165 E0.04656
G1 X124.000 Y97.165 E0.05987
G0 X123.600 Y97.189 F7200
G1 X123.600 Y95.810 E0.10573 F1200
G0 X124.000 Y95.810 F7200
G1 X124.000 Y95.860 E0.10738 F1200
G0 X124.400 Y95.860 F7200
G1 X124.400 Y95.810 E0.10902 F1200
G0 X124.800 Y95.810 F7200
G1 X124.800 Y95.860 E0.11067 F1200
G0 X125.200 Y95.860 F7200
G1 X125.200 Y95.810 E0.11231 F1200
G0 X125.600 Y95.810 F7200
G1 X125.600 Y95.860 E0.11396 F1200
G0 X126.000 Y95.860 F7200
G1 X126.000 Y95.810 E0.11560 F1200
G0 X126.400 Y95.810 F7200
G1 X126.400 Y97.189 E0.16147 F1200
G0 X126.000 Y97.189 F7200
G1 X126.000 Y97.140 E0.16311 F1200
G0 X126.368 Y96.922 F7200
;segType:Infill
G1 X126.242 Y97.140 E0.17148 F1500
G0 X126.196 Y97.140 F7200
G1 X125.457 Y95.860 E0.22064 F1500
G0 X124.671 Y95.860 F7200
G1 X123.932 Y97.140 E0.26980 F1500
G0 X123.633 Y96.700 F7200
G1 X123.886 Y97.140 E0.28668 F1500
G0 X123.883 Y97.550 F7200
G0 X123.900 Y95.450
G0 X123.900 Y95.450
;segType:Loop
G1 X126.800 Y95.450 E0.38311 F1200
G1 X126.800 Y97.550 E0.45293
G1 X123.200 Y97.550 E0.57265
G1 X123.200 Y95.450 E0.64247
G1 X123.700 Y95.450 E0.65910
G0 X123.700 Y95.450 F7200
G0 X123.200 Y95.581
G0 X123.016 Y95.630
;segType:Perimeter
G1 X122.860 Y95.050 E0.67905 F600
G1 X127.200 Y95.050 E0.82338
G1 X127.200 Y97.950 E0.91980
G1 X122.800 Y97.950 E1.06613
G1 X122.800 Y95.110 E1.16056
G0 X122.860 Y95.050 F7200
G0 X124.460 Y95.050
G0 F3000 E0.16056
G0 X125.544 Y95.450 F7200
G0 X126.800 Y95.914
G0 X126.800 Y97.550
G0 X133.201 Y98.950
G0 X136.000 Y99.310
G0 F3000 E1.16056
;segType:HShell
G0 X136.200 Y99.335 F7200
G1 X135.600 Y99.335 E1.18051 F1200
G1 X135.200 Y99.335 E1.19382
G1 X134.800 Y99.335 E1.20712
G1 X134.400 Y99.335 E1.22043
G1 X134.000 Y99.335 E1.23373
G0 X133.600 Y99.310 F7200
G1 X133.600 Y100.690 E1.27960 F1200
G0 X133.632 Y100.339 F7200
;segType:Infill
G1 X134.198 Y99.360 E1.31719 F1500
G0 X134.406 Y99.360 F7200
G1 X135.145 Y100.640 E1.36634 F1500
G0 X135.768 Y100.640 F7200
G1 X136.367 Y99.602 E1.40621 F1500
G0 X136.367 Y99.420 F7200
G1 X133.632 Y99.420 E1.49717 F1500
G0 X133.068 Y99.323 F7200
;segType:Perimeter
G1 X132.861 Y98.550 E1.52378 F600
G1 X137.200 Y98.550 E1.66810
G1 X137.200 Y101.450 E1.76453
G1 X132.801 Y101.450 E1.91085
G1 X132.801 Y98.610 E2.00529
G0 X132.861 Y98.550 F7200
G0 X134.461 Y98.550
G0 X133.901 Y98.950
;segType:Loop
G1 X136.800 Y98.950 E2.10171 F1200
G1 X136.800 Y101.050 E2.17154
G1 X133.201 Y101.050 E2.29124
G1 X133.201 Y98.950 E2.36107
G1 X133.701 Y98.950 E2.37770
G0 X134.062 Y101.050 F7200
G0 X134.000 Y100.690
;segType:HShell
G0 X133.800 Y100.665
G1 X134.400 Y100.665 E2.39766 F1200
G1 X134.800 Y100.665 E2.41096
G1 X135.200 Y100.665 E2.42426
G1 X135.600 Y100.665 E2.43757
G1 X136.000 Y100.665 E2.45087
G0 X136.400 Y100.690 F7200
G1 X136.400 Y99.310 E2.49674 F1200
G0 F3000 E1.49674
G0 X136.800 Y99.192 F7200
G0 X133.201 Y100.257
G0 X133.201 Y101.050
G0 X126.800 Y102.450
G0 X124.400 Y102.860
G0 F3000 E2.49674
G1 X124.400 Y102.811 E2.49839 F1200
G0 X124.800 Y102.811 F7200
G1 X124.800 Y102.860 E2.50004 F1200
G0 X125.200 Y102.860 F7200
G1 X125.200 Y102.811 E2.50168 F1200
G0 X125.600 Y102.811 F7200
G1 X125.600 Y102.860 E2.50333 F1200
G0 X126.000 Y102.860 F7200
G1 X126.000 Y102.811 E2.50497 F1200
G0 X126.400 Y102.811 F7200
G1 X126.400 Y104.190 E2.55083 F1200
G0 X126.200 Y104.165 F7200
G1 X125.600 Y104.165 E2.57079 F1200
G1 X125.200 Y104.165 E2.58409
G1 X124.800 Y104.165 E2.59740
G1 X124.400 Y104.165 E2.61070
G1 X124.000 Y104.165 E2.62401
G0 X124.510 Y104.140 F7200
;segType:Infill
G1 X125.249 Y102.860 E2.67316 F1500
G0 X124.880 Y102.860 F7200
G1 X125.619 Y104.140 E2.72232 F1500
G0 X126.368 Y103.420 F7200
G1 X123.633 Y103.420 E2.81329 F1500
G0 X123.200 Y102.450 F7200
G0 X123.016 Y102.630
;segType:Perimeter
G1 X122.860 Y102.050 E2.83324 F600
G1 X127.200 Y102.050 E2.97757
G1 X127.200 Y104.950 E3.07400
G1 X122.800 Y104.950 E3.22032
G1 X122.800 Y102.110 E3.31475
G0 X122.860 Y102.050 F7200
G0 X124.460 Y102.050
G0 X123.900 Y102.450
;segType:Loop
G1 X126.800 Y102.450 E3.41118 F1200
G1 X126.800 Y104.550 E3.48100
G1 X123.200 Y104.550 E3.60071
G1 X123.200 Y102.450 E3.67053
G1 X123.700 Y102.450 E3.68716
G0 X123.600 Y102.811 F7200
;segType:HShell
G1 X123.600 Y104.190 E3.73302 F1200
G0 F3000 E2.73302
G0 X124.000 Y102.860 F7200
G0 F3000 E3.73302
G1 X124.000 Y102.811 E3.73467 F1200
; ------------------------------------
; Layer #9
; ------------------------------------
G92 E0 ;reset extr
G0 F3000 E-1.00000
G0 F600 Z3.000
G0 X126.800 Y102.450 F7200
G0 X126.800 Y97.550
G0 X126.132 Y97.189
G0 F3000 E0.00000
;segType:Infill
G1 X126.440 Y96.657 E0.02044 F1500
G0 X126.305 Y97.189 F7200
G1 X125.509 Y95.810 E0.07340 F1500
G0 X124.619 Y95.810 F7200
G1 X123.823 Y97.189 E0.12635 F1500
G0 X123.996 Y97.189 F7200
G1 X123.561 Y96.435 E0.15531 F1500
G0 X123.900 Y95.450 F7200
;segType:Loop
G1 X126.800 Y95.450 E0.25174 F1200
G1 X126.800 Y97.550 E0.32156
G1 X123.200 Y97.550 E0.44128
G1 X123.200 Y95.450 E0.51109
G1 X123.700 Y95.450 E0.52772
G0 X123.700 Y95.450 F7200
G0 X123.200 Y95.581
G0 X123.016 Y95.630
;segType:Perimeter
G1 X122.860 Y95.050 E0.54768 F600
G1 X127.200 Y95.050 E0.69201
G1 X127.200 Y97.950 E0.78843
G1 X122.800 Y97.950 E0.93476
G1 X122.800 Y95.110 E1.02919
G0 X122.860 Y95.050 F7200
G0 X124.460 Y95.050
G0 F3000 E0.02919
G0 X125.151 Y95.450 F7200
G0 X126.800 Y96.406
G0 X126.800 Y97.550
G0 X133.201 Y98.950
G0 X133.561 Y100.323
G0 F3000 E1.02919
;segType:Infill
G1 X134.145 Y99.310 E1.06808 F1500
G0 X134.458 Y99.310 F7200
G1 X135.254 Y100.690 E1.12105 F1500
G0 X135.659 Y100.690 F7200
G1 X136.439 Y99.337 E1.17300 F1500
G0 X136.439 Y99.560 F7200
G1 X133.561 Y99.560 E1.26875 F1500
G0 F3000 E0.26875
G0 X133.901 Y98.950 F7200
G0 F3000 E1.26875
;segType:Loop
G1 X136.800 Y98.950 E1.36517 F1200
G1 X136.800 Y101.050 E1.43500
G1 X133.201 Y101.050 E1.55470
G1 X133.201 Y98.950 E1.62453
G1 X133.701 Y98.950 E1.64116
G0 X133.201 Y99.245 F7200
G0 X133.068 Y99.323
;segType:Perimeter
G1 X132.861 Y98.550 E1.66777 F600
G1 X137.200 Y98.550 E1.81209
G1 X137.200 Y101.450 E1.90852
G1 X132.801 Y101.450 E2.05484
G1 X132.801 Y98.610 E2.14928
G0 X132.861 Y98.550 F7200
G0 X134.461 Y98.550
G0 F3000 E1.14928
G0 X133.747 Y98.950 F7200
G0 X133.201 Y99.257
G0 X133.201 Y101.050
G0 X126.800 Y102.450
G0 X124.400 Y104.190
G0 F3000 E2.14928
;segType:Infill
G1 X125.196 Y102.811 E2.20223 F1500
G0 X124.932 Y102.811 F7200
G1 X125.728 Y104.190 E2.25519 F1500
G0 X126.440 Y103.560 F7200
G1 X123.561 Y103.560 E2.35095 F1500
G0 X123.900 Y102.450 F7200
;segType:Loop
G1 X126.800 Y102.450 E2.44738 F1200
G1 X126.800 Y104.550 E2.51720
G1 X123.200 Y104.550 E2.63691
G1 X123.200 Y102.450 E2.70673
G1 X123.700 Y102.450 E2.72336
G0 X123.200 Y102.582 F7200
G0 X123.016 Y102.630
;segType:Perimeter
G1 X122.860 Y102.050 E2.74332 F600
G1 X127.200 Y102.050 E2.88764
G1 X127.200 Y104.950 E2.98407
G1 X122.800 Y104.950 E3.13039
G1 X122.800 Y102.110 E3.22482
G0 X122.860 Y102.050 F7200
G0 X124.460 Y102.050
; ------------------------------------
; Layer #10
; ------------------------------------
G92 E0 ;reset extr
G0 F3000 E-1.00000
G0 F600 Z3.200
G0 X126.800 Y102.450 F7200
G0 X126.800 Y97.550
G0 X126.440 Y96.517
G0 F3000 E0.00000
;segType:Infill
G1 X126.051 Y97.189 E0.02582 F1500
G0 X126.386 Y97.189 F7200
G1 X125.590 Y95.810 E0.07878 F1500
G0 X124.538 Y95.810 F7200
G1 X123.742 Y97.189 E0.13173 F1500
G0 X124.077 Y97.189 F7200
G1 X123.561 Y96.295 E0.16607 F1500
G0 X123.900 Y95.450 F7200
;segType:Loop
G1 X126.800 Y95.450 E0.26250 F1200
G1 X126.800 Y97.550 E0.33232
G1 X123.200 Y97.550 E0.45203
G1 X123.200 Y95.450 E0.52185
G1 X123.700 Y95.450 E0.53848
G0 X123.700 Y95.450 F7200
G0 X123.200 Y95.581
G0 X123.016 Y95.630
;segType:Perimeter
G1 X122.860 Y95.050 E0.55844 F600
G1 X127.200 Y95.050 E0.70276
G1 X127.200 Y97.950 E0.79919
G1 X122.800 Y97.950 E0.94551
G1 X122.800 Y95.110 E1.03994
G0 X122.860 Y95.050 F7200
G0 X124.460 Y95.050
G0 F3000 E0.03994
G0 X124.454 Y95.450 F7200
G0 X124.422 Y97.550
G0 X124.346 Y102.450
G0 X124.314 Y104.550
G0 X124.319 Y104.190
G0 F3000 E1.03994
;segType:Infill
G1 X125.115 Y102.811 E1.09290 F1500
G0 X125.013 Y102.811 F7200
G1 X125.809 Y104.190 E1.14586 F1500
G0 X126.440 Y103.700 F7200
G1 X123.561 Y103.700 E1.24162 F1500
G0 X123.900 Y102.450 F7200
;segType:Loop
G1 X126.800 Y102.450 E1.33805 F1200
G1 X126.800 Y104.550 E1.40787
G1 X123.200 Y104.550 E1.52758
G1 X123.200 Y102.450 E1.59740
G1 X123.700 Y102.450 E1.61403
G0 X123.200 Y102.582 F7200
G0 X123.016 Y102.630
;segType:Perimeter
G1 X122.860 Y102.050 E1.63399 F600
G1 X127.200 Y102.050 E1.77831
G1 X127.200 Y104.950 E1.87474
G1 X122.800 Y104.950 E2.02106
G1 X122.800 Y102.110 E2.11549
G0 X122.860 Y102.050 F7200
G0 X124.460 Y102.050
G0 F3000 E1.11549
G0 X127.200 Y102.050 F7200
G0 X133.201 Y101.050
G0 X133.561 Y100.183
G0 F3000 E2.11549
;segType:Infill
G1 X134.065 Y99.310 E2.14901 F1500
G0 X134.539 Y99.310 F7200
G1 X135.335 Y100.690 E2.20198 F1500
G0 X135.578 Y100.690 F7200
G1 X136.374 Y99.310 E2.25494 F1500
G0 X136.439 Y99.700 F7200
G1 X133.561 Y99.700 E2.35069 F1500
G0 X133.901 Y98.950 F7200
;segType:Loop
G1 X136.800 Y98.950 E2.44712 F1200
G1 X136.800 Y101.050 E2.51694
G1 X133.201 Y101.050 E2.63665
G1 X133.201 Y98.950 E2.70648
G1 X133.701 Y98.950 E2.72311
G0 X133.201 Y99.245 F7200
G0 X133.068 Y99.323
;segType:Perimeter
G1 X132.861 Y98.550 E2.74971 F600
G1 X137.200 Y98.550 E2.89403
G1 X137.200 Y101.450 E2.99047
G1 X132.801 Y101.450 E3.13678
G1 X132.801 Y98.610 E3.23122
G0 X132.861 Y98.550 F7200
G0 X134.461 Y98.550
; ------------------------------------
; Layer #11
; ------------------------------------
G92 E0 ;reset extr
G0 F3000 E-1.00000
G0 F600 Z3.400
G0 X132.801 Y98.550 F7200
G0 X126.800 Y97.550
G0 X126.425 Y97.550
G0 X123.200 Y97.043
G0 X123.561 Y97.100
G0 F3000 E0.00000
;segType:HShell
G1 X126.440 Y97.100 E0.09576 F1200
G0 X126.440 Y96.700 F7200
G1 X123.561 Y96.700 E0.19152 F1200
G0 X123.561 Y96.300 F7200
G1 X126.440 Y96.300 E0.28727 F1200
G0 X126.440 Y95.900 F7200
G1 X123.561 Y95.900 E0.38303 F1200
G0 X123.016 Y95.630 F7200
;segType:Perimeter
G1 X122.860 Y95.050 E0.40299 F600
G1 X127.200 Y95.050 E0.54731
G1 X127.200 Y97.950 E0.64374
G1 X122.800 Y97.950 E0.79006
G1 X122.800 Y95.110 E0.88449
G0 X122.860 Y95.050 F7200
G0 X124.460 Y95.050
G0 X123.900 Y95.450
;segType:Loop
G1 X126.800 Y95.450 E0.98092 F1200
G1 X126.800 Y97.550 E1.05074
G1 X123.200 Y97.550 E1.17046
G1 X123.200 Y95.450 E1.24028
G1 X123.700 Y95.450 E1.25691
G0 F3000 E0.25691
G0 X126.800 Y96.630 F7200
G0 X126.800 Y97.550
G0 X132.801 Y98.550
G0 X132.801 Y99.262
G0 X137.200 Y100.517
G0 X136.439 Y100.300
G0 F3000 E1.25691
;segType:HShell
G1 X133.561 Y100.300 E1.35266 F1200
G0 X133.561 Y99.900 F7200
G1 X136.439 Y99.900 E1.44841 F1200
G0 X136.439 Y99.500 F7200
G1 X133.561 Y99.500 E1.54416 F1200
G0 F3000 E0.54416
G0 X133.901 Y98.950 F7200
G0 F3000 E1.54416
;segType:Loop
G1 X136.800 Y98.950 E1.64058 F1200
G1 X136.800 Y101.050 E1.71041
G1 X133.201 Y101.050 E1.83011
G1 X133.201 Y98.950 E1.89994
G1 X133.701 Y98.950 E1.91657
G0 X133.201 Y99.245 F7200
G0 X133.068 Y99.323
;segType:Perimeter
G1 X132.861 Y98.550 E1.94318 F600
G1 X137.200 Y98.550 E2.08749
G1 X137.200 Y101.450 E2.18393
G1 X132.801 Y101.450 E2.33024
G1 X132.801 Y98.610 E2.42468
G0 X132.861 Y98.550 F7200
G0 X134.461 Y98.550
G0 F3000 E1.42468
G0 X134.461 Y98.550 F7200
G0 X132.801 Y99.657
G0 X132.801 Y101.450
G0 X126.800 Y102.450
G0 X126.440 Y103.900
G0 F3000 E2.42468
;segType:HShell
G1 X123.561 Y103.900 E2.52044 F1200
G0 X123.561 Y103.500 F7200
G1 X126.440 Y103.500 E2.61620 F1200
G0 X126.440 Y103.100 F7200
G1 X123.561 Y103.100 E2.71196 F1200
G0 F3000 E1.71196
G0 X123.900 Y102.450 F7200
G0 F3000 E2.71196
;segType:Loop
G1 X126.800 Y102.450 E2.80839 F1200
G1 X126.800 Y104.550 E2.87821
G1 X123.200 Y104.550 E2.99792
G1 X123.200 Y102.450 E3.06774
G1 X123.700 Y102.450 E3.08437
G0 X123.200 Y102.582 F7200
G0 X123.016 Y102.630
;segType:Perimeter
G1 X122.860 Y102.050 E3.10432 F600
G1 X127.200 Y102.050 E3.24865
G1 X127.200 Y104.950 E3.34508
G1 X122.800 Y104.950 E3.49140
G1 X122.800 Y102.110 E3.58583
G0 X122.860 Y102.050 F7200
G0 X124.460 Y102.050
; ------------------------------------
; Layer #12
; ------------------------------------
G92 E0 ;reset extr
G0 F3000 E-1.00000
G0 F600 Z3.600
G0 X126.800 Y102.450 F7200
G0 X126.800 Y97.550
G0 X126.505 Y97.550
G0 X126.378 Y95.450
G0 X126.400 Y95.810
G0 F3000 E0.00000
;segType:HShell
G1 X126.400 Y97.189 E0.04586 F1200
G0 X126.000 Y97.189 F7200
G1 X126.000 Y95.810 E0.09173 F1200
G0 X125.600 Y95.810 F7200
G1 X125.600 Y97.189 E0.13759 F1200
G0 X125.200 Y97.189 F7200
G1 X125.200 Y95.810 E0.18345 F1200
G0 X124.800 Y95.810 F7200
G1 X124.800 Y97.189 E0.22931 F1200
G0 X124.400 Y97.189 F7200
G1 X124.400 Y95.810 E0.27518 F1200
G0 X124.000 Y95.810 F7200
G1 X124.000 Y97.189 E0.32104 F1200
G0 X123.600 Y97.189 F7200
G1 X123.600 Y95.810 E0.36690 F1200
G0 X123.016 Y95.630 F7200
;segType:Perimeter
G1 X122.860 Y95.050 E0.38686 F600
G1 X127.200 Y95.050 E0.53118
G1 X127.200 Y97.950 E0.62761
G1 X122.800 Y97.950 E0.77393
G1 X122.800 Y95.110 E0.86836
G0 X122.860 Y95.050 F7200
G0 X124.460 Y95.050
G0 X123.900 Y95.450
;segType:Loop
G1 X126.800 Y95.450 E0.96479 F1200
G1 X126.800 Y97.550 E1.03461
G1 X123.200 Y97.550 E1.15433
G1 X123.200 Y95.450 E1.22415
G1 X123.700 Y95.450 E1.24078
G0 F3000 E0.24078
G0 X123.700 Y95.450 F7200
G0 X126.800 Y96.392
G0 X126.800 Y97.550
G0 X133.201 Y98.950
G0 X134.437 Y98.950
G0 X136.800 Y99.384
G0 X136.400 Y99.310
G0 F3000 E1.24078
;segType:HShell
G1 X136.400 Y100.690 E1.28665 F1200
G0 X136.000 Y100.690 F7200
G1 X136.000 Y99.310 E1.33252 F1200
G0 X135.600 Y99.310 F7200
G1 X135.600 Y100.690 E1.37839 F1200
G0 X135.200 Y100.690 F7200
G1 X135.200 Y99.310 E1.42426 F1200
G0 X134.800 Y99.310 F7200
G1 X134.800 Y100.690 E1.47013 F1200
G0 X134.400 Y100.690 F7200
G1 X134.400 Y99.310 E1.51600 F1200
G0 X134.000 Y99.310 F7200
G1 X134.000 Y100.690 E1.56187 F1200
G0 X133.600 Y100.690 F7200
G1 X133.600 Y99.310 E1.60774 F1200
G0 X133.068 Y99.323 F7200
;segType:Perimeter
G1 X132.861 Y98.550 E1.63435 F600
G1 X137.200 Y98.550 E1.77867
G1 X137.200 Y101.450 E1.87511
G1 X132.801 Y101.450 E2.02142
G1 X132.801 Y98.610 E2.11586
G0 X132.861 Y98.550 F7200
G0 X134.461 Y98.550
G0 X133.901 Y98.950
;segType:Loop
G1 X136.800 Y98.950 E2.21228 F1200
G1 X136.800 Y101.050 E2.28211
G1 X133.201 Y101.050 E2.40181
G1 X133.201 Y98.950 E2.47164
G1 X133.701 Y98.950 E2.48827
G0 F3000 E1.48827
G0 X133.701 Y98.950 F7200
G0 X133.201 Y99.215
G0 X133.201 Y101.050
G0 X126.800 Y102.450
G0 X126.400 Y102.811
G0 F3000 E2.48827
;segType:HShell
G1 X126.400 Y104.190 E2.53413 F1200
G0 X126.000 Y104.190 F7200
G1 X126.000 Y102.811 E2.58000 F1200
G0 X125.600 Y102.811 F7200
G1 X125.600 Y104.190 E2.62586 F1200
G0 X125.200 Y104.190 F7200
G1 X125.200 Y102.811 E2.67172 F1200
G0 X124.800 Y102.811 F7200
G1 X124.800 Y104.190 E2.71759 F1200
G0 X124.400 Y104.190 F7200
G1 X124.400 Y102.811 E2.76345 F1200
G0 X124.000 Y102.811 F7200
G1 X124.000 Y104.190 E2.80931 F1200
G0 X123.600 Y104.190 F7200
G1 X123.600 Y102.811 E2.85517 F1200
G0 X123.016 Y102.630 F7200
;segType:Perimeter
G1 X122.860 Y102.050 E2.87513 F600
G1 X127.200 Y102.050 E3.01946
G1 X127.200 Y104.950 E3.11588
G1 X122.800 Y104.950 E3.26220
G1 X122.800 Y102.110 E3.35664
G0 X122.860 Y102.050 F7200
G0 X124.460 Y102.050
G0 X123.900 Y102.450
;segType:Loop
G1 X126.800 Y102.450 E3.45307 F1200
G1 X126.800 Y104.550 E3.52289
G1 X123.200 Y104.550 E3.64260
G1 X123.200 Y102.450 E3.71242
G1 X123.700 Y102.450 E3.72905
; ------------------------------------
; Layer #13
; ------------------------------------
G92 E0 ;reset extr
G0 F3000 E-1.00000
G0 F600 Z3.800
G0 X123.561 Y97.100 F7200
G0 F3000 E0.00000
;segType:HShell
G1 X126.440 Y97.100 E0.09576 F1200
G0 X126.440 Y96.700 F7200
G1 X123.561 Y96.700 E0.19152 F1200
G0 X123.561 Y96.300 F7200
G1 X126.440 Y96.300 E0.28727 F1200
G0 X126.440 Y95.900 F7200
G1 X123.561 Y95.900 E0.38303 F1200
G0 X123.016 Y95.630 F7200
;segType:Perimeter
G1 X122.860 Y95.050 E0.40299 F600
G1 X127.200 Y95.050 E0.54731
G1 X127.200 Y97.950 E0.64374
G1 X122.800 Y97.950 E0.79006
G1 X122.800 Y95.110 E0.88449
G0 X122.860 Y95.050 F7200
G0 X124.460 Y95.050
G0 X123.900 Y95.450
;segType:Loop
G1 X126.800 Y95.450 E0.98093 F1200
G1 X126.800 Y97.550 E1.05074
G1 X123.200 Y97.550 E1.17046
G1 X123.200 Y95.450 E1.24028
G1 X123.700 Y95.450 E1.25691
G0 F3000 E0.25691
G0 X123.700 Y95.450 F7200
G0 X126.800 Y96.630
G0 X126.800 Y97.550
G0 X133.201 Y98.950
G0 X133.201 Y99.376
G0 X136.800 Y100.403
G0 X136.439 Y100.300
G0 F3000 E1.25691
;segType:HShell
G1 X133.561 Y100.300 E1.35266 F1200
G0 X133.561 Y99.900 F7200
G1 X136.439 Y99.900 E1.44841 F1200
G0 X136.439 Y99.500 F7200
G1 X133.561 Y99.500 E1.54416 F1200
G0 F3000 E0.54416
G0 X133.901 Y98.950 F7200
G0 F3000 E1.54416
;segType:Loop
G1 X136.800 Y98.950 E1.64058 F1200
G1 X136.800 Y101.050 E1.71041
G1 X133.201 Y101.050 E1.83011
G1 X133.201 Y98.950 E1.89994
G1 X133.701 Y98.950 E1.91657
G0 X133.201 Y99.245 F7200
G0 X133.068 Y99.323
;segType:Perimeter
G1 X132.861 Y98.550 E1.94318 F600
G1 X137.200 Y98.550 E2.08749
G1 X137.200 Y101.450 E2.18393
G1 X132.801 Y101.450 E2.33024
G1 X132.801 Y98.610 E2.42468
G0 X132.861 Y98.550 F7200
G0 X134.461 Y98.550
G0 F3000 E1.42468
G0 X133.861 Y98.950 F7200
G0 X133.201 Y99.391
G0 X133.201 Y101.050
G0 X126.800 Y102.450
G0 X126.440 Y103.900
G0 F3000 E2.42468
;segType:HShell
G1 X123.561 Y103.900 E2.52044 F1200
G0 X123.561 Y103.500 F7200
G1 X126.440 Y103.500 E2.61620 F1200
G0 X126.440 Y103.100 F7200
G1 X123.561 Y103.100 E2.71196 F1200
G0 F3000 E1.71196
G0 X123.900 Y102.450 F7200
G0 F3000 E2.71196
;segType:Loop
G1 X126.800 Y102.450 E2.80839 F1200
G1 X126.800 Y104.550 E2.87821
G1 X123.200 Y104.550 E2.99792
G1 X123.200 Y102.450 E3.06774
G1 X123.700 Y102.450 E3.08437
G0 X123.200 Y102.582 F7200
G0 X123.016 Y102.630
;segType:Perimeter
G1 X122.860 Y102.050 E3.10432 F600
G1 X127.200 Y102.050 E3.24865
G1 X127.200 Y104.950 E3.34508
G1 X122.800 Y104.950 E3.49140
G1 X122.800 Y102.110 E3.58583
G0 X122.860 Y102.050 F7200
G0 X124.460 Y102.050
; ------------------------------------
; Layer #14
; ------------------------------------
G92 E0 ;reset extr
G0 F3000 E-1.00000
G0 F600 Z4.000
G0 X126.800 Y102.450 F7200
G0 X126.800 Y97.550
G0 X126.505 Y97.550
G0 X126.378 Y95.450
G0 X126.400 Y95.810
G0 F3000 E0.00000
;segType:HShell
G1 X126.400 Y97.189 E0.04586 F1200
G0 X126.000 Y97.189 F7200
G1 X126.000 Y95.810 E0.09173 F1200
G0 X125.600 Y95.810 F7200
G1 X125.600 Y97.189 E0.13759 F1200
G0 X125.200 Y97.189 F7200
G1 X125.200 Y95.810 E0.18345 F1200
G0 X124.800 Y95.810 F7200
G1 X124.800 Y97.189 E0.22931 F1200
G0 X124.400 Y97.189 F7200
G1 X124.400 Y95.810 E0.27518 F1200
G0 X124.000 Y95.810 F7200
G1 X124.000 Y97.189 E0.32104 F1200
G0 X123.600 Y97.189 F7200
G1 X123.600 Y95.810 E0.36690 F1200
G0 X123.016 Y95.630 F7200
;segType:Perimeter
G1 X122.860 Y95.050 E0.38686 F600
G1 X127.200 Y95.050 E0.53118
G1 X127.200 Y97.950 E0.62761
G1 X122.800 Y97.950 E0.77393
G1 X122.800 Y95.110 E0.86836
G0 X122.860 Y95.050 F7200
G0 X124.460 Y95.050
G0 X123.900 Y95.450
;segType:Loop
G1 X126.800 Y95.450 E0.96479 F1200
G1 X126.800 Y97.550 E1.03461
G1 X123.200 Y97.550 E1.15433
G1 X123.200 Y95.450 E1.22414
G1 X123.700 Y95.450 E1.24077
G0 F3000 E0.24077
G0 X124.470 Y97.550 F7200
G0 X126.800 Y97.550
G0 X126.800 Y102.450
G0 X126.400 Y102.811
G0 F3000 E1.24077
;segType:HShell
G1 X126.400 Y104.190 E1.28664 F1200
G0 X126.000 Y104.190 F7200
G1 X126.000 Y102.811 E1.33250 F1200
G0 X125.600 Y102.811 F7200
G1 X125.600 Y104.190 E1.37836 F1200
G0 X125.200 Y104.190 F7200
G1 X125.200 Y102.811 E1.42422 F1200
G0 X124.800 Y102.811 F7200
G1 X124.800 Y104.190 E1.47009 F1200
G0 X124.400 Y104.190 F7200
G1 X124.400 Y102.811 E1.51595 F1200
G0 X124.000 Y102.811 F7200
G1 X124.000 Y104.190 E1.56181 F1200
G0 X123.600 Y104.190 F7200
G1 X123.600 Y102.811 E1.60768 F1200
G0 X123.016 Y102.630 F7200
;segType:Perimeter
G1 X122.860 Y102.050 E1.62763 F600
G1 X127.200 Y102.050 E1.77196
G1 X127.200 Y104.950 E1.86838
G1 X122.800 Y104.950 E2.01471
G1 X122.800 Y102.110 E2.10914
G0 X122.860 Y102.050 F7200
G0 X124.460 Y102.050
G0 X123.900 Y102.450
;segType:Loop
G1 X126.800 Y102.450 E2.20557 F1200
G1 X126.800 Y104.550 E2.27539
G1 X123.200 Y104.550 E2.39510
G1 X123.200 Y102.450 E2.46492
G1 X123.700 Y102.450 E2.48155
G0 F3000 E1.48155
G0 X123.200 Y102.450 F7200
G0 X123.200 Y102.574
G0 X123.700 Y102.450
G0 X126.800 Y102.450
G0 X133.201 Y101.050
G0 X133.201 Y100.357
G0 X136.800 Y99.180
G0 X136.400 Y99.310
G0 F3000 E2.48155
;segType:HShell
G1 X136.400 Y100.690 E2.52742 F1200
G0 X136.000 Y100.690 F7200
G1 X136.000 Y99.310 E2.57329 F1200
G0 X135.600 Y99.310 F7200
G1 X135.600 Y100.690 E2.61916 F1200
G0 X135.200 Y100.690 F7200
G1 X135.200 Y99.310 E2.66503 F1200
G0 X134.800 Y99.310 F7200
G1 X134.800 Y100.690 E2.71090 F1200
G0 X134.400 Y100.690 F7200
G1 X134.400 Y99.310 E2.75678 F1200
G0 X134.000 Y99.310 F7200
G1 X134.000 Y100.690 E2.80265 F1200
G0 X133.600 Y100.690 F7200
G1 X133.600 Y99.310 E2.84852 F1200
G0 X133.068 Y99.323 F7200
;segType:Perimeter
G1 X132.861 Y98.550 E2.87513 F600
G1 X137.200 Y98.550 E3.01944
G1 X137.200 Y101.450 E3.11588
G1 X132.801 Y101.450 E3.26219
G1 X132.801 Y98.610 E3.35663
G0 X132.861 Y98.550 F7200
G0 X134.461 Y98.550
G0 X133.901 Y98.950
;segType:Loop
G1 X136.800 Y98.950 E3.45305 F1200
G1 X136.800 Y101.050 E3.52288
G1 X133.201 Y101.050 E3.64259
G1 X133.201 Y98.950 E3.71241
G1 X133.701 Y98.950 E3.72904
; ------------------------------------
; Layer #15
; ------------------------------------
G92 E0 ;reset extr
G0 F3000 E-1.00000
G0 F600 Z4.200
G0 X133.600 Y98.950 F7200
G0 X133.600 Y99.050
G0 F3000 E0.00000
;segType:Loop
G1 X133.600 Y101.050 E0.06650 F1200
G1 X133.201 Y101.050 E0.07977
G1 X133.201 Y98.950 E0.14960
G1 X133.500 Y98.950 E0.15955
G0 X133.201 Y99.208 F7200
G0 X133.068 Y99.323
;segType:Perimeter
G1 X132.861 Y98.550 E0.18616 F600
G1 X134.000 Y98.550 E0.22404
G1 X134.000 Y101.450 E0.32048
G1 X132.801 Y101.450 E0.36036
G1 X132.801 Y98.610 E0.45480
G0 X132.861 Y98.550 F7200
G0 X134.000 Y98.550
G0 X134.000 Y99.011
G0 F3000 E-0.54520
G0 X133.600 Y98.950 F7200
G0 X133.600 Y99.208
G0 X133.201 Y99.404
G0 X133.201 Y101.050
G0 X126.800 Y102.450
G0 X126.800 Y102.550
G0 F3000 E0.45480
;segType:Loop
G1 X126.800 Y104.550 E0.52129 F1200
G1 X126.400 Y104.550 E0.53457
G1 X126.400 Y102.450 E0.60439
G1 X126.700 Y102.450 E0.61435
G0 X126.400 Y102.709 F7200
G0 X126.267 Y102.823
;segType:Perimeter
G1 X126.060 Y102.050 E0.64096 F600
G1 X127.200 Y102.050 E0.67885
G1 X127.200 Y104.950 E0.77528
G1 X126.000 Y104.950 E0.81517
G1 X126.000 Y102.110 E0.90960
G0 X126.060 Y102.050 F7200
G0 X127.200 Y102.050
G0 X127.200 Y102.511
G0 F3000 E-0.09040
G0 X126.800 Y102.516 F7200
G0 X126.400 Y102.520
G0 X123.600 Y102.550
G0 X123.200 Y102.555
G0 X123.200 Y102.450
G0 X123.600 Y102.450
G0 X123.600 Y102.550
G0 F3000 E0.90960
;segType:Loop
G1 X123.600 Y104.550 E0.97609 F1200
G1 X123.200 Y104.550 E0.98937
G1 X123.200 Y102.450 E1.05919
G1 X123.500 Y102.450 E1.06915
G0 X123.200 Y102.709 F7200
G0 X123.067 Y102.823
;segType:Perimeter
G1 X122.860 Y102.050 E1.09575 F600
G1 X124.000 Y102.050 E1.13365
G1 X124.000 Y104.950 E1.23007
G1 X122.800 Y104.950 E1.26996
G1 X122.800 Y102.110 E1.36440
G0 X122.860 Y102.050 F7200
G0 X124.000 Y102.050
G0 X124.000 Y102.511
G0 F3000 E0.36440
G0 X124.000 Y102.511 F7200
G0 X123.973 Y102.050
G0 X123.600 Y97.550
G0 X123.600 Y95.550
G0 X123.594 Y95.450
G0 X123.600 Y95.450
G0 X123.600 Y95.550
G0 F3000 E1.36440
;segType:Loop
G1 X123.600 Y97.550 E1.43089 F1200
G1 X123.200 Y97.550 E1.44417
G1 X123.200 Y95.450 E1.51399
G1 X123.500 Y95.450 E1.52394
G0 X123.200 Y95.708 F7200
G0 X123.067 Y95.823
;segType:Perimeter
G1 X122.860 Y95.050 E1.55055 F600
G1 X124.000 Y95.050 E1.58845
G1 X124.000 Y97.950 E1.68487
G1 X122.800 Y97.950 E1.72476
G1 X122.800 Y95.110 E1.81919
G0 X122.860 Y95.050 F7200
G0 X124.000 Y95.050
G0 X124.000 Y95.511
G0 F3000 E0.81919
G0 X126.400 Y95.545 F7200
G0 X126.800 Y95.550
G0 F3000 E1.81919
;segType:Loop
G1 X126.800 Y97.550 E1.88569 F1200
G1 X126.400 Y97.550 E1.89897
G1 X126.400 Y95.450 E1.96879
G1 X126.700 Y95.450 E1.97874
G0 X126.400 Y95.708 F7200
G0 X126.267 Y95.823
;segType:Perimeter
G1 X126.060 Y95.050 E2.00535 F600
G1 X127.200 Y95.050 E2.04325
G1 X127.200 Y97.950 E2.13967
G1 X126.000 Y97.950 E2.17956
G1 X126.000 Y95.110 E2.27399
G0 X126.060 Y95.050 F7200
G0 X127.200 Y95.050
G0 X127.200 Y95.511
G0 F3000 E1.27399
G0 X127.200 Y97.950 F7200
G0 X136.401 Y98.950
G0 X136.401 Y99.005
G0 X136.800 Y99.050
G0 F3000 E2.27399
;segType:Loop
G1 X136.800 Y101.050 E2.34049 F1200
G1 X136.401 Y101.050 E2.35377
G1 X136.401 Y98.950 E2.42359
G1 X136.700 Y98.950 E2.43354
G0 X136.401 Y99.208 F7200
G0 X136.268 Y99.323
;segType:Perimeter
G1 X136.061 Y98.550 E2.46015 F600
G1 X137.200 Y98.550 E2.49804
G1 X137.200 Y101.450 E2.59447
G1 X136.001 Y101.450 E2.63435
G1 X136.001 Y98.610 E2.72879
G0 X136.061 Y98.550 F7200
G0 X137.200 Y98.550
G0 X137.200 Y99.011
; ------------------------------------
; Layer #16
; ------------------------------------
G92 E0 ;reset extr
G0 F3000 E-1.00000
G0 F600 Z4.400
G0 X136.800 Y99.016 F7200
G0 X136.401 Y99.020
G0 X133.600 Y99.050
G0 F3000 E0.00000
;segType:Loop
G1 X133.600 Y101.050 E0.06650 F1200
G1 X133.201 Y101.050 E0.07977
G1 X133.201 Y98.950 E0.14960
G1 X133.500 Y98.950 E0.15955
G0 X133.201 Y99.208 F7200
G0 X133.068 Y99.323
;segType:Perimeter
G1 X132.861 Y98.550 E0.18616 F600
G1 X134.000 Y98.550 E0.22404
G1 X134.000 Y101.450 E0.32048
G1 X132.801 Y101.450 E0.36036
G1 X132.801 Y98.610 E0.45480
G0 X132.861 Y98.550 F7200
G0 X134.000 Y98.550
G0 X134.000 Y99.011
G0 F3000 E-0.54520
G0 X133.600 Y98.950 F7200
G0 X133.600 Y99.208
G0 X133.201 Y99.404
G0 X133.201 Y101.050
G0 X126.800 Y102.450
G0 X126.800 Y102.550
G0 F3000 E0.45480
;segType:Loop
G1 X126.800 Y104.550 E0.52129 F1200
G1 X126.400 Y104.550 E0.53457
G1 X126.400 Y102.450 E0.60439
G1 X126.700 Y102.450 E0.61435
G0 X126.400 Y102.709 F7200
G0 X126.267 Y102.823
;segType:Perimeter
G1 X126.060 Y102.050 E0.64096 F600
G1 X127.200 Y102.050 E0.67885
G1 X127.200 Y104.950 E0.77528
G1 X126.000 Y104.950 E0.81517
G1 X126.000 Y102.110 E0.90960
G0 X126.060 Y102.050 F7200
G0 X127.200 Y102.050
G0 X127.200 Y102.511
G0 F3000 E-0.09040
G0 X126.800 Y102.516 F7200
G0 X126.400 Y102.520
G0 X123.600 Y102.550
G0 X123.200 Y102.555
G0 X123.200 Y102.450
G0 X123.600 Y102.450
G0 X123.600 Y102.550
G0 F3000 E0.90960
;segType:Loop
G1 X123.600 Y104.550 E0.97609 F1200
G1 X123.200 Y104.550 E0.98937
G1 X123.200 Y102.450 E1.05919
G1 X123.500 Y102.450 E1.06915
G0 X123.200 Y102.709 F7200
G0 X123.067 Y102.823
;segType:Perimeter
G1 X122.860 Y102.050 E1.09575 F600
G1 X124.000 Y102.050 E1.13365
G1 X124.000 Y104.950 E1.23007
G1 X122.800 Y104.950 E1.26996
G1 X122.800 Y102.110 E1.36440
G0 X122.860 Y102.050 F7200
G0 X124.000 Y102.050
G0 X124.000 Y102.511
G0 F3000 E0.36440
G0 X124.000 Y102.511 F7200
G0 X123.973 Y102.050
G0 X123.600 Y97.550
G0 X123.600 Y95.550
G0 X123.594 Y95.450
G0 X123.600 Y95.450
G0 X123.600 Y95.550
G0 F3000 E1.36440
;segType:Loop
G1 X123.600 Y97.550 E1.43089 F1200
G1 X123.200 Y97.550 E1.44417
G1 X123.200 Y95.450 E1.51399
G1 X123.500 Y95.450 E1.52394
G0 X123.200 Y95.708 F7200
G0 X123.067 Y95.823
;segType:Perimeter
G1 X122.860 Y95.050 E1.55055 F600
G1 X124.000 Y95.050 E1.58845
G1 X124.000 Y97.950 E1.68487
G1 X122.800 Y97.950 E1.72476
G1 X122.800 Y95.110 E1.81919
G0 X122.860 Y95.050 F7200
G0 X124.000 Y95.050
G0 X124.000 Y95.511
G0 F3000 E0.81919
G0 X126.400 Y95.545 F7200
G0 X126.800 Y95.550
G0 F3000 E1.81919
;segType:Loop
G1 X126.800 Y97.550 E1.88569 F1200
G1 X126.400 Y97.550 E1.89897
G1 X126.400 Y95.450 E1.96879
G1 X126.700 Y95.450 E1.97874
G0 X126.400 Y95.708 F7200
G0 X126.267 Y95.823
;segType:Perimeter
G1 X126.060 Y95.050 E2.00535 F600
G1 X127.200 Y95.050 E2.04325
G1 X127.200 Y97.950 E2.13967
G1 X126.000 Y97.950 E2.17956
G1 X126.000 Y95.110 E2.27399
G0 X126.060 Y95.050 F7200
G0 X127.200 Y95.050
G0 X127.200 Y95.511
G0 F3000 E1.27399
G0 X127.200 Y97.950 F7200
G0 X136.401 Y98.950
G0 X136.401 Y99.005
G0 X136.800 Y99.050
G0 F3000 E2.27399
;segType:Loop
G1 X136.800 Y101.050 E2.34049 F1200
G1 X136.401 Y101.050 E2.35377
G1 X136.401 Y98.950 E2.42359
G1 X136.700 Y98.950 E2.43354
G0 X136.401 Y99.208 F7200
G0 X136.268 Y99.323
;segType:Perimeter
G1 X136.061 Y98.550 E2.46015 F600
G1 X137.200 Y98.550 E2.49804
G1 X137.200 Y101.450 E2.59447
G1 X136.001 Y101.450 E2.63435
G1 X136.001 Y98.610 E2.72879
G0 X136.061 Y98.550 F7200
G0 X137.200 Y98.550
G0 X137.200 Y99.011
; ------------------------------------
; Layer #17
; ------------------------------------
G92 E0 ;reset extr
G0 F3000 E-1.00000
G0 F600 Z4.600
G0 X136.800 Y99.016 F7200
G0 X136.401 Y99.020
G0 X133.600 Y99.050
G0 F3000 E0.00000
;segType:Loop
G1 X133.600 Y101.050 E0.06650 F1200
G1 X133.201 Y101.050 E0.07977
G1 X133.201 Y98.950 E0.14960
G1 X133.500 Y98.950 E0.15955
G0 X133.201 Y99.208 F7200
G0 X133.068 Y99.323
;segType:Perimeter
G1 X132.861 Y98.550 E0.18616 F600
G1 X134.000 Y98.550 E0.22404
G1 X134.000 Y101.450 E0.32048
G1 X132.801 Y101.450 E0.36036
G1 X132.801 Y98.610 E0.45480
G0 X132.861 Y98.550 F7200
G0 X134.000 Y98.550
G0 X134.000 Y99.011
G0 F3000 E-0.54520
G0 X133.600 Y98.950 F7200
G0 X133.600 Y99.208
G0 X133.201 Y99.404
G0 X133.201 Y101.050
G0 X126.800 Y102.450
G0 X126.800 Y102.550
G0 F3000 E0.45480
;segType:Loop
G1 X126.800 Y104.550 E0.52129 F1200
G1 X126.400 Y104.550 E0.53457
G1 X126.400 Y102.450 E0.60439
G1 X126.700 Y102.450 E0.61435
G0 X126.400 Y102.709 F7200
G0 X126.267 Y102.823
;segType:Perimeter
G1 X126.060 Y102.050 E0.64096 F600
G1 X127.200 Y102.050 E0.67885
G1 X127.200 Y104.950 E0.77528
G1 X126.000 Y104.950 E0.81517
G1 X126.000 Y102.110 E0.90960
G0 X126.060 Y102.050 F7200
G0 X127.200 Y102.050
G0 X127.200 Y102.511
G0 F3000 E-0.09040
G0 X126.800 Y102.516 F7200
G0 X126.400 Y102.520
G0 X123.600 Y102.550
G0 X123.200 Y102.555
G0 X123.200 Y102.450
G0 X123.600 Y102.450
G0 X123.600 Y102.550
G0 F3000 E0.90960
;segType:Loop
G1 X123.600 Y104.550 E0.97609 F1200
G1 X123.200 Y104.550 E0.98937
G1 X123.200 Y102.450 E1.05919
G1 X123.500 Y102.450 E1.06915
G0 X123.200 Y102.709 F7200
G0 X123.067 Y102.823
;segType:Perimeter
G1 X122.860 Y102.050 E1.09575 F600
G1 X124.000 Y102.050 E1.13365
G1 X124.000 Y104.950 E1.23007
G1 X122.800 Y104.950 E1.26996
G1 X122.800 Y102.110 E1.36440
G0 X122.860 Y102.050 F7200
G0 X124.000 Y102.050
G0 X124.000 Y102.511
G0 F3000 E0.36440
G0 X124.000 Y102.511 F7200
G0 X123.973 Y102.050
G0 X123.600 Y97.550
G0 X123.600 Y95.550
G0 X123.594 Y95.450
G0 X123.600 Y95.450
G0 X123.600 Y95.550
G0 F3000 E1.36440
;segType:Loop
G1 X123.600 Y97.550 E1.43089 F1200
G1 X123.200 Y97.550 E1.44417
G1 X123.200 Y95.450 E1.51399
G1 X123.500 Y95.450 E1.52394
G0 X123.200 Y95.708 F7200
G0 X123.067 Y95.823
;segType:Perimeter
G1 X122.860 Y95.050 E1.55055 F600
G1 X124.000 Y95.050 E1.58845
G1 X124.000 Y97.950 E1.68487
G1 X122.800 Y97.950 E1.72476
G1 X122.800 Y95.110 E1.81919
G0 X122.860 Y95.050 F7200
G0 X124.000 Y95.050
G0 X124.000 Y95.511
G0 F3000 E0.81919
G0 X126.400 Y95.545 F7200
G0 X126.800 Y95.550
G0 F3000 E1.81919
;segType:Loop
G1 X126.800 Y97.550 E1.88569 F1200
G1 X126.400 Y97.550 E1.89897
G1 X126.400 Y95.450 E1.96879
G1 X126.700 Y95.450 E1.97874
G0 X126.400 Y95.708 F7200
G0 X126.267 Y95.823
;segType:Perimeter
G1 X126.060 Y95.050 E2.00535 F600
G1 X127.200 Y95.050 E2.04325
G1 X127.200 Y97.950 E2.13967
G1 X126.000 Y97.950 E2.17956
G1 X126.000 Y95.110 E2.27399
G0 X126.060 Y95.050 F7200
G0 X127.200 Y95.050
G0 X127.200 Y95.511
G0 F3000 E1.27399
G0 X127.200 Y97.950 F7200
G0 X136.401 Y98.950
G0 X136.401 Y99.005
G0 X136.800 Y99.050
G0 F3000 E2.27399
;segType:Loop
G1 X136.800 Y101.050 E2.34049 F1200
G1 X136.401 Y101.050 E2.35377
G1 X136.401 Y98.950 E2.42359
G1 X136.700 Y98.950 E2.43354
G0 X136.401 Y99.208 F7200
G0 X136.268 Y99.323
;segType:Perimeter
G1 X136.061 Y98.550 E2.46015 F600
G1 X137.200 Y98.550 E2.49804
G1 X137.200 Y101.450 E2.59447
G1 X136.001 Y101.450 E2.63435
G1 X136.001 Y98.610 E2.72879
G0 X136.061 Y98.550 F7200
G0 X137.200 Y98.550
G0 X137.200 Y99.011
; ------------------------------------
; Layer #18
; ------------------------------------
G92 E0 ;reset extr
G0 F3000 E-1.00000
G0 F600 Z4.800
G0 X136.800 Y99.016 F7200
G0 X136.401 Y99.020
G0 X133.600 Y99.050
G0 F3000 E0.00000
;segType:Loop
G1 X133.600 Y101.050 E0.06650 F1200
G1 X133.201 Y101.050 E0.07977
G1 X133.201 Y98.950 E0.14960
G1 X133.500 Y98.950 E0.15955
G0 X133.201 Y99.208 F7200
G0 X133.068 Y99.323
;segType:Perimeter
G1 X132.861 Y98.550 E0.18616 F600
G1 X134.000 Y98.550 E0.22404
G1 X134.000 Y101.450 E0.32048
G1 X132.801 Y101.450 E0.36036
G1 X132.801 Y98.610 E0.45480
G0 X132.861 Y98.550 F7200
G0 X134.000 Y98.550
G0 X134.000 Y99.011
G0 F3000 E-0.54520
G0 X133.600 Y98.950 F7200
G0 X133.600 Y99.208
G0 X133.201 Y99.404
G0 X133.201 Y101.050
G0 X126.800 Y102.450
G0 X126.800 Y102.550
G0 F3000 E0.45480
;segType:Loop
G1 X126.800 Y104.550 E0.52129 F1200
G1 X126.400 Y104.550 E0.53457
G1 X126.400 Y102.450 E0.60439
G1 X126.700 Y102.450 E0.61435
G0 X126.400 Y102.709 F7200
G0 X126.267 Y102.823
;segType:Perimeter
G1 X126.060 Y102.050 E0.64096 F600
G1 X127.200 Y102.050 E0.67885
G1 X127.200 Y104.950 E0.77528
G1 X126.000 Y104.950 E0.81517
G1 X126.000 Y102.110 E0.90960
G0 X126.060 Y102.050 F7200
G0 X127.200 Y102.050
G0 X127.200 Y102.511
G0 F3000 E-0.09040
G0 X126.800 Y102.516 F7200
G0 X126.400 Y102.520
G0 X123.600 Y102.550
G0 X123.200 Y102.555
G0 X123.200 Y102.450
G0 X123.600 Y102.450
G0 X123.600 Y102.550
G0 F3000 E0.90960
;segType:Loop
G1 X123.600 Y104.550 E0.97609 F1200
G1 X123.200 Y104.550 E0.98937
G1 X123.200 Y102.450 E1.05919
G1 X123.500 Y102.450 E1.06915
G0 X123.200 Y102.709 F7200
G0 X123.067 Y102.823
;segType:Perimeter
G1 X122.860 Y102.050 E1.09575 F600
G1 X124.000 Y102.050 E1.13365
G1 X124.000 Y104.950 E1.23007
G1 X122.800 Y104.950 E1.26996
G1 X122.800 Y102.110 E1.36440
G0 X122.860 Y102.050 F7200
G0 X124.000 Y102.050
G0 X124.000 Y102.511
G0 F3000 E0.36440
G0 X124.000 Y102.511 F7200
G0 X123.973 Y102.050
G0 X123.600 Y97.550
G0 X123.600 Y95.550
G0 X123.594 Y95.450
G0 X123.600 Y95.450
G0 X123.600 Y95.550
G0 F3000 E1.36440
;segType:Loop
G1 X123.600 Y97.550 E1.43089 F1200
G1 X123.200 Y97.550 E1.44417
G1 X123.200 Y95.450 E1.51399
G1 X123.500 Y95.450 E1.52394
G0 X123.200 Y95.708 F7200
G0 X123.067 Y95.823
;segType:Perimeter
G1 X122.860 Y95.050 E1.55055 F600
G1 X124.000 Y95.050 E1.58845
G1 X124.000 Y97.950 E1.68487
G1 X122.800 Y97.950 E1.72476
G1 X122.800 Y95.110 E1.81919
G0 X122.860 Y95.050 F7200
G0 X124.000 Y95.050
G0 X124.000 Y95.511
G0 F3000 E0.81919
G0 X126.400 Y95.545 F7200
G0 X126.800 Y95.550
G0 F3000 E1.81919
;segType:Loop
G1 X126.800 Y97.550 E1.88569 F1200
G1 X126.400 Y97.550 E1.89897
G1 X126.400 Y95.450 E1.96879
G1 X126.700 Y95.450 E1.97874
G0 X126.400 Y95.708 F7200
G0 X126.267 Y95.823
;segType:Perimeter
G1 X126.060 Y95.050 E2.00535 F600
G1 X127.200 Y95.050 E2.04325
G1 X127.200 Y97.950 E2.13967
G1 X126.000 Y97.950 E2.17956
G1 X126.000 Y95.110 E2.27399
G0 X126.060 Y95.050 F7200
G0 X127.200 Y95.050
G0 X127.200 Y95.511
G0 F3000 E1.27399
G0 X127.200 Y97.950 F7200
G0 X136.401 Y98.950
G0 X136.401 Y99.005
G0 X136.800 Y99.050
G0 F3000 E2.27399
;segType:Loop
G1 X136.800 Y101.050 E2.34049 F1200
G1 X136.401 Y101.050 E2.35377
G1 X136.401 Y98.950 E2.42359
G1 X136.700 Y98.950 E2.43354
G0 X136.401 Y99.208 F7200
G0 X136.268 Y99.323
;segType:Perimeter
G1 X136.061 Y98.550 E2.46015 F600
G1 X137.200 Y98.550 E2.49804
G1 X137.200 Y101.450 E2.59447
G1 X136.001 Y101.450 E2.63435
G1 X136.001 Y98.610 E2.72879
G0 X136.061 Y98.550 F7200
G0 X137.200 Y98.550
G0 X137.200 Y99.011
; ------------------------------------
; Layer #19
; ------------------------------------
G92 E0 ;reset extr
G0 F3000 E-1.00000
G0 F600 Z5.000
G0 X136.800 Y99.016 F7200
G0 X136.401 Y99.020
G0 X133.600 Y99.050
G0 F3000 E0.00000
;segType:Loop
G1 X133.600 Y101.050 E0.06650 F1200
G1 X133.201 Y101.050 E0.07977
G1 X133.201 Y98.950 E0.14960
G1 X133.500 Y98.950 E0.15955
G0 X133.201 Y99.208 F7200
G0 X133.068 Y99.323
;segType:Perimeter
G1 X132.861 Y98.550 E0.18616 F600
G1 X134.000 Y98.550 E0.22404
G1 X134.000 Y101.450 E0.32048
G1 X132.801 Y101.450 E0.36036
G1 X132.801 Y98.610 E0.45480
G0 X132.861 Y98.550 F7200
G0 X134.000 Y98.550
G0 X134.000 Y99.011
G0 F3000 E-0.54520
G0 X133.600 Y98.950 F7200
G0 X133.600 Y99.208
G0 X133.201 Y99.404
G0 X133.201 Y101.050
G0 X126.800 Y102.450
G0 X126.800 Y102.550
G0 F3000 E0.45480
;segType:Loop
G1 X126.800 Y104.550 E0.52129 F1200
G1 X126.400 Y104.550 E0.53457
G1 X126.400 Y102.450 E0.60439
G1 X126.700 Y102.450 E0.61435
G0 X126.400 Y102.709 F7200
G0 X126.267 Y102.823
;segType:Perimeter
G1 X126.060 Y102.050 E0.64096 F600
G1 X127.200 Y102.050 E0.67885
G1 X127.200 Y104.950 E0.77528
G1 X126.000 Y104.950 E0.81517
G1 X126.000 Y102.110 E0.90960
G0 X126.060 Y102.050 F7200
G0 X127.200 Y102.050
G0 X127.200 Y102.511
G0 F3000 E-0.09040
G0 X126.800 Y102.516 F7200
G0 X126.400 Y102.520
G0 X123.600 Y102.550
G0 X123.200 Y102.555
G0 X123.200 Y102.450
G0 X123.600 Y102.450
G0 X123.600 Y102.550
G0 F3000 E0.90960
;segType:Loop
G1 X123.600 Y104.550 E0.97609 F1200
G1 X123.200 Y104.550 E0.98937
G1 X123.200 Y102.450 E1.05919
G1 X123.500 Y102.450 E1.06914
G0 X123.200 Y102.709 F7200
G0 X123.067 Y102.823
;segType:Perimeter
G1 X122.860 Y102.050 E1.09575 F600
G1 X124.000 Y102.050 E1.13365
G1 X124.000 Y104.950 E1.23007
G1 X122.800 Y104.950 E1.26996
G1 X122.800 Y102.110 E1.36439
G0 X122.860 Y102.050 F7200
G0 X124.000 Y102.050
G0 X124.000 Y102.511
G0 F3000 E0.36439
G0 X124.000 Y102.511 F7200
G0 X123.973 Y102.050
G0 X123.600 Y97.550
G0 X123.600 Y95.550
G0 X123.594 Y95.450
G0 X123.600 Y95.450
G0 X123.600 Y95.550
G0 F3000 E1.36439
;segType:Loop
G1 X123.600 Y97.550 E1.43089 F1200
G1 X123.200 Y97.550 E1.44417
G1 X123.200 Y95.450 E1.51399
G1 X123.500 Y95.450 E1.52394
G0 X123.200 Y95.708 F7200
G0 X123.067 Y95.823
;segType:Perimeter
G1 X122.860 Y95.050 E1.55055 F600
G1 X124.000 Y95.050 E1.58844
G1 X124.000 Y97.950 E1.68487
G1 X122.800 Y97.950 E1.72476
G1 X122.800 Y95.110 E1.81919
G0 X122.860 Y95.050 F7200
G0 X124.000 Y95.050
G0 X124.000 Y95.511
G0 F3000 E0.81919
G0 X126.400 Y95.545 F7200
G0 X126.800 Y95.550
G0 F3000 E1.81919
;segType:Loop
G1 X126.800 Y97.550 E1.88568 F1200
G1 X126.400 Y97.550 E1.89897
G1 X126.400 Y95.450 E1.96878
G1 X126.700 Y95.450 E1.97874
G0 X126.400 Y95.708 F7200
G0 X126.267 Y95.823
;segType:Perimeter
G1 X126.060 Y95.050 E2.00535 F600
G1 X127.200 Y95.050 E2.04324
G1 X127.200 Y97.950 E2.13967
G1 X126.000 Y97.950 E2.17956
G1 X126.000 Y95.110 E2.27399
G0 X126.060 Y95.050 F7200
G0 X127.200 Y95.050
G0 X127.200 Y95.511
G0 F3000 E1.27399
G0 X127.200 Y97.950 F7200
G0 X136.401 Y98.950
G0 X136.401 Y99.005
G0 X136.800 Y99.050
G0 F3000 E2.27399
;segType:Loop
G1 X136.800 Y101.050 E2.34049 F1200
G1 X136.401 Y101.050 E2.35376
G1 X136.401 Y98.950 E2.42359
G1 X136.700 Y98.950 E2.43354
G0 X136.401 Y99.208 F7200
G0 X136.268 Y99.323
;segType:Perimeter
G1 X136.061 Y98.550 E2.46015 F600
G1 X137.200 Y98.550 E2.49803
G1 X137.200 Y101.450 E2.59447
G1 X136.001 Y101.450 E2.63435
G1 X136.001 Y98.610 E2.72879
G0 X136.061 Y98.550 F7200
G0 X137.200 Y98.550
G0 X137.200 Y99.011
; ------------------------------------
; Layer #20
; ------------------------------------
G92 E0 ;reset extr
G0 F3000 E-1.00000
G0 F600 Z5.200
G0 X136.800 Y99.016 F7200
G0 X136.401 Y99.020
G0 X133.600 Y99.050
G0 F3000 E0.00000
;segType:Loop
G1 X133.600 Y101.050 E0.06650 F1200
G1 X133.201 Y101.050 E0.07977
G1 X133.201 Y98.950 E0.14960
G1 X133.500 Y98.950 E0.15955
G0 X133.201 Y99.208 F7200
G0 X133.068 Y99.323
;segType:Perimeter
G1 X132.861 Y98.550 E0.18616 F600
G1 X134.000 Y98.550 E0.22404
G1 X134.000 Y101.450 E0.32048
G1 X132.801 Y101.450 E0.36036
G1 X132.801 Y98.610 E0.45480
G0 X132.861 Y98.550 F7200
G0 X134.000 Y98.550
G0 X134.000 Y99.011
G0 F3000 E-0.54520
G0 X133.600 Y98.950 F7200
G0 X133.600 Y99.208
G0 X133.201 Y99.404
G0 X133.201 Y101.050
G0 X126.800 Y102.450
G0 X126.800 Y102.550
G0 F3000 E0.45480
;segType:Loop
G1 X126.800 Y104.550 E0.52129 F1200
G1 X126.400 Y104.550 E0.53457
G1 X126.400 Y102.450 E0.60439
G1 X126.700 Y102.450 E0.61435
G0 X126.400 Y102.709 F7200
G0 X126.267 Y102.823
;segType:Perimeter
G1 X126.060 Y102.050 E0.64096 F600
G1 X127.200 Y102.050 E0.67885
G1 X127.200 Y104.950 E0.77528
G1 X126.000 Y104.950 E0.81517
G1 X126.000 Y102.110 E0.90960
G0 X126.060 Y102.050 F7200
G0 X127.200 Y102.050
G0 X127.200 Y102.511
G0 F3000 E-0.09040
G0 X126.800 Y102.516 F7200
G0 X126.400 Y102.520
G0 X123.600 Y102.550
G0 X123.200 Y102.555
G0 X123.200 Y102.450
G0 X123.600 Y102.450
G0 X123.600 Y102.550
G0 F3000 E0.90960
;segType:Loop
G1 X123.600 Y104.550 E0.97609 F1200
G1 X123.200 Y104.550 E0.98937
G1 X123.200 Y102.450 E1.05919
G1 X123.500 Y102.450 E1.06914
G0 X123.200 Y102.709 F7200
G0 X123.067 Y102.823
;segType:Perimeter
G1 X122.860 Y102.050 E1.09575 F600
G1 X124.000 Y102.050 E1.13365
G1 X124.000 Y104.950 E1.23007
G1 X122.800 Y104.950 E1.26996
G1 X122.800 Y102.110 E1.36439
G0 X122.860 Y102.050 F7200
G0 X124.000 Y102.050
G0 X124.000 Y102.511
G0 F3000 E0.36439
G0 X124.000 Y102.511 F7200
G0 X123.973 Y102.050
G0 X123.600 Y97.550
G0 X123.600 Y95.550
G0 X123.594 Y95.450
G0 X123.600 Y95.450
G0 X123.600 Y95.550
G0 F3000 E1.36439
;segType:Loop
G1 X123.600 Y97.550 E1.43089 F1200
G1 X123.200 Y97.550 E1.44417
G1 X123.200 Y95.450 E1.51399
G1 X123.500 Y95.450 E1.52394
G0 X123.200 Y95.708 F7200
G0 X123.067 Y95.823
;segType:Perimeter
G1 X122.860 Y95.050 E1.55055 F600
G1 X124.000 Y95.050 E1.58844
G1 X124.000 Y97.950 E1.68487
G1 X122.800 Y97.950 E1.72476
G1 X122.800 Y95.110 E1.81919
G0 X122.860 Y95.050 F7200
G0 X124.000 Y95.050
G0 X124.000 Y95.511
G0 F3000 E0.81919
G0 X126.400 Y95.545 F7200
G0 X126.800 Y95.550
G0 F3000 E1.81919
;segType:Loop
G1 X126.800 Y97.550 E1.88568 F1200
G1 X126.400 Y97.550 E1.89897
G1 X126.400 Y95.450 E1.96878
G1 X126.700 Y95.450 E1.97874
G0 X126.400 Y95.708 F7200
G0 X126.267 Y95.823
;segType:Perimeter
G1 X126.060 Y95.050 E2.00535 F600
G1 X127.200 Y95.050 E2.04324
G1 X127.200 Y97.950 E2.13967
G1 X126.000 Y97.950 E2.17956
G1 X126.000 Y95.110 E2.27399
G0 X126.060 Y95.050 F7200
G0 X127.200 Y95.050
G0 X127.200 Y95.511
G0 F3000 E1.27399
G0 X127.200 Y97.950 F7200
G0 X136.401 Y98.950
G0 X136.401 Y99.005
G0 X136.800 Y99.050
G0 F3000 E2.27399
;segType:Loop
G1 X136.800 Y101.050 E2.34049 F1200
G1 X136.401 Y101.050 E2.35376
G1 X136.401 Y98.950 E2.42359
G1 X136.700 Y98.950 E2.43354
G0 X136.401 Y99.208 F7200
G0 X136.268 Y99.323
;segType:Perimeter
G1 X136.061 Y98.550 E2.46015 F600
G1 X137.200 Y98.550 E2.49803
G1 X137.200 Y101.450 E2.59447
G1 X136.001 Y101.450 E2.63435
G1 X136.001 Y98.610 E2.72879
G0 X136.061 Y98.550 F7200
G0 X137.200 Y98.550
G0 X137.200 Y99.011
; ------------------------------------
; Layer #21
; ------------------------------------
G92 E0 ;reset extr
G0 F3000 E-1.00000
G0 F600 Z5.400
G0 X136.800 Y99.016 F7200
G0 X136.401 Y99.020
G0 X133.600 Y99.050
G0 F3000 E0.00000
;segType:Loop
G1 X133.600 Y101.050 E0.06650 F1200
G1 X133.201 Y101.050 E0.07977
G1 X133.201 Y98.950 E0.14960
G1 X133.500 Y98.950 E0.15955
G0 X133.201 Y99.208 F7200
G0 X133.068 Y99.323
;segType:Perimeter
G1 X132.861 Y98.550 E0.18616 F600
G1 X134.000 Y98.550 E0.22404
G1 X134.000 Y101.450 E0.32048
G1 X132.801 Y101.450 E0.36036
G1 X132.801 Y98.610 E0.45480
G0 X132.861 Y98.550 F7200
G0 X134.000 Y98.550
G0 X134.000 Y99.011
G0 F3000 E-0.54520
G0 X133.600 Y98.950 F7200
G0 X133.600 Y99.208
G0 X133.201 Y99.404
G0 X133.201 Y101.050
G0 X126.800 Y102.450
G0 X126.800 Y102.550
G0 F3000 E0.45480
;segType:Loop
G1 X126.800 Y104.550 E0.52129 F1200
G1 X126.400 Y104.550 E0.53457
G1 X126.400 Y102.450 E0.60439
G1 X126.700 Y102.450 E0.61435
G0 X126.400 Y102.709 F7200
G0 X126.267 Y102.823
;segType:Perimeter
G1 X126.060 Y102.050 E0.64096 F600
G1 X127.200 Y102.050 E0.67885
G1 X127.200 Y104.950 E0.77528
G1 X126.000 Y104.950 E0.81517
G1 X126.000 Y102.110 E0.90960
G0 X126.060 Y102.050 F7200
G0 X127.200 Y102.050
G0 X127.200 Y102.511
G0 F3000 E-0.09040
G0 X126.800 Y102.516 F7200
G0 X126.400 Y102.520
G0 X123.600 Y102.550
G0 X123.200 Y102.555
G0 X123.200 Y102.450
G0 X123.600 Y102.450
G0 X123.600 Y102.550
G0 F3000 E0.90960
;segType:Loop
G1 X123.600 Y104.550 E0.97609 F1200
G1 X123.200 Y104.550 E0.98937
G1 X123.200 Y102.450 E1.05919
G1 X123.500 Y102.450 E1.06915
G0 X123.200 Y102.709 F7200
G0 X123.067 Y102.823
;segType:Perimeter
G1 X122.860 Y102.050 E1.09576 F600
G1 X124.000 Y102.050 E1.13365
G1 X124.000 Y104.950 E1.23008
G1 X122.800 Y104.950 E1.26997
G1 X122.800 Y102.110 E1.36440
G0 X122.860 Y102.050 F7200
G0 X124.000 Y102.050
G0 X124.000 Y102.511
G0 F3000 E0.36440
G0 X124.000 Y102.511 F7200
G0 X123.973 Y102.050
G0 X123.600 Y97.550
G0 X123.600 Y95.550
G0 X123.594 Y95.450
G0 X123.600 Y95.450
G0 X123.600 Y95.550
G0 F3000 E1.36440
;segType:Loop
G1 X123.600 Y97.550 E1.43089 F1200
G1 X123.200 Y97.550 E1.44417
G1 X123.200 Y95.450 E1.51399
G1 X123.500 Y95.450 E1.52395
G0 X123.200 Y95.708 F7200
G0 X123.067 Y95.823
;segType:Perimeter
G1 X122.860 Y95.050 E1.55055 F600
G1 X124.000 Y95.050 E1.58845
G1 X124.000 Y97.950 E1.68488
G1 X122.800 Y97.950 E1.72477
G1 X122.800 Y95.110 E1.81920
G0 X122.860 Y95.050 F7200
G0 X124.000 Y95.050
G0 X124.000 Y95.511
G0 F3000 E0.81920
G0 X126.400 Y95.545 F7200
G0 X126.800 Y95.550
G0 F3000 E1.81920
;segType:Loop
G1 X126.800 Y97.550 E1.88569 F1200
G1 X126.400 Y97.550 E1.89897
G1 X126.400 Y95.450 E1.96879
G1 X126.700 Y95.450 E1.97875
G0 X126.400 Y95.708 F7200
G0 X126.267 Y95.823
;segType:Perimeter
G1 X126.060 Y95.050 E2.00535 F600
G1 X127.200 Y95.050 E2.04325
G1 X127.200 Y97.950 E2.13967
G1 X126.000 Y97.950 E2.17956
G1 X126.000 Y95.110 E2.27400
G0 X126.060 Y95.050 F7200
G0 X127.200 Y95.050
G0 X127.200 Y95.511
G0 F3000 E1.27400
G0 X127.200 Y97.950 F7200
G0 X136.401 Y98.950
G0 X136.401 Y99.005
G0 X136.800 Y99.050
G0 F3000 E2.27400
;segType:Loop
G1 X136.800 Y101.050 E2.34050 F1200
G1 X136.401 Y101.050 E2.35377
G1 X136.401 Y98.950 E2.42360
G1 X136.700 Y98.950 E2.43354
G0 X136.401 Y99.208 F7200
G0 X136.268 Y99.323
;segType:Perimeter
G1 X136.061 Y98.550 E2.46015 F600
G1 X137.200 Y98.550 E2.49804
G1 X137.200 Y101.450 E2.59447
G1 X136.001 Y101.450 E2.63435
G1 X136.001 Y98.610 E2.72879
G0 X136.061 Y98.550 F7200
G0 X137.200 Y98.550
G0 X137.200 Y99.011
; ------------------------------------
; Layer #22
; ------------------------------------
G92 E0 ;reset extr
G0 F3000 E-1.00000
G0 F600 Z5.600
G0 X136.800 Y99.016 F7200
G0 X136.401 Y99.020
G0 X133.600 Y99.050
G0 F3000 E0.00000
;segType:Loop
G1 X133.600 Y101.050 E0.06650 F1200
G1 X133.201 Y101.050 E0.07977
G1 X133.201 Y98.950 E0.14960
G1 X133.500 Y98.950 E0.15955
G0 X133.201 Y99.208 F7200
G0 X133.068 Y99.323
;segType:Perimeter
G1 X132.861 Y98.550 E0.18616 F600
G1 X134.000 Y98.550 E0.22404
G1 X134.000 Y101.450 E0.32048
G1 X132.801 Y101.450 E0.36036
G1 X132.801 Y98.610 E0.45480
G0 X132.861 Y98.550 F7200
G0 X134.000 Y98.550
G0 X134.000 Y99.011
G0 F3000 E-0.54520
G0 X133.600 Y98.950 F7200
G0 X133.600 Y99.208
G0 X133.201 Y99.404
G0 X133.201 Y101.050
G0 X126.800 Y102.450
G0 X126.800 Y102.550
G0 F3000 E0.45480
;segType:Loop
G1 X126.800 Y104.550 E0.52129 F1200
G1 X126.400 Y104.550 E0.53457
G1 X126.400 Y102.450 E0.60439
G1 X126.700 Y102.450 E0.61435
G0 X126.400 Y102.709 F7200
G0 X126.267 Y102.823
;segType:Perimeter
G1 X126.060 Y102.050 E0.64096 F600
G1 X127.200 Y102.050 E0.67885
G1 X127.200 Y104.950 E0.77528
G1 X126.000 Y104.950 E0.81517
G1 X126.000 Y102.110 E0.90960
G0 X126.060 Y102.050 F7200
G0 X127.200 Y102.050
G0 X127.200 Y102.511
G0 F3000 E-0.09040
G0 X126.800 Y102.516 F7200
G0 X126.400 Y102.520
G0 X123.600 Y102.550
G0 X123.200 Y102.555
G0 X123.200 Y102.450
G0 X123.600 Y102.450
G0 X123.600 Y102.550
G0 F3000 E0.90960
;segType:Loop
G1 X123.600 Y104.550 E0.97609 F1200
G1 X123.200 Y104.550 E0.98937
G1 X123.200 Y102.450 E1.05919
G1 X123.500 Y102.450 E1.06914
G0 X123.200 Y102.709 F7200
G0 X123.067 Y102.823
;segType:Perimeter
G1 X122.860 Y102.050 E1.09575 F600
G1 X124.000 Y102.050 E1.13365
G1 X124.000 Y104.950 E1.23007
G1 X122.800 Y104.950 E1.26996
G1 X122.800 Y102.110 E1.36439
G0 X122.860 Y102.050 F7200
G0 X124.000 Y102.050
G0 X124.000 Y102.511
G0 F3000 E0.36439
G0 X124.000 Y102.511 F7200
G0 X123.973 Y102.050
G0 X123.600 Y97.550
G0 X123.600 Y95.550
G0 X123.594 Y95.450
G0 X123.600 Y95.450
G0 X123.600 Y95.550
G0 F3000 E1.36439
;segType:Loop
G1 X123.600 Y97.550 E1.43089 F1200
G1 X123.200 Y97.550 E1.44417
G1 X123.200 Y95.450 E1.51399
G1 X123.500 Y95.450 E1.52394
G0 X123.200 Y95.708 F7200
G0 X123.067 Y95.823
;segType:Perimeter
G1 X122.860 Y95.050 E1.55055 F600
G1 X124.000 Y95.050 E1.58844
G1 X124.000 Y97.950 E1.68487
G1 X122.800 Y97.950 E1.72476
G1 X122.800 Y95.110 E1.81919
G0 X122.860 Y95.050 F7200
G0 X124.000 Y95.050
G0 X124.000 Y95.511
G0 F3000 E0.81919
G0 X126.400 Y95.545 F7200
G0 X126.800 Y95.550
G0 F3000 E1.81919
;segType:Loop
G1 X126.800 Y97.550 E1.88568 F1200
G1 X126.400 Y97.550 E1.89897
G1 X126.400 Y95.450 E1.96878
G1 X126.700 Y95.450 E1.97874
G0 X126.400 Y95.708 F7200
G0 X126.267 Y95.823
;segType:Perimeter
G1 X126.060 Y95.050 E2.00535 F600
G1 X127.200 Y95.050 E2.04324
G1 X127.200 Y97.950 E2.13967
G1 X126.000 Y97.950 E2.17956
G1 X126.000 Y95.110 E2.27399
G0 X126.060 Y95.050 F7200
G0 X127.200 Y95.050
G0 X127.200 Y95.511
G0 F3000 E1.27399
G0 X127.200 Y97.950 F7200
G0 X136.401 Y98.950
G0 X136.401 Y99.005
G0 X136.800 Y99.050
G0 F3000 E2.27399
;segType:Loop
G1 X136.800 Y101.050 E2.34049 F1200
G1 X136.401 Y101.050 E2.35376
G1 X136.401 Y98.950 E2.42359
G1 X136.700 Y98.950 E2.43354
G0 X136.401 Y99.208 F7200
G0 X136.268 Y99.323
;segType:Perimeter
G1 X136.061 Y98.550 E2.46015 F600
G1 X137.200 Y98.550 E2.49803
G1 X137.200 Y101.450 E2.59447
G1 X136.001 Y101.450 E2.63435
G1 X136.001 Y98.610 E2.72879
G0 X136.061 Y98.550 F7200
G0 X137.200 Y98.550
G0 X137.200 Y99.011
; ------------------------------------
; Layer #23
; ------------------------------------
G92 E0 ;reset extr
G0 F3000 E-1.00000
G0 F600 Z5.800
G0 X136.800 Y99.016 F7200
G0 X136.401 Y99.020
G0 X133.600 Y99.050
G0 F3000 E0.00000
;segType:Loop
G1 X133.600 Y101.050 E0.06650 F1200
G1 X133.201 Y101.050 E0.07977
G1 X133.201 Y98.950 E0.14960
G1 X133.500 Y98.950 E0.15955
G0 X133.201 Y99.208 F7200
G0 X133.068 Y99.323
;segType:Perimeter
G1 X132.861 Y98.550 E0.18616 F600
G1 X134.000 Y98.550 E0.22404
G1 X134.000 Y101.450 E0.32048
G1 X132.801 Y101.450 E0.36036
G1 X132.801 Y98.610 E0.45480
G0 X132.861 Y98.550 F7200
G0 X134.000 Y98.550
G0 X134.000 Y99.011
G0 F3000 E-0.54520
G0 X133.600 Y98.950 F7200
G0 X133.600 Y99.208
G0 X133.201 Y99.404
G0 X133.201 Y101.050
G0 X126.800 Y102.450
G0 X126.800 Y102.550
G0 F3000 E0.45480
;segType:Loop
G1 X126.800 Y104.550 E0.52129 F1200
G1 X126.400 Y104.550 E0.53457
G1 X126.400 Y102.450 E0.60439
G1 X126.700 Y102.450 E0.61435
G0 X126.400 Y102.709 F7200
G0 X126.267 Y102.823
;segType:Perimeter
G1 X126.060 Y102.050 E0.64096 F600
G1 X127.200 Y102.050 E0.67885
G1 X127.200 Y104.950 E0.77528
G1 X126.000 Y104.950 E0.81517
G1 X126.000 Y102.110 E0.90960
G0 X126.060 Y102.050 F7200
G0 X127.200 Y102.050
G0 X127.200 Y102.511
G0 F3000 E-0.09040
G0 X126.800 Y102.516 F7200
G0 X126.400 Y102.520
G0 X123.600 Y102.550
G0 X123.200 Y102.555
G0 X123.200 Y102.450
G0 X123.600 Y102.450
G0 X123.600 Y102.550
G0 F3000 E0.90960
;segType:Loop
G1 X123.600 Y104.550 E0.97609 F1200
G1 X123.200 Y104.550 E0.98937
G1 X123.200 Y102.450 E1.05919
G1 X123.500 Y102.450 E1.06914
G0 X123.200 Y102.709 F7200
G0 X123.067 Y102.823
;segType:Perimeter
G1 X122.860 Y102.050 E1.09575 F600
G1 X124.000 Y102.050 E1.13365
G1 X124.000 Y104.950 E1.23007
G1 X122.800 Y104.950 E1.26996
G1 X122.800 Y102.110 E1.36439
G0 X122.860 Y102.050 F7200
G0 X124.000 Y102.050
G0 X124.000 Y102.511
G0 F3000 E0.36439
G0 X124.000 Y102.511 F7200
G0 X123.973 Y102.050
G0 X123.600 Y97.550
G0 X123.600 Y95.550
G0 X123.594 Y95.450
G0 X123.600 Y95.450
G0 X123.600 Y95.550
G0 F3000 E1.36439
;segType:Loop
G1 X123.600 Y97.550 E1.43089 F1200
G1 X123.200 Y97.550 E1.44417
G1 X123.200 Y95.450 E1.51399
G1 X123.500 Y95.450 E1.52394
G0 X123.200 Y95.708 F7200
G0 X123.067 Y95.823
;segType:Perimeter
G1 X122.860 Y95.050 E1.55055 F600
G1 X124.000 Y95.050 E1.58844
G1 X124.000 Y97.950 E1.68487
G1 X122.800 Y97.950 E1.72476
G1 X122.800 Y95.110 E1.81919
G0 X122.860 Y95.050 F7200
G0 X124.000 Y95.050
G0 X124.000 Y95.511
G0 F3000 E0.81919
G0 X126.400 Y95.545 F7200
G0 X126.800 Y95.550
G0 F3000 E1.81919
;segType:Loop
G1 X126.800 Y97.550 E1.88568 F1200
G1 X126.400 Y97.550 E1.89897
G1 X126.400 Y95.450 E1.96878
G1 X126.700 Y95.450 E1.97874
G0 X126.400 Y95.708 F7200
G0 X126.267 Y95.823
;segType:Perimeter
G1 X126.060 Y95.050 E2.00535 F600
G1 X127.200 Y95.050 E2.04324
G1 X127.200 Y97.950 E2.13967
G1 X126.000 Y97.950 E2.17956
G1 X126.000 Y95.110 E2.27399
G0 X126.060 Y95.050 F7200
G0 X127.200 Y95.050
G0 X127.200 Y95.511
G0 F3000 E1.27399
G0 X127.200 Y97.950 F7200
G0 X136.401 Y98.950
G0 X136.401 Y99.005
G0 X136.800 Y99.050
G0 F3000 E2.27399
;segType:Loop
G1 X136.800 Y101.050 E2.34049 F1200
G1 X136.401 Y101.050 E2.35376
G1 X136.401 Y98.950 E2.42359
G1 X136.700 Y98.950 E2.43354
G0 X136.401 Y99.208 F7200
G0 X136.268 Y99.323
;segType:Perimeter
G1 X136.061 Y98.550 E2.46015 F600
G1 X137.200 Y98.550 E2.49803
G1 X137.200 Y101.450 E2.59447
G1 X136.001 Y101.450 E2.63435
G1 X136.001 Y98.610 E2.72879
G0 X136.061 Y98.550 F7200
G0 X137.200 Y98.550
G0 X137.200 Y99.011
; ------------------------------------
; Layer #24
; ------------------------------------
G92 E0 ;reset extr
G0 F3000 E-1.00000
G0 F600 Z6.000
G0 X136.800 Y99.016 F7200
G0 X136.401 Y99.020
G0 X133.600 Y99.050
G0 F3000 E0.00000
;segType:Loop
G1 X133.600 Y101.050 E0.06650 F1200
G1 X133.201 Y101.050 E0.07977
G1 X133.201 Y98.950 E0.14960
G1 X133.500 Y98.950 E0.15955
G0 X133.201 Y99.208 F7200
G0 X133.068 Y99.323
;segType:Perimeter
G1 X132.861 Y98.550 E0.18616 F600
G1 X134.000 Y98.550 E0.22404
G1 X134.000 Y101.450 E0.32048
G1 X132.801 Y101.450 E0.36036
G1 X132.801 Y98.610 E0.45480
G0 X132.861 Y98.550 F7200
G0 X134.000 Y98.550
G0 X134.000 Y99.011
G0 F3000 E-0.54520
G0 X133.600 Y98.950 F7200
G0 X133.600 Y99.208
G0 X133.201 Y99.404
G0 X133.201 Y101.050
G0 X126.800 Y102.450
G0 X126.800 Y102.550
G0 F3000 E0.45480
;segType:Loop
G1 X126.800 Y104.550 E0.52129 F1200
G1 X126.400 Y104.550 E0.53457
G1 X126.400 Y102.450 E0.60439
G1 X126.700 Y102.450 E0.61435
G0 X126.400 Y102.709 F7200
G0 X126.267 Y102.823
;segType:Perimeter
G1 X126.060 Y102.050 E0.64096 F600
G1 X127.200 Y102.050 E0.67885
G1 X127.200 Y104.950 E0.77528
G1 X126.000 Y104.950 E0.81517
G1 X126.000 Y102.110 E0.90960
G0 X126.060 Y102.050 F7200
G0 X127.200 Y102.050
G0 X127.200 Y102.511
G0 F3000 E-0.09040
G0 X126.800 Y102.516 F7200
G0 X126.400 Y102.520
G0 X123.600 Y102.550
G0 X123.200 Y102.555
G0 X123.200 Y102.450
G0 X123.600 Y102.450
G0 X123.600 Y102.550
G0 F3000 E0.90960
;segType:Loop
G1 X123.600 Y104.550 E0.97609 F1200
G1 X123.200 Y104.550 E0.98937
G1 X123.200 Y102.450 E1.05919
G1 X123.500 Y102.450 E1.06915
G0 X123.200 Y102.709 F7200
G0 X123.067 Y102.823
;segType:Perimeter
G1 X122.860 Y102.050 E1.09576 F600
G1 X124.000 Y102.050 E1.13365
G1 X124.000 Y104.950 E1.23008
G1 X122.800 Y104.950 E1.26997
G1 X122.800 Y102.110 E1.36440
G0 X122.860 Y102.050 F7200
G0 X124.000 Y102.050
G0 X124.000 Y102.511
G0 F3000 E0.36440
G0 X124.000 Y102.511 F7200
G0 X123.973 Y102.050
G0 X123.600 Y97.550
G0 X123.600 Y95.550
G0 X123.594 Y95.450
G0 X123.600 Y95.450
G0 X123.600 Y95.550
G0 F3000 E1.36440
;segType:Loop
G1 X123.600 Y97.550 E1.43089 F1200
G1 X123.200 Y97.550 E1.44417
G1 X123.200 Y95.450 E1.51399
G1 X123.500 Y95.450 E1.52395
G0 X123.200 Y95.708 F7200
G0 X123.067 Y95.823
;segType:Perimeter
G1 X122.860 Y95.050 E1.55055 F600
G1 X124.000 Y95.050 E1.58845
G1 X124.000 Y97.950 E1.68488
G1 X122.800 Y97.950 E1.72477
G1 X122.800 Y95.110 E1.81920
G0 X122.860 Y95.050 F7200
G0 X124.000 Y95.050
G0 X124.000 Y95.511
G0 F3000 E0.81920
G0 X126.400 Y95.545 F7200
G0 X126.800 Y95.550
G0 F3000 E1.81920
;segType:Loop
G1 X126.800 Y97.550 E1.88569 F1200
G1 X126.400 Y97.550 E1.89897
G1 X126.400 Y95.450 E1.96879
G1 X126.700 Y95.450 E1.97875
G0 X126.400 Y95.708 F7200
G0 X126.267 Y95.823
;segType:Perimeter
G1 X126.060 Y95.050 E2.00535 F600
G1 X127.200 Y95.050 E2.04325
G1 X127.200 Y97.950 E2.13967
G1 X126.000 Y97.950 E2.17956
G1 X126.000 Y95.110 E2.27400
G0 X126.060 Y95.050 F7200
G0 X127.200 Y95.050
G0 X127.200 Y95.511
G0 F3000 E1.27400
G0 X127.200 Y97.950 F7200
G0 X136.401 Y98.950
G0 X136.401 Y99.005
G0 X136.800 Y99.050
G0 F3000 E2.27400
;segType:Loop
G1 X136.800 Y101.050 E2.34050 F1200
G1 X136.401 Y101.050 E2.35377
G1 X136.401 Y98.950 E2.42360
G1 X136.700 Y98.950 E2.43354
G0 X136.401 Y99.208 F7200
G0 X136.268 Y99.323
;segType:Perimeter
G1 X136.061 Y98.550 E2.46015 F600
G1 X137.200 Y98.550 E2.49804
G1 X137.200 Y101.450 E2.59447
G1 X136.001 Y101.450 E2.63435
G1 X136.001 Y98.610 E2.72879
G0 X136.061 Y98.550 F7200
G0 X137.200 Y98.550
G0 X137.200 Y99.011
; ------------------------------------
; Layer #25
; ------------------------------------
G92 E0 ;reset extr
G0 F3000 E-1.00000
G0 F600 Z6.200
G0 X136.800 Y99.016 F7200
G0 X136.401 Y99.020
G0 X133.600 Y99.050
G0 F3000 E0.00000
;segType:Loop
G1 X133.600 Y101.050 E0.06650 F1200
G1 X133.201 Y101.050 E0.07977
G1 X133.201 Y98.950 E0.14960
G1 X133.500 Y98.950 E0.15955
G0 X133.201 Y99.208 F7200
G0 X133.068 Y99.323
;segType:Perimeter
G1 X132.861 Y98.550 E0.18616 F600
G1 X134.000 Y98.550 E0.22404
G1 X134.000 Y101.450 E0.32048
G1 X132.801 Y101.450 E0.36036
G1 X132.801 Y98.610 E0.45480
G0 X132.861 Y98.550 F7200
G0 X134.000 Y98.550
G0 X134.000 Y99.011
G0 F3000 E-0.54520
G0 X133.600 Y98.950 F7200
G0 X133.600 Y99.208
G0 X133.201 Y99.404
G0 X133.201 Y101.050
G0 X126.800 Y102.450
G0 X126.800 Y102.550
G0 F3000 E0.45480
;segType:Loop
G1 X126.800 Y104.550 E0.52129 F1200
G1 X126.400 Y104.550 E0.53457
G1 X126.400 Y102.450 E0.60439
G1 X126.700 Y102.450 E0.61435
G0 X126.400 Y102.709 F7200
G0 X126.267 Y102.823
;segType:Perimeter
G1 X126.060 Y102.050 E0.64096 F600
G1 X127.200 Y102.050 E0.67885
G1 X127.200 Y104.950 E0.77528
G1 X126.000 Y104.950 E0.81517
G1 X126.000 Y102.110 E0.90960
G0 X126.060 Y102.050 F7200
G0 X127.200 Y102.050
G0 X127.200 Y102.511
G0 F3000 E-0.09040
G0 X126.800 Y102.516 F7200
G0 X126.400 Y102.520
G0 X123.600 Y102.550
G0 X123.200 Y102.555
G0 X123.200 Y102.450
G0 X123.600 Y102.450
G0 X123.600 Y102.550
G0 F3000 E0.90960
;segType:Loop
G1 X123.600 Y104.550 E0.97609 F1200
G1 X123.200 Y104.550 E0.98937
G1 X123.200 Y102.450 E1.05919
G1 X123.500 Y102.450 E1.06914
G0 X123.200 Y102.709 F7200
G0 X123.067 Y102.823
;segType:Perimeter
G1 X122.860 Y102.050 E1.09575 F600
G1 X124.000 Y102.050 E1.13365
G1 X124.000 Y104.950 E1.23007
G1 X122.800 Y104.950 E1.26996
G1 X122.800 Y102.110 E1.36439
G0 X122.860 Y102.050 F7200
G0 X124.000 Y102.050
G0 X124.000 Y102.511
G0 F3000 E0.36439
G0 X124.000 Y102.511 F7200
G0 X123.973 Y102.050
G0 X123.600 Y97.550
G0 X123.600 Y95.550
G0 X123.594 Y95.450
G0 X123.600 Y95.450
G0 X123.600 Y95.550
G0 F3000 E1.36439
;segType:Loop
G1 X123.600 Y97.550 E1.43089 F1200
G1 X123.200 Y97.550 E1.44417
G1 X123.200 Y95.450 E1.51399
G1 X123.500 Y95.450 E1.52394
G0 X123.200 Y95.708 F7200
G0 X123.067 Y95.823
;segType:Perimeter
G1 X122.860 Y95.050 E1.55055 F600
G1 X124.000 Y95.050 E1.58844
G1 X124.000 Y97.950 E1.68487
G1 X122.800 Y97.950 E1.72476
G1 X122.800 Y95.110 E1.81919
G0 X122.860 Y95.050 F7200
G0 X124.000 Y95.050
G0 X124.000 Y95.511
G0 F3000 E0.81919
G0 X126.400 Y95.545 F7200
G0 X126.800 Y95.550
G0 F3000 E1.81919
;segType:Loop
G1 X126.800 Y97.550 E1.88568 F1200
G1 X126.400 Y97.550 E1.89897
G1 X126.400 Y95.450 E1.96878
G1 X126.700 Y95.450 E1.97874
G0 X126.400 Y95.708 F7200
G0 X126.267 Y95.823
;segType:Perimeter
G1 X126.060 Y95.050 E2.00535 F600
G1 X127.200 Y95.050 E2.04324
G1 X127.200 Y97.950 E2.13967
G1 X126.000 Y97.950 E2.17956
G1 X126.000 Y95.110 E2.27399
G0 X126.060 Y95.050 F7200
G0 X127.200 Y95.050
G0 X127.200 Y95.511
G0 F3000 E1.27399
G0 X127.200 Y97.950 F7200
G0 X136.401 Y98.950
G0 X136.401 Y99.005
G0 X136.800 Y99.050
G0 F3000 E2.27399
;segType:Loop
G1 X136.800 Y101.050 E2.34049 F1200
G1 X136.401 Y101.050 E2.35376
G1 X136.401 Y98.950 E2.42359
G1 X136.700 Y98.950 E2.43354
G0 X136.401 Y99.208 F7200
G0 X136.268 Y99.323
;segType:Perimeter
G1 X136.061 Y98.550 E2.46015 F600
G1 X137.200 Y98.550 E2.49803
G1 X137.200 Y101.450 E2.59447
G1 X136.001 Y101.450 E2.63435
G1 X136.001 Y98.610 E2.72879
G0 X136.061 Y98.550 F7200
G0 X137.200 Y98.550
G0 X137.200 Y99.011
; ------------------------------------
; Layer #26
; ------------------------------------
G92 E0 ;reset extr
G0 F3000 E-1.00000
G0 F600 Z6.400
G0 X136.800 Y99.016 F7200
G0 X136.401 Y99.020
G0 X133.600 Y99.050
G0 F3000 E0.00000
;segType:Loop
G1 X133.600 Y101.050 E0.06650 F1200
G1 X133.201 Y101.050 E0.07977
G1 X133.201 Y98.950 E0.14960
G1 X133.500 Y98.950 E0.15955
G0 X133.201 Y99.208 F7200
G0 X133.068 Y99.323
;segType:Perimeter
G1 X132.861 Y98.550 E0.18616 F600
G1 X134.000 Y98.550 E0.22404
G1 X134.000 Y101.450 E0.32048
G1 X132.801 Y101.450 E0.36036
G1 X132.801 Y98.610 E0.45480
G0 X132.861 Y98.550 F7200
G0 X134.000 Y98.550
G0 X134.000 Y99.011
G0 F3000 E-0.54520
G0 X133.600 Y98.950 F7200
G0 X133.600 Y99.208
G0 X133.201 Y99.404
G0 X133.201 Y101.050
G0 X126.800 Y102.450
G0 X126.800 Y102.550
G0 F3000 E0.45480
;segType:Loop
G1 X126.800 Y104.550 E0.52129 F1200
G1 X126.400 Y104.550 E0.53457
G1 X126.400 Y102.450 E0.60439
G1 X126.700 Y102.450 E0.61435
G0 X126.400 Y102.709 F7200
G0 X126.267 Y102.823
;segType:Perimeter
G1 X126.060 Y102.050 E0.64096 F600
G1 X127.200 Y102.050 E0.67885
G1 X127.200 Y104.950 E0.77528
G1 X126.000 Y104.950 E0.81517
G1 X126.000 Y102.110 E0.90960
G0 X126.060 Y102.050 F7200
G0 X127.200 Y102.050
G0 X127.200 Y102.511
G0 F3000 E-0.09040
G0 X126.800 Y102.516 F7200
G0 X126.400 Y102.520
G0 X123.600 Y102.550
G0 X123.200 Y102.555
G0 X123.200 Y102.450
G0 X123.600 Y102.450
G0 X123.600 Y102.550
G0 F3000 E0.90960
;segType:Loop
G1 X123.600 Y104.550 E0.97609 F1200
G1 X123.200 Y104.550 E0.98937
G1 X123.200 Y102.450 E1.05919
