; #disp params :
; Printmode:0
; Layer:80
; Zmax:124.502 mm
; Xmax:152.149 mm
; Ymax:17 mm
; Xmin:107.67 mm
; Ymin:0.3 mm
; E0diam:0.4 mm
; E0len:1.45273 m
; E0temp:215 C
; Bedtemp:215 C
; Time:23.7519 min
; #params end
; GCode generated by CraftWare

G28 X Y ; home horizontally
G28 Z ; home vertically


M104 S215 ;set head temp (no wait)
M190 S60 ;set bed temp (wait)
M109 S215 ;set head temp (wait)

; ------------------------------------
; Raft Layer #0
; ------------------------------------
M106 S0 ;turn off fan
G21 ; mm
G90 ; abs
G92 E0 ;reset extr
G0 F600 Z0.300
;segType:Raft
G0 F3000 E-1.00000
G0 F600 Z2.300
G0 X112.437 Y123.898 F5400
G0 F600 Z0.300
G0 F3000 E0.00000
G1 X107.851 Y119.312 E0.32362 F600
G1 X107.730 Y118.950 E0.34266
G1 X107.730 Y80.807 E2.24558
G1 X108.153 Y80.264 E2.27993
G1 X112.981 Y75.436 E2.62058
G1 X146.778 Y75.436 E4.30671
G1 X147.321 Y75.859 E4.34106
G1 X152.149 Y80.687 E4.68171
G1 X152.149 Y118.346 E6.56054
G1 X152.089 Y119.252 E6.60582
G1 X147.019 Y124.321 E6.96351
G1 X146.657 Y124.442 E6.98255
G1 X113.826 Y124.442 E8.62051
G1 X112.920 Y124.381 E8.66578
G1 X112.437 Y123.898 E8.69985
G0 X113.819 Y124.140 F5400
G1 X113.819 Y75.859 E11.10861 F600
G0 X116.486 Y75.859 F5400
G1 X116.486 Y124.140 E13.51737 F600
G0 X119.152 Y124.140 F5400
G1 X119.152 Y75.859 E15.92613 F600
G0 X121.819 Y75.859 F5400
G1 X121.819 Y124.140 E18.33490 F600
G0 X124.486 Y124.140 F5400
G1 X124.486 Y75.859 E20.74366 F600
G0 X127.152 Y75.859 F5400
G1 X127.152 Y124.140 E23.15242 F600
G0 X129.819 Y124.140 F5400
G1 X129.819 Y75.859 E25.56118 F600
G0 X132.486 Y75.859 F5400
G1 X132.486 Y124.140 E27.96995 F600
G0 X135.152 Y124.140 F5400
G1 X135.152 Y75.859 E30.37871 F600
G0 X137.819 Y75.859 F5400
G1 X137.819 Y124.140 E32.78747 F600
G0 X140.486 Y124.140 F5400
G1 X140.486 Y75.859 E35.19623 F600
G0 X143.152 Y75.859 F5400
G1 X143.152 Y124.140 E37.60500 F600
G0 X145.819 Y124.140 F5400
G1 X145.819 Y75.859 E40.01376 F600
G0 X148.486 Y77.669 F5400
G1 X148.486 Y122.329 E42.24187 F600
G0 X151.152 Y119.674 F5400
G1 X151.152 Y80.325 E44.20501 F600
G0 X111.152 Y77.911 F5400
G1 X111.152 Y122.088 E46.40903 F600
G0 X108.486 Y119.432 F5400
G1 X108.486 Y80.566 E48.34808 F600



; ------------------------------------
; Raft Layer #1
; ------------------------------------
G92 E0 ;reset extr
G0 F600 Z0.600
;segType:Raft
G0 X107.670 Y80.665 F7200
G1 X112.981 Y75.354 E0.37472 F1800
G0 X114.791 Y75.429 F7200
G1 X107.670 Y82.550 E0.87717 F1800
G0 X107.670 Y84.436 F7200
G1 X116.723 Y75.383 E1.51589 F1800
G0 X118.654 Y75.338 F7200
G1 X107.670 Y86.322 E2.29087 F1800
G0 X107.670 Y88.207 F7200
G1 X120.464 Y75.413 E3.19359 F1800
G0 X122.396 Y75.367 F7200
G1 X107.670 Y90.093 E4.23258 F1800
G0 X107.670 Y91.978 F7200
G1 X124.327 Y75.321 E5.40782 F1800
G0 X126.138 Y75.396 F7200
G1 X107.670 Y93.864 E6.71081 F1800
G0 X107.670 Y95.750 F7200
G1 X128.069 Y75.351 E8.15006 F1800
G0 X129.879 Y75.426 F7200
G1 X107.670 Y97.635 E9.71705 F1800
G0 X107.670 Y99.521 F7200
G1 X131.811 Y75.380 E11.42030 F1800
G0 X133.742 Y75.335 F7200
G1 X107.670 Y101.406 E13.25981 F1800
G0 X107.670 Y103.292 F7200
G1 X135.552 Y75.410 E15.22707 F1800
G0 X137.484 Y75.364 F7200
G1 X107.670 Y105.178 E17.33058 F1800
G0 X107.670 Y107.063 F7200
G1 X139.415 Y75.318 E19.57036 F1800
G0 X141.225 Y75.394 F7200
G1 X107.670 Y108.949 E21.93786 F1800
G0 X107.670 Y110.835 F7200
G1 X143.157 Y75.348 E24.44164 F1800
G0 X144.967 Y75.424 F7200
G1 X107.670 Y112.720 E27.07315 F1800
G0 X107.670 Y114.606 F7200
G1 X146.898 Y75.377 E29.84093 F1800
G0 X147.864 Y76.298 F7200
G1 X107.670 Y116.491 E32.67682 F1800
G0 X107.670 Y118.377 F7200
G1 X148.709 Y77.338 E35.57235 F1800
G0 X149.675 Y78.258 F7200
G1 X108.273 Y119.659 E38.49343 F1800
G0 X109.118 Y120.700 F7200
G1 X150.640 Y79.178 E41.42302 F1800
G0 X151.606 Y80.098 F7200
G1 X110.084 Y121.620 E44.35261 F1800
G0 X111.079 Y122.510 F7200
G1 X152.118 Y81.471 E47.24814 F1800
G0 X152.072 Y83.403 F7200
G1 X111.999 Y123.476 E50.07552 F1800
G0 X112.919 Y124.442 F7200
G1 X152.148 Y85.213 E52.84330 F1800
G0 X152.102 Y87.145 F7200
G1 X114.925 Y124.321 E55.46629 F1800
G0 X116.811 Y124.321 F7200
G1 X152.056 Y89.076 E57.95302 F1800
G0 X152.131 Y90.887 F7200
G1 X118.697 Y124.321 E60.31201 F1800
G0 X120.582 Y124.321 F7200
G1 X152.086 Y92.818 E62.53474 F1800
G0 X152.040 Y94.749 F7200
G1 X122.468 Y124.321 E64.62120 F1800
G0 X124.233 Y124.442 F7200
G1 X152.115 Y96.559 E66.58846 F1800
G0 X152.070 Y98.491 F7200
G1 X126.239 Y124.321 E68.41092 F1800
G0 X128.004 Y124.442 F7200
G1 X152.145 Y100.301 E70.11418 F1800
G0 X152.099 Y102.233 F7200
G1 X130.010 Y124.321 E71.67264 F1800
G0 X131.896 Y124.321 F7200
G1 X152.053 Y104.164 E73.09484 F1800
G0 X152.128 Y105.974 F7200
G1 X133.661 Y124.442 E74.39783 F1800
G0 X135.667 Y124.321 F7200
G1 X152.083 Y107.906 E75.55603 F1800
G0 X152.037 Y109.837 F7200
G1 X137.432 Y124.442 E76.58650 F1800
G0 X139.438 Y124.321 F7200
G1 X152.112 Y111.647 E77.48070 F1800
G0 X152.067 Y113.579 F7200
G1 X141.324 Y124.321 E78.23864 F1800
G0 X143.210 Y124.321 F7200
G1 X152.142 Y115.389 E78.86884 F1800
G0 X152.096 Y117.320 F7200
G1 X145.095 Y124.321 E79.36278 F1800



; ------------------------------------
; Raft Layer #2
; ------------------------------------
G92 E0 ;reset extr
G0 F600 Z0.800
;segType:Raft
G0 F3000 E-1.00000
G0 F600 Z2.800
G0 X112.498 Y124.060 F7200
G0 F600 Z0.800
G0 F3000 E0.00000
G1 X147.261 Y124.060 E1.15621 F2400
G1 X147.623 Y123.660 E1.17415
G1 X112.136 Y123.660 E2.35444
G1 X111.774 Y123.260 E2.37239
G1 X147.985 Y123.260 E3.57677
G1 X148.468 Y122.860 E3.59762
G1 X111.291 Y122.860 E4.83412
G1 X110.929 Y122.460 E4.85207
G1 X148.830 Y122.460 E6.11265
G1 X149.192 Y122.060 E6.13060
G1 X110.567 Y122.060 E7.41527
G1 X110.084 Y121.660 E7.43613
G1 X149.675 Y121.660 E8.75292
G1 X150.037 Y121.260 E8.77086
G1 X109.722 Y121.260 E10.11174
G1 X109.360 Y120.860 E10.12968
G1 X150.399 Y120.860 E11.49465
G1 X150.761 Y120.460 E11.51260
G1 X108.998 Y120.460 E12.90165
G1 X108.515 Y120.060 E12.92250
G1 X151.244 Y120.060 E14.34367
G1 X151.606 Y119.660 E14.36162
G1 X108.153 Y119.660 E15.80687
G1 X107.791 Y119.260 E15.82482
G1 X151.968 Y119.260 E17.29417
G1 X152.089 Y118.860 E17.30806
G1 X107.670 Y118.860 E18.78544
G1 X107.670 Y118.460 E18.79874
G1 X152.089 Y118.460 E20.27612
G1 X152.089 Y118.060 E20.28942
G1 X107.670 Y118.060 E21.76680
G1 X107.670 Y117.660 E21.78010
G1 X152.089 Y117.660 E23.25747
G1 X152.089 Y117.260 E23.27078
G1 X107.670 Y117.260 E24.74815
G1 X107.670 Y116.860 E24.76146
G1 X152.089 Y116.860 E26.23883
G1 X152.089 Y116.460 E26.25214
G1 X107.670 Y116.460 E27.72951
G1 X107.670 Y116.060 E27.74281
G1 X152.089 Y116.060 E29.22019
G1 X152.089 Y115.660 E29.23349
G1 X107.670 Y115.660 E30.71087
G1 X107.670 Y115.260 E30.72417
G1 X152.089 Y115.260 E32.20155
G1 X152.089 Y114.860 E32.21485
G1 X107.670 Y114.860 E33.69223
G1 X107.670 Y114.460 E33.70553
G1 X152.089 Y114.460 E35.18291
G1 X152.089 Y114.060 E35.19621
G1 X107.670 Y114.060 E36.67359
G1 X107.670 Y113.660 E36.68689
G1 X152.089 Y113.660 E38.16427
G1 X152.089 Y113.260 E38.17758
G1 X107.670 Y113.260 E39.65495
G1 X107.670 Y112.860 E39.66826
G1 X152.089 Y112.860 E41.14563
G1 X152.089 Y112.460 E41.15894
G1 X107.670 Y112.460 E42.63631
G1 X107.670 Y112.060 E42.64962
G1 X152.089 Y112.060 E44.12699
G1 X152.089 Y111.660 E44.14030
G1 X107.670 Y111.660 E45.61767
G1 X107.670 Y111.260 E45.63098
G1 X152.089 Y111.260 E47.10836
G1 X152.089 Y110.860 E47.12166
G1 X107.670 Y110.860 E48.59904
G1 X107.670 Y110.460 E48.61234
G1 X152.089 Y110.460 E50.08972
G1 X152.089 Y110.060 E50.10302
G1 X107.670 Y110.060 E51.58040
G1 X107.670 Y109.660 E51.59370
G1 X152.089 Y109.660 E53.07108
G1 X152.089 Y109.260 E53.08438
G1 X107.670 Y109.260 E54.56176
G1 X107.670 Y108.860 E54.57506
G1 X152.089 Y108.860 E56.05244
G1 X152.089 Y108.460 E56.06574
G1 X107.670 Y108.460 E57.54312
G1 X107.670 Y108.060 E57.55643
G1 X152.089 Y108.060 E59.03380
G1 X152.089 Y107.660 E59.04711
G1 X107.670 Y107.660 E60.52448
G1 X107.670 Y107.260 E60.53779
G1 X152.089 Y107.260 E62.01516
G1 X152.089 Y106.860 E62.02847
G1 X107.670 Y106.860 E63.50584
G1 X107.670 Y106.460 E63.51915
G1 X152.089 Y106.460 E64.99652
G1 X152.089 Y106.060 E65.00983
G1 X107.670 Y106.060 E66.48720
G1 X107.670 Y105.660 E66.50051
G1 X152.089 Y105.660 E67.97788
G1 X152.089 Y105.260 E67.99118
G1 X107.670 Y105.260 E69.46855
G1 X107.670 Y104.860 E69.48186
G1 X152.089 Y104.860 E70.95923
G1 X152.089 Y104.460 E70.97254
G1 X107.670 Y104.460 E72.44991
G1 X107.670 Y104.060 E72.46321
G1 X152.089 Y104.060 E73.94058
G1 X152.089 Y103.660 E73.95389
G1 X107.670 Y103.660 E75.43126
G1 X107.670 Y103.260 E75.44457
G1 X152.089 Y103.260 E76.92194
G1 X152.089 Y102.860 E76.93524
G1 X107.670 Y102.860 E78.41262
G1 X107.670 Y102.460 E78.42592
G1 X152.089 Y102.460 E79.90329
G1 X152.089 Y102.060 E79.91660
G1 X107.670 Y102.060 E81.39397
G1 X107.670 Y101.660 E81.40727
G1 X152.089 Y101.660 E82.88465
G1 X152.089 Y101.260 E82.89795
G1 X107.670 Y101.260 E84.37532
G1 X107.670 Y100.860 E84.38863
G1 X152.089 Y100.860 E85.86600
G1 X152.089 Y100.460 E85.87930
G1 X107.670 Y100.460 E87.35667
G1 X107.670 Y100.060 E87.36998
G1 X152.089 Y100.060 E88.84735
G1 X152.089 Y99.660 E88.86066
G1 X107.670 Y99.660 E90.33803
G1 X107.670 Y99.260 E90.35133
G1 X152.089 Y99.260 E91.82870
G1 X152.089 Y98.860 E91.84201
G1 X107.670 Y98.860 E93.31938
G1 X107.670 Y98.460 E93.33269
G1 X152.089 Y98.460 E94.81006
G1 X152.089 Y98.060 E94.82336
G1 X107.670 Y98.060 E96.30074
G1 X107.670 Y97.660 E96.31404
G1 X152.089 Y97.660 E97.79141
G1 X152.089 Y97.260 E97.80472
G1 X107.670 Y97.260 E99.28209
G1 X107.670 Y96.860 E99.29539
G1 X152.089 Y96.860 E100.77277
G1 X152.089 Y96.460 E100.78607
G1 X107.670 Y96.460 E102.26344
G1 X107.670 Y96.060 E102.27675
G1 X152.089 Y96.060 E103.75412
G1 X152.089 Y95.660 E103.76743
G1 X107.670 Y95.660 E105.24480
G1 X107.670 Y95.260 E105.25810
G1 X152.089 Y95.260 E106.73547
G1 X152.089 Y94.860 E106.74878
G1 X107.670 Y94.860 E108.22615
G1 X107.670 Y94.460 E108.23946
G1 X152.089 Y94.460 E109.71683
G1 X152.089 Y94.060 E109.73013
G1 X107.670 Y94.060 E111.20750
G1 X107.670 Y93.660 E111.22081
G1 X152.089 Y93.660 E112.69818
G1 X152.089 Y93.260 E112.71149
G1 X107.670 Y93.260 E114.18886
G1 X107.670 Y92.860 E114.20216
G1 X152.089 Y92.860 E115.67953
G1 X152.089 Y92.460 E115.69284
G1 X107.670 Y92.460 E117.17021
G1 X107.670 Y92.060 E117.18352
G1 X152.089 Y92.060 E118.66089
G1 X152.089 Y91.660 E118.67419
G1 X107.670 Y91.660 E120.15157
G1 X107.670 Y91.260 E120.16487
G1 X152.089 Y91.260 E121.64224
G1 X152.089 Y90.860 E121.65555
G1 X107.670 Y90.860 E123.13292
G1 X107.670 Y90.460 E123.14622
G1 X152.089 Y90.460 E124.62360
G1 X152.089 Y90.060 E124.63690
G1 X107.670 Y90.060 E126.11427
G1 X107.670 Y89.660 E126.12758
G1 X152.089 Y89.660 E127.60495
G1 X152.089 Y89.260 E127.61826
G1 X107.670 Y89.260 E129.09563
G1 X107.670 Y88.860 E129.10893
G1 X152.089 Y88.860 E130.58630
G1 X152.089 Y88.460 E130.59961
G1 X107.670 Y88.460 E132.07698
G1 X107.670 Y88.060 E132.09029
G1 X152.089 Y88.060 E133.56766
G1 X152.089 Y87.660 E133.58096
G1 X107.670 Y87.660 E135.05833
G1 X107.670 Y87.260 E135.07164
G1 X152.089 Y87.260 E136.54901
G1 X152.089 Y86.860 E136.56232
G1 X107.670 Y86.860 E138.03969
G1 X107.670 Y86.460 E138.05299
G1 X152.089 Y86.460 E139.53036
G1 X152.089 Y86.060 E139.54367
G1 X107.670 Y86.060 E141.02104
G1 X107.670 Y85.660 E141.03435
G1 X152.089 Y85.660 E142.51172
G1 X152.089 Y85.260 E142.52502
G1 X107.670 Y85.260 E144.00240
G1 X107.670 Y84.860 E144.01570
G1 X152.089 Y84.860 E145.49307
G1 X152.089 Y84.460 E145.50638
G1 X107.670 Y84.460 E146.98375
G1 X107.670 Y84.060 E146.99706
G1 X152.089 Y84.060 E148.47443
G1 X152.089 Y83.660 E148.48773
G1 X107.670 Y83.660 E149.96510
G1 X107.670 Y83.260 E149.97841
G1 X152.089 Y83.260 E151.45578
G1 X152.089 Y82.860 E151.46909
G1 X107.670 Y82.860 E152.94646
G1 X107.670 Y82.460 E152.95976
G1 X152.089 Y82.460 E154.43713
G1 X152.089 Y82.060 E154.45044
G1 X107.670 Y82.060 E155.92781
G1 X107.670 Y81.660 E155.94112
G1 X152.089 Y81.660 E157.41849
G1 X152.089 Y81.260 E157.43179
G1 X107.670 Y81.260 E158.90916
G1 X107.670 Y80.860 E158.92247
G1 X152.089 Y80.860 E160.39984
G1 X151.847 Y80.460 E160.41537
G1 X107.911 Y80.460 E161.87669
G1 X108.273 Y80.060 E161.89464
G1 X151.485 Y80.060 E163.33186
G1 X151.002 Y79.660 E163.35272
G1 X108.756 Y79.660 E164.75783
G1 X109.118 Y79.260 E164.77577
G1 X150.640 Y79.260 E166.15680
G1 X150.278 Y78.860 E166.17474
G1 X109.480 Y78.860 E167.53168
G1 X109.843 Y78.460 E167.54962
G1 X149.916 Y78.460 E168.88248
G1 X149.433 Y78.060 E168.90334
G1 X110.325 Y78.060 E170.20408
G1 X110.688 Y77.660 E170.22202
G1 X149.071 Y77.660 E171.49866
G1 X148.709 Y77.260 E171.51660
G1 X111.050 Y77.260 E172.76916
G1 X111.532 Y76.860 E172.79002
G1 X148.226 Y76.860 E174.01046
G1 X147.864 Y76.460 E174.02842
G1 X111.895 Y76.460 E175.22476
G1 X112.257 Y76.060 E175.24270
G1 X147.502 Y76.060 E176.41496
G1 X147.019 Y75.660 E176.43582
G1 X112.739 Y75.660 E177.57598



; ------------------------------------
; Raft Layer #3
; ------------------------------------
M106 S255 ;set fan speed
G92 E0 ;reset extr
G0 F600 Z1.000
;segType:Raft
G0 F3000 E-1.00000
G0 F600 Z3.000
G0 X107.819 Y80.687 F7200
G0 F600 Z1.000
G0 F3000 E0.00000
G1 X107.819 Y119.312 E1.28467 F2400
G1 X108.219 Y119.795 E1.30553
G1 X108.219 Y80.204 E2.62232
G1 X108.619 Y79.842 E2.64026
G1 X108.619 Y120.157 E3.98114
G1 X109.019 Y120.519 E3.99909
G1 X109.019 Y79.480 E5.36405
G1 X109.419 Y79.118 E5.38200
G1 X109.419 Y120.881 E6.77105
G1 X109.819 Y121.364 E6.79190
G1 X109.819 Y78.635 E8.21307
G1 X110.219 Y78.273 E8.23102
G1 X110.219 Y121.726 E9.67628
G1 X110.619 Y122.088 E9.69422
G1 X110.619 Y77.911 E11.16357
G1 X111.019 Y77.428 E11.18442
G1 X111.019 Y122.571 E12.68588
G1 X111.419 Y122.933 E12.70383
G1 X111.419 Y77.066 E14.22938
G1 X111.819 Y76.704 E14.24732
G1 X111.819 Y123.295 E15.79696
G1 X112.219 Y123.778 E15.81781
G1 X112.219 Y76.221 E17.39957
G1 X112.619 Y75.859 E17.41751
G1 X112.619 Y124.140 E19.02335
G1 X113.019 Y124.502 E19.04130
G1 X113.019 Y75.496 E20.67123
G1 X113.419 Y75.496 E20.68453
G1 X113.419 Y124.502 E22.31446
G1 X113.819 Y124.502 E22.32777
G1 X113.819 Y75.496 E23.95769
G1 X114.219 Y75.496 E23.97100
G1 X114.219 Y124.502 E25.60093
G1 X114.619 Y124.502 E25.61423
G1 X114.619 Y75.496 E27.24416
G1 X115.019 Y75.496 E27.25746
G1 X115.019 Y124.502 E28.88739
G1 X115.419 Y124.502 E28.90070
G1 X115.419 Y75.496 E30.53062
G1 X115.819 Y75.496 E30.54393
G1 X115.819 Y124.502 E32.17386
G1 X116.219 Y124.502 E32.18716
G1 X116.219 Y75.496 E33.81709
G1 X116.619 Y75.496 E33.83040
G1 X116.619 Y124.502 E35.46032
G1 X117.019 Y124.502 E35.47363
G1 X117.019 Y75.496 E37.10356
G1 X117.419 Y75.496 E37.11686
G1 X117.419 Y124.502 E38.74679
G1 X117.819 Y124.502 E38.76010
G1 X117.819 Y75.496 E40.39003
G1 X118.219 Y75.496 E40.40333
G1 X118.219 Y124.502 E42.03326
G1 X118.619 Y124.502 E42.04657
G1 X118.619 Y75.496 E43.67650
G1 X119.019 Y75.496 E43.68980
G1 X119.019 Y124.502 E45.31973
G1 X119.419 Y124.502 E45.33304
G1 X119.419 Y75.496 E46.96297
G1 X119.819 Y75.496 E46.97627
G1 X119.819 Y124.502 E48.60620
G1 X120.219 Y124.502 E48.61951
G1 X120.219 Y75.496 E50.24943
G1 X120.619 Y75.496 E50.26274
G1 X120.619 Y124.502 E51.89267
G1 X121.019 Y124.502 E51.90597
G1 X121.019 Y75.496 E53.53590
G1 X121.419 Y75.496 E53.54921
G1 X121.419 Y124.502 E55.17914
G1 X121.819 Y124.502 E55.19244
G1 X121.819 Y75.496 E56.82237
G1 X122.219 Y75.496 E56.83568
G1 X122.219 Y124.502 E58.46561
G1 X122.619 Y124.502 E58.47891
G1 X122.619 Y75.496 E60.10884
G1 X123.019 Y75.496 E60.12215
G1 X123.019 Y124.502 E61.75207
G1 X123.419 Y124.502 E61.76538
G1 X123.419 Y75.496 E63.39531
G1 X123.819 Y75.496 E63.40861
G1 X123.819 Y124.502 E65.03855
G1 X124.219 Y124.502 E65.05185
G1 X124.219 Y75.496 E66.68178
G1 X124.619 Y75.496 E66.69509
G1 X124.619 Y124.502 E68.32501
G1 X125.019 Y124.502 E68.33832
G1 X125.019 Y75.496 E69.96825
G1 X125.419 Y75.496 E69.98155
G1 X125.419 Y124.502 E71.61148
G1 X125.819 Y124.502 E71.62479
G1 X125.819 Y75.496 E73.25472
G1 X126.219 Y75.496 E73.26802
G1 X126.219 Y124.502 E74.89795
G1 X126.619 Y124.502 E74.91126
G1 X126.619 Y75.496 E76.54119
G1 X127.019 Y75.496 E76.55449
G1 X127.019 Y124.502 E78.18442
G1 X127.419 Y124.502 E78.19773
G1 X127.419 Y75.496 E79.82765
G1 X127.819 Y75.496 E79.84096
G1 X127.819 Y124.502 E81.47089
G1 X128.219 Y124.502 E81.48419
G1 X128.219 Y75.496 E83.11412
G1 X128.619 Y75.496 E83.12743
G1 X128.619 Y124.502 E84.75735
G1 X129.019 Y124.502 E84.77066
G1 X129.019 Y75.496 E86.40059
G1 X129.419 Y75.496 E86.41389
G1 X129.419 Y124.502 E88.04382
G1 X129.819 Y124.502 E88.05713
G1 X129.819 Y75.496 E89.68706
G1 X130.219 Y75.496 E89.70036
G1 X130.219 Y124.502 E91.33029
G1 X130.619 Y124.502 E91.34360
G1 X130.619 Y75.496 E92.97353
G1 X131.019 Y75.496 E92.98683
G1 X131.019 Y124.502 E94.61676
G1 X131.419 Y124.502 E94.63007
G1 X131.419 Y75.496 E96.25999
G1 X131.819 Y75.496 E96.27330
G1 X131.819 Y124.502 E97.90323
G1 X132.219 Y124.502 E97.91653
G1 X132.219 Y75.496 E99.54646
G1 X132.619 Y75.496 E99.55977
G1 X132.619 Y124.502 E101.18970
G1 X133.019 Y124.502 E101.20300
G1 X133.019 Y75.496 E102.83293
G1 X133.419 Y75.496 E102.84624
G1 X133.419 Y124.502 E104.47617
G1 X133.819 Y124.502 E104.48947
G1 X133.819 Y75.496 E106.11940
G1 X134.219 Y75.496 E106.13271
G1 X134.219 Y124.502 E107.76263
G1 X134.619 Y124.502 E107.77594
G1 X134.619 Y75.496 E109.40587
G1 X135.019 Y75.496 E109.41917
G1 X135.019 Y124.502 E111.04910
G1 X135.419 Y124.502 E111.06241
G1 X135.419 Y75.496 E112.69234
G1 X135.819 Y75.496 E112.70564
G1 X135.819 Y124.502 E114.33557
G1 X136.219 Y124.502 E114.34888
G1 X136.219 Y75.496 E115.97881
G1 X136.619 Y75.496 E115.99211
G1 X136.619 Y124.502 E117.62204
G1 X137.019 Y124.502 E117.63535
G1 X137.019 Y75.496 E119.26527
G1 X137.419 Y75.496 E119.27858
G1 X137.419 Y124.502 E120.90851
G1 X137.819 Y124.502 E120.92181
G1 X137.819 Y75.496 E122.55174
G1 X138.219 Y75.496 E122.56505
G1 X138.219 Y124.502 E124.19498
G1 X138.619 Y124.502 E124.20828
G1 X138.619 Y75.496 E125.83821
G1 X139.019 Y75.496 E125.85152
G1 X139.019 Y124.502 E127.48145
G1 X139.419 Y124.502 E127.49475
G1 X139.419 Y75.496 E129.12468
G1 X139.819 Y75.496 E129.13799
G1 X139.819 Y124.502 E130.76791
G1 X140.219 Y124.502 E130.78122
G1 X140.219 Y75.496 E132.41115
G1 X140.619 Y75.496 E132.42445
G1 X140.619 Y124.502 E134.05438
G1 X141.019 Y124.502 E134.06769
G1 X141.019 Y75.496 E135.69762
G1 X141.419 Y75.496 E135.71092
G1 X141.419 Y124.502 E137.34085
G1 X141.819 Y124.502 E137.35416
G1 X141.819 Y75.496 E138.98409
G1 X142.219 Y75.496 E138.99739
G1 X142.219 Y124.502 E140.62732
G1 X142.619 Y124.502 E140.64062
G1 X142.619 Y75.496 E142.27055
G1 X143.019 Y75.496 E142.28386
G1 X143.019 Y124.502 E143.91379
G1 X143.419 Y124.502 E143.92709
G1 X143.419 Y75.496 E145.55702
G1 X143.819 Y75.496 E145.57033
G1 X143.819 Y124.502 E147.20026
G1 X144.219 Y124.502 E147.21356
G1 X144.219 Y75.496 E148.84349
G1 X144.619 Y75.496 E148.85680
G1 X144.619 Y124.502 E150.48672
G1 X145.019 Y124.502 E150.50003
G1 X145.019 Y75.496 E152.12996
G1 X145.419 Y75.496 E152.14326
G1 X145.419 Y124.502 E153.77319
G1 X145.819 Y124.502 E153.78650
G1 X145.819 Y75.496 E155.41643
G1 X146.219 Y75.496 E155.42973
G1 X146.219 Y124.502 E157.05966
G1 X146.619 Y124.502 E157.07297
G1 X146.619 Y75.496 E158.70290
G1 X147.019 Y75.617 E158.71680
G1 X147.019 Y124.381 E160.33870
G1 X147.419 Y124.019 E160.35664
G1 X147.419 Y75.979 E161.95445
G1 X147.819 Y76.462 E161.97531
G1 X147.819 Y123.536 E163.54100
G1 X148.219 Y123.174 E163.55894
G1 X148.219 Y76.824 E165.10056
G1 X148.619 Y77.186 E165.11850
G1 X148.619 Y122.812 E166.63602
G1 X149.019 Y122.329 E166.65688
G1 X149.019 Y77.669 E168.14228
G1 X149.419 Y78.031 E168.16022
G1 X149.419 Y121.967 E169.62154
G1 X149.819 Y121.605 E169.63948
G1 X149.819 Y78.393 E171.07670
G1 X150.219 Y78.876 E171.09756
G1 X150.219 Y121.122 E172.50268
G1 X150.619 Y120.760 E172.52062
G1 X150.619 Y79.238 E173.90164
G1 X151.019 Y79.600 E173.91958
G1 X151.019 Y120.398 E175.27652
G1 X151.419 Y120.036 E175.29446
G1 X151.419 Y79.963 E176.62732
G1 X151.819 Y80.445 E176.64818
G1 X151.819 Y119.553 E177.94892


; ------------------------------------
; Layer #0
; ------------------------------------
G21 ; mm
G90 ; abs
G92 E0 ;reset extr
G0 F600 Z1.450
;segType:HShell
G0 F3000 E-1.00000
G0 X141.239 Y112.934 F5400
G0 F3000 E0.00000
G1 X138.360 Y110.055 E0.13542 F2400
G0 X138.360 Y109.489 F5400
G1 X141.239 Y112.368 E0.27084 F2400
G0 X141.239 Y111.802 F5400
G1 X138.426 Y108.989 E0.40317 F2400
G0 X137.867 Y109.002 F5400
;segType:Perimeter
G1 X137.660 Y108.229 E0.42978 F1200
G1 X142.000 Y108.229 E0.57411
G1 X142.000 Y114.128 E0.77031
G1 X137.600 Y114.128 E0.91663
G1 X137.600 Y108.289 E1.11084
G0 X137.660 Y108.229 F5400
G0 X139.260 Y108.229
G0 X138.700 Y108.629
;segType:Loop
G1 X141.600 Y108.629 E1.20727 F2400
G1 X141.600 Y113.728 E1.37687
G1 X138.000 Y113.728 E1.49658
G1 X138.000 Y108.629 E1.66618
G1 X138.500 Y108.629 E1.68281
G0 X138.992 Y108.989 F5400
;segType:HShell
G1 X141.239 Y111.237 E1.78853 F2400
G0 X141.239 Y110.671 F5400
G1 X139.557 Y108.989 E1.86765 F2400
G0 X140.123 Y108.989 F5400
G1 X141.239 Y110.105 E1.92016 F2400
G0 X141.239 Y109.540 F5400
G1 X140.689 Y108.989 E1.94606 F2400
G0 F3000 E0.94606
G0 X140.654 Y108.629 F5400
G0 X141.142 Y113.728
G0 X141.108 Y113.368
G0 F3000 E1.94606
G1 X138.360 Y110.620 E2.07529 F2400
G0 X138.360 Y111.186 F5400
G1 X140.542 Y113.368 E2.17791 F2400
G0 X139.977 Y113.368 F5400
G1 X138.360 Y111.752 E2.25393 F2400
G0 X138.360 Y112.318 F5400
G1 X139.411 Y113.368 E2.30334 F2400
G0 X138.845 Y113.368 F5400
G1 X138.360 Y112.883 E2.32614 F2400
G0 F3000 E1.32614
G0 X138.000 Y108.629 F5400
G0 X131.800 Y102.428
G0 X131.439 Y102.002
G0 F3000 E2.32614
G1 X128.561 Y99.124 E2.46155 F2400
G0 X128.561 Y98.558 F5400
G1 X131.439 Y101.437 E2.59696 F2400
G0 X131.439 Y100.871 F5400
G1 X128.561 Y97.992 E2.73237 F2400
G0 X128.016 Y97.508 F5400
;segType:Perimeter
G1 X127.860 Y96.929 E2.75232 F1200
G1 X132.200 Y96.929 E2.89664
G1 X132.200 Y102.828 E3.09285
G1 X127.800 Y102.828 E3.23917
G1 X127.800 Y96.989 E3.43338
G0 X127.860 Y96.929 F5400
G0 X129.460 Y96.929
G0 X128.900 Y97.329
;segType:Loop
G1 X131.800 Y97.329 E3.52980 F2400
G1 X131.800 Y102.428 E3.69941
G1 X128.200 Y102.428 E3.81911
G1 X128.200 Y97.329 E3.98872
G1 X128.700 Y97.329 E4.00535
G0 X128.823 Y97.689 F5400
;segType:HShell
G1 X131.439 Y100.305 E4.12841 F2400
G0 X131.439 Y99.740 F5400
G1 X129.389 Y97.689 E4.22487 F2400
G0 X129.954 Y97.689 F5400
G1 X131.439 Y99.174 E4.29472 F2400
G0 X131.439 Y98.608 F5400
G1 X130.520 Y97.689 E4.33796 F2400
G0 X131.086 Y97.689 F5400
G1 X131.439 Y98.043 E4.35460 F2400
G0 F3000 E3.35460
G0 X131.528 Y97.329 F5400
G0 X130.895 Y102.428
G0 X130.939 Y102.068
G0 F3000 E4.35460
G1 X128.561 Y99.689 E4.46649 F2400
G0 X128.561 Y100.255 F5400
G1 X130.374 Y102.068 E4.55177 F2400
G0 X129.808 Y102.068 F5400
G1 X128.561 Y100.821 E4.61044 F2400
G0 X128.561 Y101.386 F5400
G1 X129.242 Y102.068 E4.64251 F2400
G0 X128.677 Y102.068 F5400
G1 X128.561 Y101.952 E4.64797 F2400
G0 F3000 E3.64797
G0 X128.200 Y101.961 F5400
G0 X131.800 Y101.867
G0 X138.000 Y101.705
G0 X141.600 Y101.611
G0 X141.239 Y101.620
G0 F3000 E4.64797
G1 X138.360 Y98.741 E4.78339 F2400
G0 X138.360 Y98.175 F5400
G1 X141.239 Y101.054 E4.91881 F2400
G0 X141.239 Y100.489 F5400
G1 X138.440 Y97.689 E5.05050 F2400
G0 X137.867 Y97.702 F5400
;segType:Perimeter
G1 X137.660 Y96.929 E5.07711 F1200
G1 X142.000 Y96.929 E5.22143
G1 X142.000 Y102.828 E5.41765
G1 X137.600 Y102.828 E5.56397
G1 X137.600 Y96.989 E5.75819
G0 X137.660 Y96.929 F5400
G0 X139.260 Y96.929
G0 X138.700 Y97.329
;segType:Loop
G1 X141.600 Y97.329 E5.85462 F2400
G1 X141.600 Y102.428 E6.02422
G1 X138.000 Y102.428 E6.14393
G1 X138.000 Y97.329 E6.31354
G1 X138.500 Y97.329 E6.33017
G0 X139.005 Y97.689 F5400
;segType:HShell
G1 X141.239 Y99.923 E6.43525 F2400
G0 X141.239 Y99.357 F5400
G1 X139.571 Y97.689 E6.51373 F2400
G0 X140.137 Y97.689 F5400
G1 X141.239 Y98.792 E6.56560 F2400
G0 X141.239 Y98.226 F5400
G1 X140.702 Y97.689 E6.59086 F2400
G0 F3000 E5.59086
G0 X140.668 Y97.329 F5400
G0 X141.156 Y102.428
G0 X141.122 Y102.068
G0 F3000 E6.59086
G1 X138.360 Y99.307 E6.72074 F2400
G0 X138.360 Y99.872 F5400
G1 X140.556 Y102.068 E6.82402 F2400
G0 X139.990 Y102.068 F5400
G1 X138.360 Y100.438 E6.90068 F2400
G0 X138.360 Y101.004 F5400
G1 X139.425 Y102.068 E6.95074 F2400
G0 X138.859 Y102.068 F5400
G1 X138.360 Y101.570 E6.97419 F2400
G0 F3000 E5.97419
G0 X141.600 Y97.329 F5400
G0 X141.600 Y91.128
G0 X141.239 Y90.306
G0 F3000 E6.97419
G1 X138.360 Y87.427 E7.10961 F2400
G0 X138.360 Y86.862 F5400
G1 X141.239 Y89.741 E7.24503 F2400
G0 X141.239 Y89.175 F5400
G1 X138.453 Y86.389 E7.37608 F2400
G0 X137.867 Y86.402 F5400
;segType:Perimeter
G1 X137.660 Y85.629 E7.40269 F1200
G1 X142.000 Y85.629 E7.54701
G1 X142.000 Y91.528 E7.74321
G1 X137.600 Y91.528 E7.88953
G1 X137.600 Y85.689 E8.08374
G0 X137.660 Y85.629 F5400
G0 X139.260 Y85.629
G0 X138.700 Y86.029
;segType:Loop
G1 X141.600 Y86.029 E8.18018 F2400
G1 X141.600 Y91.128 E8.34977
G1 X138.000 Y91.128 E8.46948
G1 X138.000 Y86.029 E8.63908
G1 X138.500 Y86.029 E8.65571
G0 X139.019 Y86.389 F5400
;segType:HShell
G1 X141.239 Y88.609 E8.76015 F2400
G0 X141.239 Y88.044 F5400
G1 X139.585 Y86.389 E8.83797 F2400
G0 X140.151 Y86.389 F5400
G1 X141.239 Y87.478 E8.88919 F2400
G0 X141.239 Y86.912 F5400
G1 X140.716 Y86.389 E8.91380 F2400
G0 F3000 E7.91380
G0 X140.682 Y86.029 F5400
G0 X141.170 Y91.128
G0 X141.135 Y90.768
G0 F3000 E8.91380
G1 X138.360 Y87.993 E9.04432 F2400
G0 X138.360 Y88.559 F5400
G1 X140.570 Y90.768 E9.14824 F2400
G0 X140.004 Y90.768 F5400
G1 X138.360 Y89.124 E9.22554 F2400
G0 X138.360 Y89.690 F5400
G1 X139.438 Y90.768 E9.27624 F2400
G0 X138.873 Y90.768 F5400
G1 X138.360 Y90.256 E9.30033 F2400
G0 F3000 E8.30033
G0 X131.439 Y90.689 F5400
G0 F3000 E9.30033
G1 X128.561 Y87.810 E9.43574 F2400
G0 X128.561 Y87.244 F5400
G1 X131.439 Y90.123 E9.57115 F2400
G0 X131.439 Y89.557 F5400
G1 X128.561 Y86.679 E9.70656 F2400
G0 X128.016 Y86.209 F5400
;segType:Perimeter
G1 X127.860 Y85.629 E9.72652 F1200
G1 X132.200 Y85.629 E9.87083
G1 X132.200 Y91.528 E10.06704
G1 X127.800 Y91.528 E10.21335
G1 X127.800 Y85.689 E10.40756
G0 X127.860 Y85.629 F5400
G0 X129.460 Y85.629
G0 X128.900 Y86.029
;segType:Loop
G1 X131.800 Y86.029 E10.50399 F2400
G1 X131.800 Y91.128 E10.67358
G1 X128.200 Y91.128 E10.79329
G1 X128.200 Y86.029 E10.96288
G1 X128.700 Y86.029 E10.97951
G0 X128.837 Y86.389 F5400
;segType:HShell
G1 X131.439 Y88.992 E11.10193 F2400
G0 X131.439 Y88.426 F5400
G1 X129.403 Y86.389 E11.19774 F2400
G0 X129.968 Y86.389 F5400
G1 X131.439 Y87.860 E11.26694 F2400
G0 X131.439 Y87.295 F5400
G1 X130.534 Y86.389 E11.30953 F2400
G0 X131.100 Y86.389 F5400
G1 X131.439 Y86.729 E11.32551 F2400
G0 F3000 E10.32551
G0 X131.524 Y86.029 F5400
G0 X130.910 Y91.128
G0 X130.953 Y90.768
G0 F3000 E11.32551
G1 X128.561 Y88.376 E11.43804 F2400
G0 X128.561 Y88.941 F5400
G1 X130.387 Y90.768 E11.52396 F2400
G0 X129.822 Y90.768 F5400
G1 X128.561 Y89.507 E11.58328 F2400
G0 X128.561 Y90.073 F5400
G1 X129.256 Y90.768 E11.61598 F2400
G0 X128.690 Y90.768 F5400
G1 X128.561 Y90.638 E11.62208 F2400
G0 F3000 E10.62208
G0 X121.640 Y90.506 F5400
G0 F3000 E11.62208
G1 X118.761 Y87.626 E11.75750 F2400
G0 X118.761 Y87.061 F5400
G1 X121.640 Y89.940 E11.89292 F2400
G0 X121.640 Y89.374 F5400
G1 X118.761 Y86.495 E12.02834 F2400
G0 X118.216 Y86.209 F5400
;segType:Perimeter
G1 X118.060 Y85.629 E12.04830 F1200
G1 X122.400 Y85.629 E12.19262
G1 X122.400 Y91.528 E12.38883
G1 X118.000 Y91.528 E12.53515
G1 X118.000 Y85.689 E12.72936
G0 X118.060 Y85.629 F5400
G0 X119.660 Y85.629
G0 X119.100 Y86.029
;segType:Loop
G1 X122.000 Y86.029 E12.82579 F2400
G1 X122.000 Y91.128 E12.99538
G1 X118.400 Y91.128 E13.11509
G1 X118.400 Y86.029 E13.28469
G1 X118.900 Y86.029 E13.30132
G0 X119.220 Y86.389 F5400
;segType:HShell
G1 X121.640 Y88.808 E13.41512 F2400
G0 X121.640 Y88.243 F5400
G1 X119.786 Y86.389 E13.50231 F2400
G0 X120.352 Y86.389 F5400
G1 X121.640 Y87.677 E13.56290 F2400
G0 X121.640 Y87.111 F5400
G1 X120.917 Y86.389 E13.59687 F2400
G0 X121.483 Y86.389 F5400
G1 X121.640 Y86.546 E13.60424 F2400
G0 F3000 E12.60424
G0 X121.677 Y86.029 F5400
G0 X121.310 Y91.128
G0 X121.336 Y90.768
G0 F3000 E13.60424
G1 X118.761 Y88.192 E13.72540 F2400
G0 X118.761 Y88.758 F5400
G1 X120.771 Y90.768 E13.81995 F2400
G0 X120.205 Y90.768 F5400
G1 X118.761 Y89.324 E13.88789 F2400
G0 X118.761 Y89.889 F5400
G1 X119.639 Y90.768 E13.92922 F2400
G0 X119.074 Y90.768 F5400
G1 X118.761 Y90.455 E13.94394 F2400
G0 F3000 E12.94394
G0 X122.000 Y91.128 F5400
G0 X122.000 Y97.329
G0 X121.791 Y97.329
G0 X121.619 Y102.428
G0 X121.640 Y101.819
G0 F3000 E13.94394
G1 X118.761 Y98.940 E14.07936 F2400
G0 X118.761 Y98.375 F5400
G1 X121.640 Y101.254 E14.21479 F2400
G0 X121.640 Y100.688 F5400
G1 X118.761 Y97.809 E14.35021 F2400
G0 X118.216 Y97.508 F5400
;segType:Perimeter
G1 X118.060 Y96.929 E14.37016 F1200
G1 X122.400 Y96.929 E14.51449
G1 X122.400 Y102.828 E14.71070
G1 X118.000 Y102.828 E14.85702
G1 X118.000 Y96.989 E15.05124
G0 X118.060 Y96.929 F5400
G0 X119.660 Y96.929
G0 X119.100 Y97.329
;segType:Loop
G1 X122.000 Y97.329 E15.14767 F2400
G1 X122.000 Y102.428 E15.31727
G1 X118.400 Y102.428 E15.43698
G1 X118.400 Y97.329 E15.60659
G1 X118.900 Y97.329 E15.62322
G0 X119.206 Y97.689 F5400
;segType:HShell
G1 X121.640 Y100.122 E15.73767 F2400
G0 X121.640 Y99.556 F5400
G1 X119.772 Y97.689 E15.82551 F2400
G0 X120.338 Y97.689 F5400
G1 X121.640 Y98.991 E15.88675 F2400
G0 X121.640 Y98.425 F5400
G1 X120.903 Y97.689 E15.92137 F2400
G0 X121.469 Y97.689 F5400
G1 X121.640 Y97.859 E15.92939 F2400
G0 F3000 E14.92939
G0 X121.680 Y97.329 F5400
G0 X121.296 Y102.428
G0 X121.323 Y102.068
G0 F3000 E15.92939
G1 X118.761 Y99.506 E16.04991 F2400
G0 X118.761 Y100.072 F5400
G1 X120.757 Y102.068 E16.14381 F2400
G0 X120.191 Y102.068 F5400
G1 X118.761 Y100.637 E16.21112 F2400
G0 X118.761 Y101.203 F5400
G1 X119.626 Y102.068 E16.25181 F2400
G0 X119.060 Y102.068 F5400
G1 X118.761 Y101.769 E16.26589 F2400
G0 F3000 E15.26589
G0 X122.000 Y102.428 F5400
G0 X122.000 Y108.629
G0 X121.791 Y108.629
G0 X121.620 Y113.728
G0 X121.640 Y113.133
G0 F3000 E16.26589
G1 X118.761 Y110.254 E16.40131 F2400
G0 X118.761 Y109.688 F5400
G1 X121.640 Y112.567 E16.53673 F2400
G0 X121.640 Y112.002 F5400
G1 X118.761 Y109.123 E16.67215 F2400
G0 X118.216 Y108.809 F5400
;segType:Perimeter
G1 X118.060 Y108.229 E16.69211 F1200
G1 X122.400 Y108.229 E16.83644
G1 X122.400 Y114.128 E17.03264
G1 X118.000 Y114.128 E17.17896
G1 X118.000 Y108.289 E17.37317
G0 X118.060 Y108.229 F5400
G0 X119.660 Y108.229
G0 X119.100 Y108.629
;segType:Loop
G1 X122.000 Y108.629 E17.46960 F2400
G1 X122.000 Y113.728 E17.63920
G1 X118.400 Y113.728 E17.75891
G1 X118.400 Y108.629 E17.92851
G1 X118.900 Y108.629 E17.94514
G0 X119.193 Y108.989 F5400
;segType:HShell
G1 X121.640 Y111.436 E18.06023 F2400
G0 X121.640 Y110.870 F5400
G1 X119.758 Y108.989 E18.14871 F2400
G0 X120.324 Y108.989 F5400
G1 X121.640 Y110.305 E18.21058 F2400
G0 X121.640 Y109.739 F5400
G1 X120.890 Y108.989 E18.24585 F2400
G0 X121.456 Y108.989 F5400
G1 X121.640 Y109.173 E18.25451 F2400
G0 F3000 E17.25451
G0 X121.682 Y108.629 F5400
G0 X121.281 Y113.728
G0 X121.309 Y113.368
G0 F3000 E18.25451
G1 X118.761 Y110.820 E18.37437 F2400
G0 X118.761 Y111.385 F5400
G1 X120.743 Y113.368 E18.46763 F2400
G0 X120.178 Y113.368 F5400
G1 X118.761 Y111.951 E18.53428 F2400
G0 X118.761 Y112.517 F5400
G1 X119.612 Y113.368 E18.57433 F2400
G0 X119.046 Y113.368 F5400
G1 X118.761 Y113.082 E18.58776 F2400
G0 F3000 E17.58776
G0 X118.400 Y113.076 F5400
G0 X122.000 Y113.142
G0 X128.200 Y113.256
G0 X131.800 Y113.323
G0 X131.439 Y113.316
G0 F3000 E18.58776
G1 X128.561 Y110.437 E18.72317 F2400
G0 X128.561 Y109.872 F5400
G1 X131.439 Y112.750 E18.85858 F2400
G0 X131.439 Y112.185 F5400
G1 X128.561 Y109.306 E18.99399 F2400
G0 X128.016 Y108.809 F5400
;segType:Perimeter
G1 X127.860 Y108.229 E19.01395 F1200
G1 X132.200 Y108.229 E19.15827
G1 X132.200 Y114.128 E19.35447
G1 X127.800 Y114.128 E19.50078
G1 X127.800 Y108.289 E19.69499
G0 X127.860 Y108.229 F5400
G0 X129.460 Y108.229
G0 X128.900 Y108.629
;segType:Loop
G1 X131.800 Y108.629 E19.79142 F2400
G1 X131.800 Y113.728 E19.96101
G1 X128.200 Y113.728 E20.08072
G1 X128.200 Y108.629 E20.25032
G1 X128.700 Y108.629 E20.26695
G0 X128.809 Y108.989 F5400
;segType:HShell
G1 X131.439 Y111.619 E20.39065 F2400
G0 X131.439 Y111.053 F5400
G1 X129.375 Y108.989 E20.48775 F2400
G0 X129.941 Y108.989 F5400
G1 X131.439 Y110.488 E20.55824 F2400
G0 X131.439 Y109.922 F5400
G1 X130.507 Y108.989 E20.60212 F2400
G0 X131.072 Y108.989 F5400
G1 X131.439 Y109.356 E20.61939 F2400
G0 F3000 E19.61939
G0 X131.533 Y108.629 F5400
G0 X130.879 Y113.728
G0 X130.926 Y113.368
G0 F3000 E20.61939
G1 X128.561 Y111.003 E20.73063 F2400
G0 X128.561 Y111.569 F5400
G1 X130.360 Y113.368 E20.81526 F2400
G0 X129.794 Y113.368 F5400
G1 X128.561 Y112.134 E20.87329 F2400
G0 X128.561 Y112.700 F5400
G1 X129.229 Y113.368 E20.90470 F2400
G0 X128.663 Y113.368 F5400
G1 X128.561 Y113.266 E20.90951 F2400
; ------------------------------------
; Layer #1
; ------------------------------------
G92 E0 ;reset extr
G0 F3000 E-1.00000
G0 F600 Z1.400
G0 X128.514 Y113.728 F7200
G0 X129.030 Y108.629
G0 X131.800 Y108.629
G0 X131.800 Y91.128
G0 X131.390 Y91.128
G0 X131.270 Y86.029
G0 X131.279 Y86.389
G0 F3000 E0.00000
;segType:HShell
G1 X128.561 Y89.107 E0.12784 F3600
G0 X128.561 Y88.541 F7200
G1 X130.713 Y86.389 E0.22908 F3600
G0 X130.147 Y86.389 F7200
G1 X128.561 Y87.976 E0.30371 F3600
G0 X128.561 Y87.410 F7200
G1 X129.582 Y86.389 E0.35173 F3600
G0 X129.016 Y86.389 F7200
G1 X128.561 Y86.844 E0.37314 F3600
G0 X128.200 Y86.029 F7200
G0 X128.016 Y86.209
;segType:Perimeter
G1 X127.860 Y85.629 E0.39310 F1800
G1 X132.200 Y85.629 E0.53741
G1 X132.200 Y91.528 E0.73362
G1 X127.800 Y91.528 E0.87993
G1 X127.800 Y85.689 E1.07414
G0 X127.860 Y85.629 F7200
G0 X129.460 Y85.629
G0 X128.900 Y86.029
;segType:Loop
G1 X131.800 Y86.029 E1.17056 F3600
G1 X131.800 Y91.128 E1.34016
G1 X128.200 Y91.128 E1.45986
G1 X128.200 Y86.029 E1.62946
G1 X128.700 Y86.029 E1.64609
G0 F3000 E0.64609
G0 X128.561 Y89.673 F7200
G0 F3000 E1.64609
;segType:HShell
G1 X131.439 Y86.794 E1.78150 F3600
G0 X131.439 Y87.360 F7200
G1 X128.561 Y90.238 E1.91691 F3600
G0 X128.597 Y90.768 F7200
G1 X131.439 Y87.925 E2.05062 F3600
G0 X131.439 Y88.491 F7200
G1 X129.162 Y90.768 E2.15772 F3600
G0 X129.728 Y90.768 F7200
G1 X131.439 Y89.057 E2.23821 F3600
G0 X131.439 Y89.622 F7200
G1 X130.294 Y90.768 E2.29210 F3600
G0 X130.859 Y90.768 F7200
G1 X131.439 Y90.188 E2.31938 F3600
G0 X131.439 Y90.754 F7200
G1 X131.425 Y90.768 E2.32004 F3600
G0 F3000 E1.32004
G0 X131.800 Y90.812 F7200
G0 X128.200 Y90.392
G0 X122.000 Y89.668
G0 X118.400 Y89.248
G0 X118.761 Y89.290
G0 F3000 E2.32004
G1 X121.640 Y86.411 E2.45547 F3600
G0 X121.096 Y86.389 F7200
G1 X118.761 Y88.725 E2.56533 F3600
G0 X118.761 Y88.159 F7200
G1 X120.531 Y86.389 E2.64858 F3600
G0 X119.965 Y86.389 F7200
G1 X118.761 Y87.593 E2.70523 F3600
G0 X118.761 Y87.028 F7200
G1 X119.399 Y86.389 E2.73527 F3600
G0 X118.761 Y86.462 F7200
G1 X118.833 Y86.389 E2.73870 F3600
G0 X118.216 Y86.209 F7200
;segType:Perimeter
G1 X118.060 Y85.629 E2.75866 F1800
G1 X122.400 Y85.629 E2.90298
G1 X122.400 Y91.528 E3.09919
G1 X118.000 Y91.528 E3.24551
G1 X118.000 Y85.689 E3.43972
G0 X118.060 Y85.629 F7200
G0 X119.660 Y85.629
G0 X119.100 Y86.029
;segType:Loop
G1 X122.000 Y86.029 E3.53615 F3600
G1 X122.000 Y91.128 E3.70574
G1 X118.400 Y91.128 E3.82545
G1 X118.400 Y86.029 E3.99505
G1 X118.900 Y86.029 E4.01168
G0 X121.640 Y86.977 F7200
;segType:HShell
G1 X118.761 Y89.856 E4.14710 F3600
G0 X118.761 Y90.422 F7200
G1 X121.640 Y87.543 E4.28252 F3600
G0 X121.640 Y88.108 F7200
G1 X118.980 Y90.768 E4.40762 F3600
G0 X119.546 Y90.768 F7200
G1 X121.640 Y88.674 E4.50610 F3600
G0 X121.640 Y89.240 F7200
G1 X120.111 Y90.768 E4.57798 F3600
G0 X120.677 Y90.768 F7200
G1 X121.640 Y89.806 E4.62325 F3600
G0 X121.640 Y90.371 F7200
G1 X121.243 Y90.768 E4.64191 F3600
G0 F3000 E3.64191
G0 X118.400 Y91.128 F7200
G0 X118.400 Y97.329
G0 X118.761 Y100.604
G0 F3000 E4.64191
G1 X121.640 Y97.725 E4.77733 F3600
G0 X121.110 Y97.689 F7200
G1 X118.761 Y100.038 E4.88784 F3600
G0 X118.761 Y99.473 F7200
G1 X120.544 Y97.689 E4.97175 F3600
G0 X119.979 Y97.689 F7200
G1 X118.761 Y98.907 E5.02905 F3600
G0 X118.761 Y98.341 F7200
G1 X119.413 Y97.689 E5.05973 F3600
G0 X118.761 Y97.776 F7200
G1 X118.847 Y97.689 E5.06381 F3600
G0 X118.216 Y97.508 F7200
;segType:Perimeter
G1 X118.060 Y96.929 E5.08377 F1800
G1 X122.400 Y96.929 E5.22810
G1 X122.400 Y102.828 E5.42431
G1 X118.000 Y102.828 E5.57063
G1 X118.000 Y96.989 E5.76485
G0 X118.060 Y96.929 F7200
G0 X119.660 Y96.929
G0 X119.100 Y97.329
;segType:Loop
G1 X122.000 Y97.329 E5.86128 F3600
G1 X122.000 Y102.428 E6.03088
G1 X118.400 Y102.428 E6.15059
G1 X118.400 Y97.329 E6.32020
G1 X118.900 Y97.329 E6.33683
G0 X121.640 Y98.291 F7200
;segType:HShell
G1 X118.761 Y101.170 E6.47225 F3600
G0 X118.761 Y101.736 F7200
G1 X121.640 Y98.856 E6.60767 F3600
G0 X121.640 Y99.422 F7200
G1 X118.994 Y102.068 E6.73212 F3600
G0 X119.559 Y102.068 F7200
G1 X121.640 Y99.988 E6.82997 F3600
G0 X121.640 Y100.554 F7200
G1 X120.125 Y102.068 E6.90121 F3600
G0 X120.691 Y102.068 F7200
G1 X121.640 Y101.119 E6.94584 F3600
G0 X121.640 Y101.685 F7200
G1 X121.256 Y102.068 E6.96386 F3600
G0 F3000 E5.96386
G0 X118.400 Y102.428 F7200
G0 X118.400 Y108.629
G0 X118.761 Y111.918
G0 F3000 E6.96386
G1 X121.640 Y109.039 E7.09928 F3600
G0 X121.124 Y108.989 F7200
G1 X118.761 Y111.352 E7.21043 F3600
G0 X118.761 Y110.786 F7200
G1 X120.558 Y108.989 E7.29498 F3600
G0 X119.992 Y108.989 F7200
G1 X118.761 Y110.221 E7.35291 F3600
G0 X118.761 Y109.655 F7200
G1 X119.427 Y108.989 E7.38424 F3600
G0 X118.761 Y109.089 F7200
G1 X118.861 Y108.989 E7.38896 F3600
G0 X118.216 Y108.809 F7200
;segType:Perimeter
G1 X118.060 Y108.229 E7.40892 F1800
G1 X122.400 Y108.229 E7.55324
G1 X122.400 Y114.128 E7.74945
G1 X118.000 Y114.128 E7.89577
G1 X118.000 Y108.289 E8.08998
G0 X118.060 Y108.229 F7200
G0 X119.660 Y108.229
G0 X119.100 Y108.629
;segType:Loop
G1 X122.000 Y108.629 E8.18641 F3600
G1 X122.000 Y113.728 E8.35600
G1 X118.400 Y113.728 E8.47571
G1 X118.400 Y108.629 E8.64531
G1 X118.900 Y108.629 E8.66194
G0 X121.640 Y109.605 F7200
;segType:HShell
G1 X118.761 Y112.484 E8.79736 F3600
G0 X118.761 Y113.049 F7200
G1 X121.640 Y110.170 E8.93278 F3600
G0 X121.640 Y110.736 F7200
G1 X119.008 Y113.368 E9.05659 F3600
G0 X119.573 Y113.368 F7200
G1 X121.640 Y111.302 E9.15379 F3600
G0 X121.640 Y111.867 F7200
G1 X120.139 Y113.368 E9.22437 F3600
G0 X120.705 Y113.368 F7200
G1 X121.640 Y112.433 E9.26835 F3600
G0 X121.640 Y112.999 F7200
G1 X121.270 Y113.368 E9.28573 F3600
G0 F3000 E8.28573
G0 X121.040 Y113.728 F7200
G0 X122.000 Y112.227
G0 X122.000 Y108.629
G0 X128.200 Y102.428
G0 X128.200 Y101.329
G0 X131.598 Y97.329
G0 X131.292 Y97.689
G0 F3000 E9.28573
G1 X128.561 Y100.421 E9.41422 F3600
G0 X128.561 Y99.855 F7200
G1 X130.727 Y97.689 E9.51611 F3600
G0 X130.161 Y97.689 F7200
G1 X128.561 Y99.289 E9.59138 F3600
G0 X128.561 Y98.724 F7200
G1 X129.595 Y97.689 E9.64005 F3600
G0 X129.030 Y97.689 F7200
G1 X128.561 Y98.158 E9.66212 F3600
G0 X128.200 Y97.329 F7200
G0 X128.016 Y97.508
;segType:Perimeter
G1 X127.860 Y96.929 E9.68207 F1800
G1 X132.200 Y96.929 E9.82639
G1 X132.200 Y102.828 E10.02260
G1 X127.800 Y102.828 E10.16892
G1 X127.800 Y96.989 E10.36313
G0 X127.860 Y96.929 F7200
G0 X129.460 Y96.929
G0 X128.900 Y97.329
;segType:Loop
G1 X131.800 Y97.329 E10.45955 F3600
G1 X131.800 Y102.428 E10.62916
G1 X128.200 Y102.428 E10.74886
G1 X128.200 Y97.329 E10.91847
G1 X128.700 Y97.329 E10.93510
G0 F3000 E9.93510
G0 X128.561 Y100.986 F7200
G0 F3000 E10.93510
;segType:HShell
G1 X131.439 Y98.108 E11.07051 F3600
G0 X131.439 Y98.673 F7200
G1 X128.561 Y101.552 E11.20592 F3600
G0 X128.610 Y102.068 F7200
G1 X131.439 Y99.239 E11.33899 F3600
G0 X131.439 Y99.805 F7200
G1 X129.176 Y102.068 E11.44545 F3600
G0 X129.742 Y102.068 F7200
G1 X131.439 Y100.370 E11.52530 F3600
G0 X131.439 Y100.936 F7200
G1 X130.307 Y102.068 E11.57855 F3600
G0 X130.873 Y102.068 F7200
G1 X131.439 Y101.502 E11.60519 F3600
G0 X131.439 Y102.067 F7200
G1 X131.439 Y102.068 E11.60522 F3600
G0 F3000 E10.60522
G0 X131.306 Y108.989 F7200
G0 F3000 E11.60522
G1 X128.561 Y111.734 E11.73435 F3600
G0 X128.561 Y111.169 F7200
G1 X130.740 Y108.989 E11.83687 F3600
G0 X130.175 Y108.989 F7200
G1 X128.561 Y110.603 E11.91279 F3600
G0 X128.561 Y110.037 F7200
G1 X129.609 Y108.989 E11.96210 F3600
G0 X129.043 Y108.989 F7200
G1 X128.561 Y109.472 E11.98480 F3600
G0 X128.200 Y108.629 F7200
G0 X128.016 Y108.809
;segType:Perimeter
G1 X127.860 Y108.229 E12.00476 F1800
G1 X132.200 Y108.229 E12.14907
G1 X132.200 Y114.128 E12.34528
G1 X127.800 Y114.128 E12.49159
G1 X127.800 Y108.289 E12.68580
G0 X127.860 Y108.229 F7200
G0 X129.460 Y108.229
G0 X128.900 Y108.629
;segType:Loop
G1 X131.800 Y108.629 E12.78222 F3600
G1 X131.800 Y113.728 E12.95182
G1 X128.200 Y113.728 E13.07152
G1 X128.200 Y108.629 E13.24112
G1 X128.700 Y108.629 E13.25775
G0 F3000 E12.25775
G0 X128.561 Y112.300 F7200
G0 F3000 E13.25775
;segType:HShell
G1 X131.439 Y109.421 E13.39316 F3600
G0 X131.439 Y109.987 F7200
G1 X128.561 Y112.866 E13.52857 F3600
G0 X128.624 Y113.368 F7200
G1 X131.439 Y110.553 E13.66099 F3600
G0 X131.439 Y111.118 F7200
G1 X129.190 Y113.368 E13.76680 F3600
G0 X129.756 Y113.368 F7200
G1 X131.439 Y111.684 E13.84601 F3600
G0 X131.439 Y112.250 F7200
G1 X130.321 Y113.368 E13.89860 F3600
G0 X130.887 Y113.368 F7200
G1 X131.439 Y112.815 E13.92459 F3600
G0 F3000 E12.92459
G0 X131.800 Y108.629 F7200
G0 X138.000 Y108.629
G0 X138.000 Y108.874
G0 X141.600 Y109.016
G0 X140.923 Y108.989
G0 F3000 E13.92459
G1 X138.360 Y111.551 E14.04511 F3600
G0 X138.360 Y110.986 F7200
G1 X140.357 Y108.989 E14.13902 F3600
G0 X139.791 Y108.989 F7200
G1 X138.360 Y110.420 E14.20632 F3600
G0 X138.360 Y109.854 F7200
G1 X139.226 Y108.989 E14.24701 F3600
G0 X138.360 Y109.289 F7200
G1 X138.660 Y108.989 E14.26110 F3600
G0 X137.867 Y109.002 F7200
;segType:Perimeter
G1 X137.660 Y108.229 E14.28771 F1800
G1 X142.000 Y108.229 E14.43203
G1 X142.000 Y114.128 E14.62823
G1 X137.600 Y114.128 E14.77455
G1 X137.600 Y108.289 E14.96876
G0 X137.660 Y108.229 F7200
G0 X139.260 Y108.229
G0 X138.700 Y108.629
;segType:Loop
G1 X141.600 Y108.629 E15.06519 F3600
G1 X141.600 Y113.728 E15.23479
G1 X138.000 Y113.728 E15.35450
G1 X138.000 Y108.629 E15.52410
G1 X138.500 Y108.629 E15.54073
G0 F3000 E14.54073
G0 X138.360 Y112.117 F7200
G0 F3000 E15.54073
;segType:HShell
G1 X141.239 Y109.238 E15.67615 F3600
G0 X141.239 Y109.804 F7200
G1 X138.360 Y112.683 E15.81157 F3600
G0 X138.360 Y113.248 F7200
G1 X141.239 Y110.369 E15.94699 F3600
G0 X141.239 Y110.935 F7200
G1 X138.806 Y113.368 E16.06143 F3600
G0 X139.372 Y113.368 F7200
G1 X141.239 Y111.501 E16.14926 F3600
G0 X141.239 Y112.066 F7200
G1 X139.938 Y113.368 E16.21049 F3600
G0 X140.504 Y113.368 F7200
G1 X141.239 Y112.632 E16.24510 F3600
G0 X141.239 Y113.198 F7200
G1 X141.069 Y113.368 E16.25311 F3600
G0 F3000 E15.25311
G0 X141.073 Y113.728 F7200
G0 X141.021 Y108.629
G0 X140.957 Y102.428
G0 X140.905 Y97.329
G0 X140.909 Y97.689
G0 F3000 E16.25311
G1 X138.360 Y100.238 E16.37299 F3600
G0 X138.360 Y99.672 F7200
G1 X140.343 Y97.689 E16.46626 F3600
G0 X139.778 Y97.689 F7200
G1 X138.360 Y99.106 E16.53292 F3600
G0 X138.360 Y98.541 F7200
G1 X139.212 Y97.689 E16.57297 F3600
G0 X138.360 Y97.975 F7200
G1 X138.646 Y97.689 E16.58642 F3600
G0 X137.867 Y97.702 F7200
;segType:Perimeter
G1 X137.660 Y96.929 E16.61303 F1800
G1 X142.000 Y96.929 E16.75735
G1 X142.000 Y102.828 E16.95357
G1 X137.600 Y102.828 E17.09989
G1 X137.600 Y96.989 E17.29410
G0 X137.660 Y96.929 F7200
G0 X139.260 Y96.929
G0 X138.700 Y97.329
;segType:Loop
G1 X141.600 Y97.329 E17.39053 F3600
G1 X141.600 Y102.428 E17.56014
G1 X138.000 Y102.428 E17.67985
G1 X138.000 Y97.329 E17.84946
G1 X138.500 Y97.329 E17.86609
G0 F3000 E16.86609
G0 X138.360 Y100.803 F7200
G0 F3000 E17.86609
;segType:HShell
G1 X141.239 Y97.924 E18.00151 F3600
G0 X141.239 Y98.490 F7200
G1 X138.360 Y101.369 E18.13693 F3600
G0 X138.360 Y101.935 F7200
G1 X141.239 Y99.056 E18.27235 F3600
G0 X141.239 Y99.621 F7200
G1 X138.793 Y102.068 E18.38744 F3600
G0 X139.358 Y102.068 F7200
G1 X141.239 Y100.187 E18.47592 F3600
G0 X141.239 Y100.753 F7200
G1 X139.924 Y102.068 E18.53780 F3600
G0 X140.490 Y102.068 F7200
G1 X141.239 Y101.318 E18.57306 F3600
G0 X141.239 Y101.884 F7200
G1 X141.055 Y102.068 E18.58172 F3600
G0 F3000 E17.58172
G0 X141.133 Y102.428 F7200
G0 X140.040 Y97.329
G0 X138.000 Y97.329
G0 X138.000 Y91.128
G0 X138.360 Y89.490
G0 F3000 E18.58172
G1 X141.239 Y86.611 E18.71714 F3600
G0 X140.895 Y86.389 F7200
G1 X138.360 Y88.924 E18.83637 F3600
G0 X138.360 Y88.358 F7200
G1 X140.330 Y86.389 E18.92899 F3600
G0 X139.764 Y86.389 F7200
G1 X138.360 Y87.792 E18.99500 F3600
G0 X138.360 Y87.227 F7200
G1 X139.198 Y86.389 E19.03440 F3600
G0 X138.360 Y86.661 F7200
G1 X138.632 Y86.389 E19.04720 F3600
G0 X137.867 Y86.402 F7200
;segType:Perimeter
G1 X137.660 Y85.629 E19.07381 F1800
G1 X142.000 Y85.629 E19.21813
G1 X142.000 Y91.528 E19.41434
G1 X137.600 Y91.528 E19.56066
G1 X137.600 Y85.689 E19.75487
G0 X137.660 Y85.629 F7200
G0 X139.260 Y85.629
G0 X138.700 Y86.029
;segType:Loop
G1 X141.600 Y86.029 E19.85130 F3600
G1 X141.600 Y91.128 E20.02090
G1 X138.000 Y91.128 E20.14061
G1 X138.000 Y86.029 E20.31021
G1 X138.500 Y86.029 E20.32684
G0 X141.239 Y87.176 F7200
;segType:HShell
G1 X138.360 Y90.055 E20.46226 F3600
G0 X138.360 Y90.621 F7200
G1 X141.239 Y87.742 E20.59768 F3600
G0 X141.239 Y88.308 F7200
G1 X138.779 Y90.768 E20.71340 F3600
G0 X139.345 Y90.768 F7200
G1 X141.239 Y88.873 E20.80253 F3600
G0 X141.239 Y89.439 F7200
G1 X139.910 Y90.768 E20.86504 F3600
G0 X140.476 Y90.768 F7200
G1 X141.239 Y90.005 E20.90094 F3600
G0 X141.239 Y90.570 F7200
G1 X141.042 Y90.768 E20.91024 F3600
; ------------------------------------
; Layer #2
; ------------------------------------
G92 E0 ;reset extr
G0 F3000 E-1.00000
G0 F600 Z1.600
G0 X138.000 Y91.128 F7200
G0 X131.800 Y108.629
G0 X131.800 Y112.098
G0 X131.318 Y113.728
G0 X131.439 Y113.316
G0 F3000 E0.00000
;segType:HShell
G1 X128.561 Y110.437 E0.13541 F3600
G0 X128.561 Y109.872 F7200
G1 X131.439 Y112.750 E0.27082 F3600
G0 X131.439 Y112.185 F7200
G1 X128.561 Y109.306 E0.40623 F3600
G0 X128.016 Y108.809 F7200
;segType:Perimeter
G1 X127.860 Y108.229 E0.42618 F1800
G1 X132.200 Y108.229 E0.57050
G1 X132.200 Y114.128 E0.76671
G1 X127.800 Y114.128 E0.91302
G1 X127.800 Y108.289 E1.10723
G0 X127.860 Y108.229 F7200
G0 X129.460 Y108.229
G0 X128.900 Y108.629
;segType:Loop
G1 X131.800 Y108.629 E1.20365 F3600
G1 X131.800 Y113.728 E1.37325
G1 X128.200 Y113.728 E1.49295
G1 X128.200 Y108.629 E1.66255
G1 X128.700 Y108.629 E1.67918
G0 X128.809 Y108.989 F7200
;segType:HShell
G1 X131.439 Y111.619 E1.80288 F3600
G0 X131.439 Y111.053 F7200
G1 X129.375 Y108.989 E1.89998 F3600
G0 X129.941 Y108.989 F7200
G1 X131.439 Y110.488 E1.97047 F3600
G0 X131.439 Y109.922 F7200
G1 X130.507 Y108.989 E2.01435 F3600
G0 X131.072 Y108.989 F7200
G1 X131.439 Y109.356 E2.03162 F3600
G0 F3000 E1.03162
G0 X131.533 Y108.629 F7200
G0 X130.879 Y113.728
G0 X130.926 Y113.368
G0 F3000 E2.03162
G1 X128.561 Y111.003 E2.14286 F3600
G0 X128.561 Y111.569 F7200
G1 X130.360 Y113.368 E2.22750 F3600
G0 X129.794 Y113.368 F7200
G1 X128.561 Y112.134 E2.28552 F3600
G0 X128.561 Y112.700 F7200
G1 X129.229 Y113.368 E2.31694 F3600
G0 X128.663 Y113.368 F7200
G1 X128.561 Y113.266 E2.32174 F3600
G0 F3000 E1.32174
G0 X121.640 Y113.133 F7200
G0 F3000 E2.32174
G1 X118.761 Y110.254 E2.45716 F3600
G0 X118.761 Y109.688 F7200
G1 X121.640 Y112.567 E2.59258 F3600
G0 X121.640 Y112.002 F7200
G1 X118.761 Y109.123 E2.72800 F3600
G0 X118.216 Y108.809 F7200
;segType:Perimeter
G1 X118.060 Y108.229 E2.74796 F1800
G1 X122.400 Y108.229 E2.89229
G1 X122.400 Y114.128 E3.08849
G1 X118.000 Y114.128 E3.23481
G1 X118.000 Y108.289 E3.42902
G0 X118.060 Y108.229 F7200
G0 X119.660 Y108.229
G0 X119.100 Y108.629
;segType:Loop
G1 X122.000 Y108.629 E3.52545 F3600
G1 X122.000 Y113.728 E3.69505
G1 X118.400 Y113.728 E3.81476
G1 X118.400 Y108.629 E3.98436
G1 X118.900 Y108.629 E4.00099
G0 X119.193 Y108.989 F7200
;segType:HShell
G1 X121.640 Y111.436 E4.11608 F3600
G0 X121.640 Y110.870 F7200
G1 X119.758 Y108.989 E4.20456 F3600
G0 X120.324 Y108.989 F7200
G1 X121.640 Y110.305 E4.26643 F3600
G0 X121.640 Y109.739 F7200
G1 X120.890 Y108.989 E4.30169 F3600
G0 X121.456 Y108.989 F7200
G1 X121.640 Y109.173 E4.31035 F3600
G0 F3000 E3.31035
G0 X121.682 Y108.629 F7200
G0 X121.281 Y113.728
G0 X121.309 Y113.368
G0 F3000 E4.31035
G1 X118.761 Y110.820 E4.43022 F3600
G0 X118.761 Y111.385 F7200
G1 X120.743 Y113.368 E4.52348 F3600
G0 X120.178 Y113.368 F7200
G1 X118.761 Y111.951 E4.59013 F3600
G0 X118.761 Y112.517 F7200
G1 X119.612 Y113.368 E4.63017 F3600
G0 X119.046 Y113.368 F7200
G1 X118.761 Y113.082 E4.64361 F3600
G0 F3000 E3.64361
G0 X118.595 Y113.728 F7200
G0 X119.899 Y108.629
G0 X122.000 Y108.629
G0 X122.000 Y102.428
G0 X121.640 Y101.819
G0 F3000 E4.64361
G1 X118.761 Y98.940 E4.77903 F3600
G0 X118.761 Y98.375 F7200
G1 X121.640 Y101.254 E4.91445 F3600
G0 X121.640 Y100.688 F7200
G1 X118.761 Y97.809 E5.04987 F3600
G0 X118.216 Y97.508 F7200
;segType:Perimeter
G1 X118.060 Y96.929 E5.06983 F1800
G1 X122.400 Y96.929 E5.21415
G1 X122.400 Y102.828 E5.41036
G1 X118.000 Y102.828 E5.55668
G1 X118.000 Y96.989 E5.75090
G0 X118.060 Y96.929 F7200
G0 X119.660 Y96.929
G0 X119.100 Y97.329
;segType:Loop
G1 X122.000 Y97.329 E5.84733 F3600
G1 X122.000 Y102.428 E6.01694
G1 X118.400 Y102.428 E6.13665
G1 X118.400 Y97.329 E6.30625
G1 X118.900 Y97.329 E6.32288
G0 X119.206 Y97.689 F7200
;segType:HShell
G1 X121.640 Y100.122 E6.43733 F3600
G0 X121.640 Y99.556 F7200
G1 X119.772 Y97.689 E6.52518 F3600
G0 X120.338 Y97.689 F7200
G1 X121.640 Y98.991 E6.58641 F3600
G0 X121.640 Y98.425 F7200
G1 X120.903 Y97.689 E6.62104 F3600
G0 X121.469 Y97.689 F7200
G1 X121.640 Y97.859 E6.62905 F3600
G0 F3000 E5.62905
G0 X121.680 Y97.329 F7200
G0 X121.296 Y102.428
G0 X121.323 Y102.068
G0 F3000 E6.62905
G1 X118.761 Y99.506 E6.74957 F3600
G0 X118.761 Y100.072 F7200
G1 X120.757 Y102.068 E6.84348 F3600
G0 X120.191 Y102.068 F7200
G1 X118.761 Y100.637 E6.91078 F3600
G0 X118.761 Y101.203 F7200
G1 X119.626 Y102.068 E6.95147 F3600
G0 X119.060 Y102.068 F7200
G1 X118.761 Y101.769 E6.96556 F3600
G0 F3000 E5.96556
G0 X118.592 Y102.428 F7200
G0 X119.895 Y97.329
G0 X122.000 Y97.329
G0 X122.000 Y91.128
G0 X121.640 Y90.506
G0 F3000 E6.96556
G1 X118.761 Y87.627 E7.10098 F3600
G0 X118.761 Y87.061 F7200
G1 X121.640 Y89.940 E7.23640 F3600
G0 X121.640 Y89.374 F7200
G1 X118.761 Y86.495 E7.37182 F3600
G0 X118.216 Y86.209 F7200
;segType:Perimeter
G1 X118.060 Y85.629 E7.39178 F1800
G1 X122.400 Y85.629 E7.53610
G1 X122.400 Y91.528 E7.73231
G1 X118.000 Y91.528 E7.87863
G1 X118.000 Y85.689 E8.07284
G0 X118.060 Y85.629 F7200
G0 X119.660 Y85.629
G0 X119.100 Y86.029
;segType:Loop
G1 X122.000 Y86.029 E8.16927 F3600
G1 X122.000 Y91.128 E8.33886
G1 X118.400 Y91.128 E8.45858
G1 X118.400 Y86.029 E8.62817
G1 X118.900 Y86.029 E8.64480
G0 X119.220 Y86.389 F7200
;segType:HShell
G1 X121.640 Y88.808 E8.75860 F3600
G0 X121.640 Y88.243 F7200
G1 X119.786 Y86.389 E8.84580 F3600
G0 X120.352 Y86.389 F7200
G1 X121.640 Y87.677 E8.90638 F3600
G0 X121.640 Y87.111 F7200
G1 X120.917 Y86.389 E8.94036 F3600
G0 X121.483 Y86.389 F7200
G1 X121.640 Y86.546 E8.94773 F3600
G0 F3000 E7.94773
G0 X121.677 Y86.029 F7200
G0 X121.310 Y91.128
G0 X121.336 Y90.768
G0 F3000 E8.94773
G1 X118.761 Y88.192 E9.06888 F3600
G0 X118.761 Y88.758 F7200
G1 X120.771 Y90.768 E9.16343 F3600
G0 X120.205 Y90.768 F7200
G1 X118.761 Y89.324 E9.23137 F3600
G0 X118.761 Y89.889 F7200
G1 X119.639 Y90.768 E9.27270 F3600
G0 X119.074 Y90.768 F7200
G1 X118.761 Y90.455 E9.28743 F3600
G0 F3000 E8.28743
G0 X118.400 Y90.448 F7200
G0 X122.000 Y90.515
G0 X128.200 Y90.629
G0 X131.800 Y90.695
G0 X131.439 Y90.689
G0 F3000 E9.28743
G1 X128.561 Y87.810 E9.42283 F3600
G0 X128.561 Y87.244 F7200
G1 X131.439 Y90.123 E9.55824 F3600
G0 X131.439 Y89.557 F7200
G1 X128.561 Y86.679 E9.69365 F3600
G0 X128.016 Y86.209 F7200
;segType:Perimeter
G1 X127.860 Y85.629 E9.71361 F1800
G1 X132.200 Y85.629 E9.85793
G1 X132.200 Y91.528 E10.05413
G1 X127.800 Y91.528 E10.20045
G1 X127.800 Y85.689 E10.39466
G0 X127.860 Y85.629 F7200
G0 X129.460 Y85.629
G0 X128.900 Y86.029
;segType:Loop
G1 X131.800 Y86.029 E10.49108 F3600
G1 X131.800 Y91.128 E10.66067
G1 X128.200 Y91.128 E10.78038
G1 X128.200 Y86.029 E10.94998
G1 X128.700 Y86.029 E10.96661
G0 X128.837 Y86.389 F7200
;segType:HShell
G1 X131.439 Y88.992 E11.08902 F3600
G0 X131.439 Y88.426 F7200
G1 X129.403 Y86.389 E11.18483 F3600
G0 X129.968 Y86.389 F7200
G1 X131.439 Y87.860 E11.25403 F3600
G0 X131.439 Y87.295 F7200
G1 X130.534 Y86.389 E11.29662 F3600
G0 X131.100 Y86.389 F7200
G1 X131.439 Y86.729 E11.31261 F3600
G0 F3000 E10.31261
G0 X131.524 Y86.029 F7200
G0 X130.910 Y91.128
G0 X130.953 Y90.768
G0 F3000 E11.31261
G1 X128.561 Y88.376 E11.42514 F3600
G0 X128.561 Y88.941 F7200
G1 X130.387 Y90.768 E11.51106 F3600
G0 X129.822 Y90.768 F7200
G1 X128.561 Y89.507 E11.57037 F3600
G0 X128.561 Y90.073 F7200
G1 X129.256 Y90.768 E11.60307 F3600
G0 X128.690 Y90.768 F7200
G1 X128.561 Y90.638 E11.60917 F3600
G0 F3000 E10.60917
G0 X128.200 Y90.770 F7200
G0 X131.800 Y89.451
G0 X131.800 Y86.029
G0 X138.000 Y86.029
G0 X140.151 Y86.389
G0 F3000 E11.60917
G1 X141.239 Y87.478 E11.66039 F3600
G0 X141.239 Y88.044 F7200
G1 X139.585 Y86.389 E11.73822 F3600
G0 X139.019 Y86.389 F7200
G1 X141.239 Y88.609 E11.84265 F3600
G0 X141.239 Y89.175 F7200
G1 X138.453 Y86.389 E11.97370 F3600
G0 X137.867 Y86.402 F7200
;segType:Perimeter
G1 X137.660 Y85.629 E12.00030 F1800
G1 X142.000 Y85.629 E12.14463
G1 X142.000 Y91.528 E12.34083
G1 X137.600 Y91.528 E12.48715
G1 X137.600 Y85.689 E12.68136
G0 X137.660 Y85.629 F7200
G0 X139.260 Y85.629
G0 X138.700 Y86.029
;segType:Loop
G1 X141.600 Y86.029 E12.77779 F3600
G1 X141.600 Y91.128 E12.94739
G1 X138.000 Y91.128 E13.06710
G1 X138.000 Y86.029 E13.23670
G1 X138.500 Y86.029 E13.25333
G0 X138.360 Y86.862 F7200
;segType:HShell
G1 X141.239 Y89.741 E13.38875 F3600
G0 X141.239 Y90.306 F7200
G1 X138.360 Y87.427 E13.52417 F3600
G0 X138.360 Y87.993 F7200
G1 X141.135 Y90.768 E13.65469 F3600
G0 X140.570 Y90.768 F7200
G1 X138.360 Y88.559 E13.75861 F3600
G0 X138.360 Y89.124 F7200
G1 X140.004 Y90.768 E13.83591 F3600
G0 X139.438 Y90.768 F7200
G1 X138.360 Y89.690 E13.88661 F3600
G0 X138.360 Y90.256 F7200
G1 X138.873 Y90.768 E13.91070 F3600
G0 X141.239 Y86.912 F7200
G1 X140.716 Y86.389 E13.93531 F3600
G0 F3000 E12.93531
G0 X140.735 Y86.029 F7200
G0 X140.473 Y91.128
G0 X140.137 Y97.689
G0 F3000 E13.93531
G1 X141.239 Y98.792 E13.98718 F3600
G0 X141.239 Y99.357 F7200
G1 X139.571 Y97.689 E14.06566 F3600
G0 X139.005 Y97.689 F7200
G1 X141.239 Y99.923 E14.17074 F3600
G0 X141.239 Y100.489 F7200
G1 X138.440 Y97.689 E14.30244 F3600
G0 X137.867 Y97.702 F7200
;segType:Perimeter
G1 X137.660 Y96.929 E14.32904 F1800
G1 X142.000 Y96.929 E14.47337
G1 X142.000 Y102.828 E14.66958
G1 X137.600 Y102.828 E14.81590
G1 X137.600 Y96.989 E15.01012
G0 X137.660 Y96.929 F7200
G0 X139.260 Y96.929
G0 X138.700 Y97.329
;segType:Loop
G1 X141.600 Y97.329 E15.10655 F3600
G1 X141.600 Y102.428 E15.27615
G1 X138.000 Y102.428 E15.39587
G1 X138.000 Y97.329 E15.56547
G1 X138.500 Y97.329 E15.58210
G0 X138.360 Y98.175 F7200
;segType:HShell
G1 X141.239 Y101.054 E15.71752 F3600
G0 X141.239 Y101.620 F7200
G1 X138.360 Y98.741 E15.85294 F3600
G0 X138.360 Y99.307 F7200
G1 X141.122 Y102.068 E15.98282 F3600
G0 X140.556 Y102.068 F7200
G1 X138.360 Y99.872 E16.08610 F3600
G0 X138.360 Y100.438 F7200
G1 X139.990 Y102.068 E16.16276 F3600
G0 X139.425 Y102.068 F7200
G1 X138.360 Y101.004 E16.21282 F3600
G0 X138.360 Y101.570 F7200
G1 X138.859 Y102.068 E16.23627 F3600
G0 X141.239 Y98.226 F7200
G1 X140.702 Y97.689 E16.26153 F3600
G0 F3000 E15.26153
G0 X140.721 Y97.329 F7200
G0 X140.459 Y102.428
G0 X140.123 Y108.989
G0 F3000 E16.26153
G1 X141.239 Y110.105 E16.31404 F3600
G0 X141.239 Y110.671 F7200
G1 X139.557 Y108.989 E16.39316 F3600
G0 X138.992 Y108.989 F7200
G1 X141.239 Y111.237 E16.49888 F3600
G0 X141.239 Y111.802 F7200
G1 X138.426 Y108.989 E16.63121 F3600
G0 X137.867 Y109.002 F7200
;segType:Perimeter
G1 X137.660 Y108.229 E16.65782 F1800
G1 X142.000 Y108.229 E16.80215
G1 X142.000 Y114.128 E16.99835
G1 X137.600 Y114.128 E17.14467
G1 X137.600 Y108.289 E17.33888
G0 X137.660 Y108.229 F7200
G0 X139.260 Y108.229
G0 X138.700 Y108.629
;segType:Loop
G1 X141.600 Y108.629 E17.43531 F3600
G1 X141.600 Y113.728 E17.60491
G1 X138.000 Y113.728 E17.72462
G1 X138.000 Y108.629 E17.89422
G1 X138.500 Y108.629 E17.91085
G0 X138.360 Y109.489 F7200
;segType:HShell
G1 X141.239 Y112.368 E18.04627 F3600
G0 X141.239 Y112.934 F7200
G1 X138.360 Y110.055 E18.18169 F3600
G0 X138.360 Y110.620 F7200
G1 X141.108 Y113.368 E18.31092 F3600
G0 X140.542 Y113.368 F7200
G1 X138.360 Y111.186 E18.41355 F3600
G0 X138.360 Y111.752 F7200
G1 X139.977 Y113.368 E18.48957 F3600
G0 X139.411 Y113.368 F7200
G1 X138.360 Y112.318 E18.53897 F3600
G0 X138.360 Y112.883 F7200
G1 X138.845 Y113.368 E18.56177 F3600
G0 X141.239 Y109.540 F7200
G1 X140.689 Y108.989 E18.58767 F3600
G0 F3000 E17.58767
G0 X138.000 Y108.629 F7200
G0 X131.800 Y102.428
G0 X131.439 Y102.002
G0 F3000 E18.58767
G1 X128.561 Y99.124 E18.72308 F3600
G0 X128.561 Y98.558 F7200
G1 X131.439 Y101.437 E18.85849 F3600
G0 X131.439 Y100.871 F7200
G1 X128.561 Y97.992 E18.99390 F3600
G0 X128.016 Y97.508 F7200
;segType:Perimeter
G1 X127.860 Y96.929 E19.01386 F1800
G1 X132.200 Y96.929 E19.15818
G1 X132.200 Y102.828 E19.35439
G1 X127.800 Y102.828 E19.50070
G1 X127.800 Y96.989 E19.69492
G0 X127.860 Y96.929 F7200
G0 X129.460 Y96.929
G0 X128.900 Y97.329
;segType:Loop
G1 X131.800 Y97.329 E19.79134 F3600
G1 X131.800 Y102.428 E19.96095
G1 X128.200 Y102.428 E20.08065
G1 X128.200 Y97.329 E20.25026
G1 X128.700 Y97.329 E20.26689
G0 X128.823 Y97.689 F7200
;segType:HShell
G1 X131.439 Y100.305 E20.38995 F3600
G0 X131.439 Y99.740 F7200
G1 X129.389 Y97.689 E20.48641 F3600
G0 X129.954 Y97.689 F7200
G1 X131.439 Y99.174 E20.55626 F3600
G0 X131.439 Y98.608 F7200
G1 X130.520 Y97.689 E20.59950 F3600
G0 X131.086 Y97.689 F7200
G1 X131.439 Y98.043 E20.61614 F3600
G0 F3000 E19.61614
G0 X131.528 Y97.329 F7200
G0 X130.895 Y102.428
G0 X130.939 Y102.068
G0 F3000 E20.61614
G1 X128.561 Y99.689 E20.72803 F3600
G0 X128.561 Y100.255 F7200
G1 X130.374 Y102.068 E20.81331 F3600
G0 X129.808 Y102.068 F7200
G1 X128.561 Y100.821 E20.87198 F3600
G0 X128.561 Y101.386 F7200
G1 X129.242 Y102.068 E20.90405 F3600
G0 X128.677 Y102.068 F7200
G1 X128.561 Y101.952 E20.90951 F3600
; ------------------------------------
; Layer #3
; ------------------------------------
G92 E0 ;reset extr
G0 F3000 E-1.00000
G0 F600 Z1.800
G0 X128.200 Y101.747 F7200
G0 X129.397 Y102.428
G0 X131.800 Y102.428
G0 X138.000 Y108.629
G0 X140.923 Y108.989
G0 F3000 E0.00000
;segType:HShell
G1 X138.360 Y111.551 E0.12052 F3600
G0 X138.360 Y110.986 F7200
G1 X140.357 Y108.989 E0.21443 F3600
G0 X139.791 Y108.989 F7200
G1 X138.360 Y110.420 E0.28173 F3600
G0 X138.360 Y109.854 F7200
G1 X139.226 Y108.989 E0.32242 F3600
G0 X138.360 Y109.289 F7200
G1 X138.660 Y108.989 E0.33650 F3600
G0 X137.867 Y109.002 F7200
;segType:Perimeter
G1 X137.660 Y108.229 E0.36311 F1800
G1 X142.000 Y108.229 E0.50744
G1 X142.000 Y114.128 E0.70364
G1 X137.600 Y114.128 E0.84996
G1 X137.600 Y108.289 E1.04417
G0 X137.660 Y108.229 F7200
G0 X139.260 Y108.229
G0 X138.700 Y108.629
;segType:Loop
G1 X141.600 Y108.629 E1.14060 F3600
G1 X141.600 Y113.728 E1.31020
G1 X138.000 Y113.728 E1.42991
G1 X138.000 Y108.629 E1.59951
G1 X138.500 Y108.629 E1.61614
G0 F3000 E0.61614
G0 X141.264 Y113.728 F7200
G0 X141.069 Y113.368
G0 F3000 E1.61614
;segType:HShell
G1 X141.239 Y113.198 E1.62414 F3600
G0 X141.239 Y112.632 F7200
G1 X140.504 Y113.368 E1.65876 F3600
G0 X139.938 Y113.368 F7200
G1 X141.239 Y112.066 E1.71998 F3600
G0 X141.239 Y111.501 F7200
G1 X139.372 Y113.368 E1.80781 F3600
G0 X138.806 Y113.368 F7200
G1 X141.239 Y110.935 E1.92225 F3600
G0 X141.239 Y110.369 F7200
G1 X138.360 Y113.248 E2.05768 F3600
G0 X138.360 Y112.683 F7200
G1 X141.239 Y109.804 E2.19310 F3600
G0 X141.239 Y109.238 F7200
G1 X138.360 Y112.117 E2.32852 F3600
G0 F3000 E1.32852
G0 X138.000 Y108.629 F7200
G0 X131.800 Y102.428
G0 X131.800 Y98.516
G0 X131.072 Y97.329
G0 X131.292 Y97.689
G0 F3000 E2.32852
G1 X128.561 Y100.421 E2.45701 F3600
G0 X128.561 Y99.855 F7200
G1 X130.727 Y97.689 E2.55890 F3600
G0 X130.161 Y97.689 F7200
G1 X128.561 Y99.289 E2.63417 F3600
G0 X128.561 Y98.724 F7200
G1 X129.595 Y97.689 E2.68284 F3600
G0 X129.030 Y97.689 F7200
G1 X128.561 Y98.158 E2.70490 F3600
G0 X128.200 Y97.329 F7200
G0 X128.016 Y97.508
;segType:Perimeter
G1 X127.860 Y96.929 E2.72486 F1800
G1 X132.200 Y96.929 E2.86918
G1 X132.200 Y102.828 E3.06539
G1 X127.800 Y102.828 E3.21170
G1 X127.800 Y96.989 E3.40592
G0 X127.860 Y96.929 F7200
G0 X129.460 Y96.929
G0 X128.900 Y97.329
;segType:Loop
G1 X131.800 Y97.329 E3.50234 F3600
G1 X131.800 Y102.428 E3.67195
G1 X128.200 Y102.428 E3.79165
G1 X128.200 Y97.329 E3.96126
G1 X128.700 Y97.329 E3.97789
G0 F3000 E2.97789
G0 X131.647 Y102.428 F7200
G0 X131.439 Y102.068
G0 F3000 E3.97789
;segType:HShell
G1 X131.439 Y102.067 E3.97792 F3600
G0 X131.439 Y101.502 F7200
G1 X130.873 Y102.068 E4.00456 F3600
G0 X130.307 Y102.068 F7200
G1 X131.439 Y100.936 E4.05780 F3600
G0 X131.439 Y100.370 F7200
G1 X129.742 Y102.068 E4.13766 F3600
G0 X129.176 Y102.068 F7200
G1 X131.439 Y99.805 E4.24412 F3600
G0 X131.439 Y99.239 F7200
G1 X128.610 Y102.068 E4.37719 F3600
G0 X128.561 Y101.552 F7200
G1 X131.439 Y98.673 E4.51260 F3600
G0 X131.439 Y98.108 F7200
G1 X128.561 Y100.986 E4.64801 F3600
G0 F3000 E3.64801
G0 X128.200 Y101.083 F7200
G0 X131.800 Y100.122
G0 X131.800 Y97.329
G0 X138.000 Y97.329
G0 X138.000 Y97.574
G0 X141.600 Y97.716
G0 X140.909 Y97.689
G0 F3000 E4.64801
G1 X138.360 Y100.238 E4.76789 F3600
G0 X138.360 Y99.672 F7200
G1 X140.343 Y97.689 E4.86116 F3600
G0 X139.778 Y97.689 F7200
G1 X138.360 Y99.106 E4.92782 F3600
G0 X138.360 Y98.541 F7200
G1 X139.212 Y97.689 E4.96787 F3600
G0 X138.360 Y97.975 F7200
G1 X138.646 Y97.689 E4.98132 F3600
G0 X137.867 Y97.702 F7200
;segType:Perimeter
G1 X137.660 Y96.929 E5.00793 F1800
G1 X142.000 Y96.929 E5.15225
G1 X142.000 Y102.828 E5.34846
G1 X137.600 Y102.828 E5.49478
G1 X137.600 Y96.989 E5.68900
G0 X137.660 Y96.929 F7200
G0 X139.260 Y96.929
G0 X138.700 Y97.329
;segType:Loop
G1 X141.600 Y97.329 E5.78543 F3600
G1 X141.600 Y102.428 E5.95504
G1 X138.000 Y102.428 E6.07475
G1 X138.000 Y97.329 E6.24435
G1 X138.500 Y97.329 E6.26098
G0 F3000 E5.26098
G0 X141.250 Y102.428 F7200
G0 X141.055 Y102.068
G0 F3000 E6.26098
;segType:HShell
G1 X141.239 Y101.884 E6.26964 F3600
G0 X141.239 Y101.318 F7200
G1 X140.490 Y102.068 E6.30491 F3600
G0 X139.924 Y102.068 F7200
G1 X141.239 Y100.753 E6.36678 F3600
G0 X141.239 Y100.187 F7200
G1 X139.358 Y102.068 E6.45526 F3600
G0 X138.793 Y102.068 F7200
G1 X141.239 Y99.621 E6.57035 F3600
G0 X141.239 Y99.056 F7200
G1 X138.360 Y101.935 E6.70577 F3600
G0 X138.360 Y101.369 F7200
G1 X141.239 Y98.490 E6.84119 F3600
G0 X141.239 Y97.924 F7200
G1 X138.360 Y100.803 E6.97661 F3600
G0 F3000 E5.97661
G0 X138.360 Y89.490 F7200
G0 F3000 E6.97661
G1 X141.239 Y86.611 E7.11204 F3600
G0 X140.895 Y86.389 F7200
G1 X138.360 Y88.924 E7.23126 F3600
G0 X138.360 Y88.358 F7200
G1 X140.330 Y86.389 E7.32388 F3600
G0 X139.764 Y86.389 F7200
G1 X138.360 Y87.792 E7.38990 F3600
G0 X138.360 Y87.227 F7200
G1 X139.198 Y86.389 E7.42930 F3600
G0 X138.360 Y86.661 F7200
G1 X138.632 Y86.389 E7.44210 F3600
G0 X137.867 Y86.402 F7200
;segType:Perimeter
G1 X137.660 Y85.629 E7.46871 F1800
G1 X142.000 Y85.629 E7.61303
G1 X142.000 Y91.528 E7.80923
G1 X137.600 Y91.528 E7.95555
G1 X137.600 Y85.689 E8.14976
G0 X137.660 Y85.629 F7200
G0 X139.260 Y85.629
G0 X138.700 Y86.029
;segType:Loop
G1 X141.600 Y86.029 E8.24620 F3600
G1 X141.600 Y91.128 E8.41579
G1 X138.000 Y91.128 E8.53550
G1 X138.000 Y86.029 E8.70510
G1 X138.500 Y86.029 E8.72173
G0 F3000 E7.72173
G0 X141.235 Y91.128 F7200
G0 X141.042 Y90.768
G0 F3000 E8.72173
;segType:HShell
G1 X141.239 Y90.570 E8.73103 F3600
G0 X141.239 Y90.005 F7200
G1 X140.476 Y90.768 E8.76693 F3600
G0 X139.910 Y90.768 F7200
G1 X141.239 Y89.439 E8.82944 F3600
G0 X141.239 Y88.873 F7200
G1 X139.345 Y90.768 E8.91857 F3600
G0 X138.779 Y90.768 F7200
G1 X141.239 Y88.308 E9.03429 F3600
G0 X141.239 Y87.742 F7200
G1 X138.360 Y90.621 E9.16971 F3600
G0 X138.360 Y90.055 F7200
G1 X141.239 Y87.176 E9.30514 F3600
G0 F3000 E8.30514
G0 X141.600 Y87.205 F7200
G0 X138.000 Y86.920
G0 X138.000 Y86.029
G0 X131.800 Y86.029
G0 X131.279 Y86.389
G0 F3000 E9.30514
G1 X128.561 Y89.107 E9.43298 F3600
G0 X128.561 Y88.541 F7200
G1 X130.713 Y86.389 E9.53421 F3600
G0 X130.147 Y86.389 F7200
G1 X128.561 Y87.976 E9.60884 F3600
G0 X128.561 Y87.410 F7200
G1 X129.582 Y86.389 E9.65686 F3600
G0 X129.016 Y86.389 F7200
G1 X128.561 Y86.844 E9.67827 F3600
G0 X128.200 Y86.029 F7200
G0 X128.016 Y86.209
;segType:Perimeter
G1 X127.860 Y85.629 E9.69823 F1800
G1 X132.200 Y85.629 E9.84255
G1 X132.200 Y91.528 E10.03875
G1 X127.800 Y91.528 E10.18506
G1 X127.800 Y85.689 E10.37927
G0 X127.860 Y85.629 F7200
G0 X129.460 Y85.629
G0 X128.900 Y86.029
;segType:Loop
G1 X131.800 Y86.029 E10.47570 F3600
G1 X131.800 Y91.128 E10.64529
G1 X128.200 Y91.128 E10.76500
G1 X128.200 Y86.029 E10.93459
G1 X128.700 Y86.029 E10.95122
G0 F3000 E9.95122
G0 X131.632 Y91.128 F7200
G0 X131.425 Y90.768
G0 F3000 E10.95122
;segType:HShell
G1 X131.439 Y90.754 E10.95189 F3600
G0 X131.439 Y90.188 F7200
G1 X130.859 Y90.768 E10.97917 F3600
G0 X130.294 Y90.768 F7200
G1 X131.439 Y89.622 E11.03306 F3600
G0 X131.439 Y89.057 F7200
G1 X129.728 Y90.768 E11.11355 F3600
G0 X129.162 Y90.768 F7200
G1 X131.439 Y88.491 E11.22065 F3600
G0 X131.439 Y87.925 F7200
G1 X128.597 Y90.768 E11.35436 F3600
G0 X128.561 Y90.238 F7200
G1 X131.439 Y87.360 E11.48977 F3600
G0 X131.439 Y86.794 F7200
G1 X128.561 Y89.673 E11.62518 F3600
G0 F3000 E10.62518
G0 X122.000 Y89.417 F7200
G0 X118.400 Y89.276
G0 X118.761 Y89.290
G0 F3000 E11.62518
G1 X121.640 Y86.411 E11.76060 F3600
G0 X121.096 Y86.389 F7200
G1 X118.761 Y88.725 E11.87046 F3600
G0 X118.761 Y88.159 F7200
G1 X120.531 Y86.389 E11.95372 F3600
G0 X119.965 Y86.389 F7200
G1 X118.761 Y87.593 E12.01037 F3600
G0 X118.761 Y87.028 F7200
G1 X119.399 Y86.389 E12.04040 F3600
G0 X118.761 Y86.462 F7200
G1 X118.833 Y86.389 E12.04383 F3600
G0 X118.216 Y86.209 F7200
;segType:Perimeter
G1 X118.060 Y85.629 E12.06379 F1800
G1 X122.400 Y85.629 E12.20812
G1 X122.400 Y91.528 E12.40432
G1 X118.000 Y91.528 E12.55064
G1 X118.000 Y85.689 E12.74485
G0 X118.060 Y85.629 F7200
G0 X119.660 Y85.629
G0 X119.100 Y86.029
;segType:Loop
G1 X122.000 Y86.029 E12.84128 F3600
G1 X122.000 Y91.128 E13.01088
G1 X118.400 Y91.128 E13.13059
G1 X118.400 Y86.029 E13.30019
G1 X118.900 Y86.029 E13.31682
G0 F3000 E12.31682
G0 X121.421 Y91.128 F7200
G0 X121.243 Y90.768
G0 F3000 E13.31682
;segType:HShell
G1 X121.640 Y90.371 E13.33548 F3600
G0 X121.640 Y89.806 F7200
G1 X120.677 Y90.768 E13.38075 F3600
G0 X120.111 Y90.768 F7200
G1 X121.640 Y89.240 E13.45263 F3600
G0 X121.640 Y88.674 F7200
G1 X119.546 Y90.768 E13.55111 F3600
G0 X118.980 Y90.768 F7200
G1 X121.640 Y88.108 E13.67621 F3600
G0 X121.640 Y87.543 F7200
G1 X118.761 Y90.422 E13.81163 F3600
G0 X118.761 Y89.856 F7200
G1 X121.640 Y86.977 E13.94705 F3600
G0 F3000 E12.94705
G0 X118.400 Y91.128 F7200
G0 X118.400 Y97.329
G0 X118.761 Y100.604
G0 F3000 E13.94705
G1 X121.640 Y97.725 E14.08247 F3600
G0 X121.110 Y97.689 F7200
G1 X118.761 Y100.038 E14.19298 F3600
G0 X118.761 Y99.473 F7200
G1 X120.544 Y97.689 E14.27689 F3600
G0 X119.979 Y97.689 F7200
G1 X118.761 Y98.907 E14.33418 F3600
G0 X118.761 Y98.341 F7200
G1 X119.413 Y97.689 E14.36487 F3600
G0 X118.761 Y97.776 F7200
G1 X118.847 Y97.689 E14.36895 F3600
G0 X118.216 Y97.508 F7200
;segType:Perimeter
G1 X118.060 Y96.929 E14.38891 F1800
G1 X122.400 Y96.929 E14.53323
G1 X122.400 Y102.828 E14.72944
G1 X118.000 Y102.828 E14.87576
G1 X118.000 Y96.989 E15.06998
G0 X118.060 Y96.929 F7200
G0 X119.660 Y96.929
G0 X119.100 Y97.329
;segType:Loop
G1 X122.000 Y97.329 E15.16641 F3600
G1 X122.000 Y102.428 E15.33602
G1 X118.400 Y102.428 E15.45573
G1 X118.400 Y97.329 E15.62533
G1 X118.900 Y97.329 E15.64196
G0 F3000 E14.64196
G0 X118.900 Y97.329 F7200
G0 X121.435 Y102.428
G0 X121.256 Y102.068
G0 F3000 E15.64196
;segType:HShell
G1 X121.640 Y101.685 E15.65999 F3600
G0 X121.640 Y101.119 F7200
G1 X120.691 Y102.068 E15.70462 F3600
G0 X120.125 Y102.068 F7200
G1 X121.640 Y100.554 E15.77585 F3600
G0 X121.640 Y99.988 F7200
G1 X119.559 Y102.068 E15.87370 F3600
G0 X118.994 Y102.068 F7200
G1 X121.640 Y99.422 E15.99816 F3600
G0 X121.640 Y98.856 F7200
G1 X118.761 Y101.736 E16.13358 F3600
G0 X118.761 Y101.170 F7200
G1 X121.640 Y98.291 E16.26900 F3600
G0 F3000 E15.26900
G0 X118.400 Y102.428 F7200
G0 X118.400 Y108.629
G0 X118.761 Y111.918
G0 F3000 E16.26900
G1 X121.640 Y109.039 E16.40442 F3600
G0 X121.124 Y108.989 F7200
G1 X118.761 Y111.352 E16.51557 F3600
G0 X118.761 Y110.786 F7200
G1 X120.558 Y108.989 E16.60011 F3600
G0 X119.992 Y108.989 F7200
G1 X118.761 Y110.221 E16.65805 F3600
G0 X118.761 Y109.655 F7200
G1 X119.427 Y108.989 E16.68938 F3600
G0 X118.761 Y109.089 F7200
G1 X118.861 Y108.989 E16.69410 F3600
G0 X118.216 Y108.809 F7200
;segType:Perimeter
G1 X118.060 Y108.229 E16.71405 F1800
G1 X122.400 Y108.229 E16.85838
G1 X122.400 Y114.128 E17.05458
G1 X118.000 Y114.128 E17.20090
G1 X118.000 Y108.289 E17.39511
G0 X118.060 Y108.229 F7200
G0 X119.660 Y108.229
G0 X119.100 Y108.629
;segType:Loop
G1 X122.000 Y108.629 E17.49154 F3600
G1 X122.000 Y113.728 E17.66114
G1 X118.400 Y113.728 E17.78085
G1 X118.400 Y108.629 E17.95045
G1 X118.900 Y108.629 E17.96708
G0 F3000 E16.96708
G0 X121.450 Y113.728 F7200
G0 X121.270 Y113.368
G0 F3000 E17.96708
;segType:HShell
G1 X121.640 Y112.999 E17.98445 F3600
G0 X121.640 Y112.433 F7200
G1 X120.705 Y113.368 E18.02843 F3600
G0 X120.139 Y113.368 F7200
G1 X121.640 Y111.867 E18.09902 F3600
G0 X121.640 Y111.302 F7200
G1 X119.573 Y113.368 E18.19622 F3600
G0 X119.008 Y113.368 F7200
G1 X121.640 Y110.736 E18.32002 F3600
G0 X121.640 Y110.170 F7200
G1 X118.761 Y113.049 E18.45544 F3600
G0 X118.761 Y112.484 F7200
G1 X121.640 Y109.605 E18.59086 F3600
G0 F3000 E17.59086
G0 X122.000 Y108.629 F7200
G0 X128.200 Y108.629
G0 X128.200 Y108.869
G0 X131.800 Y109.008
G0 X131.306 Y108.989
G0 F3000 E18.59086
G1 X128.561 Y111.734 E18.72000 F3600
G0 X128.561 Y111.169 F7200
G1 X130.740 Y108.989 E18.82252 F3600
G0 X130.175 Y108.989 F7200
G1 X128.561 Y110.603 E18.89844 F3600
G0 X128.561 Y110.037 F7200
G1 X129.609 Y108.989 E18.94774 F3600
G0 X129.043 Y108.989 F7200
G1 X128.561 Y109.472 E18.97045 F3600
G0 X128.200 Y108.629 F7200
G0 X128.016 Y108.809
;segType:Perimeter
G1 X127.860 Y108.229 E18.99040 F1800
G1 X132.200 Y108.229 E19.13472
G1 X132.200 Y114.128 E19.33093
G1 X127.800 Y114.128 E19.47724
G1 X127.800 Y108.289 E19.67145
G0 X127.860 Y108.229 F7200
G0 X129.460 Y108.229
G0 X128.900 Y108.629
;segType:Loop
G1 X131.800 Y108.629 E19.76787 F3600
G1 X131.800 Y113.728 E19.93747
G1 X128.200 Y113.728 E20.05717
G1 X128.200 Y108.629 E20.22677
G1 X128.700 Y108.629 E20.24340
G0 F3000 E19.24340
G0 X131.053 Y113.728 F7200
G0 X130.887 Y113.368
G0 F3000 E20.24340
;segType:HShell
G1 X131.439 Y112.815 E20.26939 F3600
G0 X131.439 Y112.250 F7200
G1 X130.321 Y113.368 E20.32198 F3600
G0 X129.756 Y113.368 F7200
G1 X131.439 Y111.684 E20.40119 F3600
G0 X131.439 Y111.118 F7200
G1 X129.190 Y113.368 E20.50700 F3600
G0 X128.624 Y113.368 F7200
G1 X131.439 Y110.553 E20.63942 F3600
G0 X131.439 Y109.987 F7200
G1 X128.561 Y112.866 E20.77483 F3600
G0 X128.561 Y112.300 F7200
G1 X131.439 Y109.421 E20.91024 F3600
; ------------------------------------
; Layer #4
; ------------------------------------
G92 E0 ;reset extr
G0 F3000 E-1.00000
G0 F600 Z2.000
G0 X128.200 Y108.629 F7200
G0 X128.200 Y91.128
G0 X128.561 Y89.846
G0 F3000 E0.00000
;segType:Infill
G1 X130.557 Y86.389 E0.13278 F4500
G0 X130.119 Y86.389 F7200
G1 X131.439 Y88.677 E0.22063 F4500
G0 X131.439 Y88.860 F7200
G1 X130.338 Y90.768 E0.29390 F4500
G0 X130.337 Y90.768 F7200
G1 X128.561 Y87.690 E0.41210 F4500
G0 X128.200 Y86.029 F7200
G0 X128.016 Y86.209
;segType:Perimeter
G1 X127.860 Y85.629 E0.43205 F1800
G1 X132.200 Y85.629 E0.57637
G1 X132.200 Y91.528 E0.77258
G1 X127.800 Y91.528 E0.91889
G1 X127.800 Y85.689 E1.11310
G0 X127.860 Y85.629 F7200
G0 X129.460 Y85.629
G0 X128.900 Y86.029
;segType:Loop
G1 X131.800 Y86.029 E1.20952 F3600
G1 X131.800 Y91.128 E1.37912
G1 X128.200 Y91.128 E1.49882
G1 X128.200 Y86.029 E1.66842
G1 X128.700 Y86.029 E1.68505
G0 X128.561 Y87.889 F7200
;segType:Infill
G1 X131.439 Y87.889 E1.78080 F4500
G0 X131.439 Y89.889 F7200
G1 X128.561 Y89.889 E1.87655 F4500
G0 F3000 E0.87655
G0 X128.200 Y89.946 F7200
G0 X131.800 Y89.378
G0 X138.000 Y88.400
G0 X141.600 Y87.832
G0 X141.239 Y87.889
G0 F3000 E1.87655
G1 X138.360 Y87.889 E1.97230 F4500
G0 X139.794 Y86.389 F7200
G1 X138.360 Y88.873 E2.06768 F4500
G0 X138.360 Y89.889 F7200
G1 X141.239 Y89.889 E2.16344 F4500
G0 X141.239 Y89.651 F7200
G1 X139.356 Y86.389 E2.28871 F4500
G0 X137.867 Y86.402 F7200
;segType:Perimeter
G1 X137.660 Y85.629 E2.31532 F1800
G1 X142.000 Y85.629 E2.45964
G1 X142.000 Y91.528 E2.65585
G1 X137.600 Y91.528 E2.80217
G1 X137.600 Y85.689 E2.99638
G0 X137.660 Y85.629 F7200
G0 X139.260 Y85.629
G0 X138.700 Y86.029
;segType:Loop
G1 X141.600 Y86.029 E3.09281 F3600
G1 X141.600 Y91.128 E3.26240
G1 X138.000 Y91.128 E3.38212
G1 X138.000 Y86.029 E3.55171
G1 X138.500 Y86.029 E3.56834
G0 X138.360 Y88.664 F7200
;segType:Infill
G1 X139.575 Y90.768 E3.64914 F4500
G0 X139.576 Y90.768 F7200
G1 X141.239 Y87.886 E3.75983 F4500
G0 F3000 E2.75983
G0 X141.239 Y99.886 F7200
G0 F3000 E3.75983
G1 X139.980 Y102.068 E3.84363 F4500
G0 X139.171 Y102.068 F7200
G1 X138.360 Y100.664 E3.89755 F4500
G0 X138.360 Y100.873 F7200
G1 X140.198 Y97.689 E4.01981 F4500
G0 X141.239 Y97.889 F7200
G1 X138.360 Y97.889 E4.11557 F4500
G0 X137.867 Y97.702 F7200
;segType:Perimeter
G1 X137.660 Y96.929 E4.14218 F1800
G1 X142.000 Y96.929 E4.28650
G1 X142.000 Y102.828 E4.48272
G1 X137.600 Y102.828 E4.62904
G1 X137.600 Y96.989 E4.82325
G0 X137.660 Y96.929 F7200
G0 X139.260 Y96.929
G0 X138.700 Y97.329
;segType:Loop
G1 X141.600 Y97.329 E4.91968 F3600
G1 X141.600 Y102.428 E5.08929
G1 X138.000 Y102.428 E5.20900
G1 X138.000 Y97.329 E5.37861
G1 X138.500 Y97.329 E5.39524
G0 X138.952 Y97.689 F7200
;segType:Infill
G1 X141.239 Y101.651 E5.54739 F4500
G0 X141.239 Y101.889 F7200
G1 X138.360 Y101.889 E5.64315 F4500
G0 X138.360 Y99.889 F7200
G1 X141.239 Y99.889 E5.73891 F4500
G0 F3000 E4.73891
G0 X141.600 Y99.815 F7200
G0 X138.000 Y100.550
G0 X138.000 Y102.428
G0 X131.800 Y102.428
G0 X131.439 Y101.889
G0 F3000 E5.73891
G1 X128.561 Y101.889 E5.83466 F4500
G0 X128.561 Y101.846 F7200
G1 X130.961 Y97.689 E5.99432 F4500
G0 X131.439 Y97.889 F7200
G1 X128.561 Y97.889 E6.09007 F4500
G0 X128.561 Y97.846 F7200
G1 X128.651 Y97.689 E6.09611 F4500
G0 X128.016 Y97.508 F7200
;segType:Perimeter
G1 X127.860 Y96.929 E6.11607 F1800
G1 X132.200 Y96.929 E6.26039
G1 X132.200 Y102.828 E6.45660
G1 X127.800 Y102.828 E6.60291
G1 X127.800 Y96.989 E6.79713
G0 X127.860 Y96.929 F7200
G0 X129.460 Y96.929
G0 X128.900 Y97.329
;segType:Loop
G1 X131.800 Y97.329 E6.89355 F3600
G1 X131.800 Y102.428 E7.06316
G1 X128.200 Y102.428 E7.18286
G1 X128.200 Y97.329 E7.35246
G1 X128.700 Y97.329 E7.36909
G0 X129.714 Y97.689 F7200
;segType:Infill
G1 X131.439 Y100.677 E7.48384 F4500
G0 X131.439 Y99.889 F7200
G1 X128.561 Y99.889 E7.57959 F4500
G0 X128.561 Y99.690 F7200
G1 X129.933 Y102.068 E7.67090 F4500
G0 X130.742 Y102.068 F7200
G1 X131.439 Y100.860 E7.71729 F4500
G0 F3000 E6.71729
G0 X131.800 Y102.428 F7200
G0 X138.000 Y108.629
G0 X138.000 Y112.165
G0 X138.996 Y113.728
G0 X138.767 Y113.368
G0 F3000 E7.71729
G1 X138.360 Y112.664 E7.74432 F4500
G0 X138.360 Y111.889 F7200
G1 X141.239 Y111.889 E7.84008 F4500
G0 X141.239 Y111.886 F7200
G1 X140.384 Y113.368 E7.89700 F4500
G0 X141.076 Y113.368 F7200
G1 X138.548 Y108.989 E8.06517 F4500
G0 X137.867 Y109.002 F7200
;segType:Perimeter
G1 X137.660 Y108.229 E8.09178 F1800
G1 X142.000 Y108.229 E8.23610
G1 X142.000 Y114.128 E8.43231
G1 X137.600 Y114.128 E8.57863
G1 X137.600 Y108.289 E8.77284
G0 X137.660 Y108.229 F7200
G0 X139.260 Y108.229
G0 X138.700 Y108.629
;segType:Loop
G1 X141.600 Y108.629 E8.86927 F3600
G1 X141.600 Y113.728 E9.03887
G1 X138.000 Y113.728 E9.15858
G1 X138.000 Y108.629 E9.32817
G1 X138.500 Y108.629 E9.34481
G0 X138.360 Y109.889 F7200
;segType:Infill
G1 X141.239 Y109.889 E9.44056 F4500
G0 X141.239 Y109.651 F7200
G1 X140.857 Y108.989 E9.46598 F4500
G0 X140.603 Y108.989 F7200
G1 X138.360 Y112.873 E9.61512 F4500
G0 F3000 E8.61512
G0 X131.800 Y112.081 F7200
G0 X128.200 Y111.647
G0 X128.561 Y111.690
G0 F3000 E9.61512
G1 X129.529 Y113.368 E9.67955 F4500
G0 X128.837 Y113.368 F7200
G1 X131.365 Y108.989 E9.84772 F4500
G0 X131.439 Y109.889 F7200
G1 X128.561 Y109.889 E9.94347 F4500
G0 X128.561 Y109.846 F7200
G1 X129.056 Y108.989 E9.97639 F4500
G0 X128.016 Y108.809 F7200
;segType:Perimeter
G1 X127.860 Y108.229 E9.99634 F1800
G1 X132.200 Y108.229 E10.14066
G1 X132.200 Y114.128 E10.33687
G1 X127.800 Y114.128 E10.48318
G1 X127.800 Y108.289 E10.67739
G0 X127.860 Y108.229 F7200
G0 X129.460 Y108.229
G0 X128.900 Y108.629
;segType:Loop
G1 X131.800 Y108.629 E10.77381 F3600
G1 X131.800 Y113.728 E10.94341
G1 X128.200 Y113.728 E11.06311
G1 X128.200 Y108.629 E11.23271
G1 X128.700 Y108.629 E11.24934
G0 X129.310 Y108.989 F7200
;segType:Infill
G1 X131.439 Y112.677 E11.39096 F4500
G0 X131.439 Y112.860 F7200
G1 X131.146 Y113.368 E11.41047 F4500
G0 X131.439 Y111.889 F7200
G1 X128.561 Y111.889 E11.50621 F4500
G0 F3000 E10.50621
G0 X122.000 Y111.104 F7200
G0 X118.400 Y110.673
G0 X118.761 Y110.716
G0 F3000 E11.50621
G1 X120.292 Y113.368 E11.60806 F4500
G0 X119.599 Y113.368 F7200
G1 X121.640 Y109.834 E11.74379 F4500
G0 X121.640 Y109.889 F7200
G1 X118.761 Y109.889 E11.83954 F4500
G0 X118.400 Y108.629 F7200
G0 X118.216 Y108.809
;segType:Perimeter
G1 X118.060 Y108.229 E11.85950 F1800
G1 X122.400 Y108.229 E12.00382
G1 X122.400 Y114.128 E12.20003
G1 X118.000 Y114.128 E12.34635
G1 X118.000 Y108.289 E12.54056
G0 X118.060 Y108.229 F7200
G0 X119.660 Y108.229
G0 X119.100 Y108.629
;segType:Loop
G1 X122.000 Y108.629 E12.63699 F3600
G1 X122.000 Y113.728 E12.80658
G1 X118.400 Y113.728 E12.92630
G1 X118.400 Y108.629 E13.09589
G1 X118.900 Y108.629 E13.11252
G0 X119.818 Y108.989 F7200
;segType:Infill
G1 X118.761 Y110.821 E13.18286 F4500
G0 X118.761 Y111.889 F7200
G1 X121.640 Y111.889 E13.27861 F4500
G0 X121.640 Y111.703 F7200
G1 X120.073 Y108.989 E13.38284 F4500
G0 F3000 E12.38284
G0 X122.000 Y108.629 F7200
G0 X122.000 Y102.428
G0 X121.640 Y101.889
G0 F3000 E13.38284
G1 X118.761 Y101.889 E13.47859 F4500
G0 X119.195 Y102.068 F7200
G1 X121.640 Y97.834 E13.64121 F4500
G0 X121.640 Y97.889 F7200
G1 X118.761 Y97.889 E13.73697 F4500
G0 X118.216 Y97.508 F7200
;segType:Perimeter
G1 X118.060 Y96.929 E13.75692 F1800
G1 X122.400 Y96.929 E13.90125
G1 X122.400 Y102.828 E14.09746
G1 X118.000 Y102.828 E14.24378
G1 X118.000 Y96.989 E14.43800
G0 X118.060 Y96.929 F7200
G0 X119.660 Y96.929
G0 X119.100 Y97.329
;segType:Loop
G1 X122.000 Y97.329 E14.53443 F3600
G1 X122.000 Y102.428 E14.70403
G1 X118.400 Y102.428 E14.82374
G1 X118.400 Y97.329 E14.99335
G1 X118.900 Y97.329 E15.00998
G0 X119.414 Y97.689 F7200
;segType:Infill
G1 X118.761 Y98.821 E15.05343 F4500
G0 X118.761 Y98.716 F7200
G1 X120.696 Y102.068 E15.18216 F4500
G0 X121.504 Y102.068 F7200
G1 X121.640 Y101.834 E15.19116 F4500
G0 X118.761 Y99.889 F7200
G1 X121.640 Y99.889 E15.28692 F4500
G0 X121.640 Y99.703 F7200
G1 X120.477 Y97.689 E15.36426 F4500
G0 F3000 E14.36426
G0 X122.000 Y97.329 F7200
G0 X122.000 Y91.128
G0 X121.614 Y91.128
G0 X121.297 Y86.029
G0 X121.319 Y86.389
G0 F3000 E15.36426
G1 X118.791 Y90.768 E15.53243 F4500
G0 X118.761 Y90.716 F7200
G1 X118.790 Y90.768 E15.53442 F4500
G0 X118.761 Y89.889 F7200
G1 X121.640 Y89.889 E15.63018 F4500
G0 X121.640 Y89.834 F7200
G1 X121.100 Y90.768 E15.66605 F4500
G0 X121.100 Y90.768 F7200
G1 X118.761 Y86.716 E15.82166 F4500
G0 X118.216 Y86.209 F7200
;segType:Perimeter
G1 X118.060 Y85.629 E15.84161 F1800
G1 X122.400 Y85.629 E15.98594
G1 X122.400 Y91.528 E16.18214
G1 X118.000 Y91.528 E16.32847
G1 X118.000 Y85.689 E16.52268
G0 X118.060 Y85.629 F7200
G0 X119.660 Y85.629
G0 X119.100 Y86.029
;segType:Loop
G1 X122.000 Y86.029 E16.61911 F3600
G1 X122.000 Y91.128 E16.78870
G1 X118.400 Y91.128 E16.90842
G1 X118.400 Y86.029 E17.07801
G1 X118.900 Y86.029 E17.09464
G0 X119.010 Y86.389 F7200
;segType:Infill
G1 X118.761 Y86.821 E17.11121 F4500
G0 X118.761 Y87.889 F7200
G1 X121.640 Y87.889 E17.20697 F4500
G0 X121.640 Y87.703 F7200
G1 X120.881 Y86.389 E17.25742 F4500
; ------------------------------------
; Layer #5
; ------------------------------------
G92 E0 ;reset extr
G0 F3000 E-1.00000
G0 F600 Z2.200
G0 X120.771 Y86.029 F7200
G0 X122.000 Y90.054
G0 X122.000 Y91.128
G0 X128.200 Y108.629
G0 X128.561 Y111.550
G0 F3000 E0.00000
;segType:Infill
G1 X129.610 Y113.368 E0.06981 F4500
G0 X128.756 Y113.368 F7200
G1 X131.284 Y108.989 E0.23798 F4500
G0 X131.439 Y110.029 F7200
G1 X128.561 Y110.029 E0.33373 F4500
G0 X128.561 Y109.706 F7200
G1 X128.975 Y108.989 E0.36127 F4500
G0 X128.016 Y108.809 F7200
;segType:Perimeter
G1 X127.860 Y108.229 E0.38123 F1800
G1 X132.200 Y108.229 E0.52554
G1 X132.200 Y114.128 E0.72175
G1 X127.800 Y114.128 E0.86806
G1 X127.800 Y108.289 E1.06227
G0 X127.860 Y108.229 F7200
G0 X129.460 Y108.229
G0 X128.900 Y108.629
;segType:Loop
G1 X131.800 Y108.629 E1.15869 F3600
G1 X131.800 Y113.728 E1.32829
G1 X128.200 Y113.728 E1.44799
G1 X128.200 Y108.629 E1.61759
G1 X128.700 Y108.629 E1.63422
G0 X129.391 Y108.989 F7200
;segType:Infill
G1 X131.439 Y112.537 E1.77046 F4500
G0 X131.439 Y112.720 F7200
G1 X131.065 Y113.368 E1.79535 F4500
G0 X131.439 Y112.029 F7200
G1 X128.561 Y112.029 E1.89110 F4500
G0 F3000 E0.89110
G0 X122.000 Y111.056 F7200
G0 X118.400 Y110.523
G0 X118.761 Y110.576
G0 F3000 E1.89110
G1 X120.372 Y113.368 E1.99832 F4500
G0 X119.518 Y113.368 F7200
G1 X121.640 Y109.694 E2.13942 F4500
G0 X121.640 Y110.029 F7200
G1 X118.761 Y110.029 E2.23518 F4500
G0 X118.400 Y108.629 F7200
G0 X118.216 Y108.809
;segType:Perimeter
G1 X118.060 Y108.229 E2.25513 F1800
G1 X122.400 Y108.229 E2.39946
G1 X122.400 Y114.128 E2.59566
G1 X118.000 Y114.128 E2.74199
G1 X118.000 Y108.289 E2.93619
G0 X118.060 Y108.229 F7200
G0 X119.660 Y108.229
G0 X119.100 Y108.629
;segType:Loop
G1 X122.000 Y108.629 E3.03262 F3600
G1 X122.000 Y113.728 E3.20222
G1 X118.400 Y113.728 E3.32193
G1 X118.400 Y108.629 E3.49153
G1 X118.900 Y108.629 E3.50816
G0 X119.737 Y108.989 F7200
;segType:Infill
G1 X118.761 Y110.680 E3.57312 F4500
G0 X118.761 Y112.029 F7200
G1 X121.640 Y112.029 E3.66887 F4500
G0 X121.640 Y111.563 F7200
G1 X120.154 Y108.989 E3.76772 F4500
G0 F3000 E2.76772
G0 X122.000 Y108.629 F7200
G0 X122.000 Y102.428
G0 X121.640 Y102.029
G0 F3000 E3.76772
G1 X118.761 Y102.029 E3.86348 F4500
G0 X119.114 Y102.068 F7200
G1 X121.640 Y97.694 E4.03147 F4500
G0 X121.640 Y98.029 F7200
G1 X118.761 Y98.029 E4.12723 F4500
G0 X118.216 Y97.508 F7200
;segType:Perimeter
G1 X118.060 Y96.929 E4.14718 F1800
G1 X122.400 Y96.929 E4.29151
G1 X122.400 Y102.828 E4.48772
G1 X118.000 Y102.828 E4.63404
G1 X118.000 Y96.989 E4.82826
G0 X118.060 Y96.929 F7200
G0 X119.660 Y96.929
G0 X119.100 Y97.329
;segType:Loop
G1 X122.000 Y97.329 E4.92469 F3600
G1 X122.000 Y102.428 E5.09429
G1 X118.400 Y102.428 E5.21401
G1 X118.400 Y97.329 E5.38361
G1 X118.900 Y97.329 E5.40024
G0 X119.333 Y97.689 F7200
;segType:Infill
G1 X118.761 Y98.680 E5.43832 F4500
G0 X118.761 Y98.576 F7200
G1 X120.777 Y102.068 E5.57243 F4500
G0 X121.424 Y102.068 F7200
G1 X121.640 Y101.694 E5.58680 F4500
G0 X118.761 Y100.029 F7200
G1 X121.640 Y100.029 E5.68256 F4500
G0 X121.640 Y99.563 F7200
G1 X120.558 Y97.689 E5.75452 F4500
G0 F3000 E4.75452
G0 X120.953 Y91.128 F7200
G0 X121.260 Y86.029
G0 X121.238 Y86.389
G0 F3000 E5.75452
G1 X118.761 Y90.680 E5.91934 F4500
G0 X118.761 Y90.576 F7200
G1 X118.871 Y90.768 E5.92670 F4500
G0 X118.761 Y90.029 F7200
G1 X121.640 Y90.029 E6.02246 F4500
G0 X121.640 Y89.694 F7200
G1 X121.019 Y90.768 E6.06371 F4500
G0 X121.181 Y90.768 F7200
G1 X118.761 Y86.576 E6.22470 F4500
G0 X118.216 Y86.209 F7200
;segType:Perimeter
G1 X118.060 Y85.629 E6.24465 F1800
G1 X122.400 Y85.629 E6.38898
G1 X122.400 Y91.528 E6.58518
G1 X118.000 Y91.528 E6.73150
G1 X118.000 Y85.689 E6.92571
G0 X118.060 Y85.629 F7200
G0 X119.660 Y85.629
G0 X119.100 Y86.029
;segType:Loop
G1 X122.000 Y86.029 E7.02214 F3600
G1 X122.000 Y91.128 E7.19174
G1 X118.400 Y91.128 E7.31145
G1 X118.400 Y86.029 E7.48105
G1 X118.900 Y86.029 E7.49768
G0 X118.929 Y86.389 F7200
;segType:Infill
G1 X118.761 Y86.680 E7.50887 F4500
G0 X118.761 Y88.029 F7200
G1 X121.640 Y88.029 E7.60463 F4500
G0 X121.640 Y87.563 F7200
G1 X120.962 Y86.389 E7.64970 F4500
G0 F3000 E6.64970
G0 X122.000 Y91.128 F7200
G0 X128.200 Y91.128
G0 X128.561 Y89.706
G0 F3000 E7.64970
G1 X130.476 Y86.389 E7.77710 F4500
G0 X130.200 Y86.389 F7200
G1 X131.439 Y88.537 E7.85958 F4500
G0 X131.439 Y88.720 F7200
G1 X130.257 Y90.768 E7.93823 F4500
G0 X130.418 Y90.768 F7200
G1 X128.561 Y87.550 E8.06180 F4500
G0 X128.200 Y86.029 F7200
G0 X128.016 Y86.209
;segType:Perimeter
G1 X127.860 Y85.629 E8.08176 F1800
G1 X132.200 Y85.629 E8.22608
G1 X132.200 Y91.528 E8.42228
G1 X127.800 Y91.528 E8.56859
G1 X127.800 Y85.689 E8.76280
G0 X127.860 Y85.629 F7200
G0 X129.460 Y85.629
G0 X128.900 Y86.029
;segType:Loop
G1 X131.800 Y86.029 E8.85923 F3600
G1 X131.800 Y91.128 E9.02882
G1 X128.200 Y91.128 E9.14853
G1 X128.200 Y86.029 E9.31812
G1 X128.700 Y86.029 E9.33475
G0 X128.561 Y88.029 F7200
;segType:Infill
G1 X131.439 Y88.029 E9.43050 F4500
G0 X131.439 Y90.029 F7200
G1 X128.561 Y90.029 E9.52625 F4500
G0 F3000 E8.52625
G0 X128.200 Y90.004 F7200
G0 X131.800 Y90.248
G0 X131.800 Y91.128
G0 X138.000 Y91.128
G0 X139.495 Y90.768
G0 F3000 E9.52625
G1 X141.239 Y87.746 E9.64232 F4500
G0 X139.713 Y86.389 F7200
G1 X138.360 Y88.732 E9.73232 F4500
G0 X138.360 Y90.029 F7200
G1 X141.239 Y90.029 E9.82807 F4500
G0 X141.239 Y89.511 F7200
G1 X139.437 Y86.389 E9.94796 F4500
G0 X137.867 Y86.402 F7200
;segType:Perimeter
G1 X137.660 Y85.629 E9.97457 F1800
G1 X142.000 Y85.629 E10.11890
G1 X142.000 Y91.528 E10.31510
G1 X137.600 Y91.528 E10.46142
G1 X137.600 Y85.689 E10.65563
G0 X137.660 Y85.629 F7200
G0 X139.260 Y85.629
G0 X138.700 Y86.029
;segType:Loop
G1 X141.600 Y86.029 E10.75206 F3600
G1 X141.600 Y91.128 E10.92166
G1 X138.000 Y91.128 E11.04137
G1 X138.000 Y86.029 E11.21097
G1 X138.500 Y86.029 E11.22760
G0 X138.360 Y88.029 F7200
;segType:Infill
G1 X141.239 Y88.029 E11.32336 F4500
G0 X139.656 Y90.768 F7200
G1 X138.360 Y88.524 E11.40953 F4500
G0 F3000 E10.40953
G0 X141.600 Y91.128 F7200
G0 X141.600 Y97.329
G0 X141.239 Y99.746
G0 F3000 E11.40953
G1 X139.899 Y102.068 E11.49872 F4500
G0 X139.252 Y102.068 F7200
G1 X138.360 Y100.524 E11.55801 F4500
G0 X138.360 Y100.732 F7200
G1 X140.118 Y97.689 E11.67490 F4500
G0 X141.239 Y98.029 F7200
G1 X138.360 Y98.029 E11.77065 F4500
G0 X137.867 Y97.702 F7200
;segType:Perimeter
G1 X137.660 Y96.929 E11.79726 F1800
G1 X142.000 Y96.929 E11.94159
G1 X142.000 Y102.828 E12.13780
G1 X137.600 Y102.828 E12.28412
G1 X137.600 Y96.989 E12.47834
G0 X137.660 Y96.929 F7200
G0 X139.260 Y96.929
G0 X138.700 Y97.329
;segType:Loop
G1 X141.600 Y97.329 E12.57477 F3600
G1 X141.600 Y102.428 E12.74437
G1 X138.000 Y102.428 E12.86408
G1 X138.000 Y97.329 E13.03369
G1 X138.500 Y97.329 E13.05032
G0 X139.033 Y97.689 F7200
;segType:Infill
G1 X141.239 Y101.511 E13.19710 F4500
G0 X141.239 Y102.029 F7200
G1 X138.360 Y102.029 E13.29285 F4500
G0 X138.360 Y100.029 F7200
G1 X141.239 Y100.029 E13.38861 F4500
G0 F3000 E12.38861
G0 X141.600 Y99.955 F7200
G0 X138.000 Y100.690
G0 X138.000 Y102.428
G0 X131.800 Y102.428
G0 X131.439 Y102.029
G0 F3000 E13.38861
G1 X128.561 Y102.029 E13.48436 F4500
G0 X128.561 Y101.706 F7200
G1 X130.880 Y97.689 E13.63865 F4500
G0 X131.439 Y98.029 F7200
G1 X128.561 Y98.029 E13.73439 F4500
G0 X128.571 Y97.689 F7200
G1 X128.561 Y97.706 E13.73506 F4500
G0 X128.016 Y97.508 F7200
;segType:Perimeter
G1 X127.860 Y96.929 E13.75502 F1800
G1 X132.200 Y96.929 E13.89933
G1 X132.200 Y102.828 E14.09555
G1 X127.800 Y102.828 E14.24186
G1 X127.800 Y96.989 E14.43608
G0 X127.860 Y96.929 F7200
G0 X129.460 Y96.929
G0 X128.900 Y97.329
;segType:Loop
G1 X131.800 Y97.329 E14.53250 F3600
G1 X131.800 Y102.428 E14.70210
G1 X128.200 Y102.428 E14.82181
G1 X128.200 Y97.329 E14.99141
G1 X128.700 Y97.329 E15.00804
G0 X129.795 Y97.689 F7200
;segType:Infill
G1 X131.439 Y100.537 E15.11741 F4500
G0 X131.439 Y100.029 F7200
G1 X128.561 Y100.029 E15.21315 F4500
G0 X128.561 Y99.550 F7200
G1 X130.014 Y102.068 E15.30985 F4500
G0 X130.661 Y102.068 F7200
G1 X131.439 Y100.720 E15.36162 F4500
G0 F3000 E14.36162
G0 X131.800 Y102.428 F7200
G0 X138.000 Y108.629
G0 X138.000 Y112.053
G0 X139.080 Y113.728
G0 X138.848 Y113.368
G0 F3000 E15.36162
G1 X138.360 Y112.524 E15.39403 F4500
G0 X138.360 Y112.029 F7200
G1 X141.239 Y112.029 E15.48978 F4500
G0 X141.239 Y111.746 F7200
G1 X140.303 Y113.368 E15.55208 F4500
G0 X141.157 Y113.368 F7200
G1 X138.629 Y108.989 E15.72025 F4500
G0 X137.867 Y109.002 F7200
;segType:Perimeter
G1 X137.660 Y108.229 E15.74686 F1800
G1 X142.000 Y108.229 E15.89119
G1 X142.000 Y114.128 E16.08739
G1 X137.600 Y114.128 E16.23371
G1 X137.600 Y108.289 E16.42792
G0 X137.660 Y108.229 F7200
G0 X139.260 Y108.229
G0 X138.700 Y108.629
;segType:Loop
G1 X141.600 Y108.629 E16.52435 F3600
G1 X141.600 Y113.728 E16.69395
G1 X138.000 Y113.728 E16.81366
G1 X138.000 Y108.629 E16.98326
G1 X138.500 Y108.629 E16.99989
G0 X138.360 Y110.029 F7200
;segType:Infill
G1 X141.239 Y110.029 E17.09564 F4500
G0 X141.239 Y109.511 F7200
G1 X140.938 Y108.989 E17.11568 F4500
G0 X140.522 Y108.989 F7200
G1 X138.360 Y112.732 E17.25945 F4500
; ------------------------------------
; Layer #6
; ------------------------------------
G92 E0 ;reset extr
G0 F3000 E-1.00000
G0 F600 Z2.400
G0 X131.800 Y111.847 F7200
G0 X128.200 Y111.362
G0 X128.561 Y111.410
G0 F3000 E0.00000
;segType:Infill
G1 X129.691 Y113.368 E0.07518 F4500
G0 X128.675 Y113.368 F7200
G1 X131.203 Y108.989 E0.24336 F4500
G0 X131.439 Y110.169 F7200
G1 X128.561 Y110.169 E0.33910 F4500
G0 X128.561 Y109.566 F7200
G1 X128.894 Y108.989 E0.36127 F4500
G0 X128.016 Y108.809 F7200
;segType:Perimeter
G1 X127.860 Y108.229 E0.38123 F1800
G1 X132.200 Y108.229 E0.52554
G1 X132.200 Y114.128 E0.72175
G1 X127.800 Y114.128 E0.86806
G1 X127.800 Y108.289 E1.06227
G0 X127.860 Y108.229 F7200
G0 X129.460 Y108.229
G0 X128.900 Y108.629
;segType:Loop
G1 X131.800 Y108.629 E1.15869 F3600
G1 X131.800 Y113.728 E1.32829
G1 X128.200 Y113.728 E1.44799
G1 X128.200 Y108.629 E1.61759
G1 X128.700 Y108.629 E1.63422
G0 X129.472 Y108.989 F7200
;segType:Infill
G1 X131.439 Y112.397 E1.76508 F4500
G0 X131.439 Y112.580 F7200
G1 X130.984 Y113.368 E1.79535 F4500
G0 X131.439 Y112.169 F7200
G1 X128.561 Y112.169 E1.89110 F4500
G0 F3000 E0.89110
G0 X128.200 Y112.265 F7200
G0 X131.800 Y111.302
G0 X131.800 Y108.629
G0 X138.000 Y108.629
G0 X140.441 Y108.989
G0 F3000 E1.89110
G1 X138.360 Y112.592 E2.02948 F4500
G0 X138.360 Y112.169 F7200
G1 X141.239 Y112.169 E2.12524 F4500
G0 X141.239 Y111.606 F7200
G1 X140.222 Y113.368 E2.19292 F4500
G0 X141.238 Y113.368 F7200
G1 X138.710 Y108.989 E2.36109 F4500
G0 X137.867 Y109.002 F7200
;segType:Perimeter
G1 X137.660 Y108.229 E2.38770 F1800
G1 X142.000 Y108.229 E2.53202
G1 X142.000 Y114.128 E2.72823
G1 X137.600 Y114.128 E2.87455
G1 X137.600 Y108.289 E3.06876
G0 X137.660 Y108.229 F7200
G0 X139.260 Y108.229
G0 X138.700 Y108.629
;segType:Loop
G1 X141.600 Y108.629 E3.16519 F3600
G1 X141.600 Y113.728 E3.33478
G1 X138.000 Y113.728 E3.45450
G1 X138.000 Y108.629 E3.62409
G1 X138.500 Y108.629 E3.64072
G0 X141.019 Y108.989 F7200
;segType:Infill
G1 X141.239 Y109.371 E3.65538 F4500
G0 X141.239 Y110.169 F7200
G1 X138.360 Y110.169 E3.75114 F4500
G0 X138.360 Y112.384 F7200
G1 X138.928 Y113.368 E3.78892 F4500
G0 F3000 E2.78892
G0 X138.868 Y113.728 F7200
G0 X139.724 Y108.629
G0 X141.600 Y108.629
G0 X141.600 Y102.428
G0 X141.239 Y99.606
G0 F3000 E3.78892
G1 X139.818 Y102.068 E3.88349 F4500
G0 X139.333 Y102.068 F7200
G1 X138.360 Y100.384 E3.94816 F4500
G0 X138.360 Y100.592 F7200
G1 X140.037 Y97.689 E4.05967 F4500
G0 X141.239 Y98.169 F7200
G1 X138.360 Y98.169 E4.15543 F4500
G0 X137.867 Y97.702 F7200
;segType:Perimeter
G1 X137.660 Y96.929 E4.18203 F1800
G1 X142.000 Y96.929 E4.32636
G1 X142.000 Y102.828 E4.52257
G1 X137.600 Y102.828 E4.66889
G1 X137.600 Y96.989 E4.86311
G0 X137.660 Y96.929 F7200
G0 X139.260 Y96.929
G0 X138.700 Y97.329
;segType:Loop
G1 X141.600 Y97.329 E4.95954 F3600
G1 X141.600 Y102.428 E5.12914
G1 X138.000 Y102.428 E5.24886
G1 X138.000 Y97.329 E5.41846
G1 X138.500 Y97.329 E5.43509
G0 X139.114 Y97.689 F7200
;segType:Infill
G1 X141.239 Y101.371 E5.57649 F4500
G0 X141.239 Y100.169 F7200
G1 X138.360 Y100.169 E5.67225 F4500
G0 F3000 E4.67225
G0 X138.360 Y88.169 F7200
G0 F3000 E5.67225
G1 X141.239 Y88.169 E5.76801 F4500
G0 X141.239 Y87.606 F7200
G1 X139.414 Y90.768 E5.88945 F4500
G0 X138.360 Y90.169 F7200
G1 X141.239 Y90.169 E5.98521 F4500
G0 X141.239 Y89.371 F7200
G1 X139.518 Y86.389 E6.09972 F4500
G0 X137.867 Y86.402 F7200
;segType:Perimeter
G1 X137.660 Y85.629 E6.12633 F1800
G1 X142.000 Y85.629 E6.27065
G1 X142.000 Y91.528 E6.46686
G1 X137.600 Y91.528 E6.61318
G1 X137.600 Y85.689 E6.80739
G0 X137.660 Y85.629 F7200
G0 X139.260 Y85.629
G0 X138.700 Y86.029
;segType:Loop
G1 X141.600 Y86.029 E6.90382 F3600
G1 X141.600 Y91.128 E7.07341
G1 X138.000 Y91.128 E7.19313
G1 X138.000 Y86.029 E7.36272
G1 X138.500 Y86.029 E7.37935
G0 X139.633 Y86.389 F7200
;segType:Infill
G1 X138.360 Y88.592 E7.46397 F4500
G0 X139.737 Y90.768 F7200
G1 X138.360 Y88.384 E7.55553 F4500
G0 F3000 E6.55553
G0 X131.800 Y89.176 F7200
G0 X128.200 Y89.610
G0 X128.561 Y89.566
G0 F3000 E7.55553
G1 X130.395 Y86.389 E7.67755 F4500
G0 X130.280 Y86.389 F7200
G1 X131.439 Y88.397 E7.75464 F4500
G0 X131.439 Y88.580 F7200
G1 X130.176 Y90.768 E7.83867 F4500
G0 X130.499 Y90.768 F7200
G1 X128.561 Y87.410 E7.96762 F4500
G0 X128.200 Y86.029 F7200
G0 X128.016 Y86.209
;segType:Perimeter
G1 X127.860 Y85.629 E7.98758 F1800
G1 X132.200 Y85.629 E8.13190
G1 X132.200 Y91.528 E8.32810
G1 X127.800 Y91.528 E8.47441
G1 X127.800 Y85.689 E8.66862
G0 X127.860 Y85.629 F7200
G0 X129.460 Y85.629
G0 X128.900 Y86.029
;segType:Loop
G1 X131.800 Y86.029 E8.76505 F3600
G1 X131.800 Y91.128 E8.93464
G1 X128.200 Y91.128 E9.05435
G1 X128.200 Y86.029 E9.22394
G1 X128.700 Y86.029 E9.24057
G0 X128.561 Y88.169 F7200
;segType:Infill
G1 X131.439 Y88.169 E9.33632 F4500
G0 X131.439 Y90.169 F7200
G1 X128.561 Y90.169 E9.43207 F4500
G0 F3000 E8.43207
G0 X128.200 Y86.029 F7200
G0 X122.000 Y86.029
G0 X121.157 Y86.389
G0 F3000 E9.43207
G1 X118.761 Y90.540 E9.59151 F4500
G0 X118.761 Y90.169 F7200
G1 X121.640 Y90.169 E9.68726 F4500
G0 X121.640 Y89.554 F7200
G1 X120.939 Y90.768 E9.73389 F4500
G0 X121.262 Y90.768 F7200
G1 X118.761 Y86.436 E9.90026 F4500
G0 X118.216 Y86.209 F7200
;segType:Perimeter
G1 X118.060 Y85.629 E9.92021 F1800
G1 X122.400 Y85.629 E10.06454
G1 X122.400 Y91.528 E10.26074
G1 X118.000 Y91.528 E10.40706
G1 X118.000 Y85.689 E10.60128
G0 X118.060 Y85.629 F7200
G0 X119.660 Y85.629
G0 X119.100 Y86.029
;segType:Loop
G1 X122.000 Y86.029 E10.69770 F3600
G1 X122.000 Y91.128 E10.86730
G1 X118.400 Y91.128 E10.98701
G1 X118.400 Y86.029 E11.15661
G1 X118.900 Y86.029 E11.17324
G0 X118.848 Y86.389 F7200
;segType:Infill
G1 X118.761 Y86.540 E11.17905 F4500
G0 F3000 E10.17905
G0 X118.737 Y86.029 F7200
G0 X118.968 Y91.128
G0 X118.952 Y90.768
G0 F3000 E11.17905
G1 X118.761 Y90.436 E11.19180 F4500
G0 X118.761 Y88.169 F7200
G1 X121.640 Y88.169 E11.28755 F4500
G0 X121.640 Y87.423 F7200
G1 X121.043 Y86.389 E11.32725 F4500
G0 F3000 E10.32725
G0 X120.771 Y86.029 F7200
G0 X122.000 Y87.657
G0 X122.000 Y91.128
G0 X128.200 Y97.329
G0 X128.474 Y97.329
G0 X131.800 Y100.514
G0 X131.439 Y100.169
G0 F3000 E11.32725
G1 X128.561 Y100.169 E11.42300 F4500
G0 X128.561 Y101.566 F7200
G1 X130.799 Y97.689 E11.57191 F4500
G0 X131.439 Y98.169 F7200
G1 X128.561 Y98.169 E11.66766 F4500
G0 X128.200 Y97.329 F7200
G0 X128.016 Y97.508
;segType:Perimeter
G1 X127.860 Y96.929 E11.68761 F1800
G1 X132.200 Y96.929 E11.83193
G1 X132.200 Y102.828 E12.02814
G1 X127.800 Y102.828 E12.17446
G1 X127.800 Y96.989 E12.36867
G0 X127.860 Y96.929 F7200
G0 X129.460 Y96.929
G0 X128.900 Y97.329
;segType:Loop
G1 X131.800 Y97.329 E12.46510 F3600
G1 X131.800 Y102.428 E12.63470
G1 X128.200 Y102.428 E12.75440
G1 X128.200 Y97.329 E12.92401
G1 X128.700 Y97.329 E12.94064
G0 X129.876 Y97.689 F7200
;segType:Infill
G1 X131.439 Y100.397 E13.04462 F4500
G0 X131.439 Y100.580 F7200
G1 X130.580 Y102.068 E13.10177 F4500
G0 X130.095 Y102.068 F7200
G1 X128.561 Y99.410 E13.20385 F4500
G0 F3000 E12.20385
G0 X122.000 Y98.758 F7200
G0 X118.400 Y98.400
G0 X118.761 Y98.436
G0 F3000 E13.20385
G1 X120.857 Y102.068 E13.34333 F4500
G0 X119.033 Y102.068 F7200
G1 X121.562 Y97.689 E13.51151 F4500
G0 X121.640 Y98.169 F7200
G1 X118.761 Y98.169 E13.60727 F4500
G0 X118.400 Y97.329 F7200
G0 X118.216 Y97.508
;segType:Perimeter
G1 X118.060 Y96.929 E13.62723 F1800
G1 X122.400 Y96.929 E13.77155
G1 X122.400 Y102.828 E13.96776
G1 X118.000 Y102.828 E14.11408
G1 X118.000 Y96.989 E14.30830
G0 X118.060 Y96.929 F7200
G0 X119.660 Y96.929
G0 X119.100 Y97.329
;segType:Loop
G1 X122.000 Y97.329 E14.40473 F3600
G1 X122.000 Y102.428 E14.57434
G1 X118.400 Y102.428 E14.69405
G1 X118.400 Y97.329 E14.86365
G1 X118.900 Y97.329 E14.88028
G0 X119.252 Y97.689 F7200
;segType:Infill
G1 X118.761 Y98.540 E14.91298 F4500
G0 X118.761 Y100.169 F7200
G1 X121.640 Y100.169 E15.00874 F4500
G0 X121.640 Y101.554 F7200
G1 X121.343 Y102.068 E15.02849 F4500
G0 X121.640 Y99.423 F7200
G1 X120.639 Y97.689 E15.09508 F4500
G0 F3000 E14.09508
G0 X120.693 Y97.329 F7200
G0 X119.925 Y102.428
G0 X118.400 Y102.428
G0 X118.400 Y108.629
G0 X118.761 Y110.169
G0 F3000 E15.09508
G1 X121.640 Y110.169 E15.19083 F4500
G0 X121.640 Y109.554 F7200
G1 X119.437 Y113.368 E15.33732 F4500
G0 X120.453 Y113.368 F7200
G1 X118.761 Y110.436 E15.44992 F4500
G0 X118.761 Y110.540 F7200
G1 X119.656 Y108.989 E15.50950 F4500
G0 X118.216 Y108.809 F7200
;segType:Perimeter
G1 X118.060 Y108.229 E15.52945 F1800
G1 X122.400 Y108.229 E15.67378
G1 X122.400 Y114.128 E15.86998
G1 X118.000 Y114.128 E16.01630
G1 X118.000 Y108.289 E16.21051
G0 X118.060 Y108.229 F7200
G0 X119.660 Y108.229
G0 X119.100 Y108.629
;segType:Loop
G1 X122.000 Y108.629 E16.30694 F3600
G1 X122.000 Y113.728 E16.47654
G1 X118.400 Y113.728 E16.59625
G1 X118.400 Y108.629 E16.76585
G1 X118.900 Y108.629 E16.78248
G0 X120.235 Y108.989 F7200
;segType:Infill
G1 X121.640 Y111.423 E16.87595 F4500
G0 X121.640 Y112.169 F7200
G1 X118.761 Y112.169 E16.97170 F4500
; ------------------------------------
; Layer #7
; ------------------------------------
G92 E0 ;reset extr
G0 F3000 E-1.00000
G0 F600 Z2.600
G0 X118.400 Y112.222 F7200
G0 X122.000 Y111.692
G0 X122.000 Y108.629
G0 X138.000 Y108.629
G0 X140.360 Y108.989
G0 F3000 E0.00000
;segType:Infill
G1 X138.360 Y112.452 E0.13301 F4500
G0 X138.360 Y112.309 F7200
G1 X141.239 Y112.309 E0.22877 F4500
G0 X141.239 Y113.231 F7200
G1 X138.791 Y108.989 E0.39167 F4500
G0 X137.867 Y109.002 F7200
;segType:Perimeter
G1 X137.660 Y108.229 E0.41828 F1800
G1 X142.000 Y108.229 E0.56260
G1 X142.000 Y114.128 E0.75880
G1 X137.600 Y114.128 E0.90513
G1 X137.600 Y108.289 E1.09933
G0 X137.660 Y108.229 F7200
G0 X139.260 Y108.229
G0 X138.700 Y108.629
;segType:Loop
G1 X141.600 Y108.629 E1.19576 F3600
G1 X141.600 Y113.728 E1.36536
G1 X138.000 Y113.728 E1.48507
G1 X138.000 Y108.629 E1.65467
G1 X138.500 Y108.629 E1.67130
G0 X141.100 Y108.989 F7200
;segType:Infill
G1 X141.239 Y109.231 E1.68058 F4500
G0 X141.239 Y110.309 F7200
G1 X138.360 Y110.309 E1.77634 F4500
G0 X138.360 Y112.244 F7200
G1 X139.009 Y113.368 E1.81950 F4500
G0 X140.141 Y113.368 F7200
G1 X141.239 Y111.466 E1.89256 F4500
G0 F3000 E0.89256
G0 X141.600 Y111.876 F7200
G0 X138.748 Y108.629
G0 X138.000 Y108.629
G0 X131.800 Y102.428
G0 X131.439 Y100.309
G0 F3000 E1.89256
G1 X128.561 Y100.309 E1.98830 F4500
G0 X128.561 Y101.426 F7200
G1 X130.718 Y97.689 E2.13183 F4500
G0 X131.439 Y98.309 F7200
G1 X128.561 Y98.309 E2.22758 F4500
G0 X128.200 Y97.329 F7200
G0 X128.016 Y97.508
;segType:Perimeter
G1 X127.860 Y96.929 E2.24754 F1800
G1 X132.200 Y96.929 E2.39186
G1 X132.200 Y102.828 E2.58807
G1 X127.800 Y102.828 E2.73438
G1 X127.800 Y96.989 E2.92860
G0 X127.860 Y96.929 F7200
G0 X129.460 Y96.929
G0 X128.900 Y97.329
;segType:Loop
G1 X131.800 Y97.329 E3.02502 F3600
G1 X131.800 Y102.428 E3.19462
G1 X128.200 Y102.428 E3.31433
