; G-Code generated by Simplify3D(R) Version 4.1.2
; Feb 20, 2021 at 11:18:39 PM
; Settings Summary
;   processName,Process1
;   applyToModels,pin10_0.1.2,pin10_0.1.2(2),pin10_0.1.2(3),pin10_0.1.2(4),pin10_0.1.2(5),pin10_0.1.2(6),pin10_0.1.2(7),pin10_0.1.2(8),pin10_0.1.2(9),pin10_0.1.2(10)
;   profileName,0.002
;   profileVersion,2021-02-20 23:12:41
;   baseProfile,Simplify3D PLA for CraftBot(2)
;   printMaterial,PLA
;   printQuality,Fast
;   printExtruders,
;   extruderName,Primary Extruder
;   extruderToolheadNumber,0
;   extruderDiameter,0.4
;   extruderAutoWidth,0
;   extruderWidth,0.4
;   extrusionMultiplier,1
;   extruderUseRetract,1
;   extruderRetractionDistance,0.6
;   extruderExtraRestartDistance,0
;   extruderRetractionZLift,0
;   extruderRetractionSpeed,2400
;   extruderUseCoasting,0
;   extruderCoastingDistance,0.2
;   extruderUseWipe,0
;   extruderWipeDistance,5
;   primaryExtruder,0
;   layerHeight,0.2
;   topSolidLayers,4
;   bottomSolidLayers,4
;   perimeterOutlines,2
;   printPerimetersInsideOut,1
;   startPointOption,2
;   startPointOriginX,0
;   startPointOriginY,0
;   sequentialIslands,0
;   spiralVaseMode,0
;   firstLayerHeightPercentage,100
;   firstLayerWidthPercentage,100
;   firstLayerUnderspeed,0.8
;   useRaft,1
;   raftExtruder,0
;   raftTopLayers,3
;   raftBaseLayers,2
;   raftOffset,3
;   raftSeparationDistance,0.14
;   raftTopInfill,100
;   aboveRaftSpeedMultiplier,0.3
;   useSkirt,0
;   skirtExtruder,0
;   skirtLayers,1
;   skirtOutlines,2
;   skirtOffset,4
;   usePrimePillar,0
;   primePillarExtruder,999
;   primePillarWidth,12
;   primePillarLocation,7
;   primePillarSpeedMultiplier,1
;   useOozeShield,0
;   oozeShieldExtruder,999
;   oozeShieldOffset,2
;   oozeShieldOutlines,1
;   oozeShieldSidewallShape,1
;   oozeShieldSidewallAngle,30
;   oozeShieldSpeedMultiplier,1
;   infillExtruder,0
;   internalInfillPattern,Full Honeycomb
;   externalInfillPattern,Rectilinear
;   infillPercentage,40
;   outlineOverlapPercentage,20
;   infillExtrusionWidthPercentage,100
;   minInfillLength,5
;   infillLayerInterval,1
;   internalInfillAngles,0,120,-120
;   overlapInternalInfillAngles,0
;   externalInfillAngles,45,-45
;   generateSupport,1
;   supportExtruder,0
;   supportInfillPercentage,30
;   supportExtraInflation,0
;   supportBaseLayers,0
;   denseSupportExtruder,0
;   denseSupportLayers,0
;   denseSupportInfillPercentage,70
;   supportLayerInterval,1
;   supportHorizontalPartOffset,0.3
;   supportUpperSeparationLayers,1
;   supportLowerSeparationLayers,1
;   supportType,0
;   supportGridSpacing,4
;   maxOverhangAngle,65
;   supportAngles,0
;   temperatureName,Primary Extruder,Heated Bed
;   temperatureNumber,0,0
;   temperatureSetpointCount,1,1
;   temperatureSetpointLayers,1,1
;   temperatureSetpointTemperatures,215,60
;   temperatureStabilizeAtStartup,1,0
;   temperatureHeatedBed,0,1
;   fanLayers,1
;   fanSpeeds,100
;   blipFanToFullPower,1
;   adjustSpeedForCooling,1
;   minSpeedLayerTime,5
;   minCoolingSpeedSlowdown,20
;   increaseFanForCooling,0
;   minFanLayerTime,45
;   maxCoolingFanSpeed,100
;   increaseFanForBridging,0
;   bridgingFanSpeed,100
;   use5D,1
;   relativeEdistances,0
;   allowEaxisZeroing,1
;   independentExtruderAxes,0
;   includeM10123,0
;   stickySupport,1
;   applyToolheadOffsets,0
;   gcodeXoffset,0
;   gcodeYoffset,0
;   gcodeZoffset,0
;   overrideMachineDefinition,1
;   machineTypeOverride,0
;   strokeXoverride,250
;   strokeYoverride,200
;   strokeZoverride,200
;   originOffsetXoverride,0
;   originOffsetYoverride,0
;   originOffsetZoverride,0
;   homeXdirOverride,-1
;   homeYdirOverride,-1
;   homeZdirOverride,-1
;   flipXoverride,1
;   flipYoverride,-1
;   flipZoverride,1
;   toolheadOffsets,0,0|0,0|0,0|0,0|0,0|0,0
;   overrideFirmwareConfiguration,1
;   firmwareTypeOverride,RepRap (Marlin/Repetier/Sprinter)
;   GPXconfigOverride,r2
;   baudRateOverride,115200
;   overridePrinterModels,0
;   printerModelsOverride
;   startingGcode,M906 X50 ,M906 E50,M4003 S270 ,M1203 A3000 D3000  F1200,G28 X0 Y0,G28 Z0,G1 X1 Y1 E0 F240,G1 X1 Y100 E20 F240,G1 X1 Y20 E40 F240,G1 X8 Y1 F240,G92 E0 ,G92 X0 Y0 ,
;   layerChangeGcode,
;   retractionGcode,
;   toolChangeGcode,
;   endingGcode,G1 X0 Y0 F2400 ,;G1 Z195 F2400 ; move bed to bottom,M140 S0,M104 S0,M106 S0,
;   exportFileFormat,gcode
;   celebration,0
;   celebrationSong,Random Song
;   postProcessing,
;   defaultSpeed,4800
;   outlineUnderspeed,0.5
;   solidInfillUnderspeed,0.8
;   supportUnderspeed,1
;   rapidXYspeed,6000
;   rapidZspeed,500
;   minBridgingArea,20
;   bridgingExtraInflation,0
;   bridgingExtrusionMultiplier,1
;   bridgingSpeedMultiplier,1
;   useFixedBridgingAngle,0
;   fixedBridgingAngle,0
;   applyBridgingToPerimeters,0
;   filamentDiameters,1.75|1.75|1.75|1.75|1.75|1.75
;   filamentPricesPerKg,46|46|46|46|46|46
;   filamentDensities,1.25|1.25|1.25|1.25|1.25|1.25
;   useMinPrintHeight,0
;   minPrintHeight,0
;   useMaxPrintHeight,0
;   maxPrintHeight,0
;   useDiaphragm,0
;   diaphragmLayerInterval,20
;   robustSlicing,1
;   mergeAllIntoSolid,0
;   onlyRetractWhenCrossingOutline,1
;   retractBetweenLayers,1
;   useRetractionMinTravel,1
;   retractionMinTravel,2
;   retractWhileWiping,0
;   onlyWipeOutlines,0
;   avoidCrossingOutline,0
;   maxMovementDetourFactor,3
;   toolChangeRetractionDistance,0
;   toolChangeExtraRestartDistance,0
;   toolChangeRetractionSpeed,360
;   externalThinWallType,0
;   internalThinWallType,2
;   thinWallAllowedOverlapPercentage,10
;   singleExtrusionMinLength,1
;   singleExtrusionMinPrintingWidthPercentage,50
;   singleExtrusionMaxPrintingWidthPercentage,200
;   singleExtrusionEndpointExtension,0.2
;   horizontalSizeCompensation,0
G90
M82
M106 S255
M140 S60
M104 S215 T0
M109 S215 T0
M906 X50 
M906 E50
M4003 S270 
M1203 A3000 D3000  F1200
G28 X0 Y0
G28 Z0
G1 X1 Y1 E0 F240
G1 X1 Y100 E20 F240
G1 X1 Y20 E40 F240
G1 X8 Y1 F240
G92 E0 
G92 X0 Y0 
; process Process1
; layer 1, Z = 0.500
T0
G92 E0.0000
G1 E-0.6000 F2400
; feature raft
; tool H0.500 W0.800
G1 Z0.500 F500
G1 X100.400 Y90.123 F6000
G1 E0.0000 F2400
G92 E0.0000
G1 X101.923 Y88.600 E0.3582 F960
G1 X108.877 Y88.600 E1.5146
G1 X110.300 Y90.023 E1.8493
G1 X111.723 Y88.600 E2.1840
G1 X118.677 Y88.600 E3.3404
G1 X120.100 Y90.023 E3.6751
G1 X121.523 Y88.600 E4.0098
G1 X128.477 Y88.600 E5.1662
G1 X129.900 Y90.023 E5.5009
G1 X131.323 Y88.600 E5.8356
G1 X138.277 Y88.600 E6.9920
G1 X139.700 Y90.023 E7.3267
G1 X141.123 Y88.600 E7.6614
G1 X148.077 Y88.600 E8.8178
G1 X149.600 Y90.123 E9.1760
G1 X149.600 Y98.577 E10.5819
G1 X148.177 Y100.000 E10.9166
G1 X149.600 Y101.423 E11.2513
G1 X149.600 Y109.877 E12.6572
G1 X148.077 Y111.400 E13.0154
G1 X141.123 Y111.400 E14.1718
G1 X139.700 Y109.977 E14.5065
G1 X138.277 Y111.400 E14.8412
G1 X131.323 Y111.400 E15.9976
G1 X129.900 Y109.977 E16.3323
G1 X128.477 Y111.400 E16.6669
G1 X121.523 Y111.400 E17.8234
G1 X120.100 Y109.977 E18.1581
G1 X118.677 Y111.400 E18.4927
G1 X111.723 Y111.400 E19.6492
G1 X110.300 Y109.977 E19.9839
G1 X108.877 Y111.400 E20.3185
G1 X101.923 Y111.400 E21.4750
G1 X100.400 Y109.877 E21.8332
G1 X100.400 Y101.423 E23.2391
G1 X101.823 Y100.000 E23.5738
G1 X100.400 Y98.577 E23.9084
G1 X100.400 Y90.123 E25.3143
G92 E0.0000
G1 E-0.6000 F2400
G1 X108.977 Y100.000 F6000
G1 E0.0000 F2400
G92 E0.0000
G1 X110.300 Y101.323 E0.3112 F960
G1 X111.623 Y100.000 E0.6223
G1 X110.300 Y98.677 E0.9335
G1 X108.977 Y100.000 E1.2446
G92 E0.0000
G1 E-0.6000 F2400
G1 X118.777 Y100.000 F6000
G1 E0.0000 F2400
G92 E0.0000
G1 X120.100 Y101.323 E0.3112 F960
G1 X121.423 Y100.000 E0.6223
G1 X120.100 Y98.677 E0.9335
G1 X118.777 Y100.000 E1.2446
G92 E0.0000
G1 E-0.6000 F2400
G1 X128.577 Y100.000 F6000
G1 E0.0000 F2400
G92 E0.0000
G1 X129.900 Y101.323 E0.3112 F960
G1 X131.223 Y100.000 E0.6223
G1 X129.900 Y98.677 E0.9335
G1 X128.577 Y100.000 E1.2446
G92 E0.0000
G1 E-0.6000 F2400
G1 X138.377 Y100.000 F6000
G1 E0.0000 F2400
G92 E0.0000
G1 X139.700 Y101.323 E0.3112 F960
G1 X141.023 Y100.000 E0.6223
G1 X139.700 Y98.677 E0.9335
G1 X138.377 Y100.000 E1.2446
G92 E0.0000
G1 E-0.6000 F2400
G1 X148.960 Y109.143 F6000
G1 E0.0000 F2400
G92 E0.0000
G1 X139.771 Y109.143 E1.5281 F960
G1 X139.700 Y109.072 E1.5448
G1 X139.629 Y109.143 E1.5615
G1 X129.971 Y109.143 E3.1677
G1 X129.900 Y109.072 E3.1844
G1 X129.829 Y109.143 E3.2011
G1 X120.171 Y109.143 E4.8072
G1 X120.100 Y109.072 E4.8239
G1 X120.029 Y109.143 E4.8406
G1 X110.371 Y109.143 E6.4467
G1 X110.300 Y109.072 E6.4634
G1 X110.229 Y109.143 E6.4801
G1 X101.040 Y109.143 E8.0083
G1 X101.040 Y106.857 E8.3884
G1 X148.960 Y106.857 E16.3575
G1 X148.960 Y104.571 E16.7376
G1 X101.040 Y104.571 E24.7068
G1 X101.040 Y102.286 E25.0869
G1 X148.960 Y102.286 E33.0560
G1 X148.960 Y101.688 E33.1554
G1 X147.272 Y100.000 E33.5524
G1 X141.928 Y100.000 E34.4411
G1 X139.700 Y102.228 E34.9651
G1 X137.472 Y100.000 E35.4891
G1 X132.128 Y100.000 E36.3778
G1 X129.900 Y102.228 E36.9018
G1 X127.672 Y100.000 E37.4258
G1 X122.328 Y100.000 E38.3145
G1 X120.100 Y102.228 E38.8385
G1 X117.872 Y100.000 E39.3625
G1 X112.528 Y100.000 E40.2512
G1 X110.300 Y102.228 E40.7752
G1 X108.072 Y100.000 E41.2992
G1 X102.728 Y100.000 E42.1879
G1 X101.040 Y98.312 E42.5849
G1 X101.040 Y97.714 E42.6843
G1 X148.960 Y97.714 E50.6534
G1 X148.960 Y95.429 E51.0336
G1 X101.040 Y95.429 E59.0027
G1 X101.040 Y93.143 E59.3828
G1 X148.960 Y93.143 E67.3519
G1 X148.960 Y90.857 E67.7320
G1 X139.771 Y90.857 E69.2602
G1 X139.700 Y90.928 E69.2769
G1 X139.629 Y90.857 E69.2935
G1 X129.971 Y90.857 E70.8997
G1 X129.900 Y90.928 E70.9164
G1 X129.829 Y90.857 E70.9331
G1 X120.171 Y90.857 E72.5392
G1 X120.100 Y90.928 E72.5559
G1 X120.029 Y90.857 E72.5726
G1 X110.371 Y90.857 E74.1787
G1 X110.300 Y90.928 E74.1954
G1 X110.229 Y90.857 E74.2121
G1 X101.040 Y90.857 E75.7403
G92 E0.0000
G1 E-0.6000 F2400
; layer 2, Z = 1.000
G1 Z1.000 F500
G1 X100.400 Y90.123 F6000
G1 E0.0000 F2400
G92 E0.0000
G1 X101.923 Y88.600 E0.3582 F1200
G1 X108.877 Y88.600 E1.5146
G1 X110.300 Y90.023 E1.8493
G1 X111.723 Y88.600 E2.1840
G1 X118.677 Y88.600 E3.3404
G1 X120.100 Y90.023 E3.6751
G1 X121.523 Y88.600 E4.0098
G1 X128.477 Y88.600 E5.1662
G1 X129.900 Y90.023 E5.5009
G1 X131.323 Y88.600 E5.8356
G1 X138.277 Y88.600 E6.9920
G1 X139.700 Y90.023 E7.3267
G1 X141.123 Y88.600 E7.6614
G1 X148.077 Y88.600 E8.8178
G1 X149.600 Y90.123 E9.1760
G1 X149.600 Y98.577 E10.5819
G1 X148.177 Y100.000 E10.9166
G1 X149.600 Y101.423 E11.2513
G1 X149.600 Y109.877 E12.6572
G1 X148.077 Y111.400 E13.0154
G1 X141.123 Y111.400 E14.1718
G1 X139.700 Y109.977 E14.5065
G1 X138.277 Y111.400 E14.8412
G1 X131.323 Y111.400 E15.9976
G1 X129.900 Y109.977 E16.3323
G1 X128.477 Y111.400 E16.6669
G1 X121.523 Y111.400 E17.8234
G1 X120.100 Y109.977 E18.1581
G1 X118.677 Y111.400 E18.4927
G1 X111.723 Y111.400 E19.6492
G1 X110.300 Y109.977 E19.9839
G1 X108.877 Y111.400 E20.3185
G1 X101.923 Y111.400 E21.4750
G1 X100.400 Y109.877 E21.8332
G1 X100.400 Y101.423 E23.2391
G1 X101.823 Y100.000 E23.5738
G1 X100.400 Y98.577 E23.9084
G1 X100.400 Y90.123 E25.3143
G92 E0.0000
G1 E-0.6000 F2400
G1 X108.977 Y100.000 F6000
G1 E0.0000 F2400
G92 E0.0000
G1 X110.300 Y101.323 E0.3112 F1200
G1 X111.623 Y100.000 E0.6223
G1 X110.300 Y98.677 E0.9335
G1 X108.977 Y100.000 E1.2446
G92 E0.0000
G1 E-0.6000 F2400
G1 X118.777 Y100.000 F6000
G1 E0.0000 F2400
G92 E0.0000
G1 X120.100 Y101.323 E0.3112 F1200
G1 X121.423 Y100.000 E0.6223
G1 X120.100 Y98.677 E0.9335
G1 X118.777 Y100.000 E1.2446
G92 E0.0000
G1 E-0.6000 F2400
G1 X128.577 Y100.000 F6000
G1 E0.0000 F2400
G92 E0.0000
G1 X129.900 Y101.323 E0.3112 F1200
G1 X131.223 Y100.000 E0.6223
G1 X129.900 Y98.677 E0.9335
G1 X128.577 Y100.000 E1.2446
G92 E0.0000
G1 E-0.6000 F2400
G1 X138.377 Y100.000 F6000
G1 E0.0000 F2400
G92 E0.0000
G1 X139.700 Y101.323 E0.3112 F1200
G1 X141.023 Y100.000 E0.6223
G1 X139.700 Y98.677 E0.9335
G1 X138.377 Y100.000 E1.2446
G92 E0.0000
G1 E-0.6000 F2400
G1 X148.960 Y109.143 F6000
G1 E0.0000 F2400
G92 E0.0000
G1 X139.771 Y109.143 E1.5281 F1200
G1 X139.700 Y109.072 E1.5448
G1 X139.629 Y109.143 E1.5615
G1 X129.971 Y109.143 E3.1677
G1 X129.900 Y109.072 E3.1844
G1 X129.829 Y109.143 E3.2011
G1 X120.171 Y109.143 E4.8072
G1 X120.100 Y109.072 E4.8239
G1 X120.029 Y109.143 E4.8406
G1 X110.371 Y109.143 E6.4467
G1 X110.300 Y109.072 E6.4634
G1 X110.229 Y109.143 E6.4801
G1 X101.040 Y109.143 E8.0083
G1 X101.040 Y106.857 E8.3884
G1 X148.960 Y106.857 E16.3575
G1 X148.960 Y104.571 E16.7376
G1 X101.040 Y104.571 E24.7068
G1 X101.040 Y102.286 E25.0869
G1 X148.960 Y102.286 E33.0560
G1 X148.960 Y101.688 E33.1554
G1 X147.272 Y100.000 E33.5524
G1 X141.928 Y100.000 E34.4411
G1 X139.700 Y102.228 E34.9651
G1 X137.472 Y100.000 E35.4891
G1 X132.128 Y100.000 E36.3778
G1 X129.900 Y102.228 E36.9018
G1 X127.672 Y100.000 E37.4258
G1 X122.328 Y100.000 E38.3145
G1 X120.100 Y102.228 E38.8385
G1 X117.872 Y100.000 E39.3625
G1 X112.528 Y100.000 E40.2512
G1 X110.300 Y102.228 E40.7752
G1 X108.072 Y100.000 E41.2992
G1 X102.728 Y100.000 E42.1879
G1 X101.040 Y98.312 E42.5849
G1 X101.040 Y97.714 E42.6843
G1 X148.960 Y97.714 E50.6534
G1 X148.960 Y95.429 E51.0336
G1 X101.040 Y95.429 E59.0027
G1 X101.040 Y93.143 E59.3828
G1 X148.960 Y93.143 E67.3519
G1 X148.960 Y90.857 E67.7320
G1 X139.771 Y90.857 E69.2602
G1 X139.700 Y90.928 E69.2769
G1 X139.629 Y90.857 E69.2935
G1 X129.971 Y90.857 E70.8997
G1 X129.900 Y90.928 E70.9164
G1 X129.829 Y90.857 E70.9331
G1 X120.171 Y90.857 E72.5392
G1 X120.100 Y90.928 E72.5559
G1 X120.029 Y90.857 E72.5726
G1 X110.371 Y90.857 E74.1787
G1 X110.300 Y90.928 E74.1954
G1 X110.229 Y90.857 E74.2121
G1 X101.040 Y90.857 E75.7403
G92 E0.0000
G1 E-0.6000 F2400
; layer 3, Z = 1.222
; tool H0.222 W0.400
G1 Z1.222 F500
G1 X100.200 Y90.293 F6000
G1 E0.0000 F2400
G92 E0.0000
G1 X102.093 Y88.400 E0.0989 F3600
G1 X102.659 Y88.400 E0.1199
G1 X100.200 Y90.859 E0.2484
G1 X100.200 Y91.425 E0.2693
G1 X103.225 Y88.400 E0.4273
G1 X103.790 Y88.400 E0.4483
G1 X100.200 Y91.990 E0.6359
G1 X100.200 Y92.556 E0.6568
G1 X104.356 Y88.400 E0.8740
G1 X104.922 Y88.400 E0.8949
G1 X100.200 Y93.122 E1.1417
G1 X100.200 Y93.687 E1.1626
G1 X105.487 Y88.400 E1.4389
G1 X106.053 Y88.400 E1.4598
G1 X100.200 Y94.253 E1.7657
G1 X100.200 Y94.819 E1.7866
G1 X106.619 Y88.400 E2.1221
G1 X107.184 Y88.400 E2.1430
G1 X100.200 Y95.384 E2.5080
G1 X100.200 Y95.950 E2.5289
G1 X107.750 Y88.400 E2.9235
G1 X108.316 Y88.400 E2.9444
G1 X100.200 Y96.516 E3.3686
G1 X100.200 Y97.081 E3.3895
G1 X108.881 Y88.400 E3.8432
G1 X108.960 Y88.400 E3.8461
G1 X109.203 Y88.644 E3.8588
G1 X100.200 Y97.647 E4.3294
G1 X100.200 Y98.213 E4.3503
G1 X109.486 Y88.927 E4.8356
G1 X109.769 Y89.209 E4.8504
G1 X100.259 Y98.719 E5.3474
G1 X100.542 Y99.002 E5.3622
G1 X110.052 Y89.492 E5.8592
G1 X110.300 Y89.740 E5.8722
G1 X111.640 Y88.400 E5.9422
G1 X111.710 Y88.400 E5.9448
G1 X100.825 Y99.285 E6.5137
G1 X101.108 Y99.568 E6.5285
G1 X112.276 Y88.400 E7.1121
G1 X112.841 Y88.400 E7.1330
G1 X101.391 Y99.851 E7.7315
G1 X101.540 Y100.000 E7.7393
G1 X100.200 Y101.340 E7.8093
G1 X100.200 Y101.607 E7.8192
G1 X113.407 Y88.400 E8.5094
G1 X113.973 Y88.400 E8.5303
G1 X100.200 Y102.173 E9.2501
G1 X100.200 Y102.738 E9.2710
G1 X114.538 Y88.400 E10.0204
G1 X115.104 Y88.400 E10.0413
G1 X100.200 Y103.304 E10.8202
G1 X100.200 Y103.870 E10.8411
G1 X115.670 Y88.400 E11.6496
G1 X116.235 Y88.400 E11.6705
G1 X100.200 Y104.435 E12.5086
G1 X100.200 Y105.001 E12.5295
G1 X116.801 Y88.400 E13.3971
G1 X117.367 Y88.400 E13.4180
G1 X100.200 Y105.567 E14.3152
G1 X100.200 Y106.132 E14.3361
G1 X117.932 Y88.400 E15.2629
G1 X118.498 Y88.400 E15.2838
G1 X100.200 Y106.698 E16.2401
G1 X100.200 Y107.264 E16.2610
G1 X118.912 Y88.552 E17.2390
G1 X119.195 Y88.835 E17.2537
G1 X100.200 Y107.829 E18.2465
G1 X100.200 Y108.395 E18.2674
G1 X119.477 Y89.118 E19.2749
G1 X119.760 Y89.401 E19.2897
G1 X100.200 Y108.961 E20.3119
G1 X100.200 Y109.527 E20.3328
G1 X109.493 Y100.233 E20.8185
G1 X109.776 Y100.516 E20.8333
G1 X100.266 Y110.026 E21.3303
G1 X100.549 Y110.309 E21.3451
G1 X110.059 Y100.799 E21.8421
G1 X110.300 Y101.040 E21.8547
G1 X111.340 Y100.000 E21.9091
G1 X111.099 Y99.759 E21.9217
G1 X122.458 Y88.400 E22.5154
