; #disp params :
; Printmode:0
; Layer:55
; Zmax:124.623 mm
; Xmax:152.121 mm
; Ymax:12 mm
; Xmin:107.641 mm
; Ymin:0.3 mm
; E0diam:0.4 mm
; E0len:1.21101 m
; E0temp:215 C
; Bedtemp:215 C
; Time:18.9464 min
; #params end
; GCode generated by CraftWare

G28 X Y ; home horizontally
G28 Z ; home vertically


M104 S215 ;set head temp (no wait)
M190 S60 ;set bed temp (wait)
M109 S215 ;set head temp (wait)

; ------------------------------------
; Raft Layer #0
; ------------------------------------
M106 S0 ;turn off fan
G21 ; mm
G90 ; abs
G92 E0 ;reset extr
G0 F600 Z0.300
;segType:Raft
G0 F3000 E-1.00000
G0 F600 Z2.300
G0 X112.409 Y124.020 F5400
G0 F600 Z0.300
G0 F3000 E0.00000
G1 X107.822 Y119.433 E0.32362 F600
G1 X107.702 Y119.071 E0.34266
G1 X107.702 Y80.929 E2.24558
G1 X108.124 Y80.386 E2.27993
G1 X112.952 Y75.557 E2.62058
G1 X146.749 Y75.557 E4.30671
G1 X147.293 Y75.980 E4.34106
G1 X152.121 Y80.808 E4.68171
G1 X152.121 Y118.468 E6.56054
G1 X152.060 Y119.373 E6.60582
G1 X146.991 Y124.443 E6.96350
G1 X146.629 Y124.563 E6.98255
G1 X113.797 Y124.563 E8.62050
G1 X112.892 Y124.503 E8.66578
G1 X112.409 Y124.020 E8.69985
G0 X113.790 Y124.261 F5400
G1 X113.790 Y75.980 E11.10861 F600
G0 X116.457 Y75.980 F5400
G1 X116.457 Y124.261 E13.51737 F600
G0 X119.124 Y124.261 F5400
G1 X119.124 Y75.980 E15.92613 F600
G0 X121.790 Y75.980 F5400
G1 X121.790 Y124.261 E18.33489 F600
G0 X124.457 Y124.261 F5400
G1 X124.457 Y75.980 E20.74365 F600
G0 X127.124 Y75.980 F5400
G1 X127.124 Y124.261 E23.15242 F600
G0 X129.790 Y124.261 F5400
G1 X129.790 Y75.980 E25.56118 F600
G0 X132.457 Y75.980 F5400
G1 X132.457 Y124.261 E27.96994 F600
G0 X135.124 Y124.261 F5400
G1 X135.124 Y75.980 E30.37870 F600
G0 X137.790 Y75.980 F5400
G1 X137.790 Y124.261 E32.78747 F600
G0 X140.457 Y124.261 F5400
G1 X140.457 Y75.980 E35.19623 F600
G0 X143.124 Y75.980 F5400
G1 X143.124 Y124.261 E37.60499 F600
G0 X145.790 Y124.261 F5400
G1 X145.790 Y75.980 E40.01375 F600
G0 X148.457 Y77.791 F5400
G1 X148.457 Y122.451 E42.24185 F600
G0 X151.124 Y119.795 F5400
G1 X151.124 Y80.446 E44.20499 F600
G0 X111.124 Y78.032 F5400
G1 X111.124 Y122.209 E46.40901 F600
G0 X108.457 Y119.554 F5400
G1 X108.457 Y80.688 E48.34806 F600



; ------------------------------------
; Raft Layer #1
; ------------------------------------
G92 E0 ;reset extr
G0 F600 Z0.600
;segType:Raft
G0 X107.641 Y80.786 F7200
G1 X112.952 Y75.475 E0.37472 F1800
G0 X114.763 Y75.550 F7200
G1 X107.641 Y82.672 E0.87717 F1800
G0 X107.641 Y84.557 F7200
G1 X116.694 Y75.505 E1.51589 F1800
G0 X118.625 Y75.459 F7200
G1 X107.641 Y86.443 E2.29087 F1800
G0 X107.641 Y88.329 F7200
G1 X120.436 Y75.534 E3.19360 F1800
G0 X122.307 Y75.669 F7200
G1 X107.822 Y90.154 E4.21554 F1800
G0 X107.641 Y92.100 F7200
G1 X124.298 Y75.443 E5.39077 F1800
G0 X126.109 Y75.518 F7200
G1 X107.641 Y93.985 E6.69376 F1800
G0 X107.641 Y95.871 F7200
G1 X128.040 Y75.472 E8.13301 F1800
G0 X129.851 Y75.547 F7200
G1 X107.641 Y97.757 E9.70000 F1800
G0 X107.641 Y99.642 F7200
G1 X131.782 Y75.502 E11.40325 F1800
G0 X133.713 Y75.457 F7200
G1 X107.641 Y101.528 E13.24275 F1800
G0 X107.641 Y103.414 F7200
G1 X135.524 Y75.531 E15.21001 F1800
G0 X137.455 Y75.485 F7200
G1 X107.641 Y105.299 E17.31352 F1800
G0 X107.641 Y107.185 F7200
G1 X139.386 Y75.440 E19.55330 F1800
G0 X141.257 Y75.575 F7200
G1 X107.822 Y109.010 E21.91228 F1800
G0 X107.822 Y110.896 F7200
G1 X143.067 Y75.650 E24.39901 F1800
G0 X144.939 Y75.544 F7200
G1 X107.641 Y112.842 E27.03054 F1800
G0 X107.641 Y114.727 F7200
G1 X146.870 Y75.499 E29.79832 F1800
G0 X147.836 Y76.419 F7200
G1 X107.641 Y116.613 E32.63423 F1800
G0 X107.822 Y118.438 F7200
G1 X148.861 Y77.399 E35.52974 F1800
G0 X149.646 Y78.380 F7200
G1 X108.245 Y119.781 E38.45079 F1800
G0 X109.211 Y120.701 F7200
G1 X150.612 Y79.300 E41.37185 F1800
G0 X151.577 Y80.220 F7200
G1 X110.055 Y121.741 E44.30142 F1800
G0 X111.051 Y122.632 F7200
G1 X152.090 Y81.594 E47.19692 F1800
G0 X152.044 Y83.525 F7200
G1 X111.971 Y123.598 E50.02430 F1800
G0 X113.011 Y124.442 F7200
G1 X152.119 Y85.335 E52.78355 F1800
G0 X152.073 Y87.266 F7200
G1 X114.897 Y124.442 E55.40653 F1800
G0 X116.782 Y124.442 F7200
G1 X152.028 Y89.198 E57.89326 F1800
G0 X152.103 Y91.008 F7200
G1 X118.547 Y124.563 E60.26078 F1800
G0 X120.433 Y124.563 F7200
G1 X152.057 Y92.939 E62.49204 F1800
G0 X152.012 Y94.870 F7200
G1 X122.319 Y124.563 E64.58704 F1800
G0 X124.325 Y124.442 F7200
G1 X152.087 Y96.681 E66.54576 F1800
G0 X152.041 Y98.612 F7200
G1 X126.211 Y124.442 E68.36823 F1800
G0 X127.975 Y124.563 F7200
G1 X152.116 Y100.422 E70.07148 F1800
G0 X152.070 Y102.354 F7200
G1 X129.861 Y124.563 E71.63848 F1800
G0 X131.867 Y124.442 F7200
G1 X152.025 Y104.285 E73.06068 F1800
G0 X152.100 Y106.096 F7200
G1 X133.753 Y124.442 E74.35514 F1800
G0 X135.518 Y124.563 F7200
G1 X152.054 Y108.027 E75.52187 F1800
G0 X152.009 Y109.958 F7200
G1 X137.524 Y124.442 E76.54381 F1800
G0 X139.410 Y124.442 F7200
G1 X152.084 Y111.769 E77.43801 F1800
G0 X152.038 Y113.700 F7200
G1 X141.295 Y124.442 E78.19596 F1800
G0 X143.181 Y124.442 F7200
G1 X152.113 Y115.511 E78.82615 F1800
G0 X152.068 Y117.442 F7200
G1 X145.067 Y124.442 E79.32009 F1800



; ------------------------------------
; Raft Layer #2
; ------------------------------------
G92 E0 ;reset extr
G0 F600 Z0.800
;segType:Raft
G0 F3000 E-1.00000
G0 F600 Z2.800
G0 X112.470 Y124.181 F7200
G0 F600 Z0.800
G0 F3000 E0.00000
G1 X147.232 Y124.181 E1.15621 F2400
G1 X147.594 Y123.781 E1.17415
G1 X112.107 Y123.781 E2.35444
G1 X111.745 Y123.381 E2.37239
G1 X147.956 Y123.381 E3.57677
G1 X148.439 Y122.981 E3.59762
G1 X111.263 Y122.981 E4.83412
G1 X110.900 Y122.581 E4.85207
G1 X148.801 Y122.581 E6.11265
G1 X149.163 Y122.181 E6.13060
G1 X110.538 Y122.181 E7.41527
G1 X110.055 Y121.781 E7.43612
G1 X149.646 Y121.781 E8.75291
G1 X150.008 Y121.381 E8.77086
G1 X109.693 Y121.381 E10.11174
G1 X109.331 Y120.981 E10.12968
G1 X150.370 Y120.981 E11.49465
G1 X150.732 Y120.581 E11.51259
G1 X108.969 Y120.581 E12.90165
G1 X108.486 Y120.181 E12.92250
G1 X151.215 Y120.181 E14.34367
G1 X151.577 Y119.781 E14.36161
G1 X108.124 Y119.781 E15.80687
G1 X107.762 Y119.381 E15.82482
G1 X151.939 Y119.381 E17.29416
G1 X152.060 Y118.981 E17.30806
G1 X107.641 Y118.981 E18.78543
G1 X107.641 Y118.581 E18.79874
G1 X152.060 Y118.581 E20.27611
G1 X152.060 Y118.181 E20.28941
G1 X107.641 Y118.181 E21.76679
G1 X107.641 Y117.781 E21.78009
G1 X152.060 Y117.781 E23.25746
G1 X152.060 Y117.381 E23.27077
G1 X107.641 Y117.381 E24.74814
G1 X107.641 Y116.981 E24.76144
G1 X152.060 Y116.981 E26.23882
G1 X152.060 Y116.581 E26.25212
G1 X107.641 Y116.581 E27.72949
G1 X107.641 Y116.181 E27.74280
G1 X152.060 Y116.181 E29.22017
G1 X152.060 Y115.781 E29.23347
G1 X107.641 Y115.781 E30.71085
G1 X107.641 Y115.381 E30.72415
G1 X152.060 Y115.381 E32.20152
G1 X152.060 Y114.981 E32.21483
G1 X107.641 Y114.981 E33.69220
G1 X107.641 Y114.581 E33.70551
G1 X152.060 Y114.581 E35.18289
G1 X152.060 Y114.181 E35.19619
G1 X107.641 Y114.181 E36.67357
G1 X107.641 Y113.781 E36.68687
G1 X152.060 Y113.781 E38.16425
G1 X152.060 Y113.381 E38.17755
G1 X107.641 Y113.381 E39.65493
G1 X107.641 Y112.981 E39.66823
G1 X152.060 Y112.981 E41.14561
G1 X152.060 Y112.581 E41.15891
G1 X107.641 Y112.581 E42.63629
G1 X107.641 Y112.181 E42.64960
G1 X152.060 Y112.181 E44.12697
G1 X152.060 Y111.781 E44.14028
G1 X107.641 Y111.781 E45.61765
G1 X107.641 Y111.381 E45.63096
G1 X152.060 Y111.381 E47.10833
G1 X152.060 Y110.981 E47.12164
G1 X107.641 Y110.981 E48.59901
G1 X107.641 Y110.581 E48.61232
G1 X152.060 Y110.581 E50.08969
G1 X152.060 Y110.181 E50.10300
G1 X107.641 Y110.181 E51.58037
G1 X107.641 Y109.781 E51.59368
G1 X152.060 Y109.781 E53.07106
G1 X152.060 Y109.381 E53.08436
G1 X107.641 Y109.381 E54.56174
G1 X107.641 Y108.981 E54.57504
G1 X152.060 Y108.981 E56.05242
G1 X152.060 Y108.581 E56.06572
G1 X107.641 Y108.581 E57.54310
G1 X107.641 Y108.181 E57.55640
G1 X152.060 Y108.181 E59.03378
G1 X152.060 Y107.781 E59.04708
G1 X107.641 Y107.781 E60.52446
G1 X107.641 Y107.381 E60.53776
G1 X152.060 Y107.381 E62.01514
G1 X152.060 Y106.981 E62.02844
G1 X107.641 Y106.981 E63.50582
G1 X107.641 Y106.581 E63.51913
G1 X152.060 Y106.581 E64.99650
G1 X152.060 Y106.181 E65.00981
G1 X107.641 Y106.181 E66.48718
G1 X107.641 Y105.781 E66.50048
G1 X152.060 Y105.781 E67.97785
G1 X152.060 Y105.381 E67.99116
G1 X107.641 Y105.381 E69.46853
G1 X107.641 Y104.981 E69.48184
G1 X152.060 Y104.981 E70.95921
G1 X152.060 Y104.581 E70.97251
G1 X107.641 Y104.581 E72.44989
G1 X107.641 Y104.181 E72.46319
G1 X152.060 Y104.181 E73.94056
G1 X152.060 Y103.781 E73.95387
G1 X107.641 Y103.781 E75.43124
G1 X107.641 Y103.381 E75.44454
G1 X152.060 Y103.381 E76.92192
G1 X152.060 Y102.981 E76.93522
G1 X107.641 Y102.981 E78.41259
G1 X107.641 Y102.581 E78.42590
G1 X152.060 Y102.581 E79.90327
G1 X152.060 Y102.181 E79.91658
G1 X107.641 Y102.181 E81.39395
G1 X107.641 Y101.781 E81.40725
G1 X152.060 Y101.781 E82.88462
G1 X152.060 Y101.381 E82.89793
G1 X107.641 Y101.381 E84.37530
G1 X107.641 Y100.981 E84.38860
G1 X152.060 Y100.981 E85.86597
G1 X152.060 Y100.581 E85.87928
G1 X107.641 Y100.581 E87.35665
G1 X107.641 Y100.181 E87.36996
G1 X152.060 Y100.181 E88.84733
G1 X152.060 Y99.781 E88.86063
G1 X107.641 Y99.781 E90.33801
G1 X107.641 Y99.381 E90.35131
G1 X152.060 Y99.381 E91.82868
G1 X152.060 Y98.981 E91.84199
G1 X107.641 Y98.981 E93.31936
G1 X107.641 Y98.581 E93.33266
G1 X152.060 Y98.581 E94.81004
G1 X152.060 Y98.181 E94.82334
G1 X107.641 Y98.181 E96.30071
G1 X107.641 Y97.781 E96.31402
G1 X152.060 Y97.781 E97.79139
G1 X152.060 Y97.381 E97.80470
G1 X107.641 Y97.381 E99.28207
G1 X107.641 Y96.981 E99.29537
G1 X152.060 Y96.981 E100.77274
G1 X152.060 Y96.581 E100.78605
G1 X107.641 Y96.581 E102.26342
G1 X107.641 Y96.181 E102.27673
G1 X152.060 Y96.181 E103.75410
G1 X152.060 Y95.781 E103.76740
G1 X107.641 Y95.781 E105.24477
G1 X107.641 Y95.381 E105.25808
G1 X152.060 Y95.381 E106.73545
G1 X152.060 Y94.981 E106.74876
G1 X107.641 Y94.981 E108.22613
G1 X107.641 Y94.581 E108.23943
G1 X152.060 Y94.581 E109.71680
G1 X152.060 Y94.181 E109.73011
G1 X107.641 Y94.181 E111.20748
G1 X107.641 Y93.781 E111.22079
G1 X152.060 Y93.781 E112.69816
G1 X152.060 Y93.381 E112.71146
G1 X107.641 Y93.381 E114.18884
G1 X107.641 Y92.981 E114.20214
G1 X152.060 Y92.981 E115.67951
G1 X152.060 Y92.581 E115.69282
G1 X107.641 Y92.581 E117.17019
G1 X107.641 Y92.181 E117.18349
G1 X152.060 Y92.181 E118.66087
G1 X152.060 Y91.781 E118.67417
G1 X107.641 Y91.781 E120.15154
G1 X107.641 Y91.381 E120.16485
G1 X152.060 Y91.381 E121.64222
G1 X152.060 Y90.981 E121.65553
G1 X107.641 Y90.981 E123.13290
G1 X107.641 Y90.581 E123.14620
G1 X152.060 Y90.581 E124.62357
G1 X152.060 Y90.181 E124.63688
G1 X107.641 Y90.181 E126.11425
G1 X107.641 Y89.781 E126.12756
G1 X152.060 Y89.781 E127.60493
G1 X152.060 Y89.381 E127.61823
G1 X107.641 Y89.381 E129.09561
G1 X107.641 Y88.981 E129.10892
G1 X152.060 Y88.981 E130.58629
G1 X152.060 Y88.581 E130.59959
G1 X107.641 Y88.581 E132.07697
G1 X107.641 Y88.181 E132.09027
G1 X152.060 Y88.181 E133.56764
G1 X152.060 Y87.781 E133.58095
G1 X107.641 Y87.781 E135.05832
G1 X107.641 Y87.381 E135.07162
G1 X152.060 Y87.381 E136.54900
G1 X152.060 Y86.981 E136.56230
G1 X107.641 Y86.981 E138.03967
G1 X107.641 Y86.581 E138.05298
G1 X152.060 Y86.581 E139.53035
G1 X152.060 Y86.181 E139.54366
G1 X107.641 Y86.181 E141.02103
G1 X107.641 Y85.781 E141.03433
G1 X152.060 Y85.781 E142.51170
G1 X152.060 Y85.381 E142.52501
G1 X107.641 Y85.381 E144.00238
G1 X107.641 Y84.981 E144.01569
G1 X152.060 Y84.981 E145.49306
G1 X152.060 Y84.581 E145.50636
G1 X107.641 Y84.581 E146.98373
G1 X107.641 Y84.181 E146.99704
G1 X152.060 Y84.181 E148.47441
G1 X152.060 Y83.781 E148.48772
G1 X107.641 Y83.781 E149.96509
G1 X107.641 Y83.381 E149.97839
G1 X152.060 Y83.381 E151.45576
G1 X152.060 Y82.981 E151.46907
G1 X107.641 Y82.981 E152.94644
G1 X107.641 Y82.581 E152.95975
G1 X152.060 Y82.581 E154.43712
G1 X152.060 Y82.181 E154.45042
G1 X107.641 Y82.181 E155.92780
G1 X107.641 Y81.781 E155.94110
G1 X152.060 Y81.781 E157.41847
G1 X152.060 Y81.381 E157.43178
G1 X107.641 Y81.381 E158.90915
G1 X107.641 Y80.981 E158.92245
G1 X152.060 Y80.981 E160.39983
G1 X151.819 Y80.581 E160.41536
G1 X107.883 Y80.581 E161.87668
G1 X108.245 Y80.181 E161.89462
G1 X151.457 Y80.181 E163.33185
G1 X150.974 Y79.781 E163.35271
G1 X108.728 Y79.781 E164.75781
G1 X109.090 Y79.381 E164.77576
G1 X150.612 Y79.381 E166.15678
G1 X150.250 Y78.981 E166.17473
G1 X109.452 Y78.981 E167.53166
G1 X109.814 Y78.581 E167.54961
G1 X149.888 Y78.581 E168.88246
G1 X149.405 Y78.181 E168.90332
G1 X110.297 Y78.181 E170.20406
G1 X110.659 Y77.781 E170.22200
G1 X149.043 Y77.781 E171.49864
G1 X148.680 Y77.381 E171.51658
G1 X111.021 Y77.381 E172.76914
G1 X111.504 Y76.981 E172.79000
G1 X148.198 Y76.981 E174.01046
G1 X147.836 Y76.581 E174.02840
G1 X111.866 Y76.581 E175.22474
G1 X112.228 Y76.181 E175.24270
G1 X147.473 Y76.181 E176.41494
G1 X146.991 Y75.781 E176.43580
G1 X112.711 Y75.781 E177.57596



; ------------------------------------
; Raft Layer #3
; ------------------------------------
M106 S255 ;set fan speed
G92 E0 ;reset extr
G0 F600 Z1.000
;segType:Raft
G0 F3000 E-1.00000
G0 F600 Z3.000
G0 X107.791 Y80.808 F7200
G0 F600 Z1.000
G0 F3000 E0.00000
G1 X107.791 Y119.433 E1.28467 F2400
G1 X108.191 Y119.916 E1.30553
G1 X108.191 Y80.325 E2.62232
G1 X108.591 Y79.963 E2.64026
G1 X108.591 Y120.278 E3.98114
G1 X108.991 Y120.640 E3.99909
G1 X108.991 Y79.601 E5.36405
G1 X109.391 Y79.239 E5.38200
G1 X109.391 Y121.002 E6.77105
G1 X109.791 Y121.485 E6.79190
G1 X109.791 Y78.756 E8.21307
G1 X110.191 Y78.394 E8.23102
G1 X110.191 Y121.847 E9.67627
G1 X110.591 Y122.209 E9.69422
G1 X110.591 Y78.032 E11.16357
G1 X110.991 Y77.549 E11.18442
G1 X110.991 Y122.692 E12.68588
G1 X111.391 Y123.054 E12.70383
G1 X111.391 Y77.187 E14.22937
G1 X111.791 Y76.825 E14.24732
G1 X111.791 Y123.416 E15.79696
G1 X112.191 Y123.899 E15.81781
G1 X112.191 Y76.342 E17.39956
G1 X112.591 Y75.980 E17.41751
G1 X112.591 Y124.261 E19.02335
G1 X112.991 Y124.623 E19.04130
G1 X112.991 Y75.618 E20.67123
G1 X113.391 Y75.618 E20.68453
G1 X113.391 Y124.623 E22.31446
G1 X113.791 Y124.623 E22.32776
G1 X113.791 Y75.618 E23.95769
G1 X114.191 Y75.618 E23.97099
G1 X114.191 Y124.623 E25.60092
G1 X114.591 Y124.623 E25.61423
G1 X114.591 Y75.618 E27.24416
G1 X114.991 Y75.618 E27.25746
G1 X114.991 Y124.623 E28.88739
G1 X115.391 Y124.623 E28.90069
G1 X115.391 Y75.618 E30.53062
G1 X115.791 Y75.618 E30.54392
G1 X115.791 Y124.623 E32.17385
G1 X116.191 Y124.623 E32.18716
G1 X116.191 Y75.618 E33.81709
G1 X116.591 Y75.618 E33.83039
G1 X116.591 Y124.623 E35.46032
G1 X116.991 Y124.623 E35.47363
G1 X116.991 Y75.618 E37.10356
G1 X117.391 Y75.618 E37.11686
G1 X117.391 Y124.623 E38.74679
G1 X117.791 Y124.623 E38.76009
G1 X117.791 Y75.618 E40.39002
G1 X118.191 Y75.618 E40.40333
G1 X118.191 Y124.623 E42.03326
G1 X118.591 Y124.623 E42.04656
G1 X118.591 Y75.618 E43.67649
G1 X118.991 Y75.618 E43.68980
G1 X118.991 Y124.623 E45.31973
G1 X119.391 Y124.623 E45.33303
G1 X119.391 Y75.618 E46.96296
G1 X119.791 Y75.618 E46.97627
G1 X119.791 Y124.623 E48.60620
G1 X120.191 Y124.623 E48.61950
G1 X120.191 Y75.618 E50.24943
G1 X120.591 Y75.618 E50.26274
G1 X120.591 Y124.623 E51.89266
G1 X120.991 Y124.623 E51.90597
G1 X120.991 Y75.618 E53.53590
G1 X121.391 Y75.618 E53.54920
G1 X121.391 Y124.623 E55.17913
G1 X121.791 Y124.623 E55.19244
G1 X121.791 Y75.618 E56.82237
G1 X122.191 Y75.618 E56.83567
G1 X122.191 Y124.623 E58.46560
G1 X122.591 Y124.623 E58.47891
G1 X122.591 Y75.618 E60.10884
G1 X122.991 Y75.618 E60.12214
G1 X122.991 Y124.623 E61.75207
G1 X123.391 Y124.623 E61.76538
G1 X123.391 Y75.618 E63.39530
G1 X123.791 Y75.618 E63.40861
G1 X123.791 Y124.623 E65.03854
G1 X124.191 Y124.623 E65.05184
G1 X124.191 Y75.618 E66.68177
G1 X124.591 Y75.618 E66.69508
G1 X124.591 Y124.623 E68.32501
G1 X124.991 Y124.623 E68.33831
G1 X124.991 Y75.618 E69.96824
G1 X125.391 Y75.618 E69.98155
G1 X125.391 Y124.623 E71.61148
G1 X125.791 Y124.623 E71.62478
G1 X125.791 Y75.618 E73.25471
G1 X126.191 Y75.618 E73.26802
G1 X126.191 Y124.623 E74.89794
G1 X126.591 Y124.623 E74.91125
G1 X126.591 Y75.618 E76.54118
G1 X126.991 Y75.618 E76.55448
G1 X126.991 Y124.623 E78.18441
G1 X127.391 Y124.623 E78.19772
G1 X127.391 Y75.618 E79.82765
G1 X127.791 Y75.618 E79.84095
G1 X127.791 Y124.623 E81.47088
G1 X128.191 Y124.623 E81.48419
G1 X128.191 Y75.618 E83.11412
G1 X128.591 Y75.618 E83.12742
G1 X128.591 Y124.623 E84.75735
G1 X128.991 Y124.623 E84.77065
G1 X128.991 Y75.618 E86.40058
G1 X129.391 Y75.618 E86.41389
G1 X129.391 Y124.623 E88.04382
G1 X129.791 Y124.623 E88.05712
G1 X129.791 Y75.618 E89.68705
G1 X130.191 Y75.618 E89.70036
G1 X130.191 Y124.623 E91.33028
G1 X130.591 Y124.623 E91.34359
G1 X130.591 Y75.618 E92.97352
G1 X130.991 Y75.618 E92.98682
G1 X130.991 Y124.623 E94.61675
G1 X131.391 Y124.623 E94.63006
G1 X131.391 Y75.618 E96.25999
G1 X131.791 Y75.618 E96.27329
G1 X131.791 Y124.623 E97.90322
G1 X132.191 Y124.623 E97.91653
G1 X132.191 Y75.618 E99.54646
G1 X132.591 Y75.618 E99.55976
G1 X132.591 Y124.623 E101.18969
G1 X132.991 Y124.623 E101.20300
G1 X132.991 Y75.618 E102.83292
G1 X133.391 Y75.618 E102.84623
G1 X133.391 Y124.623 E104.47616
G1 X133.791 Y124.623 E104.48946
G1 X133.791 Y75.618 E106.11939
G1 X134.191 Y75.618 E106.13270
G1 X134.191 Y124.623 E107.76263
G1 X134.591 Y124.623 E107.77593
G1 X134.591 Y75.618 E109.40586
G1 X134.991 Y75.618 E109.41917
G1 X134.991 Y124.623 E111.04910
G1 X135.391 Y124.623 E111.06240
G1 X135.391 Y75.618 E112.69233
G1 X135.791 Y75.618 E112.70564
G1 X135.791 Y124.623 E114.33556
G1 X136.191 Y124.623 E114.34887
G1 X136.191 Y75.618 E115.97880
G1 X136.591 Y75.618 E115.99210
G1 X136.591 Y124.623 E117.62203
G1 X136.991 Y124.623 E117.63534
G1 X136.991 Y75.618 E119.26527
G1 X137.391 Y75.618 E119.27857
G1 X137.391 Y124.623 E120.90850
G1 X137.791 Y124.623 E120.92181
G1 X137.791 Y75.618 E122.55173
G1 X138.191 Y75.618 E122.56504
G1 X138.191 Y124.623 E124.19497
G1 X138.591 Y124.623 E124.20827
G1 X138.591 Y75.618 E125.83820
G1 X138.991 Y75.618 E125.85151
G1 X138.991 Y124.623 E127.48144
G1 X139.391 Y124.623 E127.49474
G1 X139.391 Y75.618 E129.12466
G1 X139.791 Y75.618 E129.13797
G1 X139.791 Y124.623 E130.76790
G1 X140.191 Y124.623 E130.78120
G1 X140.191 Y75.618 E132.41113
G1 X140.591 Y75.618 E132.42444
G1 X140.591 Y124.623 E134.05437
G1 X140.991 Y124.623 E134.06767
G1 X140.991 Y75.618 E135.69760
G1 X141.391 Y75.618 E135.71091
G1 X141.391 Y124.623 E137.34084
G1 X141.791 Y124.623 E137.35414
G1 X141.791 Y75.618 E138.98407
G1 X142.191 Y75.618 E138.99738
G1 X142.191 Y124.623 E140.62730
G1 X142.591 Y124.623 E140.64061
G1 X142.591 Y75.618 E142.27054
G1 X142.991 Y75.618 E142.28384
G1 X142.991 Y124.623 E143.91377
G1 X143.391 Y124.623 E143.92708
G1 X143.391 Y75.618 E145.55701
G1 X143.791 Y75.618 E145.57031
G1 X143.791 Y124.623 E147.20024
G1 X144.191 Y124.623 E147.21355
G1 X144.191 Y75.618 E148.84348
G1 X144.591 Y75.618 E148.85678
G1 X144.591 Y124.623 E150.48671
G1 X144.991 Y124.623 E150.50002
G1 X144.991 Y75.618 E152.12994
G1 X145.391 Y75.618 E152.14325
G1 X145.391 Y124.623 E153.77318
G1 X145.791 Y124.623 E153.78648
G1 X145.791 Y75.618 E155.41641
G1 X146.191 Y75.618 E155.42972
G1 X146.191 Y124.623 E157.05965
G1 X146.591 Y124.623 E157.07295
G1 X146.591 Y75.618 E158.70288
G1 X146.991 Y75.739 E158.71678
G1 X146.991 Y124.503 E160.33868
G1 X147.391 Y124.141 E160.35663
G1 X147.391 Y76.101 E161.95444
G1 X147.791 Y76.584 E161.97530
G1 X147.791 Y123.658 E163.54099
G1 X148.191 Y123.296 E163.55893
G1 X148.191 Y76.946 E165.10054
G1 X148.591 Y77.308 E165.11848
G1 X148.591 Y122.934 E166.63600
G1 X148.991 Y122.451 E166.65686
G1 X148.991 Y77.791 E168.14226
G1 X149.391 Y78.153 E168.16020
G1 X149.391 Y122.089 E169.62152
G1 X149.791 Y121.727 E169.63946
G1 X149.791 Y78.515 E171.07670
G1 X150.191 Y78.998 E171.09754
G1 X150.191 Y121.244 E172.50266
G1 X150.591 Y120.882 E172.52060
G1 X150.591 Y79.360 E173.90162
G1 X150.991 Y79.722 E173.91958
G1 X150.991 Y120.520 E175.27650
G1 X151.391 Y120.157 E175.29444
G1 X151.391 Y80.084 E176.62730
G1 X151.791 Y80.567 E176.64816
G1 X151.791 Y119.675 E177.94890


; ------------------------------------
; Layer #0
; ------------------------------------
G21 ; mm
G90 ; abs
G92 E0 ;reset extr
G0 F600 Z1.450
;segType:HShell
G0 F3000 E-1.00000
G0 X131.411 Y111.741 F5400
G0 F3000 E0.00000
G1 X128.781 Y109.111 E0.12370 F2400
G0 X129.347 Y109.111 F5400
G1 X131.411 Y111.175 E0.22080 F2400
G0 X131.411 Y110.609 F5400
G1 X129.912 Y109.111 E0.29129 F2400
G0 X130.478 Y109.111 F5400
G1 X131.411 Y110.043 E0.33517 F2400
G0 X131.044 Y109.111 F5400
G1 X131.411 Y109.478 E0.35244 F2400
G0 X131.591 Y108.566 F5400
;segType:Perimeter
G1 X132.171 Y108.410 E0.37240 F1200
G1 X132.171 Y114.250 E0.56661
G1 X127.772 Y114.250 E0.71292
G1 X127.772 Y108.350 E0.90912
G1 X132.111 Y108.350 E1.05344
G0 X132.171 Y108.410 F5400
G0 X132.171 Y110.010
G0 X131.771 Y109.450
;segType:Loop
G1 X131.771 Y113.850 E1.19976 F2400
G1 X128.172 Y113.850 E1.31946
G1 X128.172 Y108.750 E1.48906
G1 X131.771 Y108.750 E1.60876
G1 X131.771 Y109.250 E1.62539
G0 F3000 E0.62539
G0 X131.771 Y109.250 F5400
G0 X128.172 Y113.847
G0 X128.532 Y113.387
G0 F3000 E1.62539
;segType:HShell
G1 X128.634 Y113.489 E1.63020 F2400
G0 X129.200 Y113.489 F5400
G1 X128.532 Y112.822 E1.66162 F2400
G0 X128.532 Y112.256 F5400
G1 X129.766 Y113.489 E1.71964 F2400
G0 X130.331 Y113.489 F5400
G1 X128.532 Y111.690 E1.80427 F2400
G0 X128.532 Y111.124 F5400
G1 X130.897 Y113.489 E1.91551 F2400
G0 X131.411 Y113.438 F5400
G1 X128.532 Y110.559 E2.05092 F2400
G0 X128.532 Y109.993 F5400
G1 X131.411 Y112.872 E2.18633 F2400
G0 X131.411 Y112.306 F5400
G1 X128.532 Y109.427 E2.32174 F2400
G0 F3000 E1.32174
G0 X128.172 Y109.357 F5400
G0 X131.771 Y110.065
G0 X137.972 Y111.286
G0 X141.571 Y111.995
G0 X141.211 Y111.924
G0 F3000 E2.32174
G1 X138.398 Y109.111 E2.45408 F2400
G0 X138.963 Y109.111 F5400
G1 X141.211 Y111.358 E2.55980 F2400
G0 X141.211 Y110.793 F5400
G1 X139.529 Y109.111 E2.63891 F2400
G0 X140.095 Y109.111 F5400
G1 X141.211 Y110.227 E2.69142 F2400
G0 X141.211 Y109.661 F5400
G1 X140.660 Y109.111 E2.71732 F2400
G0 X141.571 Y108.750 F5400
G0 X141.392 Y108.566
;segType:Perimeter
G1 X141.971 Y108.410 E2.73728 F1200
G1 X141.971 Y114.250 E2.93149
G1 X137.572 Y114.250 E3.07781
G1 X137.572 Y108.350 E3.27401
G1 X141.911 Y108.350 E3.41834
G0 X141.971 Y108.410 F5400
G0 X141.971 Y110.010
G0 X141.571 Y109.450
;segType:Loop
G1 X141.571 Y113.850 E3.56465 F2400
G1 X137.972 Y113.850 E3.68436
G1 X137.972 Y108.750 E3.85396
G1 X141.571 Y108.750 E3.97367
G1 X141.571 Y109.250 E3.99030
G0 F3000 E2.99030
G0 X141.571 Y109.250 F5400
G0 X137.972 Y113.422
G0 X138.332 Y113.005
G0 F3000 E3.99030
;segType:HShell
G1 X138.817 Y113.489 E4.01311 F2400
G0 X139.382 Y113.489 F5400
G1 X138.332 Y112.439 E4.06251 F2400
G0 X138.332 Y111.873 F5400
G1 X139.948 Y113.489 E4.13853 F2400
G0 X140.514 Y113.489 F5400
G1 X138.332 Y111.308 E4.24116 F2400
G0 X138.332 Y110.742 F5400
G1 X141.079 Y113.489 E4.37039 F2400
G0 X141.211 Y113.055 F5400
G1 X138.332 Y110.176 E4.50581 F2400
G0 X138.332 Y109.611 F5400
G1 X141.211 Y112.490 E4.64123 F2400
G0 F3000 E3.64123
G0 X141.211 Y100.610 F5400
G0 F3000 E4.64123
G1 X138.411 Y97.810 E4.77293 F2400
G0 X138.977 Y97.810 F5400
G1 X141.211 Y100.045 E4.87801 F2400
G0 X141.211 Y99.479 F5400
G1 X139.543 Y97.810 E4.95649 F2400
G0 X140.108 Y97.810 F5400
G1 X141.211 Y98.913 E5.00836 F2400
G0 X141.211 Y98.347 F5400
G1 X140.674 Y97.810 E5.03362 F2400
G0 X141.198 Y97.317 F5400
;segType:Perimeter
G1 X141.971 Y97.110 E5.06022 F1200
G1 X141.971 Y102.950 E5.25444
G1 X137.572 Y102.950 E5.40076
G1 X137.572 Y97.050 E5.59697
G1 X141.911 Y97.050 E5.74130
G0 X141.971 Y97.110 F5400
G0 X141.971 Y98.710
G0 X141.571 Y98.150
;segType:Loop
G1 X141.571 Y102.550 E5.88762 F2400
G1 X137.972 Y102.550 E6.00733
G1 X137.972 Y97.450 E6.17694
G1 X141.571 Y97.450 E6.29665
G1 X141.571 Y97.950 E6.31328
G0 F3000 E5.31328
G0 X137.972 Y102.107 F5400
G0 X138.332 Y101.691
G0 F3000 E6.31328
;segType:HShell
G1 X138.830 Y102.190 E6.33673 F2400
G0 X139.396 Y102.190 F5400
G1 X138.332 Y101.125 E6.38679 F2400
G0 X138.332 Y100.560 F5400
G1 X139.962 Y102.190 E6.46346 F2400
G0 X140.528 Y102.190 F5400
G1 X138.332 Y99.994 E6.56673 F2400
G0 X138.332 Y99.428 F5400
G1 X141.093 Y102.190 E6.69662 F2400
G0 X141.211 Y101.742 F5400
G1 X138.332 Y98.863 E6.83204 F2400
G0 X138.332 Y98.297 F5400
G1 X141.211 Y101.176 E6.96746 F2400
G0 F3000 E5.96746
G0 X141.571 Y101.203 F5400
G0 X137.972 Y100.928
G0 X131.411 Y100.427
G0 F3000 E6.96746
G1 X128.795 Y97.810 E7.09053 F2400
G0 X129.360 Y97.810 F5400
G1 X131.411 Y99.861 E7.18698 F2400
G0 X131.411 Y99.295 F5400
G1 X129.926 Y97.810 E7.25683 F2400
G0 X130.492 Y97.810 F5400
G1 X131.411 Y98.730 E7.30008 F2400
G0 X131.057 Y97.810 F5400
G1 X131.411 Y98.164 E7.31671 F2400
G0 X131.398 Y97.317 F5400
;segType:Perimeter
G1 X132.171 Y97.110 E7.34332 F1200
G1 X132.171 Y102.950 E7.53754
G1 X127.772 Y102.950 E7.68385
G1 X127.772 Y97.050 E7.88006
G1 X132.111 Y97.050 E8.02438
G0 X132.171 Y97.110 F5400
G0 X132.171 Y98.710
G0 X131.771 Y98.150
;segType:Loop
G1 X131.771 Y102.550 E8.17070 F2400
G1 X128.172 Y102.550 E8.29040
G1 X128.172 Y97.450 E8.46001
G1 X131.771 Y97.450 E8.57971
G1 X131.771 Y97.950 E8.59634
G0 F3000 E7.59634
G0 X131.771 Y97.950 F5400
G0 X128.172 Y102.532
G0 X128.532 Y102.074
G0 F3000 E8.59634
;segType:HShell
G1 X128.648 Y102.190 E8.60180 F2400
G0 X129.214 Y102.190 F5400
G1 X128.532 Y101.508 E8.63387 F2400
G0 X128.532 Y100.942 F5400
G1 X129.779 Y102.190 E8.69254 F2400
G0 X130.345 Y102.190 F5400
G1 X128.532 Y100.376 E8.77782 F2400
G0 X128.532 Y99.811 F5400
G1 X130.911 Y102.190 E8.88972 F2400
G0 X131.411 Y102.124 F5400
G1 X128.532 Y99.245 E9.02512 F2400
G0 X128.532 Y98.679 F5400
G1 X131.411 Y101.558 E9.16053 F2400
G0 X131.411 Y100.993 F5400
G1 X128.532 Y98.114 E9.29594 F2400
G0 F3000 E8.29594
G0 X128.172 Y98.364 F5400
G0 X129.486 Y97.450
G0 X131.771 Y97.450
G0 X137.972 Y91.250
G0 X138.950 Y91.250
G0 X141.571 Y88.985
G0 X141.211 Y89.297
G0 F3000 E9.29594
G1 X138.425 Y86.511 E9.42699 F2400
G0 X138.991 Y86.511 F5400
G1 X141.211 Y88.731 E9.53142 F2400
G0 X141.211 Y88.165 F5400
G1 X139.556 Y86.511 E9.60925 F2400
G0 X140.122 Y86.511 F5400
G1 X141.211 Y87.599 E9.66047 F2400
G0 X141.211 Y87.034 F5400
G1 X140.688 Y86.511 E9.68508 F2400
G0 X141.198 Y86.018 F5400
;segType:Perimeter
G1 X141.971 Y85.810 E9.71169 F1200
G1 X141.971 Y91.650 E9.90589
G1 X137.572 Y91.650 E10.05221
G1 X137.572 Y85.750 E10.24842
G1 X141.911 Y85.750 E10.39275
G0 X141.971 Y85.810 F5400
G0 X141.971 Y87.410
G0 X141.571 Y86.850
;segType:Loop
G1 X141.571 Y91.250 E10.53906 F2400
G1 X137.972 Y91.250 E10.65877
G1 X137.972 Y86.150 E10.82837
G1 X141.571 Y86.150 E10.94808
G1 X141.571 Y86.650 E10.96471
G0 F3000 E9.96471
G0 X137.972 Y90.792 F5400
G0 X138.332 Y90.377
G0 F3000 E10.96471
;segType:HShell
G1 X138.844 Y90.889 E10.98880 F2400
G0 X139.410 Y90.889 F5400
G1 X138.332 Y89.812 E11.03950 F2400
G0 X138.332 Y89.246 F5400
G1 X139.975 Y90.889 E11.11681 F2400
G0 X140.541 Y90.889 F5400
G1 X138.332 Y88.680 E11.22072 F2400
G0 X138.332 Y88.115 F5400
G1 X141.107 Y90.889 E11.35125 F2400
G0 X141.211 Y90.428 F5400
G1 X138.332 Y87.549 E11.48667 F2400
G0 X138.332 Y86.983 F5400
G1 X141.211 Y89.862 E11.62209 F2400
G0 F3000 E10.62209
G0 X141.571 Y89.890 F5400
G0 X137.972 Y89.615
G0 X131.411 Y89.113
G0 F3000 E11.62209
G1 X128.808 Y86.511 E11.74450 F2400
G0 X129.374 Y86.511 F5400
G1 X131.411 Y88.547 E11.84031 F2400
G0 X131.411 Y87.982 F5400
G1 X129.940 Y86.511 E11.90951 F2400
G0 X130.505 Y86.511 F5400
G1 X131.411 Y87.416 E11.95210 F2400
G0 X131.071 Y86.511 F5400
G1 X131.411 Y86.850 E11.96808 F2400
G0 X131.398 Y86.017 F5400
;segType:Perimeter
G1 X132.171 Y85.810 E11.99469 F1200
G1 X132.171 Y91.650 E12.18890
G1 X127.772 Y91.650 E12.33521
G1 X127.772 Y85.750 E12.53142
G1 X132.111 Y85.750 E12.67574
G0 X132.171 Y85.810 F5400
G0 X132.171 Y87.410
G0 X131.771 Y86.850
;segType:Loop
G1 X131.771 Y91.250 E12.82205 F2400
G1 X128.172 Y91.250 E12.94175
G1 X128.172 Y86.150 E13.11135
G1 X131.771 Y86.150 E13.23106
G1 X131.771 Y86.650 E13.24769
G0 F3000 E12.24769
G0 X128.172 Y91.217 F5400
G0 X128.532 Y90.760
G0 F3000 E13.24769
;segType:HShell
G1 X128.662 Y90.889 E13.25378 F2400
G0 X129.227 Y90.889 F5400
G1 X128.532 Y90.194 E13.28649 F2400
G0 X128.532 Y89.628 F5400
G1 X129.793 Y90.889 E13.34580 F2400
G0 X130.359 Y90.889 F5400
G1 X128.532 Y89.063 E13.43172 F2400
G0 X128.532 Y88.497 F5400
G1 X130.924 Y90.889 E13.54425 F2400
G0 X131.411 Y90.810 F5400
G1 X128.532 Y87.931 E13.67966 F2400
G0 X128.532 Y87.366 F5400
G1 X131.411 Y90.244 E13.81507 F2400
G0 X131.411 Y89.679 F5400
G1 X128.532 Y86.800 E13.95048 F2400
G0 F3000 E12.95048
G0 X121.971 Y86.677 F5400
G0 X118.372 Y86.610
G0 X118.732 Y86.617
G0 F3000 E13.95048
G1 X121.611 Y89.496 E14.08590 F2400
G0 X121.611 Y88.930 F5400
G1 X119.192 Y86.511 E14.19970 F2400
G0 X119.757 Y86.511 F5400
G1 X121.611 Y88.364 E14.28690 F2400
G0 X121.611 Y87.799 F5400
G1 X120.323 Y86.511 E14.34748 F2400
G0 X120.889 Y86.511 F5400
G1 X121.611 Y87.233 E14.38146 F2400
G0 X121.454 Y86.511 F5400
G1 X121.611 Y86.667 E14.38882 F2400
G0 X121.598 Y86.017 F5400
;segType:Perimeter
G1 X122.371 Y85.810 E14.41543 F1200
G1 X122.371 Y91.650 E14.60964
G1 X117.972 Y91.650 E14.75596
G1 X117.972 Y85.750 E14.95217
G1 X122.311 Y85.750 E15.09649
G0 X122.371 Y85.810 F5400
G0 X122.371 Y87.410
G0 X121.971 Y86.850
;segType:Loop
G1 X121.971 Y91.250 E15.24280 F2400
G1 X118.372 Y91.250 E15.36252
G1 X118.372 Y86.150 E15.53211
G1 X121.971 Y86.150 E15.65182
G1 X121.971 Y86.650 E15.66845
G0 F3000 E14.66845
G0 X118.372 Y91.013 F5400
G0 X118.732 Y90.576
G0 F3000 E15.66845
;segType:HShell
G1 X119.045 Y90.889 E15.68318 F2400
G0 X119.611 Y90.889 F5400
G1 X118.732 Y90.011 E15.72451 F2400
G0 X118.732 Y89.445 F5400
G1 X120.176 Y90.889 E15.79245 F2400
G0 X120.742 Y90.889 F5400
G1 X118.732 Y88.879 E15.88700 F2400
G0 X118.732 Y88.314 F5400
G1 X121.308 Y90.889 E16.00816 F2400
G0 X121.611 Y90.627 F5400
G1 X118.732 Y87.748 E16.14358 F2400
G0 X118.732 Y87.182 F5400
G1 X121.611 Y90.061 E16.27900 F2400
G0 F3000 E15.27900
G0 X118.372 Y91.250 F5400
G0 X118.732 Y97.930
G0 F3000 E16.27900
G1 X121.611 Y100.809 E16.41442 F2400
G0 X121.611 Y100.244 F5400
G1 X119.178 Y97.810 E16.52887 F2400
G0 X119.744 Y97.810 F5400
G1 X121.611 Y99.678 E16.61671 F2400
G0 X121.611 Y99.112 F5400
G1 X120.309 Y97.810 E16.67795 F2400
G0 X120.875 Y97.810 F5400
G1 X121.611 Y98.547 E16.71257 F2400
G0 X121.441 Y97.810 F5400
G1 X121.611 Y97.981 E16.72059 F2400
G0 X121.598 Y97.317 F5400
;segType:Perimeter
G1 X122.371 Y97.110 E16.74720 F1200
G1 X122.371 Y102.950 E16.94142
G1 X117.972 Y102.950 E17.08774
G1 X117.972 Y97.050 E17.28395
G1 X122.311 Y97.050 E17.42827
G0 X122.371 Y97.110 F5400
G0 X122.371 Y98.710
G0 X121.971 Y98.150
;segType:Loop
G1 X121.971 Y102.550 E17.57460 F2400
G1 X118.372 Y102.550 E17.69431
G1 X118.372 Y97.450 E17.86392
G1 X121.971 Y97.450 E17.98363
G1 X121.971 Y97.950 E18.00026
G0 F3000 E17.00026
G0 X118.732 Y101.890 F5400
G0 F3000 E18.00026
;segType:HShell
G1 X119.031 Y102.190 E18.01434 F2400
G0 X119.597 Y102.190 F5400
G1 X118.732 Y101.324 E18.05504 F2400
G0 X118.732 Y100.759 F5400
G1 X120.163 Y102.190 E18.12234 F2400
G0 X120.729 Y102.190 F5400
G1 X118.732 Y100.193 E18.21625 F2400
G0 X118.732 Y99.627 F5400
G1 X121.294 Y102.190 E18.33676 F2400
G0 X121.611 Y101.941 F5400
G1 X118.732 Y99.062 E18.47218 F2400
G0 X118.732 Y98.496 F5400
G1 X121.611 Y101.375 E18.60760 F2400
G0 F3000 E17.60760
G0 X117.972 Y102.950 F5400
G0 X117.972 Y108.350
G0 X118.732 Y109.244
G0 F3000 E18.60760
G1 X121.611 Y112.123 E18.74302 F2400
G0 X121.611 Y111.557 F5400
G1 X119.164 Y109.111 E18.85811 F2400
G0 X119.730 Y109.111 F5400
G1 X121.611 Y110.992 E18.94659 F2400
G0 X121.611 Y110.426 F5400
G1 X120.296 Y109.111 E19.00847 F2400
G0 X120.861 Y109.111 F5400
G1 X121.611 Y109.860 E19.04373 F2400
G0 X121.427 Y109.111 F5400
G1 X121.611 Y109.295 E19.05239 F2400
G0 X121.792 Y108.566 F5400
;segType:Perimeter
G1 X122.371 Y108.410 E19.07235 F1200
G1 X122.371 Y114.250 E19.26656
G1 X117.972 Y114.250 E19.41288
G1 X117.972 Y108.350 E19.60908
G1 X122.311 Y108.350 E19.75341
G0 X122.371 Y108.410 F5400
G0 X122.371 Y110.010
G0 X121.971 Y109.450
;segType:Loop
G1 X121.971 Y113.850 E19.89972 F2400
G1 X118.372 Y113.850 E20.01943
G1 X118.372 Y108.750 E20.18903
G1 X121.971 Y108.750 E20.30875
G1 X121.971 Y109.250 E20.32538
G0 F3000 E19.32538
G0 X118.732 Y113.204 F5400
G0 F3000 E20.32538
;segType:HShell
G1 X119.018 Y113.489 E20.33881 F2400
G0 X119.583 Y113.489 F5400
G1 X118.732 Y112.638 E20.37885 F2400
G0 X118.732 Y112.072 F5400
G1 X120.149 Y113.489 E20.44550 F2400
G0 X120.715 Y113.489 F5400
G1 X118.732 Y111.507 E20.53876 F2400
G0 X118.732 Y110.941 F5400
G1 X121.280 Y113.489 E20.65863 F2400
G0 X121.611 Y113.254 F5400
G1 X118.732 Y110.375 E20.79405 F2400
G0 X118.732 Y109.810 F5400
G1 X121.611 Y112.689 E20.92947 F2400
; ------------------------------------
; Layer #1
; ------------------------------------
G92 E0 ;reset extr
G0 F3000 E-1.00000
G0 F600 Z1.400
G0 X121.971 Y108.750 F7200
G0 X128.172 Y91.250
G0 X128.532 Y90.360
G0 F3000 E0.00000
;segType:HShell
G1 X131.411 Y87.481 E0.13541 F3600
G0 X131.411 Y86.915 F7200
G1 X128.532 Y89.794 E0.27082 F3600
G0 X128.532 Y89.229 F7200
G1 X131.250 Y86.511 E0.39866 F3600
G0 X131.398 Y86.017 F7200
;segType:Perimeter
G1 X132.171 Y85.810 E0.42527 F1800
G1 X132.171 Y91.650 E0.61948
G1 X127.772 Y91.650 E0.76579
G1 X127.772 Y85.750 E0.96200
G1 X132.111 Y85.750 E1.10632
G0 X132.171 Y85.810 F7200
G0 X132.171 Y87.410
G0 X131.771 Y86.850
;segType:Loop
G1 X131.771 Y91.250 E1.25263 F3600
G1 X128.172 Y91.250 E1.37233
G1 X128.172 Y86.150 E1.54193
G1 X131.771 Y86.150 E1.66164
G1 X131.771 Y86.650 E1.67827
G0 X130.684 Y86.511 F7200
;segType:HShell
G1 X128.532 Y88.663 E1.77950 F3600
G0 X128.532 Y88.097 F7200
G1 X130.119 Y86.511 E1.85413 F3600
G0 X129.553 Y86.511 F7200
G1 X128.532 Y87.531 E1.90215 F3600
G0 X128.532 Y86.966 F7200
G1 X128.987 Y86.511 E1.92356 F3600
G0 F3000 E0.92356
G0 X129.022 Y86.150 F7200
G0 X128.534 Y91.250
G0 X128.568 Y90.889
G0 F3000 E1.92356
G1 X131.411 Y88.047 E2.05727 F3600
G0 X131.411 Y88.612 F7200
G1 X129.134 Y90.889 E2.16437 F3600
G0 X129.700 Y90.889 F7200
G1 X131.411 Y89.178 E2.24487 F3600
G0 X131.411 Y89.744 F7200
G1 X130.265 Y90.889 E2.29875 F3600
G0 X130.831 Y90.889 F7200
G1 X131.411 Y90.310 E2.32603 F3600
G0 X131.411 Y90.875 F7200
G1 X131.397 Y90.889 E2.32670 F3600
G0 F3000 E1.32670
G0 X131.771 Y91.032 F7200
G0 X128.172 Y89.657
G0 X128.172 Y86.150
G0 X119.936 Y86.511
G0 F3000 E2.32670
G1 X118.732 Y87.715 E2.38334 F3600
G0 X118.732 Y88.281 F7200
G1 X120.502 Y86.511 E2.46660 F3600
G0 X121.068 Y86.511 F7200
G1 X118.732 Y88.846 E2.57646 F3600
G0 X118.732 Y89.412 F7200
G1 X121.611 Y86.533 E2.71188 F3600
G0 X121.598 Y86.017 F7200
;segType:Perimeter
G1 X122.371 Y85.810 E2.73849 F1800
G1 X122.371 Y91.650 E2.93270
G1 X117.972 Y91.650 E3.07902
G1 X117.972 Y85.750 E3.27523
G1 X122.311 Y85.750 E3.41955
G0 X122.371 Y85.810 F7200
G0 X122.371 Y87.410
G0 X121.971 Y86.850
;segType:Loop
G1 X121.971 Y91.250 E3.56586 F3600
G1 X118.372 Y91.250 E3.68558
G1 X118.372 Y86.150 E3.85517
G1 X121.971 Y86.150 E3.97489
G1 X121.971 Y86.650 E3.99152
G0 X121.611 Y87.099 F7200
;segType:HShell
G1 X118.732 Y89.978 E4.12694 F3600
G0 X118.732 Y90.543 F7200
G1 X121.611 Y87.664 E4.26236 F3600
G0 X121.611 Y88.230 F7200
G1 X118.952 Y90.889 E4.38745 F3600
G0 X119.517 Y90.889 F7200
G1 X121.611 Y88.796 E4.48594 F3600
G0 X121.611 Y89.361 F7200
G1 X120.083 Y90.889 E4.55782 F3600
G0 X120.649 Y90.889 F7200
G1 X121.611 Y89.927 E4.60309 F3600
G0 X121.611 Y90.493 F7200
G1 X121.214 Y90.889 E4.62175 F3600
G0 X118.805 Y86.511 F7200
G1 X118.732 Y86.583 E4.62518 F3600
G0 X118.732 Y87.149 F7200
G1 X119.371 Y86.511 E4.65522 F3600
G0 F3000 E3.65522
G0 X119.332 Y85.750 F7200
G0 X119.634 Y91.650
G0 X119.950 Y97.810
G0 F3000 E4.65522
G1 X118.732 Y99.029 E4.71251 F3600
G0 X118.732 Y99.594 F7200
G1 X120.516 Y97.810 E4.79642 F3600
G0 X121.082 Y97.810 F7200
G1 X118.732 Y100.160 E4.90693 F3600
G0 X118.732 Y100.726 F7200
G1 X121.611 Y97.847 E5.04235 F3600
G0 X121.598 Y97.317 F7200
;segType:Perimeter
G1 X122.371 Y97.110 E5.06896 F1800
G1 X122.371 Y102.950 E5.26318
G1 X117.972 Y102.950 E5.40950
G1 X117.972 Y97.050 E5.60571
G1 X122.311 Y97.050 E5.75003
G0 X122.371 Y97.110 F7200
G0 X122.371 Y98.710
G0 X121.971 Y98.150
;segType:Loop
G1 X121.971 Y102.550 E5.89636 F3600
G1 X118.372 Y102.550 E6.01607
G1 X118.372 Y97.450 E6.18567
G1 X121.971 Y97.450 E6.30539
G1 X121.971 Y97.950 E6.32202
G0 X121.611 Y98.412 F7200
;segType:HShell
G1 X118.732 Y101.291 E6.45744 F3600
G0 X118.732 Y101.857 F7200
G1 X121.611 Y98.978 E6.59286 F3600
G0 X121.611 Y99.544 F7200
G1 X118.965 Y102.190 E6.71731 F3600
G0 X119.531 Y102.190 F7200
G1 X121.611 Y100.109 E6.81516 F3600
G0 X121.611 Y100.675 F7200
G1 X120.097 Y102.190 E6.88640 F3600
G0 X120.662 Y102.190 F7200
G1 X121.611 Y101.241 E6.93103 F3600
G0 X121.611 Y101.806 F7200
G1 X121.228 Y102.190 E6.94905 F3600
G0 X118.819 Y97.810 F7200
G1 X118.732 Y97.897 E6.95313 F3600
G0 X118.732 Y98.463 F7200
G1 X119.384 Y97.810 E6.98382 F3600
G0 F3000 E5.98382
G0 X119.366 Y97.450 F7200
G0 X119.627 Y102.550
G0 X119.964 Y109.111
G0 F3000 E6.98382
G1 X118.732 Y110.342 E7.04176 F3600
G0 X118.732 Y110.908 F7200
G1 X120.529 Y109.111 E7.12630 F3600
G0 X121.095 Y109.111 F7200
G1 X118.732 Y111.474 E7.23745 F3600
G0 X118.732 Y112.039 F7200
G1 X121.611 Y109.160 E7.37287 F3600
G0 X121.792 Y108.566 F7200
;segType:Perimeter
G1 X122.371 Y108.410 E7.39283 F1800
G1 X122.371 Y114.250 E7.58704
G1 X117.972 Y114.250 E7.73336
G1 X117.972 Y108.350 E7.92956
G1 X122.311 Y108.350 E8.07389
G0 X122.371 Y108.410 F7200
G0 X122.371 Y110.010
G0 X121.971 Y109.450
;segType:Loop
G1 X121.971 Y113.850 E8.22020 F3600
G1 X118.372 Y113.850 E8.33991
G1 X118.372 Y108.750 E8.50951
G1 X121.971 Y108.750 E8.62922
G1 X121.971 Y109.250 E8.64585
G0 X121.611 Y109.726 F7200
;segType:HShell
G1 X118.732 Y112.605 E8.78127 F3600
G0 X118.732 Y113.171 F7200
G1 X121.611 Y110.292 E8.91669 F3600
G0 X121.611 Y110.857 F7200
G1 X118.979 Y113.489 E9.04050 F3600
G0 X119.545 Y113.489 F7200
G1 X121.611 Y111.423 E9.13770 F3600
G0 X121.611 Y111.989 F7200
G1 X120.110 Y113.489 E9.20828 F3600
G0 X120.676 Y113.489 F7200
G1 X121.611 Y112.554 E9.25227 F3600
G0 X121.611 Y113.120 F7200
G1 X121.242 Y113.489 E9.26964 F3600
G0 X118.832 Y109.111 F7200
G1 X118.732 Y109.211 E9.27436 F3600
G0 X118.732 Y109.777 F7200
G1 X119.398 Y109.111 E9.30568 F3600
G0 F3000 E8.30568
G0 X121.971 Y108.750 F7200
G0 X128.172 Y102.550
G0 X128.532 Y101.674
G0 F3000 E9.30568
G1 X131.411 Y98.795 E9.44109 F3600
G0 X131.411 Y98.229 F7200
G1 X128.532 Y101.108 E9.57650 F3600
G0 X128.532 Y100.542 F7200
G1 X131.264 Y97.810 E9.70500 F3600
G0 X131.398 Y97.317 F7200
;segType:Perimeter
G1 X132.171 Y97.110 E9.73160 F1800
G1 X132.171 Y102.950 E9.92582
G1 X127.772 Y102.950 E10.07214
G1 X127.772 Y97.050 E10.26835
G1 X132.111 Y97.050 E10.41266
G0 X132.171 Y97.110 F7200
G0 X132.171 Y98.710
G0 X131.771 Y98.150
;segType:Loop
G1 X131.771 Y102.550 E10.55899 F3600
G1 X128.172 Y102.550 E10.67869
G1 X128.172 Y97.450 E10.84830
G1 X131.771 Y97.450 E10.96800
G1 X131.771 Y97.950 E10.98463
G0 X130.698 Y97.810 F7200
;segType:HShell
G1 X128.532 Y99.977 E11.08652 F3600
G0 X128.532 Y99.411 F7200
G1 X130.132 Y97.810 E11.16180 F3600
G0 X129.567 Y97.810 F7200
G1 X128.532 Y98.845 E11.21047 F3600
G0 X128.532 Y98.279 F7200
G1 X129.001 Y97.810 E11.23253 F3600
G0 F3000 E10.23253
G0 X129.036 Y97.450 F7200
G0 X128.547 Y102.550
G0 X128.582 Y102.190
G0 F3000 E11.23253
G1 X131.411 Y99.360 E11.36560 F3600
G0 X131.411 Y99.926 F7200
G1 X129.147 Y102.190 E11.47206 F3600
G0 X129.713 Y102.190 F7200
G1 X131.411 Y100.492 E11.55191 F3600
G0 X131.411 Y101.058 F7200
G1 X130.279 Y102.190 E11.60516 F3600
G0 X130.845 Y102.190 F7200
G1 X131.411 Y101.623 E11.63180 F3600
G0 X131.411 Y102.189 F7200
G1 X131.410 Y102.190 E11.63183 F3600
G0 F3000 E10.63183
G0 X128.172 Y102.550 F7200
G0 X128.172 Y108.750
G0 X128.532 Y112.987
G0 F3000 E11.63183
G1 X131.411 Y110.109 E11.76724 F3600
G0 X131.411 Y109.543 F7200
G1 X128.532 Y112.422 E11.90265 F3600
G0 X128.532 Y111.856 F7200
G1 X131.277 Y109.111 E12.03178 F3600
G0 X131.591 Y108.566 F7200
;segType:Perimeter
G1 X132.171 Y108.410 E12.05174 F1800
G1 X132.171 Y114.250 E12.24594
G1 X127.772 Y114.250 E12.39226
G1 X127.772 Y108.350 E12.58846
G1 X132.111 Y108.350 E12.73278
G0 X132.171 Y108.410 F7200
G0 X132.171 Y110.010
G0 X131.771 Y109.450
;segType:Loop
G1 X131.771 Y113.850 E12.87909 F3600
G1 X128.172 Y113.850 E12.99880
G1 X128.172 Y108.750 E13.16839
G1 X131.771 Y108.750 E13.28810
G1 X131.771 Y109.250 E13.30473
G0 X130.712 Y109.111 F7200
;segType:HShell
G1 X128.532 Y111.290 E13.40725 F3600
G0 X128.532 Y110.725 F7200
G1 X130.146 Y109.111 E13.48317 F3600
G0 X129.580 Y109.111 F7200
G1 X128.532 Y110.159 E13.53248 F3600
G0 X128.532 Y109.593 F7200
G1 X129.015 Y109.111 E13.55518 F3600
G0 F3000 E12.55518
G0 X129.049 Y108.750 F7200
G0 X128.561 Y113.850
G0 X128.596 Y113.489
G0 F3000 E13.55518
G1 X131.411 Y110.674 E13.68760 F3600
G0 X131.411 Y111.240 F7200
G1 X129.161 Y113.489 E13.79341 F3600
G0 X129.727 Y113.489 F7200
G1 X131.411 Y111.806 E13.87262 F3600
G0 X131.411 Y112.371 F7200
G1 X130.293 Y113.489 E13.92521 F3600
G0 X130.858 Y113.489 F7200
G1 X131.411 Y112.937 E13.95120 F3600
G0 F3000 E12.95120
G0 X138.332 Y112.804 F7200
G0 F3000 E13.95120
G1 X141.211 Y109.925 E14.08662 F3600
G0 X141.211 Y109.359 F7200
G1 X138.332 Y112.238 E14.22204 F3600
G0 X138.332 Y111.673 F7200
G1 X140.894 Y109.111 E14.34256 F3600
G0 X141.392 Y108.566 F7200
;segType:Perimeter
G1 X141.971 Y108.410 E14.36252 F1800
G1 X141.971 Y114.250 E14.55673
G1 X137.572 Y114.250 E14.70305
G1 X137.572 Y108.350 E14.89925
G1 X141.911 Y108.350 E15.04358
G0 X141.971 Y108.410 F7200
G0 X141.971 Y110.010
G0 X141.571 Y109.450
;segType:Loop
G1 X141.571 Y113.850 E15.18989 F3600
G1 X137.972 Y113.850 E15.30961
G1 X137.972 Y108.750 E15.47920
G1 X141.571 Y108.750 E15.59892
G1 X141.571 Y109.250 E15.61555
G0 X140.328 Y109.111 F7200
;segType:HShell
G1 X138.332 Y111.107 E15.70946 F3600
G0 X138.332 Y110.541 F7200
G1 X139.763 Y109.111 E15.77676 F3600
G0 X139.197 Y109.111 F7200
G1 X138.332 Y109.976 E15.81745 F3600
G0 X138.332 Y109.410 F7200
G1 X138.631 Y109.111 E15.83153 F3600
G0 F3000 E14.83153
G0 X138.657 Y108.750 F7200
G0 X138.298 Y113.850
G0 X138.332 Y113.370
G0 F3000 E15.83153
G1 X141.211 Y110.491 E15.96695 F3600
G0 X141.211 Y111.056 F7200
G1 X138.778 Y113.489 E16.08139 F3600
G0 X139.344 Y113.489 F7200
G1 X141.211 Y111.622 E16.16923 F3600
G0 X141.211 Y112.188 F7200
G1 X139.909 Y113.489 E16.23045 F3600
G0 X140.475 Y113.489 F7200
G1 X141.211 Y112.754 E16.26506 F3600
G0 X141.211 Y113.319 F7200
G1 X141.041 Y113.489 E16.27307 F3600
G0 F3000 E15.27307
G0 X141.122 Y113.850 F7200
G0 X139.971 Y108.750
G0 X137.972 Y108.750
G0 X137.972 Y102.550
G0 X138.332 Y101.490
G0 F3000 E16.27307
G1 X141.211 Y98.611 E16.40849 F3600
G0 X141.211 Y98.046 F7200
G1 X138.332 Y100.925 E16.54392 F3600
G0 X138.332 Y100.359 F7200
G1 X140.881 Y97.810 E16.66379 F3600
G0 X141.198 Y97.317 F7200
;segType:Perimeter
G1 X141.971 Y97.110 E16.69040 F1800
G1 X141.971 Y102.950 E16.88462
G1 X137.572 Y102.950 E17.03094
G1 X137.572 Y97.050 E17.22715
G1 X141.911 Y97.050 E17.37148
G0 X141.971 Y97.110 F7200
G0 X141.971 Y98.710
G0 X141.571 Y98.150
;segType:Loop
G1 X141.571 Y102.550 E17.51780 F3600
G1 X137.972 Y102.550 E17.63751
G1 X137.972 Y97.450 E17.80712
G1 X141.571 Y97.450 E17.92683
G1 X141.571 Y97.950 E17.94346
G0 X140.315 Y97.810 F7200
;segType:HShell
G1 X138.332 Y99.793 E18.03673 F3600
G0 X138.332 Y99.228 F7200
G1 X139.749 Y97.810 E18.10339 F3600
G0 X139.183 Y97.810 F7200
G1 X138.332 Y98.662 E18.14345 F3600
G0 X138.332 Y98.096 F7200
G1 X138.618 Y97.810 E18.15690 F3600
G0 F3000 E17.15690
G0 X138.642 Y97.450 F7200
G0 X138.299 Y102.550
G0 X138.332 Y102.056
G0 F3000 E18.15690
G1 X141.211 Y99.177 E18.29232 F3600
G0 X141.211 Y99.743 F7200
G1 X138.764 Y102.190 E18.40741 F3600
G0 X139.330 Y102.190 F7200
G1 X141.211 Y100.308 E18.49589 F3600
G0 X141.211 Y100.874 F7200
G1 X139.896 Y102.190 E18.55776 F3600
G0 X140.461 Y102.190 F7200
G1 X141.211 Y101.440 E18.59303 F3600
G0 X141.211 Y102.006 F7200
G1 X141.027 Y102.190 E18.60168 F3600
G0 F3000 E17.60168
G0 X141.108 Y102.550 F7200
G0 X139.964 Y97.450
G0 X137.972 Y97.450
G0 X137.972 Y91.250
G0 X138.332 Y90.177
G0 F3000 E18.60168
G1 X141.211 Y87.298 E18.73710 F3600
G0 X141.211 Y86.732 F7200
G1 X138.332 Y89.611 E18.87252 F3600
G0 X138.332 Y89.045 F7200
G1 X140.867 Y86.511 E18.99175 F3600
G0 X141.198 Y86.018 F7200
;segType:Perimeter
G1 X141.971 Y85.810 E19.01836 F1800
G1 X141.971 Y91.650 E19.21257
G1 X137.572 Y91.650 E19.35889
G1 X137.572 Y85.750 E19.55509
G1 X141.911 Y85.750 E19.69942
G0 X141.971 Y85.810 F7200
G0 X141.971 Y87.410
G0 X141.571 Y86.850
;segType:Loop
G1 X141.571 Y91.250 E19.84573 F3600
G1 X137.972 Y91.250 E19.96545
G1 X137.972 Y86.150 E20.13504
G1 X141.571 Y86.150 E20.25476
G1 X141.571 Y86.650 E20.27139
G0 X140.301 Y86.511 F7200
;segType:HShell
G1 X138.332 Y88.480 E20.36401 F3600
G0 X138.332 Y87.914 F7200
G1 X139.735 Y86.511 E20.43002 F3600
G0 X139.170 Y86.511 F7200
G1 X138.332 Y87.348 E20.46942 F3600
G0 X138.332 Y86.783 F7200
G1 X138.604 Y86.511 E20.48222 F3600
G0 F3000 E19.48222
G0 X138.627 Y86.150 F7200
G0 X138.299 Y91.250
G0 X138.332 Y90.742
G0 F3000 E20.48222
G1 X141.211 Y87.863 E20.61764 F3600
G0 X141.211 Y88.429 F7200
G1 X138.751 Y90.889 E20.73337 F3600
G0 X139.316 Y90.889 F7200
G1 X141.211 Y88.995 E20.82249 F3600
G0 X141.211 Y89.560 F7200
G1 X139.882 Y90.889 E20.88500 F3600
G0 X140.448 Y90.889 F7200
G1 X141.211 Y90.126 E20.92091 F3600
G0 X141.211 Y90.692 F7200
G1 X141.013 Y90.889 E20.93021 F3600
; ------------------------------------
; Layer #2
; ------------------------------------
G92 E0 ;reset extr
G0 F3000 E-1.00000
G0 F600 Z1.600
G0 X141.211 Y111.924 F7200
G0 F3000 E0.00000
;segType:HShell
G1 X138.398 Y109.111 E0.13233 F3600
G0 X138.963 Y109.111 F7200
G1 X141.211 Y111.358 E0.23806 F3600
G0 X141.211 Y110.793 F7200
G1 X139.529 Y109.111 E0.31717 F3600
G0 X140.095 Y109.111 F7200
G1 X141.211 Y110.227 E0.36968 F3600
G0 X141.211 Y109.661 F7200
G1 X140.660 Y109.111 E0.39558 F3600
G0 X141.571 Y108.750 F7200
G0 X141.392 Y108.566
;segType:Perimeter
G1 X141.971 Y108.410 E0.41553 F1800
G1 X141.971 Y114.250 E0.60974
G1 X137.572 Y114.250 E0.75606
G1 X137.572 Y108.350 E0.95227
G1 X141.911 Y108.350 E1.09659
G0 X141.971 Y108.410 F7200
G0 X141.971 Y110.010
G0 X141.571 Y109.450
;segType:Loop
G1 X141.571 Y113.850 E1.24291 F3600
G1 X137.972 Y113.850 E1.36262
G1 X137.972 Y108.750 E1.53222
G1 X141.571 Y108.750 E1.65193
G1 X141.571 Y109.250 E1.66856
G0 F3000 E0.66856
G0 X137.972 Y109.651 F7200
G0 X138.332 Y109.611
G0 F3000 E1.66856
;segType:HShell
G1 X141.211 Y112.490 E1.80398 F3600
G0 X141.211 Y113.055 F7200
G1 X138.332 Y110.176 E1.93940 F3600
G0 X138.332 Y110.742 F7200
G1 X141.079 Y113.489 E2.06864 F3600
G0 X140.514 Y113.489 F7200
G1 X138.332 Y111.308 E2.17126 F3600
G0 X138.332 Y111.873 F7200
G1 X139.948 Y113.489 E2.24728 F3600
G0 X139.382 Y113.489 F7200
G1 X138.332 Y112.439 E2.29669 F3600
G0 X138.332 Y113.005 F7200
G1 X138.817 Y113.489 E2.31949 F3600
G0 F3000 E1.31949
G0 X139.021 Y113.850 F7200
G0 X137.972 Y111.999
G0 X137.972 Y108.750
G0 X131.771 Y102.550
G0 X131.411 Y100.427
G0 F3000 E2.31949
G1 X128.795 Y97.810 E2.44255 F3600
G0 X129.360 Y97.810 F7200
G1 X131.411 Y99.861 E2.53901 F3600
G0 X131.411 Y99.295 F7200
G1 X129.926 Y97.810 E2.60886 F3600
G0 X130.492 Y97.810 F7200
G1 X131.411 Y98.730 E2.65210 F3600
G0 X131.057 Y97.810 F7200
G1 X131.411 Y98.164 E2.66874 F3600
G0 X131.398 Y97.317 F7200
;segType:Perimeter
G1 X132.171 Y97.110 E2.69534 F1800
G1 X132.171 Y102.950 E2.88956
G1 X127.772 Y102.950 E3.03587
G1 X127.772 Y97.050 E3.23209
G1 X132.111 Y97.050 E3.37640
G0 X132.171 Y97.110 F7200
G0 X132.171 Y98.710
G0 X131.771 Y98.150
;segType:Loop
G1 X131.771 Y102.550 E3.52273 F3600
G1 X128.172 Y102.550 E3.64243
G1 X128.172 Y97.450 E3.81204
G1 X131.771 Y97.450 E3.93174
G1 X131.771 Y97.950 E3.94837
G0 F3000 E2.94837
G0 X128.172 Y98.132 F7200
G0 X128.532 Y98.114
G0 F3000 E3.94837
;segType:HShell
G1 X131.411 Y100.993 E4.08378 F3600
G0 X131.411 Y101.558 F7200
G1 X128.532 Y98.679 E4.21919 F3600
G0 X128.532 Y99.245 F7200
G1 X131.411 Y102.124 E4.35460 F3600
G0 X130.911 Y102.190 F7200
G1 X128.532 Y99.811 E4.46649 F3600
G0 X128.532 Y100.376 F7200
G1 X130.345 Y102.190 E4.55177 F3600
G0 X129.779 Y102.190 F7200
G1 X128.532 Y100.942 E4.61045 F3600
G0 X128.532 Y101.508 F7200
G1 X129.214 Y102.190 E4.64251 F3600
G0 X128.648 Y102.190 F7200
G1 X128.532 Y102.074 E4.64797 F3600
G0 F3000 E3.64797
G0 X128.172 Y102.115 F7200
G0 X131.771 Y101.700
G0 X137.972 Y100.984
G0 X141.571 Y100.569
G0 X141.211 Y100.610
G0 F3000 E4.64797
G1 X138.411 Y97.810 E4.77966 F3600
G0 X138.977 Y97.810 F7200
G1 X141.211 Y100.045 E4.88475 F3600
G0 X141.211 Y99.479 F7200
G1 X139.543 Y97.810 E4.96323 F3600
G0 X140.108 Y97.810 F7200
G1 X141.211 Y98.913 E5.01509 F3600
G0 X141.211 Y98.347 F7200
G1 X140.674 Y97.810 E5.04035 F3600
G0 X141.198 Y97.317 F7200
;segType:Perimeter
G1 X141.971 Y97.110 E5.06696 F1800
G1 X141.971 Y102.950 E5.26118
G1 X137.572 Y102.950 E5.40750
G1 X137.572 Y97.050 E5.60371
G1 X141.911 Y97.050 E5.74804
G0 X141.971 Y97.110 F7200
G0 X141.971 Y98.710
G0 X141.571 Y98.150
;segType:Loop
G1 X141.571 Y102.550 E5.89436 F3600
G1 X137.972 Y102.550 E6.01407
G1 X137.972 Y97.450 E6.18368
G1 X141.571 Y97.450 E6.30339
G1 X141.571 Y97.950 E6.32002
G0 F3000 E5.32002
G0 X137.972 Y98.335 F7200
G0 X138.332 Y98.297
G0 F3000 E6.32002
;segType:HShell
G1 X141.211 Y101.176 E6.45544 F3600
G0 X141.211 Y101.742 F7200
G1 X138.332 Y98.863 E6.59086 F3600
G0 X138.332 Y99.428 F7200
G1 X141.093 Y102.190 E6.72075 F3600
G0 X140.528 Y102.190 F7200
G1 X138.332 Y99.994 E6.82402 F3600
G0 X138.332 Y100.560 F7200
G1 X139.962 Y102.190 E6.90069 F3600
G0 X139.396 Y102.190 F7200
G1 X138.332 Y101.125 E6.95075 F3600
G0 X138.332 Y101.691 F7200
G1 X138.830 Y102.190 E6.97420 F3600
G0 F3000 E5.97420
G0 X138.764 Y102.550 F7200
G0 X139.705 Y97.450
G0 X141.571 Y97.450
G0 X141.571 Y91.250
G0 X141.211 Y89.297
G0 F3000 E6.97420
G1 X138.425 Y86.511 E7.10524 F3600
G0 X138.991 Y86.511 F7200
G1 X141.211 Y88.731 E7.20968 F3600
G0 X141.211 Y88.165 F7200
G1 X139.556 Y86.511 E7.28750 F3600
G0 X140.122 Y86.511 F7200
G1 X141.211 Y87.599 E7.33872 F3600
G0 X141.211 Y87.034 F7200
G1 X140.688 Y86.511 E7.36333 F3600
G0 X141.198 Y86.018 F7200
;segType:Perimeter
G1 X141.971 Y85.810 E7.38994 F1800
G1 X141.971 Y91.650 E7.58415
G1 X137.572 Y91.650 E7.73047
G1 X137.572 Y85.750 E7.92668
G1 X141.911 Y85.750 E8.07100
G0 X141.971 Y85.810 F7200
G0 X141.971 Y87.410
G0 X141.571 Y86.850
;segType:Loop
G1 X141.571 Y91.250 E8.21732 F3600
G1 X137.972 Y91.250 E8.33703
G1 X137.972 Y86.150 E8.50663
G1 X141.571 Y86.150 E8.62634
G1 X141.571 Y86.650 E8.64297
G0 F3000 E7.64297
G0 X137.972 Y87.020 F7200
G0 X138.332 Y86.983
G0 F3000 E8.64297
;segType:HShell
G1 X141.211 Y89.862 E8.77839 F3600
G0 X141.211 Y90.428 F7200
G1 X138.332 Y87.549 E8.91381 F3600
G0 X138.332 Y88.115 F7200
G1 X141.107 Y90.889 E9.04433 F3600
G0 X140.541 Y90.889 F7200
G1 X138.332 Y88.680 E9.14825 F3600
G0 X138.332 Y89.246 F7200
G1 X139.975 Y90.889 E9.22555 F3600
G0 X139.410 Y90.889 F7200
G1 X138.332 Y89.812 E9.27625 F3600
G0 X138.332 Y90.377 F7200
G1 X138.844 Y90.889 E9.30034 F3600
G0 F3000 E8.30034
G0 X131.771 Y91.250 F7200
G0 X131.411 Y89.113
G0 F3000 E9.30034
G1 X128.808 Y86.511 E9.42276 F3600
G0 X129.374 Y86.511 F7200
G1 X131.411 Y88.547 E9.51857 F3600
G0 X131.411 Y87.982 F7200
G1 X129.940 Y86.511 E9.58777 F3600
G0 X130.505 Y86.511 F7200
G1 X131.411 Y87.416 E9.63036 F3600
G0 X131.071 Y86.511 F7200
G1 X131.411 Y86.850 E9.64634 F3600
G0 X131.398 Y86.017 F7200
;segType:Perimeter
G1 X132.171 Y85.810 E9.67295 F1800
G1 X132.171 Y91.650 E9.86716
G1 X127.772 Y91.650 E10.01347
G1 X127.772 Y85.750 E10.20968
G1 X132.111 Y85.750 E10.35399
G0 X132.171 Y85.810 F7200
G0 X132.171 Y87.410
G0 X131.771 Y86.850
;segType:Loop
G1 X131.771 Y91.250 E10.50031 F3600
G1 X128.172 Y91.250 E10.62001
G1 X128.172 Y86.150 E10.78961
G1 X131.771 Y86.150 E10.90931
G1 X131.771 Y86.650 E10.92594
G0 F3000 E9.92594
G0 X131.771 Y86.650 F7200
G0 X128.172 Y86.817
G0 X128.532 Y86.800
G0 F3000 E10.92594
;segType:HShell
G1 X131.411 Y89.679 E11.06135 F3600
G0 X131.411 Y90.244 F7200
G1 X128.532 Y87.366 E11.19676 F3600
G0 X128.532 Y87.931 F7200
G1 X131.411 Y90.810 E11.33217 F3600
G0 X130.924 Y90.889 F7200
G1 X128.532 Y88.497 E11.44470 F3600
G0 X128.532 Y89.063 F7200
G1 X130.359 Y90.889 E11.53062 F3600
G0 X129.793 Y90.889 F7200
G1 X128.532 Y89.628 E11.58993 F3600
G0 X128.532 Y90.194 F7200
G1 X129.227 Y90.889 E11.62264 F3600
G0 X128.662 Y90.889 F7200
G1 X128.532 Y90.760 E11.62874 F3600
G0 F3000 E10.62874
G0 X128.172 Y86.150 F7200
G0 X121.971 Y86.150
G0 X121.971 Y86.457
G0 X118.372 Y86.634
G0 X118.732 Y86.617
G0 F3000 E11.62874
G1 X121.611 Y89.496 E11.76416 F3600
G0 X121.611 Y88.930 F7200
G1 X119.192 Y86.511 E11.87796 F3600
G0 X119.757 Y86.511 F7200
G1 X121.611 Y88.364 E11.96515 F3600
G0 X121.611 Y87.799 F7200
G1 X120.323 Y86.511 E12.02573 F3600
G0 X120.889 Y86.511 F7200
G1 X121.611 Y87.233 E12.05971 F3600
G0 X121.454 Y86.511 F7200
G1 X121.611 Y86.667 E12.06708 F3600
G0 X121.598 Y86.017 F7200
;segType:Perimeter
G1 X122.371 Y85.810 E12.09369 F1800
G1 X122.371 Y91.650 E12.28790
G1 X117.972 Y91.650 E12.43422
G1 X117.972 Y85.750 E12.63042
G1 X122.311 Y85.750 E12.77475
G0 X122.371 Y85.810 F7200
G0 X122.371 Y87.410
G0 X121.971 Y86.850
;segType:Loop
G1 X121.971 Y91.250 E12.92106 F3600
G1 X118.372 Y91.250 E13.04077
G1 X118.372 Y86.150 E13.21037
G1 X121.971 Y86.150 E13.33008
G1 X121.971 Y86.650 E13.34671
G0 F3000 E12.34671
G0 X121.611 Y90.061 F7200
G0 F3000 E13.34671
;segType:HShell
G1 X118.732 Y87.182 E13.48213 F3600
G0 X118.732 Y87.748 F7200
G1 X121.611 Y90.627 E13.61755 F3600
G0 X121.308 Y90.889 F7200
G1 X118.732 Y88.314 E13.73871 F3600
G0 X118.732 Y88.879 F7200
G1 X120.742 Y90.889 E13.83326 F3600
G0 X120.176 Y90.889 F7200
G1 X118.732 Y89.445 E13.90120 F3600
G0 X118.732 Y90.011 F7200
G1 X119.611 Y90.889 E13.94253 F3600
G0 X119.045 Y90.889 F7200
G1 X118.732 Y90.576 E13.95725 F3600
G0 F3000 E12.95725
G0 X118.732 Y97.930 F7200
G0 F3000 E13.95725
G1 X121.611 Y100.809 E14.09267 F3600
G0 X121.611 Y100.244 F7200
G1 X119.178 Y97.810 E14.20713 F3600
G0 X119.744 Y97.810 F7200
G1 X121.611 Y99.678 E14.29497 F3600
G0 X121.611 Y99.112 F7200
G1 X120.309 Y97.810 E14.35620 F3600
G0 X120.875 Y97.810 F7200
G1 X121.611 Y98.547 E14.39083 F3600
G0 X121.441 Y97.810 F7200
G1 X121.611 Y97.981 E14.39885 F3600
G0 X121.598 Y97.317 F7200
;segType:Perimeter
G1 X122.371 Y97.110 E14.42545 F1800
G1 X122.371 Y102.950 E14.61967
G1 X117.972 Y102.950 E14.76599
G1 X117.972 Y97.050 E14.96220
G1 X122.311 Y97.050 E15.10653
G0 X122.371 Y97.110 F7200
G0 X122.371 Y98.710
G0 X121.971 Y98.150
;segType:Loop
G1 X121.971 Y102.550 E15.25285 F3600
G1 X118.372 Y102.550 E15.37256
G1 X118.372 Y97.450 E15.54217
G1 X121.971 Y97.450 E15.66188
G1 X121.971 Y97.950 E15.67851
G0 F3000 E14.67851
G0 X121.611 Y101.375 F7200
G0 F3000 E15.67851
;segType:HShell
G1 X118.732 Y98.496 E15.81393 F3600
G0 X118.732 Y99.062 F7200
G1 X121.611 Y101.941 E15.94935 F3600
G0 X121.294 Y102.190 F7200
G1 X118.732 Y99.627 E16.06987 F3600
G0 X118.732 Y100.193 F7200
G1 X120.729 Y102.190 E16.16378 F3600
G0 X120.163 Y102.190 F7200
G1 X118.732 Y100.759 E16.23108 F3600
G0 X118.732 Y101.324 F7200
G1 X119.597 Y102.190 E16.27177 F3600
G0 X119.031 Y102.190 F7200
G1 X118.732 Y101.890 E16.28585 F3600
G0 F3000 E15.28585
G0 X118.732 Y109.244 F7200
G0 F3000 E16.28585
G1 X121.611 Y112.123 E16.42127 F3600
G0 X121.611 Y111.557 F7200
G1 X119.164 Y109.111 E16.53636 F3600
G0 X119.730 Y109.111 F7200
G1 X121.611 Y110.992 E16.62485 F3600
G0 X121.611 Y110.426 F7200
G1 X120.296 Y109.111 E16.68672 F3600
G0 X120.861 Y109.111 F7200
G1 X121.611 Y109.860 E16.72198 F3600
G0 X121.427 Y109.111 F7200
G1 X121.611 Y109.295 E16.73064 F3600
G0 X121.792 Y108.566 F7200
;segType:Perimeter
G1 X122.371 Y108.410 E16.75060 F1800
G1 X122.371 Y114.250 E16.94481
G1 X117.972 Y114.250 E17.09113
G1 X117.972 Y108.350 E17.28733
G1 X122.311 Y108.350 E17.43166
G0 X122.371 Y108.410 F7200
G0 X122.371 Y110.010
G0 X121.971 Y109.450
;segType:Loop
G1 X121.971 Y113.850 E17.57797 F3600
G1 X118.372 Y113.850 E17.69769
G1 X118.372 Y108.750 E17.86728
G1 X121.971 Y108.750 E17.98700
G1 X121.971 Y109.250 E18.00363
G0 F3000 E17.00363
G0 X121.611 Y112.689 F7200
G0 F3000 E18.00363
;segType:HShell
G1 X118.732 Y109.810 E18.13905 F3600
G0 X118.732 Y110.375 F7200
G1 X121.611 Y113.254 E18.27447 F3600
G0 X121.280 Y113.489 F7200
G1 X118.732 Y110.941 E18.39433 F3600
G0 X118.732 Y111.507 F7200
G1 X120.715 Y113.489 E18.48759 F3600
G0 X120.149 Y113.489 F7200
G1 X118.732 Y112.072 E18.55424 F3600
G0 X118.732 Y112.638 F7200
G1 X119.583 Y113.489 E18.59429 F3600
G0 X119.018 Y113.489 F7200
G1 X118.732 Y113.204 E18.60772 F3600
G0 F3000 E17.60772
G0 X118.372 Y113.245 F7200
G0 X121.971 Y112.830
G0 X128.172 Y112.114
G0 X131.771 Y111.699
G0 X131.411 Y111.741
G0 F3000 E18.60772
G1 X128.781 Y109.111 E18.73143 F3600
G0 X129.347 Y109.111 F7200
G1 X131.411 Y111.175 E18.82852 F3600
G0 X131.411 Y110.609 F7200
G1 X129.912 Y109.111 E18.89901 F3600
G0 X130.478 Y109.111 F7200
G1 X131.411 Y110.043 E18.94289 F3600
G0 X131.044 Y109.111 F7200
G1 X131.411 Y109.478 E18.96017 F3600
G0 X131.591 Y108.566 F7200
;segType:Perimeter
G1 X132.171 Y108.410 E18.98012 F1800
G1 X132.171 Y114.250 E19.17433
G1 X127.772 Y114.250 E19.32065
G1 X127.772 Y108.350 E19.51685
G1 X132.111 Y108.350 E19.66117
G0 X132.171 Y108.410 F7200
G0 X132.171 Y110.010
G0 X131.771 Y109.450
;segType:Loop
G1 X131.771 Y113.850 E19.80748 F3600
G1 X128.172 Y113.850 E19.92719
G1 X128.172 Y108.750 E20.09678
G1 X131.771 Y108.750 E20.21649
G1 X131.771 Y109.250 E20.23312
G0 F3000 E19.23312
G0 X128.172 Y109.447 F7200
G0 X128.532 Y109.427
G0 F3000 E20.23312
;segType:HShell
G1 X131.411 Y112.306 E20.36853 F3600
G0 X131.411 Y112.872 F7200
G1 X128.532 Y109.993 E20.50394 F3600
G0 X128.532 Y110.559 F7200
G1 X131.411 Y113.438 E20.63935 F3600
G0 X130.897 Y113.489 F7200
G1 X128.532 Y111.124 E20.75059 F3600
G0 X128.532 Y111.690 F7200
G1 X130.331 Y113.489 E20.83522 F3600
G0 X129.766 Y113.489 F7200
G1 X128.532 Y112.256 E20.89325 F3600
G0 X128.532 Y112.822 F7200
G1 X129.200 Y113.489 E20.92466 F3600
G0 X128.634 Y113.489 F7200
G1 X128.532 Y113.387 E20.92947 F3600
; ------------------------------------
; Layer #3
; ------------------------------------
G92 E0 ;reset extr
G0 F3000 E-1.00000
G0 F600 Z1.800
G0 X128.532 Y113.850 F7200
G0 X128.532 Y108.750
G0 X128.532 Y101.674
G0 F3000 E0.00000
;segType:HShell
G1 X131.411 Y98.795 E0.13541 F3600
G0 X131.411 Y98.229 F7200
G1 X128.532 Y101.108 E0.27082 F3600
G0 X128.532 Y100.542 F7200
G1 X131.264 Y97.810 E0.39931 F3600
G0 X131.398 Y97.317 F7200
;segType:Perimeter
G1 X132.171 Y97.110 E0.42592 F1800
G1 X132.171 Y102.950 E0.62014
G1 X127.772 Y102.950 E0.76645
G1 X127.772 Y97.050 E0.96266
G1 X132.111 Y97.050 E1.10698
G0 X132.171 Y97.110 F7200
G0 X132.171 Y98.710
G0 X131.771 Y98.150
;segType:Loop
G1 X131.771 Y102.550 E1.25330 F3600
G1 X128.172 Y102.550 E1.37301
G1 X128.172 Y97.450 E1.54261
G1 X131.771 Y97.450 E1.66232
G1 X131.771 Y97.950 E1.67895
G0 X130.698 Y97.810 F7200
;segType:HShell
G1 X128.532 Y99.977 E1.78083 F3600
G0 X128.532 Y99.411 F7200
G1 X130.132 Y97.810 E1.85611 F3600
G0 X129.567 Y97.810 F7200
G1 X128.532 Y98.845 E1.90478 F3600
G0 X128.532 Y98.279 F7200
G1 X129.001 Y97.810 E1.92684 F3600
G0 F3000 E0.92684
G0 X129.036 Y97.450 F7200
G0 X128.547 Y102.550
G0 X128.582 Y102.190
G0 F3000 E1.92684
G1 X131.411 Y99.360 E2.05991 F3600
G0 X131.411 Y99.926 F7200
G1 X129.147 Y102.190 E2.16637 F3600
G0 X129.713 Y102.190 F7200
G1 X131.411 Y100.492 E2.24623 F3600
G0 X131.411 Y101.058 F7200
G1 X130.279 Y102.190 E2.29947 F3600
G0 X130.845 Y102.190 F7200
G1 X131.411 Y101.623 E2.32611 F3600
G0 X131.411 Y102.189 F7200
G1 X131.410 Y102.190 E2.32614 F3600
G0 F3000 E1.32614
G0 X131.771 Y101.971 F7200
G0 X130.815 Y102.550
G0 X128.172 Y102.550
G0 X121.971 Y108.750
G0 X119.964 Y109.111
G0 F3000 E2.32614
G1 X118.732 Y110.342 E2.38408 F3600
G0 X118.732 Y110.908 F7200
G1 X120.529 Y109.111 E2.46862 F3600
G0 X121.095 Y109.111 F7200
G1 X118.732 Y111.474 E2.57977 F3600
G0 X118.732 Y112.039 F7200
G1 X121.611 Y109.160 E2.71519 F3600
G0 X121.792 Y108.566 F7200
;segType:Perimeter
G1 X122.371 Y108.410 E2.73515 F1800
G1 X122.371 Y114.250 E2.92936
G1 X117.972 Y114.250 E3.07568
G1 X117.972 Y108.350 E3.27188
G1 X122.311 Y108.350 E3.41621
G0 X122.371 Y108.410 F7200
G0 X122.371 Y110.010
G0 X121.971 Y109.450
;segType:Loop
G1 X121.971 Y113.850 E3.56252 F3600
G1 X118.372 Y113.850 E3.68224
G1 X118.372 Y108.750 E3.85183
G1 X121.971 Y108.750 E3.97155
G1 X121.971 Y109.250 E3.98818
G0 X121.611 Y109.726 F7200
;segType:HShell
G1 X118.732 Y112.605 E4.12360 F3600
G0 X118.732 Y113.171 F7200
G1 X121.611 Y110.292 E4.25902 F3600
G0 X121.611 Y110.857 F7200
G1 X118.979 Y113.489 E4.38282 F3600
G0 X119.545 Y113.489 F7200
G1 X121.611 Y111.423 E4.48002 F3600
G0 X121.611 Y111.989 F7200
G1 X120.110 Y113.489 E4.55061 F3600
G0 X120.676 Y113.489 F7200
G1 X121.611 Y112.554 E4.59459 F3600
G0 X121.611 Y113.120 F7200
G1 X121.242 Y113.489 E4.61196 F3600
G0 X118.832 Y109.111 F7200
G1 X118.732 Y109.211 E4.61668 F3600
G0 X118.732 Y109.777 F7200
G1 X119.398 Y109.111 E4.64801 F3600
G0 F3000 E3.64801
G0 X119.719 Y102.550 F7200
G0 X119.968 Y97.450
G0 X119.950 Y97.810
G0 F3000 E4.64801
G1 X118.732 Y99.029 E4.70530 F3600
G0 X118.732 Y99.594 F7200
G1 X120.516 Y97.810 E4.78921 F3600
G0 X121.082 Y97.810 F7200
G1 X118.732 Y100.160 E4.89972 F3600
G0 X118.732 Y100.726 F7200
G1 X121.611 Y97.847 E5.03514 F3600
G0 X121.598 Y97.317 F7200
;segType:Perimeter
G1 X122.371 Y97.110 E5.06175 F1800
G1 X122.371 Y102.950 E5.25597
G1 X117.972 Y102.950 E5.40229
G1 X117.972 Y97.050 E5.59850
G1 X122.311 Y97.050 E5.74282
G0 X122.371 Y97.110 F7200
G0 X122.371 Y98.710
G0 X121.971 Y98.150
;segType:Loop
G1 X121.971 Y102.550 E5.88915 F3600
G1 X118.372 Y102.550 E6.00886
G1 X118.372 Y97.450 E6.17846
G1 X121.971 Y97.450 E6.29818
G1 X121.971 Y97.950 E6.31481
G0 X121.611 Y98.412 F7200
;segType:HShell
G1 X118.732 Y101.291 E6.45023 F3600
G0 X118.732 Y101.857 F7200
G1 X121.611 Y98.978 E6.58565 F3600
G0 X121.611 Y99.544 F7200
G1 X118.965 Y102.190 E6.71010 F3600
G0 X119.531 Y102.190 F7200
G1 X121.611 Y100.109 E6.80795 F3600
G0 X121.611 Y100.675 F7200
G1 X120.097 Y102.190 E6.87919 F3600
G0 X120.662 Y102.190 F7200
G1 X121.611 Y101.241 E6.92382 F3600
G0 X121.611 Y101.806 F7200
G1 X121.228 Y102.190 E6.94184 F3600
G0 X118.819 Y97.810 F7200
G1 X118.732 Y97.897 E6.94592 F3600
G0 X118.732 Y98.463 F7200
G1 X119.384 Y97.810 E6.97661 F3600
G0 F3000 E5.97661
G0 X119.705 Y91.250 F7200
G0 X119.954 Y86.150
G0 X119.936 Y86.511
G0 F3000 E6.97661
G1 X118.732 Y87.715 E7.03326 F3600
G0 X118.732 Y88.281 F7200
G1 X120.502 Y86.511 E7.11651 F3600
G0 X121.068 Y86.511 F7200
G1 X118.732 Y88.846 E7.22637 F3600
G0 X118.732 Y89.412 F7200
G1 X121.611 Y86.533 E7.36179 F3600
G0 X121.598 Y86.017 F7200
;segType:Perimeter
G1 X122.371 Y85.810 E7.38840 F1800
G1 X122.371 Y91.650 E7.58261
G1 X117.972 Y91.650 E7.72893
G1 X117.972 Y85.750 E7.92514
G1 X122.311 Y85.750 E8.06946
G0 X122.371 Y85.810 F7200
G0 X122.371 Y87.410
G0 X121.971 Y86.850
;segType:Loop
G1 X121.971 Y91.250 E8.21577 F3600
G1 X118.372 Y91.250 E8.33549
G1 X118.372 Y86.150 E8.50508
G1 X121.971 Y86.150 E8.62480
G1 X121.971 Y86.650 E8.64143
G0 X121.611 Y87.099 F7200
;segType:HShell
G1 X118.732 Y89.978 E8.77685 F3600
G0 X118.732 Y90.543 F7200
G1 X121.611 Y87.664 E8.91227 F3600
G0 X121.611 Y88.230 F7200
G1 X118.952 Y90.889 E9.03736 F3600
G0 X119.517 Y90.889 F7200
G1 X121.611 Y88.796 E9.13585 F3600
G0 X121.611 Y89.361 F7200
G1 X120.083 Y90.889 E9.20773 F3600
G0 X120.649 Y90.889 F7200
G1 X121.611 Y89.927 E9.25300 F3600
G0 X121.611 Y90.493 F7200
G1 X121.214 Y90.889 E9.27166 F3600
G0 X118.805 Y86.511 F7200
G1 X118.732 Y86.583 E9.27509 F3600
G0 X118.732 Y87.149 F7200
G1 X119.371 Y86.511 E9.30513 F3600
G0 F3000 E8.30513
G0 X121.971 Y91.250 F7200
G0 X128.172 Y91.250
G0 X128.532 Y90.360
G0 F3000 E9.30513
G1 X131.411 Y87.481 E9.44053 F3600
G0 X131.411 Y86.915 F7200
G1 X128.532 Y89.794 E9.57594 F3600
G0 X128.532 Y89.229 F7200
G1 X131.250 Y86.511 E9.70379 F3600
G0 X131.398 Y86.017 F7200
;segType:Perimeter
G1 X132.171 Y85.810 E9.73039 F1800
G1 X132.171 Y91.650 E9.92460
G1 X127.772 Y91.650 E10.07092
G1 X127.772 Y85.750 E10.26712
G1 X132.111 Y85.750 E10.41144
G0 X132.171 Y85.810 F7200
G0 X132.171 Y87.410
G0 X131.771 Y86.850
;segType:Loop
G1 X131.771 Y91.250 E10.55775 F3600
G1 X128.172 Y91.250 E10.67746
G1 X128.172 Y86.150 E10.84705
G1 X131.771 Y86.150 E10.96676
G1 X131.771 Y86.650 E10.98339
G0 X130.684 Y86.511 F7200
;segType:HShell
G1 X128.532 Y88.663 E11.08462 F3600
G0 X128.532 Y88.097 F7200
G1 X130.119 Y86.511 E11.15925 F3600
G0 X129.553 Y86.511 F7200
G1 X128.532 Y87.531 E11.20727 F3600
G0 X128.532 Y86.966 F7200
G1 X128.987 Y86.511 E11.22868 F3600
G0 F3000 E10.22868
G0 X129.022 Y86.150 F7200
G0 X128.534 Y91.250
G0 X128.568 Y90.889
G0 F3000 E11.22868
G1 X131.411 Y88.047 E11.36239 F3600
G0 X131.411 Y88.612 F7200
G1 X129.134 Y90.889 E11.46949 F3600
G0 X129.700 Y90.889 F7200
G1 X131.411 Y89.178 E11.54999 F3600
G0 X131.411 Y89.744 F7200
G1 X130.265 Y90.889 E11.60387 F3600
G0 X130.831 Y90.889 F7200
G1 X131.411 Y90.310 E11.63115 F3600
G0 X131.411 Y90.875 F7200
G1 X131.397 Y90.889 E11.63182 F3600
G0 F3000 E10.63182
G0 X137.972 Y91.250 F7200
G0 X138.332 Y90.177
G0 F3000 E11.63182
G1 X141.211 Y87.298 E11.76724 F3600
G0 X141.211 Y86.732 F7200
G1 X138.332 Y89.611 E11.90266 F3600
G0 X138.332 Y89.045 F7200
G1 X140.867 Y86.511 E12.02189 F3600
G0 X141.198 Y86.018 F7200
;segType:Perimeter
G1 X141.971 Y85.810 E12.04850 F1800
G1 X141.971 Y91.650 E12.24271
G1 X137.572 Y91.650 E12.38903
G1 X137.572 Y85.750 E12.58523
G1 X141.911 Y85.750 E12.72956
G0 X141.971 Y85.810 F7200
G0 X141.971 Y87.410
G0 X141.571 Y86.850
;segType:Loop
G1 X141.571 Y91.250 E12.87587 F3600
G1 X137.972 Y91.250 E12.99559
G1 X137.972 Y86.150 E13.16518
G1 X141.571 Y86.150 E13.28490
G1 X141.571 Y86.650 E13.30153
G0 X140.301 Y86.511 F7200
;segType:HShell
G1 X138.332 Y88.480 E13.39415 F3600
G0 X138.332 Y87.914 F7200
G1 X139.735 Y86.511 E13.46016 F3600
G0 X139.170 Y86.511 F7200
G1 X138.332 Y87.348 E13.49956 F3600
G0 X138.332 Y86.783 F7200
G1 X138.604 Y86.511 E13.51236 F3600
G0 F3000 E12.51236
G0 X138.627 Y86.150 F7200
G0 X138.299 Y91.250
G0 X138.332 Y90.742
G0 F3000 E13.51236
G1 X141.211 Y87.863 E13.64778 F3600
G0 X141.211 Y88.429 F7200
G1 X138.751 Y90.889 E13.76351 F3600
G0 X139.316 Y90.889 F7200
G1 X141.211 Y88.995 E13.85263 F3600
G0 X141.211 Y89.560 F7200
G1 X139.882 Y90.889 E13.91514 F3600
G0 X140.448 Y90.889 F7200
G1 X141.211 Y90.126 E13.95104 F3600
G0 X141.211 Y90.692 F7200
G1 X141.013 Y90.889 E13.96034 F3600
G0 F3000 E12.96034
G0 X137.972 Y91.250 F7200
G0 X137.972 Y97.450
G0 X138.332 Y101.490
G0 F3000 E13.96034
G1 X141.211 Y98.611 E14.09576 F3600
G0 X141.211 Y98.046 F7200
G1 X138.332 Y100.925 E14.23118 F3600
G0 X138.332 Y100.359 F7200
G1 X140.881 Y97.810 E14.35106 F3600
G0 X141.198 Y97.317 F7200
;segType:Perimeter
G1 X141.971 Y97.110 E14.37767 F1800
G1 X141.971 Y102.950 E14.57189
G1 X137.572 Y102.950 E14.71821
G1 X137.572 Y97.050 E14.91442
G1 X141.911 Y97.050 E15.05874
G0 X141.971 Y97.110 F7200
G0 X141.971 Y98.710
G0 X141.571 Y98.150
;segType:Loop
G1 X141.571 Y102.550 E15.20507 F3600
G1 X137.972 Y102.550 E15.32478
G1 X137.972 Y97.450 E15.49438
G1 X141.571 Y97.450 E15.61410
G1 X141.571 Y97.950 E15.63073
G0 X140.315 Y97.810 F7200
;segType:HShell
G1 X138.332 Y99.793 E15.72400 F3600
G0 X138.332 Y99.228 F7200
G1 X139.749 Y97.810 E15.79066 F3600
G0 X139.183 Y97.810 F7200
G1 X138.332 Y98.662 E15.83071 F3600
G0 X138.332 Y98.096 F7200
G1 X138.618 Y97.810 E15.84416 F3600
G0 F3000 E14.84416
G0 X138.642 Y97.450 F7200
G0 X138.299 Y102.550
G0 X138.332 Y102.056
G0 F3000 E15.84416
G1 X141.211 Y99.177 E15.97958 F3600
G0 X141.211 Y99.743 F7200
G1 X138.764 Y102.190 E16.09467 F3600
G0 X139.330 Y102.190 F7200
G1 X141.211 Y100.308 E16.18315 F3600
G0 X141.211 Y100.874 F7200
G1 X139.896 Y102.190 E16.24503 F3600
G0 X140.461 Y102.190 F7200
G1 X141.211 Y101.440 E16.28029 F3600
G0 X141.211 Y102.005 F7200
G1 X141.027 Y102.190 E16.28895 F3600
G0 F3000 E15.28895
G0 X137.972 Y102.550 F7200
G0 X137.972 Y108.750
G0 X138.332 Y112.804
G0 F3000 E16.28895
G1 X141.211 Y109.925 E16.42437 F3600
G0 X141.211 Y109.359 F7200
G1 X138.332 Y112.238 E16.55979 F3600
G0 X138.332 Y111.673 F7200
G1 X140.894 Y109.111 E16.68031 F3600
G0 X141.392 Y108.566 F7200
;segType:Perimeter
G1 X141.971 Y108.410 E16.70027 F1800
G1 X141.971 Y114.250 E16.89448
G1 X137.572 Y114.250 E17.04080
G1 X137.572 Y108.350 E17.23700
G1 X141.911 Y108.350 E17.38133
G0 X141.971 Y108.410 F7200
G0 X141.971 Y110.010
G0 X141.571 Y109.450
;segType:Loop
G1 X141.571 Y113.850 E17.52764 F3600
G1 X137.972 Y113.850 E17.64736
G1 X137.972 Y108.750 E17.81695
G1 X141.571 Y108.750 E17.93667
G1 X141.571 Y109.250 E17.95330
G0 X140.328 Y109.111 F7200
;segType:HShell
G1 X138.332 Y111.107 E18.04721 F3600
G0 X138.332 Y110.541 F7200
G1 X139.763 Y109.111 E18.11451 F3600
G0 X139.197 Y109.111 F7200
G1 X138.332 Y109.976 E18.15520 F3600
G0 X138.332 Y109.410 F7200
G1 X138.631 Y109.111 E18.16929 F3600
G0 F3000 E17.16929
G0 X138.657 Y108.750 F7200
G0 X138.298 Y113.850
G0 X138.332 Y113.370
G0 F3000 E18.16929
G1 X141.211 Y110.491 E18.30471 F3600
G0 X141.211 Y111.056 F7200
G1 X138.778 Y113.489 E18.41915 F3600
G0 X139.344 Y113.489 F7200
G1 X141.211 Y111.622 E18.50698 F3600
G0 X141.211 Y112.188 F7200
G1 X139.909 Y113.489 E18.56820 F3600
G0 X140.475 Y113.489 F7200
G1 X141.211 Y112.754 E18.60282 F3600
G0 X141.211 Y113.319 F7200
G1 X141.041 Y113.489 E18.61082 F3600
G0 F3000 E17.61082
G0 X141.571 Y113.692 F7200
G0 X137.972 Y112.317
G0 X137.972 Y108.750
G0 X131.771 Y108.750
G0 X129.580 Y109.111
G0 F3000 E18.61082
G1 X128.532 Y110.159 E18.66013 F3600
G0 X128.532 Y110.725 F7200
G1 X130.146 Y109.111 E18.73605 F3600
G0 X130.712 Y109.111 F7200
G1 X128.532 Y111.290 E18.83857 F3600
G0 X128.532 Y111.856 F7200
G1 X131.277 Y109.111 E18.96771 F3600
G0 X131.591 Y108.566 F7200
;segType:Perimeter
G1 X132.171 Y108.410 E18.98766 F1800
G1 X132.171 Y114.250 E19.18187
G1 X127.772 Y114.250 E19.32818
G1 X127.772 Y108.350 E19.52439
G1 X132.111 Y108.350 E19.66871
G0 X132.171 Y108.410 F7200
G0 X132.171 Y110.010
G0 X131.771 Y109.450
;segType:Loop
G1 X131.771 Y113.850 E19.81502 F3600
G1 X128.172 Y113.850 E19.93473
G1 X128.172 Y108.750 E20.10432
G1 X131.771 Y108.750 E20.22403
G1 X131.771 Y109.250 E20.24066
G0 X131.411 Y109.543 F7200
;segType:HShell
G1 X128.532 Y112.422 E20.37607 F3600
G0 X128.532 Y112.987 F7200
G1 X131.411 Y110.109 E20.51148 F3600
G0 X131.411 Y110.674 F7200
G1 X128.596 Y113.489 E20.64390 F3600
G0 X129.161 Y113.489 F7200
G1 X131.411 Y111.240 E20.74971 F3600
G0 X131.411 Y111.806 F7200
G1 X129.727 Y113.489 E20.82892 F3600
G0 X130.293 Y113.489 F7200
G1 X131.411 Y112.371 E20.88151 F3600
G0 X131.411 Y112.937 F7200
G1 X130.858 Y113.489 E20.90750 F3600
G0 X128.532 Y109.593 F7200
G1 X129.015 Y109.111 E20.93020 F3600
; ------------------------------------
; Layer #4
; ------------------------------------
G92 E0 ;reset extr
G0 F3000 E-1.00000
G0 F600 Z2.000
G0 X131.771 Y113.850 F7200
G0 X137.972 Y113.850
G0 X137.972 Y112.639
G0 X141.571 Y111.937
G0 X141.211 Y112.007
G0 F3000 E0.00000
;segType:Infill
G1 X140.355 Y113.489 E0.05692 F4500
G0 X141.048 Y113.489 F7200
G1 X138.519 Y109.111 E0.22509 F4500
G0 X138.332 Y110.010 F7200
G1 X141.211 Y110.010 E0.32085 F4500
G0 X141.211 Y109.772 F7200
G1 X140.829 Y109.111 E0.34626 F4500
G0 X141.571 Y108.750 F7200
G0 X141.392 Y108.566
;segType:Perimeter
G1 X141.971 Y108.410 E0.36622 F1800
G1 X141.971 Y114.250 E0.56043
G1 X137.572 Y114.250 E0.70675
G1 X137.572 Y108.350 E0.90295
G1 X141.911 Y108.350 E1.04728
G0 X141.971 Y108.410 F7200
G0 X141.971 Y110.010
G0 X141.571 Y109.450
;segType:Loop
G1 X141.571 Y113.850 E1.19359 F3600
G1 X137.972 Y113.850 E1.31331
G1 X137.972 Y108.750 E1.48290
G1 X141.571 Y108.750 E1.60262
G1 X141.571 Y109.250 E1.61925
G0 X140.574 Y109.111 F7200
;segType:Infill
G1 X138.332 Y112.994 E1.76839 F4500
G0 X138.332 Y112.786 F7200
G1 X138.738 Y113.489 E1.79542 F4500
G0 X138.332 Y112.010 F7200
G1 X141.211 Y112.010 E1.89118 F4500
G0 F3000 E0.89118
G0 X141.571 Y112.454 F7200
G0 X138.565 Y108.750
G0 X137.972 Y108.750
G0 X131.771 Y102.550
G0 X131.771 Y100.563
G0 X129.413 Y97.450
G0 X129.686 Y97.810
G0 F3000 E1.89118
G1 X131.411 Y100.798 E2.00592 F4500
G0 X131.411 Y100.982 F7200
G1 X130.713 Y102.190 E2.05231 F4500
G0 X131.411 Y102.010 F7200
G1 X128.532 Y102.010 E2.14806 F4500
G0 X128.532 Y101.968 F7200
G1 X130.932 Y97.810 E2.30773 F4500
G0 X131.398 Y97.317 F7200
;segType:Perimeter
G1 X132.171 Y97.110 E2.33433 F1800
G1 X132.171 Y102.950 E2.52855
G1 X127.772 Y102.950 E2.67486
G1 X127.772 Y97.050 E2.87108
G1 X132.111 Y97.050 E3.01539
G0 X132.171 Y97.110 F7200
G0 X132.171 Y98.710
G0 X131.771 Y98.150
;segType:Loop
G1 X131.771 Y102.550 E3.16172 F3600
G1 X128.172 Y102.550 E3.28142
G1 X128.172 Y97.450 E3.45103
G1 X131.771 Y97.450 E3.57073
G1 X131.771 Y97.950 E3.58736
G0 X131.411 Y98.010 F7200
;segType:Infill
G1 X128.532 Y98.010 E3.68311 F4500
G0 X128.532 Y97.968 F7200
G1 X128.623 Y97.810 E3.68915 F4500
G0 X128.532 Y99.812 F7200
G1 X129.905 Y102.190 E3.78047 F4500
G0 X128.532 Y100.010 F7200
G1 X131.411 Y100.010 E3.87622 F4500
G0 F3000 E2.87622
G0 X131.771 Y102.550 F7200
G0 X137.972 Y102.550
G0 X138.332 Y102.010
G0 F3000 E3.87622
G1 X141.211 Y102.010 E3.97197 F4500
G0 X141.211 Y101.772 F7200
G1 X138.924 Y97.810 E4.12413 F4500
G0 X138.332 Y98.010 F7200
G1 X141.211 Y98.010 E4.21989 F4500
G0 X141.198 Y97.317 F7200
;segType:Perimeter
G1 X141.971 Y97.110 E4.24650 F1800
G1 X141.971 Y102.950 E4.44071
G1 X137.572 Y102.950 E4.58703
G1 X137.572 Y97.050 E4.78325
G1 X141.911 Y97.050 E4.92757
G0 X141.971 Y97.110 F7200
G0 X141.971 Y98.710
G0 X141.571 Y98.150
;segType:Loop
G1 X141.571 Y102.550 E5.07389 F3600
G1 X137.972 Y102.550 E5.19361
G1 X137.972 Y97.450 E5.36321
G1 X141.571 Y97.450 E5.48292
G1 X141.571 Y97.950 E5.49955
G0 X141.211 Y100.007 F7200
;segType:Infill
G1 X139.951 Y102.190 E5.58336 F4500
G0 X139.142 Y102.190 F7200
G1 X138.332 Y100.786 E5.63728 F4500
G0 X138.332 Y100.994 F7200
G1 X140.170 Y97.810 E5.75955 F4500
G0 X138.332 Y100.010 F7200
G1 X141.211 Y100.010 E5.85530 F4500
G0 F3000 E4.85530
G0 X137.972 Y97.450 F7200
G0 X137.972 Y91.250
G0 X138.332 Y88.010
G0 F3000 E5.85530
G1 X141.211 Y88.010 E5.95106 F4500
G0 X141.211 Y88.007 F7200
G1 X139.547 Y90.889 E6.06175 F4500
G0 X139.547 Y90.889 F7200
G1 X138.332 Y88.786 E6.14254 F4500
G0 X138.332 Y88.994 F7200
G1 X139.766 Y86.511 E6.23792 F4500
G0 X141.198 Y86.018 F7200
;segType:Perimeter
G1 X141.971 Y85.810 E6.26453 F1800
G1 X141.971 Y91.650 E6.45874
G1 X137.572 Y91.650 E6.60506
G1 X137.572 Y85.750 E6.80126
G1 X141.911 Y85.750 E6.94559
G0 X141.971 Y85.810 F7200
G0 X141.971 Y87.410
G0 X141.571 Y86.850
;segType:Loop
G1 X141.571 Y91.250 E7.09190 F3600
G1 X137.972 Y91.250 E7.21162
G1 X137.972 Y86.150 E7.38121
G1 X141.571 Y86.150 E7.50093
G1 X141.571 Y86.650 E7.51756
G0 X139.328 Y86.511 F7200
;segType:Infill
G1 X141.211 Y89.772 E7.64283 F4500
G0 X141.211 Y90.010 F7200
G1 X138.332 Y90.010 E7.73858 F4500
G0 F3000 E6.73858
G0 X137.972 Y86.150 F7200
G0 X131.771 Y86.150
G0 X131.771 Y87.242
G0 X128.172 Y87.875
G0 X128.532 Y87.812
G0 F3000 E7.73858
G1 X130.309 Y90.889 E7.85678 F4500
G0 X130.309 Y90.889 F7200
G1 X131.411 Y88.982 E7.93005 F4500
G0 X131.411 Y90.010 F7200
G1 X128.532 Y90.010 E8.02580 F4500
G0 X128.532 Y89.968 F7200
G1 X130.528 Y86.511 E8.15858 F4500
G0 X131.398 Y86.017 F7200
;segType:Perimeter
G1 X132.171 Y85.810 E8.18518 F1800
G1 X132.171 Y91.650 E8.37939
G1 X127.772 Y91.650 E8.52570
G1 X127.772 Y85.750 E8.72191
G1 X132.111 Y85.750 E8.86623
G0 X132.171 Y85.810 F7200
G0 X132.171 Y87.410
G0 X131.771 Y86.850
;segType:Loop
G1 X131.771 Y91.250 E9.01254 F3600
G1 X128.172 Y91.250 E9.13225
G1 X128.172 Y86.150 E9.30184
G1 X131.771 Y86.150 E9.42155
G1 X131.771 Y86.650 E9.43818
G0 X131.411 Y88.010 F7200
;segType:Infill
G1 X128.532 Y88.010 E9.53393 F4500
G0 X130.090 Y86.511 F7200
G1 X131.411 Y88.798 E9.62178 F4500
G0 F3000 E8.62178
G0 X131.771 Y88.854 F7200
G0 X128.172 Y88.297
G0 X128.172 Y86.150
G0 X121.971 Y86.150
G0 X121.971 Y86.602
G0 X118.372 Y86.864
G0 X118.732 Y86.838
G0 F3000 E9.62178
G1 X121.071 Y90.889 E9.77739 F4500
G0 X121.072 Y90.889 F7200
G1 X121.611 Y89.955 E9.81326 F4500
G0 X121.611 Y90.010 F7200
G1 X118.732 Y90.010 E9.90902 F4500
G0 X118.732 Y90.838 F7200
G1 X118.762 Y90.889 E9.91101 F4500
G0 X118.762 Y90.889 F7200
G1 X121.291 Y86.511 E10.07918 F4500
G0 X121.598 Y86.017 F7200
;segType:Perimeter
G1 X122.371 Y85.810 E10.10579 F1800
G1 X122.371 Y91.650 E10.30000
G1 X117.972 Y91.650 E10.44632
G1 X117.972 Y85.750 E10.64252
G1 X122.311 Y85.750 E10.78685
G0 X122.371 Y85.810 F7200
G0 X122.371 Y87.410
G0 X121.971 Y86.850
;segType:Loop
G1 X121.971 Y91.250 E10.93316 F3600
G1 X118.372 Y91.250 E11.05287
G1 X118.372 Y86.150 E11.22247
G1 X121.971 Y86.150 E11.34218
G1 X121.971 Y86.650 E11.35881
G0 X121.611 Y87.824 F7200
;segType:Infill
G1 X120.853 Y86.511 E11.40927 F4500
G0 X118.981 Y86.511 F7200
G1 X118.732 Y86.942 E11.42584 F4500
G0 X118.732 Y88.010 F7200
G1 X121.611 Y88.010 E11.52159 F4500
G0 F3000 E10.52159
G0 X118.372 Y91.250 F7200
G0 X118.372 Y97.450
G0 X118.732 Y98.838
G0 F3000 E11.52159
G1 X120.667 Y102.190 E11.65032 F4500
G0 X121.611 Y101.955 F7200
G1 X121.476 Y102.190 E11.65932 F4500
G0 X121.611 Y102.010 F7200
G1 X118.732 Y102.010 E11.75507 F4500
G0 X119.166 Y102.190 F7200
G1 X121.611 Y97.955 E11.91769 F4500
G0 X121.598 Y97.317 F7200
;segType:Perimeter
G1 X122.371 Y97.110 E11.94430 F1800
G1 X122.371 Y102.950 E12.13851
G1 X117.972 Y102.950 E12.28483
G1 X117.972 Y97.050 E12.48105
G1 X122.311 Y97.050 E12.62537
G0 X122.371 Y97.110 F7200
G0 X122.371 Y98.710
G0 X121.971 Y98.150
;segType:Loop
G1 X121.971 Y102.550 E12.77169 F3600
G1 X118.372 Y102.550 E12.89141
G1 X118.372 Y97.450 E13.06101
G1 X121.971 Y97.450 E13.18072
G1 X121.971 Y97.950 E13.19735
G0 X121.611 Y98.010 F7200
;segType:Infill
G1 X118.732 Y98.010 E13.29311 F4500
G0 X119.385 Y97.810 F7200
G1 X118.732 Y98.942 E13.33657 F4500
G0 X118.732 Y100.010 F7200
G1 X121.611 Y100.010 E13.43232 F4500
G0 X121.611 Y99.824 F7200
G1 X120.448 Y97.810 E13.50967 F4500
G0 F3000 E12.50967
G0 X120.418 Y97.450 F7200
G0 X120.842 Y102.550
G0 X121.971 Y102.550
G0 X121.971 Y108.750
G0 X121.611 Y111.824
G0 F3000 E13.50967
G1 X120.044 Y109.111 E13.61389 F4500
G0 X119.789 Y109.111 F7200
G1 X118.732 Y110.942 E13.68422 F4500
G0 X118.732 Y110.838 F7200
G1 X120.263 Y113.489 E13.78607 F4500
G0 X119.571 Y113.489 F7200
G1 X121.611 Y109.955 E13.92179 F4500
G0 X121.792 Y108.566 F7200
;segType:Perimeter
G1 X122.371 Y108.410 E13.94175 F1800
G1 X122.371 Y114.250 E14.13596
G1 X117.972 Y114.250 E14.28228
G1 X117.972 Y108.350 E14.47848
G1 X122.311 Y108.350 E14.62281
G0 X122.371 Y108.410 F7200
G0 X122.371 Y110.010
G0 X121.971 Y109.450
;segType:Loop
G1 X121.971 Y113.850 E14.76912 F3600
G1 X118.372 Y113.850 E14.88884
G1 X118.372 Y108.750 E15.05843
G1 X121.971 Y108.750 E15.17814
G1 X121.971 Y109.250 E15.19477
G0 X121.611 Y110.010 F7200
;segType:Infill
G1 X118.732 Y110.010 E15.29053 F4500
G0 X118.732 Y112.010 F7200
G1 X121.611 Y112.010 E15.38629 F4500
G0 F3000 E14.38629
G0 X121.971 Y108.750 F7200
G0 X128.172 Y108.750
G0 X129.282 Y109.111
G0 F3000 E15.38629
G1 X131.411 Y112.798 E15.52791 F4500
G0 X131.411 Y112.010 F7200
G1 X128.532 Y112.010 E15.62366 F4500
G0 X128.532 Y111.812 F7200
G1 X129.501 Y113.489 E15.68809 F4500
G0 X128.808 Y113.489 F7200
G1 X131.336 Y109.111 E15.85626 F4500
G0 X131.591 Y108.566 F7200
;segType:Perimeter
G1 X132.171 Y108.410 E15.87621 F1800
G1 X132.171 Y114.250 E16.07042
G1 X127.772 Y114.250 E16.21673
G1 X127.772 Y108.350 E16.41294
G1 X132.111 Y108.350 E16.55726
G0 X132.171 Y108.410 F7200
G0 X132.171 Y110.010
G0 X131.771 Y109.450
;segType:Loop
G1 X131.771 Y113.850 E16.70357 F3600
G1 X128.172 Y113.850 E16.82328
G1 X128.172 Y108.750 E16.99287
G1 X131.771 Y108.750 E17.11258
G1 X131.771 Y109.250 E17.12921
G0 X131.411 Y110.010 F7200
;segType:Infill
G1 X128.532 Y110.010 E17.22496 F4500
G0 X128.532 Y109.968 F7200
G1 X129.027 Y109.111 E17.25788 F4500
G0 X131.118 Y113.489 F7200
G1 X131.411 Y112.982 E17.27738 F4500
; ------------------------------------
; Layer #5
; ------------------------------------
G92 E0 ;reset extr
G0 F3000 E-1.00000
G0 F600 Z2.200
G0 X131.771 Y113.029 F7200
G0 X128.172 Y112.553
G0 X121.611 Y111.684
G0 F3000 E0.00000
;segType:Infill
G1 X120.125 Y109.111 E0.09884 F4500
G0 X119.709 Y109.111 F7200
G1 X118.732 Y110.802 E0.16380 F4500
G0 X118.732 Y110.698 F7200
G1 X120.344 Y113.489 E0.27102 F4500
G0 X119.490 Y113.489 F7200
G1 X121.611 Y109.815 E0.41213 F4500
G0 X121.792 Y108.566 F7200
;segType:Perimeter
G1 X122.371 Y108.410 E0.43208 F1800
G1 X122.371 Y114.250 E0.62629
G1 X117.972 Y114.250 E0.77261
G1 X117.972 Y108.350 E0.96882
G1 X122.311 Y108.350 E1.11314
G0 X122.371 Y108.410 F7200
G0 X122.371 Y110.010
G0 X121.971 Y109.450
;segType:Loop
G1 X121.971 Y113.850 E1.25946 F3600
G1 X118.372 Y113.850 E1.37917
G1 X118.372 Y108.750 E1.54877
G1 X121.971 Y108.750 E1.66848
G1 X121.971 Y109.250 E1.68511
G0 X121.611 Y110.150 F7200
;segType:Infill
G1 X118.732 Y110.150 E1.78087 F4500
G0 X118.732 Y112.150 F7200
G1 X121.611 Y112.150 E1.87662 F4500
G0 F3000 E0.87662
G0 X121.971 Y108.750 F7200
G0 X128.172 Y102.550
G0 X128.172 Y100.049
G0 X130.023 Y97.450
G0 X129.767 Y97.810
G0 F3000 E1.87662
G1 X131.411 Y100.658 E1.98599 F4500
G0 X131.411 Y100.842 F7200
G1 X130.633 Y102.190 E2.03776 F4500
G0 X131.411 Y102.150 F7200
G1 X128.532 Y102.150 E2.13351 F4500
G0 X128.532 Y101.828 F7200
G1 X130.851 Y97.810 E2.28779 F4500
G0 X131.398 Y97.317 F7200
;segType:Perimeter
G1 X132.171 Y97.110 E2.31440 F1800
G1 X132.171 Y102.950 E2.50862
G1 X127.772 Y102.950 E2.65493
G1 X127.772 Y97.050 E2.85115
G1 X132.111 Y97.050 E2.99546
G0 X132.171 Y97.110 F7200
G0 X132.171 Y98.710
G0 X131.771 Y98.150
;segType:Loop
G1 X131.771 Y102.550 E3.14178 F3600
G1 X128.172 Y102.550 E3.26149
G1 X128.172 Y97.450 E3.43109
G1 X131.771 Y97.450 E3.55080
G1 X131.771 Y97.950 E3.56743
G0 X131.411 Y98.150 F7200
;segType:Infill
G1 X128.532 Y98.150 E3.66318 F4500
G0 X128.532 Y97.828 F7200
G1 X128.542 Y97.810 E3.66384 F4500
G0 X128.532 Y99.672 F7200
G1 X129.986 Y102.190 E3.76054 F4500
G0 X128.532 Y100.150 F7200
G1 X131.411 Y100.150 E3.85629 F4500
G0 F3000 E2.85629
G0 X131.771 Y100.191 F7200
G0 X128.172 Y99.779
G0 X121.971 Y99.069
G0 X118.372 Y98.656
G0 X118.732 Y98.698
G0 F3000 E3.85629
G1 X120.748 Y102.190 E3.99039 F4500
G0 X121.611 Y101.815 F7200
G1 X121.395 Y102.190 E4.00477 F4500
G0 X121.611 Y102.150 F7200
G1 X118.732 Y102.150 E4.10052 F4500
G0 X119.086 Y102.190 F7200
G1 X121.611 Y97.815 E4.26852 F4500
G0 X121.598 Y97.317 F7200
;segType:Perimeter
G1 X122.371 Y97.110 E4.29513 F1800
G1 X122.371 Y102.950 E4.48934
G1 X117.972 Y102.950 E4.63566
G1 X117.972 Y97.050 E4.83188
G1 X122.311 Y97.050 E4.97620
G0 X122.371 Y97.110 F7200
G0 X122.371 Y98.710
G0 X121.971 Y98.150
;segType:Loop
G1 X121.971 Y102.550 E5.12252 F3600
G1 X118.372 Y102.550 E5.24224
G1 X118.372 Y97.450 E5.41184
G1 X121.971 Y97.450 E5.53155
G1 X121.971 Y97.950 E5.54818
G0 X121.611 Y98.150 F7200
;segType:Infill
G1 X118.732 Y98.150 E5.64394 F4500
G0 X119.304 Y97.810 F7200
G1 X118.732 Y98.802 E5.68202 F4500
G0 X118.732 Y100.150 F7200
G1 X121.611 Y100.150 E5.77778 F4500
G0 X121.611 Y99.684 F7200
G1 X120.529 Y97.810 E5.84974 F4500
G0 F3000 E4.84974
G0 X118.372 Y97.450 F7200
G0 X118.372 Y91.250
G0 X118.580 Y91.250
G0 X118.750 Y86.150
G0 X118.732 Y86.698
G0 F3000 E5.84974
G1 X121.152 Y90.889 E6.01073 F4500
G0 X120.991 Y90.889 F7200
G1 X121.611 Y89.815 E6.05198 F4500
G0 X121.611 Y90.150 F7200
G1 X118.732 Y90.150 E6.14774 F4500
G0 X118.732 Y90.698 F7200
G1 X118.843 Y90.889 E6.15510 F4500
G0 X118.732 Y90.802 F7200
G1 X121.210 Y86.511 E6.31992 F4500
G0 X121.598 Y86.017 F7200
;segType:Perimeter
G1 X122.371 Y85.810 E6.34652 F1800
G1 X122.371 Y91.650 E6.54073
G1 X117.972 Y91.650 E6.68705
G1 X117.972 Y85.750 E6.88326
G1 X122.311 Y85.750 E7.02758
G0 X122.371 Y85.810 F7200
G0 X122.371 Y87.410
G0 X121.971 Y86.850
;segType:Loop
G1 X121.971 Y91.250 E7.17390 F3600
G1 X118.372 Y91.250 E7.29361
G1 X118.372 Y86.150 E7.46321
G1 X121.971 Y86.150 E7.58292
G1 X121.971 Y86.650 E7.59955
G0 X121.611 Y87.684 F7200
;segType:Infill
G1 X120.933 Y86.511 E7.64463 F4500
G0 X118.900 Y86.511 F7200
G1 X118.732 Y86.802 E7.65582 F4500
G0 X118.732 Y88.150 F7200
G1 X121.611 Y88.150 E7.75157 F4500
G0 F3000 E6.75157
G0 X128.532 Y87.672 F7200
G0 F3000 E7.75157
G1 X130.390 Y90.889 E7.87515 F4500
G0 X131.411 Y90.150 F7200
G1 X128.532 Y90.150 E7.97090 F4500
G0 X128.532 Y89.828 F7200
G1 X130.447 Y86.511 E8.09829 F4500
G0 X131.398 Y86.017 F7200
;segType:Perimeter
G1 X132.171 Y85.810 E8.12490 F1800
G1 X132.171 Y91.650 E8.31911
G1 X127.772 Y91.650 E8.46542
G1 X127.772 Y85.750 E8.66163
G1 X132.111 Y85.750 E8.80595
G0 X132.171 Y85.810 F7200
G0 X132.171 Y87.410
G0 X131.771 Y86.850
;segType:Loop
G1 X131.771 Y91.250 E8.95226 F3600
G1 X128.172 Y91.250 E9.07196
G1 X128.172 Y86.150 E9.24156
G1 X131.771 Y86.150 E9.36127
G1 X131.771 Y86.650 E9.37790
G0 X131.411 Y88.150 F7200
;segType:Infill
G1 X128.532 Y88.150 E9.47364 F4500
G0 X130.229 Y90.889 F7200
G1 X131.411 Y88.842 E9.55230 F4500
G0 X131.411 Y88.658 F7200
G1 X130.171 Y86.511 E9.63477 F4500
G0 F3000 E8.63477
G0 X137.972 Y86.150 F7200
G0 X138.332 Y88.150
G0 F3000 E9.63477
G1 X141.211 Y88.150 E9.73053 F4500
G0 X141.211 Y87.867 F7200
G1 X139.466 Y90.889 E9.84659 F4500
G0 X139.627 Y90.889 F7200
G1 X138.332 Y88.646 E9.93277 F4500
G0 X138.332 Y88.854 F7200
G1 X139.685 Y86.511 E10.02277 F4500
G0 X141.198 Y86.018 F7200
;segType:Perimeter
G1 X141.971 Y85.810 E10.04938 F1800
G1 X141.971 Y91.650 E10.24358
G1 X137.572 Y91.650 E10.38991
G1 X137.572 Y85.750 E10.58611
G1 X141.911 Y85.750 E10.73044
G0 X141.971 Y85.810 F7200
G0 X141.971 Y87.410
G0 X141.571 Y86.850
;segType:Loop
G1 X141.571 Y91.250 E10.87675 F3600
G1 X137.972 Y91.250 E10.99646
G1 X137.972 Y86.150 E11.16606
G1 X141.571 Y86.150 E11.28577
G1 X141.571 Y86.650 E11.30240
G0 X139.409 Y86.511 F7200
;segType:Infill
G1 X141.211 Y89.632 E11.42229 F4500
G0 X141.211 Y90.150 F7200
G1 X138.332 Y90.150 E11.51805 F4500
G0 F3000 E10.51805
G0 X138.332 Y97.450 F7200
G0 X138.332 Y102.550
G0 X138.332 Y102.150
G0 F3000 E11.51805
G1 X141.211 Y102.150 E11.61381 F4500
G0 X141.211 Y101.632 F7200
G1 X139.004 Y97.810 E11.76059 F4500
G0 X138.332 Y98.150 F7200
G1 X141.211 Y98.150 E11.85634 F4500
G0 X141.198 Y97.317 F7200
;segType:Perimeter
G1 X141.971 Y97.110 E11.88295 F1800
G1 X141.971 Y102.950 E12.07717
G1 X137.572 Y102.950 E12.22349
G1 X137.572 Y97.050 E12.41970
G1 X141.911 Y97.050 E12.56403
G0 X141.971 Y97.110 F7200
G0 X141.971 Y98.710
G0 X141.571 Y98.150
;segType:Loop
G1 X141.571 Y102.550 E12.71035 F3600
G1 X137.972 Y102.550 E12.83006
G1 X137.972 Y97.450 E12.99967
G1 X141.571 Y97.450 E13.11938
G1 X141.571 Y97.950 E13.13601
G0 X140.089 Y97.810 F7200
;segType:Infill
G1 X138.332 Y100.854 E13.25290 F4500
G0 F3000 E12.25290
G0 X137.972 Y100.942 F7200
G0 X141.571 Y100.062
G0 X141.211 Y100.150
G0 F3000 E13.25290
G1 X138.332 Y100.150 E13.34866 F4500
G0 X138.332 Y100.646 F7200
G1 X139.223 Y102.190 E13.40795 F4500
G0 X139.870 Y102.190 F7200
G1 X141.211 Y99.867 E13.49714 F4500
G0 F3000 E12.49714
G0 X141.211 Y111.867 F7200
G0 F3000 E13.49714
G1 X140.274 Y113.489 E13.55943 F4500
G0 X141.128 Y113.489 F7200
G1 X138.600 Y109.111 E13.72761 F4500
G0 X138.332 Y110.150 F7200
G1 X141.211 Y110.150 E13.82336 F4500
G0 X141.211 Y109.632 F7200
G1 X140.910 Y109.111 E13.84340 F4500
G0 X141.392 Y108.566 F7200
;segType:Perimeter
G1 X141.971 Y108.410 E13.86336 F1800
G1 X141.971 Y114.250 E14.05757
G1 X137.572 Y114.250 E14.20389
G1 X137.572 Y108.350 E14.40009
G1 X141.911 Y108.350 E14.54442
G0 X141.971 Y108.410 F7200
G0 X141.971 Y110.010
G0 X141.571 Y109.450
;segType:Loop
G1 X141.571 Y113.850 E14.69073 F3600
G1 X137.972 Y113.850 E14.81044
G1 X137.972 Y108.750 E14.98004
G1 X141.571 Y108.750 E15.09975
G1 X141.571 Y109.250 E15.11638
G0 X140.493 Y109.111 F7200
;segType:Infill
G1 X138.332 Y112.854 E15.26015 F4500
G0 X138.332 Y112.646 F7200
G1 X138.819 Y113.489 E15.29256 F4500
G0 X138.332 Y112.150 F7200
G1 X141.211 Y112.150 E15.38831 F4500
G0 F3000 E14.38831
G0 X141.571 Y112.150 F7200
G0 X137.972 Y112.150
G0 X131.411 Y112.150
G0 F3000 E15.38831
G1 X128.532 Y112.150 E15.48406 F4500
G0 X128.532 Y111.672 F7200
G1 X129.581 Y113.489 E15.55387 F4500
G0 X128.727 Y113.489 F7200
G1 X131.256 Y109.111 E15.72204 F4500
G0 X131.591 Y108.566 F7200
;segType:Perimeter
G1 X132.171 Y108.410 E15.74200 F1800
G1 X132.171 Y114.250 E15.93620
G1 X127.772 Y114.250 E16.08252
G1 X127.772 Y108.350 E16.27872
G1 X132.111 Y108.350 E16.42304
G0 X132.171 Y108.410 F7200
G0 X132.171 Y110.010
G0 X131.771 Y109.450
;segType:Loop
G1 X131.771 Y113.850 E16.56935 F3600
G1 X128.172 Y113.850 E16.68906
G1 X128.172 Y108.750 E16.85865
G1 X131.771 Y108.750 E16.97836
G1 X131.771 Y109.250 E16.99499
G0 X131.411 Y110.150 F7200
;segType:Infill
G1 X128.532 Y110.150 E17.09074 F4500
G0 X128.532 Y109.828 F7200
G1 X128.946 Y109.111 E17.11828 F4500
G0 X129.363 Y109.111 F7200
G1 X131.411 Y112.658 E17.25452 F4500
G0 X131.411 Y112.842 F7200
G1 X131.037 Y113.489 E17.27941 F4500
; ------------------------------------
; Layer #6
; ------------------------------------
G92 E0 ;reset extr
G0 F3000 E-1.00000
G0 F600 Z2.400
G0 X137.972 Y113.850 F7200
G0 X137.972 Y112.288
G0 X141.571 Y111.665
G0 X141.211 Y111.727
G0 F3000 E0.00000
;segType:Infill
G1 X140.194 Y113.489 E0.06768 F4500
G0 X141.209 Y113.489 F7200
G1 X138.681 Y109.111 E0.23585 F4500
G0 X138.332 Y110.290 F7200
G1 X141.211 Y110.290 E0.33161 F4500
G0 X140.991 Y109.111 F7200
G1 X141.211 Y109.492 E0.34626 F4500
G0 X141.392 Y108.566 F7200
;segType:Perimeter
G1 X141.971 Y108.410 E0.36622 F1800
G1 X141.971 Y114.250 E0.56043
G1 X137.572 Y114.250 E0.70675
G1 X137.572 Y108.350 E0.90295
G1 X141.911 Y108.350 E1.04728
G0 X141.971 Y108.410 F7200
G0 X141.971 Y110.010
G0 X141.571 Y109.450
;segType:Loop
G1 X141.571 Y113.850 E1.19359 F3600
G1 X137.972 Y113.850 E1.31331
G1 X137.972 Y108.750 E1.48290
G1 X141.571 Y108.750 E1.60262
G1 X141.571 Y109.250 E1.61925
G0 X140.412 Y109.111 F7200
;segType:Infill
G1 X138.332 Y112.714 E1.75763 F4500
G0 X138.332 Y112.506 F7200
G1 X138.900 Y113.489 E1.79542 F4500
G0 X138.332 Y112.290 F7200
G1 X141.211 Y112.290 E1.89118 F4500
G0 F3000 E0.89118
G0 X141.571 Y112.653 F7200
G0 X137.972 Y109.031
G0 X137.972 Y108.750
G0 X131.771 Y102.550
G0 X131.622 Y102.550
G0 X128.172 Y99.180
G0 X128.532 Y99.532
G0 F3000 E1.89118
G1 X130.067 Y102.190 E1.99325 F4500
G0 X130.552 Y102.190 F7200
G1 X131.411 Y100.701 E2.05040 F4500
G0 X131.411 Y100.290 F7200
G1 X128.532 Y100.290 E2.14615 F4500
G0 X128.532 Y101.688 F7200
G1 X130.771 Y97.810 E2.29506 F4500
G0 X131.398 Y97.317 F7200
;segType:Perimeter
G1 X132.171 Y97.110 E2.32166 F1800
G1 X132.171 Y102.950 E2.51588
G1 X127.772 Y102.950 E2.66219
G1 X127.772 Y97.050 E2.85841
G1 X132.111 Y97.050 E3.00272
G0 X132.171 Y97.110 F7200
G0 X132.171 Y98.710
G0 X131.771 Y98.150
;segType:Loop
G1 X131.771 Y102.550 E3.14905 F3600
G1 X128.172 Y102.550 E3.26875
G1 X128.172 Y97.450 E3.43836
G1 X131.771 Y97.450 E3.55806
G1 X131.771 Y97.950 E3.57469
G0 X131.411 Y98.290 F7200
;segType:Infill
G1 X128.532 Y98.290 E3.67044 F4500
G0 X129.848 Y97.810 F7200
G1 X131.411 Y100.518 E3.77443 F4500
G0 F3000 E2.77443
G0 X138.332 Y100.290 F7200
G0 F3000 E3.77443
G1 X141.211 Y100.290 E3.87018 F4500
G0 X141.211 Y101.492 F7200
G1 X139.085 Y97.810 E4.01158 F4500
G0 X138.332 Y98.290 F7200
G1 X141.211 Y98.290 E4.10734 F4500
G0 X141.198 Y97.317 F7200
;segType:Perimeter
G1 X141.971 Y97.110 E4.13395 F1800
G1 X141.971 Y102.950 E4.32817
G1 X137.572 Y102.950 E4.47449
G1 X137.572 Y97.050 E4.67070
G1 X141.911 Y97.050 E4.81502
G0 X141.971 Y97.110 F7200
G0 X141.971 Y98.710
G0 X141.571 Y98.150
;segType:Loop
G1 X141.571 Y102.550 E4.96135 F3600
G1 X137.972 Y102.550 E5.08106
G1 X137.972 Y97.450 E5.25066
G1 X141.571 Y97.450 E5.37038
G1 X141.571 Y97.950 E5.38701
G0 X140.008 Y97.810 F7200
;segType:Infill
G1 X138.332 Y100.714 E5.49852 F4500
G0 X138.332 Y100.506 F7200
G1 X139.304 Y102.190 E5.56319 F4500
G0 X139.789 Y102.190 F7200
G1 X141.211 Y99.727 E5.65775 F4500
G0 F3000 E4.65775
G0 X137.972 Y97.450 F7200
G0 X137.972 Y91.250
G0 X138.332 Y88.290
G0 F3000 E5.65775
G1 X141.211 Y88.290 E5.75351 F4500
G0 X141.211 Y87.727 F7200
G1 X139.385 Y90.889 E5.87496 F4500
G0 X139.708 Y90.889 F7200
G1 X138.332 Y88.506 E5.96651 F4500
G0 X138.332 Y88.714 F7200
G1 X139.604 Y86.511 E6.05113 F4500
G0 X141.198 Y86.018 F7200
;segType:Perimeter
G1 X141.971 Y85.810 E6.07774 F1800
G1 X141.971 Y91.650 E6.27195
G1 X137.572 Y91.650 E6.41827
G1 X137.572 Y85.750 E6.61447
G1 X141.911 Y85.750 E6.75880
G0 X141.971 Y85.810 F7200
G0 X141.971 Y87.410
G0 X141.571 Y86.850
;segType:Loop
G1 X141.571 Y91.250 E6.90511 F3600
G1 X137.972 Y91.250 E7.02483
G1 X137.972 Y86.150 E7.19442
G1 X141.571 Y86.150 E7.31414
G1 X141.571 Y86.650 E7.33077
G0 X139.489 Y86.511 F7200
;segType:Infill
G1 X141.211 Y89.492 E7.44528 F4500
G0 X141.211 Y90.290 F7200
G1 X138.332 Y90.290 E7.54103 F4500
G0 F3000 E6.54103
G0 X137.972 Y86.150 F7200
G0 X131.771 Y86.150
G0 X131.771 Y87.058
G0 X128.172 Y87.584
G0 X128.532 Y87.532
G0 F3000 E7.54103
G1 X130.471 Y90.889 E7.66999 F4500
G0 X131.411 Y90.290 F7200
G1 X128.532 Y90.290 E7.76573 F4500
G0 X128.532 Y89.688 F7200
G1 X130.366 Y86.511 E7.88775 F4500
G0 X131.398 Y86.017 F7200
;segType:Perimeter
G1 X132.171 Y85.810 E7.91436 F1800
G1 X132.171 Y91.650 E8.10857
G1 X127.772 Y91.650 E8.25489
G1 X127.772 Y85.750 E8.45109
G1 X132.111 Y85.750 E8.59541
G0 X132.171 Y85.810 F7200
G0 X132.171 Y87.410
G0 X131.771 Y86.850
;segType:Loop
G1 X131.771 Y91.250 E8.74172 F3600
G1 X128.172 Y91.250 E8.86143
G1 X128.172 Y86.150 E9.03102
G1 X131.771 Y86.150 E9.15073
G1 X131.771 Y86.650 E9.16736
G0 X130.252 Y86.511 F7200
;segType:Infill
G1 X131.411 Y88.518 E9.24445 F4500
G0 X131.411 Y88.701 F7200
G1 X130.148 Y90.889 E9.32848 F4500
G0 X128.532 Y88.290 F7200
G1 X131.411 Y88.290 E9.42423 F4500
G0 F3000 E8.42423
G0 X131.771 Y88.339 F7200
G0 X128.172 Y87.848
G0 X128.172 Y86.150
G0 X122.371 Y86.401
G0 X117.972 Y86.590
G0 X118.732 Y86.558
G0 F3000 E9.42423
G1 X121.233 Y90.889 E9.59060 F4500
G0 X120.910 Y90.889 F7200
G1 X121.611 Y89.675 E9.63723 F4500
G0 X121.611 Y90.290 F7200
G1 X118.732 Y90.290 E9.73298 F4500
G0 X118.732 Y90.558 F7200
G1 X118.924 Y90.889 E9.74573 F4500
G0 X118.732 Y90.662 F7200
G1 X121.129 Y86.511 E9.90516 F4500
G0 X121.598 Y86.017 F7200
;segType:Perimeter
G1 X122.371 Y85.810 E9.93177 F1800
G1 X122.371 Y91.650 E10.12598
G1 X117.972 Y91.650 E10.27230
G1 X117.972 Y85.750 E10.46851
G1 X122.311 Y85.750 E10.61283
G0 X122.371 Y85.810 F7200
G0 X122.371 Y87.410
G0 X121.971 Y86.850
;segType:Loop
G1 X121.971 Y91.250 E10.75914 F3600
G1 X118.372 Y91.250 E10.87886
G1 X118.372 Y86.150 E11.04845
G1 X121.971 Y86.150 E11.16816
G1 X121.971 Y86.650 E11.18480
G0 X121.611 Y87.544 F7200
;segType:Infill
G1 X121.014 Y86.511 E11.22449 F4500
G0 X118.819 Y86.511 F7200
G1 X118.732 Y86.662 E11.23031 F4500
G0 X118.732 Y88.290 F7200
G1 X121.611 Y88.290 E11.32606 F4500
G0 F3000 E10.32606
G0 X117.972 Y91.650 F7200
G0 X118.372 Y97.450
G0 X119.224 Y97.810
G0 F3000 E11.32606
G1 X118.732 Y98.662 E11.35876 F4500
G0 X118.732 Y98.558 F7200
G1 X120.829 Y102.190 E11.49825 F4500
G0 X119.005 Y102.190 F7200
G1 X121.533 Y97.810 E11.66643 F4500
G0 X121.598 Y97.317 F7200
;segType:Perimeter
G1 X122.371 Y97.110 E11.69304 F1800
G1 X122.371 Y102.950 E11.88726
G1 X117.972 Y102.950 E12.03358
G1 X117.972 Y97.050 E12.22979
G1 X122.311 Y97.050 E12.37411
G0 X122.371 Y97.110 F7200
G0 X122.371 Y98.710
G0 X121.971 Y98.150
;segType:Loop
G1 X121.971 Y102.550 E12.52044 F3600
G1 X118.372 Y102.550 E12.64015
G1 X118.372 Y97.450 E12.80975
G1 X121.971 Y97.450 E12.92946
G1 X121.971 Y97.950 E12.94610
G0 X121.611 Y98.290 F7200
;segType:Infill
G1 X118.732 Y98.290 E13.04185 F4500
G0 X120.610 Y97.810 F7200
G1 X121.611 Y99.544 E13.10844 F4500
G0 X121.611 Y100.290 F7200
G1 X118.732 Y100.290 E13.20419 F4500
G0 X121.314 Y102.190 F7200
G1 X121.611 Y101.675 E13.22395 F4500
G0 F3000 E12.22395
G0 X121.611 Y111.544 F7200
G0 F3000 E13.22395
G1 X120.206 Y109.111 E13.31741 F4500
G0 X119.628 Y109.111 F7200
G1 X118.732 Y110.662 E13.37699 F4500
G0 X118.732 Y110.558 F7200
G1 X120.425 Y113.489 E13.48959 F4500
G0 X119.409 Y113.489 F7200
G1 X121.611 Y109.675 E13.63607 F4500
G0 X121.792 Y108.566 F7200
;segType:Perimeter
G1 X122.371 Y108.410 E13.65603 F1800
G1 X122.371 Y114.250 E13.85024
G1 X117.972 Y114.250 E13.99656
G1 X117.972 Y108.350 E14.19276
G1 X122.311 Y108.350 E14.33709
G0 X122.371 Y108.410 F7200
G0 X122.371 Y110.010
G0 X121.971 Y109.450
;segType:Loop
G1 X121.971 Y113.850 E14.48340 F3600
G1 X118.372 Y113.850 E14.60312
G1 X118.372 Y108.750 E14.77271
G1 X121.971 Y108.750 E14.89243
G1 X121.971 Y109.250 E14.90906
G0 X121.611 Y110.290 F7200
;segType:Infill
G1 X118.732 Y110.290 E15.00481 F4500
G0 X118.732 Y112.290 F7200
G1 X121.611 Y112.290 E15.10057 F4500
G0 F3000 E14.10057
G0 X128.172 Y112.290 F7200
G0 X131.771 Y112.290
G0 X131.411 Y112.290
G0 F3000 E15.10057
G1 X128.532 Y112.290 E15.19632 F4500
G0 X128.532 Y111.532 F7200
G1 X129.662 Y113.489 E15.27150 F4500
G0 X128.647 Y113.489 F7200
G1 X131.175 Y109.111 E15.43967 F4500
G0 X131.591 Y108.566 F7200
;segType:Perimeter
G1 X132.171 Y108.410 E15.45963 F1800
G1 X132.171 Y114.250 E15.65384
G1 X127.772 Y114.250 E15.80015
G1 X127.772 Y108.350 E15.99636
G1 X132.111 Y108.350 E16.14067
G0 X132.171 Y108.410 F7200
G0 X132.171 Y110.010
G0 X131.771 Y109.450
;segType:Loop
G1 X131.771 Y113.850 E16.28699 F3600
G1 X128.172 Y113.850 E16.40669
G1 X128.172 Y108.750 E16.57629
G1 X131.771 Y108.750 E16.69599
G1 X131.771 Y109.250 E16.71262
G0 X131.411 Y110.290 F7200
;segType:Infill
G1 X128.532 Y110.290 E16.80837 F4500
G0 X128.532 Y109.688 F7200
G1 X128.865 Y109.111 E16.83054 F4500
G0 X129.444 Y109.111 F7200
G1 X131.411 Y112.518 E16.96140 F4500
G0 X131.411 Y112.701 F7200
G1 X130.956 Y113.489 E16.99166 F4500
; ------------------------------------
; Layer #7
; ------------------------------------
G92 E0 ;reset extr
G0 F3000 E-1.00000
G0 F600 Z2.600
G0 X137.972 Y113.850 F7200
G0 X138.332 Y112.430
G0 F3000 E0.00000
;segType:Infill
G1 X141.211 Y112.430 E0.09576 F4500
G0 X141.211 Y111.587 F7200
G1 X140.113 Y113.489 E0.16881 F4500
G0 X138.981 Y113.489 F7200
G1 X138.332 Y112.366 E0.21198 F4500
G0 X138.332 Y112.574 F7200
G1 X140.331 Y109.111 E0.34499 F4500
G0 X141.071 Y109.111 F7200
G1 X141.211 Y109.352 E0.35426 F4500
G0 X141.392 Y108.566 F7200
;segType:Perimeter
G1 X141.971 Y108.410 E0.37422 F1800
G1 X141.971 Y114.250 E0.56843
G1 X137.572 Y114.250 E0.71475
G1 X137.572 Y108.350 E0.91095
G1 X141.911 Y108.350 E1.05528
G0 X141.971 Y108.410 F7200
G0 X141.971 Y110.010
G0 X141.571 Y109.450
;segType:Loop
G1 X141.571 Y113.850 E1.20159 F3600
G1 X137.972 Y113.850 E1.32131
G1 X137.972 Y108.750 E1.49090
G1 X141.571 Y108.750 E1.61062
G1 X141.571 Y109.250 E1.62725
G0 X141.211 Y110.430 F7200
;segType:Infill
G1 X138.332 Y110.430 E1.72300 F4500
G0 X138.762 Y109.111 F7200
G1 X141.211 Y113.352 E1.88590 F4500
G0 F3000 E0.88590
G0 X141.571 Y113.749 F7200
G0 X137.972 Y109.786
G0 X137.972 Y108.750
G0 X131.771 Y102.550
G0 X131.717 Y102.550
G0 X128.172 Y99.035
G0 X128.532 Y99.392
G0 F3000 E1.88590
G1 X130.147 Y102.190 E1.99336 F4500
G0 X130.471 Y102.190 F7200
G1 X131.411 Y100.561 E2.05588 F4500
G0 X131.411 Y100.430 F7200
G1 X128.532 Y100.430 E2.15163 F4500
G0 X128.532 Y101.548 F7200
G1 X130.690 Y97.810 E2.29516 F4500
G0 X131.398 Y97.317 F7200
;segType:Perimeter
G1 X132.171 Y97.110 E2.32177 F1800
G1 X132.171 Y102.950 E2.51599
G1 X127.772 Y102.950 E2.66230
G1 X127.772 Y97.050 E2.85851
G1 X132.111 Y97.050 E3.00283
G0 X132.171 Y97.110 F7200
G0 X132.171 Y98.710
G0 X131.771 Y98.150
;segType:Loop
G1 X131.771 Y102.550 E3.14915 F3600
G1 X128.172 Y102.550 E3.26886
G1 X128.172 Y97.450 E3.43846
G1 X131.771 Y97.450 E3.55816
G1 X131.771 Y97.950 E3.57480
G0 X131.411 Y98.430 F7200
;segType:Infill
G1 X128.532 Y98.430 E3.67054 F4500
G0 X129.929 Y97.810 F7200
G1 X131.411 Y100.378 E3.76915 F4500
G0 F3000 E2.76915
G0 X131.771 Y97.450 F7200
G0 X137.972 Y97.450
G0 X139.927 Y97.810
G0 F3000 E3.76915
G1 X138.332 Y100.574 E3.87528 F4500
G0 X138.332 Y100.430 F7200
G1 X141.211 Y100.430 E3.97104 F4500
G0 X141.211 Y101.352 F7200
G1 X139.166 Y97.810 E4.10706 F4500
G0 X138.332 Y98.430 F7200
G1 X141.211 Y98.430 E4.20282 F4500
G0 X141.198 Y97.317 F7200
;segType:Perimeter
G1 X141.971 Y97.110 E4.22943 F1800
G1 X141.971 Y102.950 E4.42364
G1 X137.572 Y102.950 E4.56996
G1 X137.572 Y97.050 E4.76618
G1 X141.911 Y97.050 E4.91050
