; G-Code generated by Simplify3D(R) Version 4.1.2
; Feb 20, 2021 at 11:31:58 PM
; Settings Summary
;   processName,Process1
;   applyToModels,pin5_0.1.2,pin5_0.1.2(2),pin5_0.1.2(4),pin5_0.1.2(5),pin5_0.1.2(6),pin5_0.1.2(7),pin5_0.1.2(8),pin5_0.1.2(9),pin5_0.1.2(10),pin5_0.1.2(11)
;   profileName,0.002
;   profileVersion,2021-02-20 23:27:52
;   baseProfile,Simplify3D PLA for CraftBot(2)
;   printMaterial,PLA
;   printQuality,Fast
;   printExtruders,
;   extruderName,Primary Extruder
;   extruderToolheadNumber,0
;   extruderDiameter,0.4
;   extruderAutoWidth,0
;   extruderWidth,0.4
;   extrusionMultiplier,1
;   extruderUseRetract,1
;   extruderRetractionDistance,0.6
;   extruderExtraRestartDistance,0
;   extruderRetractionZLift,0
;   extruderRetractionSpeed,2400
;   extruderUseCoasting,0
;   extruderCoastingDistance,0.2
;   extruderUseWipe,0
;   extruderWipeDistance,5
;   primaryExtruder,0
;   layerHeight,0.2
;   topSolidLayers,4
;   bottomSolidLayers,4
;   perimeterOutlines,2
;   printPerimetersInsideOut,1
;   startPointOption,2
;   startPointOriginX,0
;   startPointOriginY,0
;   sequentialIslands,0
;   spiralVaseMode,0
;   firstLayerHeightPercentage,100
;   firstLayerWidthPercentage,100
;   firstLayerUnderspeed,0.8
;   useRaft,1
;   raftExtruder,0
;   raftTopLayers,3
;   raftBaseLayers,2
;   raftOffset,6
;   raftSeparationDistance,0.14
;   raftTopInfill,100
;   aboveRaftSpeedMultiplier,0.3
;   useSkirt,0
;   skirtExtruder,0
;   skirtLayers,1
;   skirtOutlines,2
;   skirtOffset,4
;   usePrimePillar,0
;   primePillarExtruder,999
;   primePillarWidth,12
;   primePillarLocation,7
;   primePillarSpeedMultiplier,1
;   useOozeShield,0
;   oozeShieldExtruder,999
;   oozeShieldOffset,2
;   oozeShieldOutlines,1
;   oozeShieldSidewallShape,1
;   oozeShieldSidewallAngle,30
;   oozeShieldSpeedMultiplier,1
;   infillExtruder,0
;   internalInfillPattern,Full Honeycomb
;   externalInfillPattern,Rectilinear
;   infillPercentage,40
;   outlineOverlapPercentage,20
;   infillExtrusionWidthPercentage,100
;   minInfillLength,5
;   infillLayerInterval,1
;   internalInfillAngles,0,120,-120
;   overlapInternalInfillAngles,0
;   externalInfillAngles,45,-45
;   generateSupport,1
;   supportExtruder,0
;   supportInfillPercentage,30
;   supportExtraInflation,0
;   supportBaseLayers,0
;   denseSupportExtruder,0
;   denseSupportLayers,0
;   denseSupportInfillPercentage,70
;   supportLayerInterval,1
;   supportHorizontalPartOffset,0.3
;   supportUpperSeparationLayers,1
;   supportLowerSeparationLayers,1
;   supportType,0
;   supportGridSpacing,4
;   maxOverhangAngle,65
;   supportAngles,0
;   temperatureName,Primary Extruder,Heated Bed
;   temperatureNumber,0,0
;   temperatureSetpointCount,1,1
;   temperatureSetpointLayers,1,1
;   temperatureSetpointTemperatures,215,60
;   temperatureStabilizeAtStartup,1,0
;   temperatureHeatedBed,0,1
;   fanLayers,1
;   fanSpeeds,100
;   blipFanToFullPower,1
;   adjustSpeedForCooling,1
;   minSpeedLayerTime,5
;   minCoolingSpeedSlowdown,20
;   increaseFanForCooling,0
;   minFanLayerTime,45
;   maxCoolingFanSpeed,100
;   increaseFanForBridging,0
;   bridgingFanSpeed,100
;   use5D,1
;   relativeEdistances,0
;   allowEaxisZeroing,1
;   independentExtruderAxes,0
;   includeM10123,0
;   stickySupport,1
;   applyToolheadOffsets,0
;   gcodeXoffset,0
;   gcodeYoffset,0
;   gcodeZoffset,0
;   overrideMachineDefinition,1
;   machineTypeOverride,0
;   strokeXoverride,250
;   strokeYoverride,200
;   strokeZoverride,200
;   originOffsetXoverride,0
;   originOffsetYoverride,0
;   originOffsetZoverride,0
;   homeXdirOverride,-1
;   homeYdirOverride,-1
;   homeZdirOverride,-1
;   flipXoverride,1
;   flipYoverride,-1
;   flipZoverride,1
;   toolheadOffsets,0,0|0,0|0,0|0,0|0,0|0,0
;   overrideFirmwareConfiguration,1
;   firmwareTypeOverride,RepRap (Marlin/Repetier/Sprinter)
;   GPXconfigOverride,r2
;   baudRateOverride,115200
;   overridePrinterModels,0
;   printerModelsOverride
;   startingGcode,M906 X50 ,M906 E50,M4003 S270 ,M1203 A3000 D3000  F1200,G28 X0 Y0,G28 Z0,G1 X1 Y1 E0 F240,G1 X1 Y100 E20 F240,G1 X1 Y20 E40 F240,G1 X8 Y1 F240,G92 E0 ,G92 X0 Y0 ,
;   layerChangeGcode,
;   retractionGcode,
;   toolChangeGcode,
;   endingGcode,G1 X0 Y0 F2400 ,;G1 Z195 F2400 ; move bed to bottom,M140 S0,M104 S0,M106 S0,
;   exportFileFormat,gcode
;   celebration,0
;   celebrationSong,Random Song
;   postProcessing,
;   defaultSpeed,4800
;   outlineUnderspeed,0.5
;   solidInfillUnderspeed,0.8
;   supportUnderspeed,1
;   rapidXYspeed,6000
;   rapidZspeed,500
;   minBridgingArea,20
;   bridgingExtraInflation,0
;   bridgingExtrusionMultiplier,1
;   bridgingSpeedMultiplier,1
;   useFixedBridgingAngle,0
;   fixedBridgingAngle,0
;   applyBridgingToPerimeters,0
;   filamentDiameters,1.75|1.75|1.75|1.75|1.75|1.75
;   filamentPricesPerKg,46|46|46|46|46|46
;   filamentDensities,1.25|1.25|1.25|1.25|1.25|1.25
;   useMinPrintHeight,0
;   minPrintHeight,0
;   useMaxPrintHeight,0
;   maxPrintHeight,0
;   useDiaphragm,0
;   diaphragmLayerInterval,20
;   robustSlicing,1
;   mergeAllIntoSolid,0
;   onlyRetractWhenCrossingOutline,1
;   retractBetweenLayers,1
;   useRetractionMinTravel,1
;   retractionMinTravel,2
;   retractWhileWiping,0
;   onlyWipeOutlines,0
;   avoidCrossingOutline,0
;   maxMovementDetourFactor,3
;   toolChangeRetractionDistance,0
;   toolChangeExtraRestartDistance,0
;   toolChangeRetractionSpeed,360
;   externalThinWallType,0
;   internalThinWallType,2
;   thinWallAllowedOverlapPercentage,10
;   singleExtrusionMinLength,1
;   singleExtrusionMinPrintingWidthPercentage,50
;   singleExtrusionMaxPrintingWidthPercentage,200
;   singleExtrusionEndpointExtension,0.2
;   horizontalSizeCompensation,0
G90
M82
M106 S255
M140 S60
M104 S215 T0
M109 S215 T0
M906 X50 
M906 E50
M4003 S270 
M1203 A3000 D3000  F1200
G28 X0 Y0
G28 Z0
G1 X1 Y1 E0 F240
G1 X1 Y100 E20 F240
G1 X1 Y20 E40 F240
G1 X8 Y1 F240
G92 E0 
G92 X0 Y0 
; process Process1
; layer 1, Z = 0.500
T0
G92 E0.0000
G1 E-0.6000 F2400
; feature raft
; tool H0.500 W0.800
G1 Z0.500 F500
G1 X97.400 Y83.230 F6000
G1 E0.0000 F2400
G92 E0.0000
G1 X100.680 Y79.950 E0.7715 F960
G1 X110.120 Y79.950 E2.3412
G1 X110.300 Y80.130 E2.3837
G1 X110.480 Y79.950 E2.4261
G1 X119.920 Y79.950 E3.9958
G1 X120.100 Y80.130 E4.0383
G1 X120.280 Y79.950 E4.0807
G1 X129.720 Y79.950 E5.6504
G1 X129.900 Y80.130 E5.6929
G1 X130.080 Y79.950 E5.7353
G1 X139.520 Y79.950 E7.3050
G1 X139.700 Y80.130 E7.3475
G1 X139.880 Y79.950 E7.3899
G1 X149.320 Y79.950 E8.9596
G1 X152.600 Y83.230 E9.7311
G1 X152.600 Y94.170 E11.5503
G1 X152.420 Y94.350 E11.5928
G1 X152.600 Y94.530 E11.6352
G1 X152.600 Y105.470 E13.4544
G1 X149.320 Y108.750 E14.2259
G1 X139.880 Y108.750 E15.7956
G1 X139.700 Y108.570 E15.8381
G1 X139.520 Y108.750 E15.8805
G1 X130.080 Y108.750 E17.4502
G1 X129.900 Y108.570 E17.4927
G1 X129.720 Y108.750 E17.5351
G1 X120.280 Y108.750 E19.1048
G1 X120.100 Y108.570 E19.1472
G1 X119.920 Y108.750 E19.1897
G1 X110.480 Y108.750 E20.7594
G1 X110.300 Y108.570 E20.8018
G1 X110.120 Y108.750 E20.8443
G1 X100.680 Y108.750 E22.4140
G1 X97.400 Y105.470 E23.1855
G1 X97.400 Y94.530 E25.0047
G1 X97.580 Y94.350 E25.0471
G1 X97.400 Y94.170 E25.0896
G1 X97.400 Y83.230 E26.9088
G92 E0.0000
G1 E-0.6000 F2400
G1 X100.900 Y80.636 F6000
G1 E0.0000 F2400
G92 E0.0000
G1 X109.900 Y80.636 E1.4968 F960
G1 X110.300 Y81.035 E1.5908
G1 X110.700 Y80.636 E1.6848
G1 X119.700 Y80.636 E3.1816
G1 X120.100 Y81.035 E3.2756
G1 X120.500 Y80.636 E3.3696
G1 X129.500 Y80.636 E4.8664
G1 X129.900 Y81.035 E4.9604
G1 X130.300 Y80.636 E5.0545
G1 X139.300 Y80.636 E6.5512
G1 X139.700 Y81.035 E6.6453
G1 X140.100 Y80.636 E6.7393
G1 X149.100 Y80.636 E8.2361
G1 X151.386 Y82.921 E8.7736
G1 X98.614 Y82.921 E17.5496
G1 X98.040 Y83.495 E17.6846
G1 X98.040 Y85.207 E17.9693
G1 X151.960 Y85.207 E26.9362
G1 X151.960 Y87.493 E27.3163
G1 X98.040 Y87.493 E36.2832
G1 X98.040 Y89.779 E36.6633
G1 X151.960 Y89.779 E45.6303
G1 X151.960 Y92.064 E46.0104
G1 X98.040 Y92.064 E54.9773
G1 X98.040 Y93.904 E55.2833
G1 X98.486 Y94.350 E55.3881
G1 X151.514 Y94.350 E64.2069
G1 X151.960 Y94.795 E64.3116
G1 X151.960 Y96.636 E64.6177
G1 X98.040 Y96.636 E73.5846
G1 X98.040 Y98.921 E73.9647
G1 X151.960 Y98.921 E82.9316
G1 X151.960 Y101.207 E83.3117
G1 X98.040 Y101.207 E92.2786
G1 X98.040 Y103.493 E92.6588
G1 X151.960 Y103.493 E101.6257
G1 X151.960 Y105.204 E101.9103
G1 X151.386 Y105.779 E102.0453
G1 X98.614 Y105.779 E110.8213
G1 X100.900 Y108.064 E111.3589
G1 X109.900 Y108.064 E112.8557
G1 X110.300 Y107.664 E112.9497
G1 X110.700 Y108.064 E113.0437
G1 X119.700 Y108.064 E114.5405
G1 X120.100 Y107.665 E114.6345
G1 X120.500 Y108.064 E114.7285
G1 X129.500 Y108.064 E116.2253
G1 X129.900 Y107.664 E116.3193
G1 X130.300 Y108.064 E116.4133
G1 X139.300 Y108.064 E117.9101
G1 X139.700 Y107.664 E118.0041
G1 X140.100 Y108.064 E118.0982
G1 X149.100 Y108.064 E119.5949
G92 E0.0000
G1 E-0.6000 F2400
; layer 2, Z = 1.000
G1 Z1.000 F500
G1 X149.320 Y108.750 F6000
G1 E0.0000 F2400
G92 E0.0000
G1 X139.880 Y108.750 E1.5697 F1200
G1 X139.700 Y108.570 E1.6122
G1 X139.520 Y108.750 E1.6546
G1 X130.080 Y108.750 E3.2243
G1 X129.900 Y108.570 E3.2668
G1 X129.720 Y108.750 E3.3092
G1 X120.280 Y108.750 E4.8789
G1 X120.100 Y108.570 E4.9213
G1 X119.920 Y108.750 E4.9638
G1 X110.480 Y108.750 E6.5335
G1 X110.300 Y108.570 E6.5759
G1 X110.120 Y108.750 E6.6184
G1 X100.680 Y108.750 E8.1881
G1 X97.400 Y105.470 E8.9596
G1 X97.400 Y94.530 E10.7788
G1 X97.580 Y94.350 E10.8212
G1 X97.400 Y94.170 E10.8637
G1 X97.400 Y83.230 E12.6829
G1 X100.680 Y79.950 E13.4544
G1 X110.120 Y79.950 E15.0241
G1 X110.300 Y80.130 E15.0665
G1 X110.480 Y79.950 E15.1090
G1 X119.920 Y79.950 E16.6787
G1 X120.100 Y80.130 E16.7211
G1 X120.280 Y79.950 E16.7636
G1 X129.720 Y79.950 E18.3333
G1 X129.900 Y80.130 E18.3757
G1 X130.080 Y79.950 E18.4182
G1 X139.520 Y79.950 E19.9879
G1 X139.700 Y80.130 E20.0303
G1 X139.880 Y79.950 E20.0728
G1 X149.320 Y79.950 E21.6425
G1 X152.600 Y83.230 E22.4140
G1 X152.600 Y94.170 E24.2332
G1 X152.420 Y94.350 E24.2756
G1 X152.600 Y94.530 E24.3181
G1 X152.600 Y105.470 E26.1373
G1 X149.320 Y108.750 E26.9088
G1 X149.100 Y108.064 F6000
G92 E0.0000
G1 X140.100 Y108.064 E1.4968 F1200
G1 X139.700 Y107.664 E1.5908
G1 X139.300 Y108.064 E1.6848
G1 X130.300 Y108.064 E3.1816
G1 X129.900 Y107.664 E3.2756
G1 X129.500 Y108.064 E3.3697
G1 X120.500 Y108.064 E4.8664
G1 X120.100 Y107.665 E4.9604
G1 X119.700 Y108.064 E5.0544
G1 X110.700 Y108.064 E6.5512
G1 X110.300 Y107.664 E6.6452
G1 X109.900 Y108.064 E6.7393
G1 X100.900 Y108.064 E8.2360
G1 X98.614 Y105.779 E8.7736
G1 X151.386 Y105.779 E17.5496
G1 X151.960 Y105.204 E17.6846
G1 X151.960 Y103.493 E17.9692
G1 X98.040 Y103.493 E26.9362
G1 X98.040 Y101.207 E27.3163
G1 X151.960 Y101.207 E36.2832
G1 X151.960 Y98.921 E36.6633
G1 X98.040 Y98.921 E45.6302
G1 X98.040 Y96.636 E46.0103
G1 X151.960 Y96.636 E54.9773
G1 X151.960 Y94.795 E55.2833
G1 X151.514 Y94.350 E55.3881
G1 X98.486 Y94.350 E64.2068
G1 X98.040 Y93.904 E64.3116
G1 X98.040 Y92.064 E64.6176
G1 X151.960 Y92.064 E73.5845
G1 X151.960 Y89.779 E73.9647
G1 X98.040 Y89.779 E82.9316
G1 X98.040 Y87.493 E83.3117
G1 X151.960 Y87.493 E92.2786
G1 X151.960 Y85.207 E92.6587
G1 X98.040 Y85.207 E101.6256
G1 X98.040 Y83.495 E101.9103
G1 X98.614 Y82.921 E102.0453
G1 X151.386 Y82.921 E110.8213
G1 X149.100 Y80.636 E111.3589
G1 X140.100 Y80.636 E112.8556
G1 X139.700 Y81.035 E112.9497
G1 X139.300 Y80.636 E113.0437
G1 X130.300 Y80.636 E114.5405
G1 X129.900 Y81.035 E114.6345
G1 X129.500 Y80.636 E114.7285
G1 X120.500 Y80.636 E116.2253
G1 X120.100 Y81.035 E116.3193
G1 X119.700 Y80.636 E116.4133
G1 X110.700 Y80.636 E117.9101
G1 X110.300 Y81.035 E118.0041
G1 X109.900 Y80.636 E118.0981
G1 X100.900 Y80.636 E119.5949
G92 E0.0000
G1 E-0.6000 F2400
; layer 3, Z = 1.222
; tool H0.222 W0.400
G1 Z1.222 F500
G1 X97.200 Y83.683 F6000
G1 E0.0000 F2400
G92 E0.0000
G1 X101.133 Y79.750 E0.2056 F3600
G1 X101.699 Y79.750 E0.2265
G1 X97.200 Y84.249 E0.4616
G1 X97.200 Y84.815 E0.4825
G1 X102.265 Y79.750 E0.7472
G1 X102.830 Y79.750 E0.7681
G1 X97.200 Y85.380 E1.0624
G1 X97.200 Y85.946 E1.0833
G1 X103.396 Y79.750 E1.4071
G1 X103.962 Y79.750 E1.4280
G1 X97.200 Y86.512 E1.7814
G1 X97.200 Y87.078 E1.8023
G1 X104.528 Y79.750 E2.1853
G1 X105.093 Y79.750 E2.2062
G1 X97.200 Y87.643 E2.6187
G1 X97.200 Y88.209 E2.6396
G1 X105.659 Y79.750 E3.0817
G1 X106.225 Y79.750 E3.1026
G1 X97.200 Y88.775 E3.5743
G1 X97.200 Y89.340 E3.5952
G1 X106.790 Y79.750 E4.0964
G1 X107.356 Y79.750 E4.1173
G1 X97.200 Y89.906 E4.6481
G1 X97.200 Y90.472 E4.6690
G1 X107.922 Y79.750 E5.2293
G1 X108.487 Y79.750 E5.2502
G1 X97.200 Y91.037 E5.8402
G1 X97.200 Y91.603 E5.8611
G1 X109.053 Y79.750 E6.4805
G1 X109.619 Y79.750 E6.5014
G1 X97.200 Y92.169 E7.1505
G1 X97.200 Y92.734 E7.1714
G1 X110.184 Y79.750 E7.8500
G1 X110.202 Y79.750 E7.8507
G1 X110.300 Y79.848 E7.8558
G1 X110.398 Y79.750 E7.8609
G1 X110.750 Y79.750 E7.8739
G1 X97.200 Y93.300 E8.5821
G1 X97.200 Y93.866 E8.6030
G1 X111.316 Y79.750 E9.3407
G1 X111.881 Y79.750 E9.3616
G1 X97.290 Y94.342 E10.1242
G1 X97.298 Y94.350 E10.1246
G1 X97.200 Y94.448 E10.1297
G1 X97.200 Y94.997 E10.1501
G1 X112.447 Y79.750 E10.9469
G1 X113.013 Y79.750 E10.9678
G1 X97.200 Y95.563 E11.7943
G1 X97.200 Y96.128 E11.8152
G1 X113.579 Y79.750 E12.6712
G1 X114.144 Y79.750 E12.6921
G1 X97.200 Y96.694 E13.5776
G1 X97.200 Y97.260 E13.5985
G1 X114.710 Y79.750 E14.5136
G1 X115.276 Y79.750 E14.5345
G1 X97.200 Y97.826 E15.4792
G1 X97.200 Y98.391 E15.5001
G1 X115.841 Y79.750 E16.4744
G1 X116.407 Y79.750 E16.4953
G1 X97.200 Y98.957 E17.4991
G1 X97.200 Y99.523 E17.5200
G1 X116.973 Y79.750 E18.5534
G1 X117.538 Y79.750 E18.5743
G1 X97.200 Y100.088 E19.6372
G1 X97.200 Y100.654 E19.6582
G1 X118.104 Y79.750 E20.7507
G1 X118.670 Y79.750 E20.7716
G1 X97.200 Y101.220 E21.8936
G1 X97.200 Y101.785 E21.9145
G1 X119.235 Y79.750 E23.0662
G1 X119.801 Y79.750 E23.0871
G1 X97.200 Y102.351 E24.2683
G1 X97.200 Y102.917 E24.2892
G1 X120.367 Y79.750 E25.5000
G1 X120.932 Y79.750 E25.5209
G1 X97.200 Y103.482 E26.7612
G1 X97.200 Y104.048 E26.7821
G1 X121.498 Y79.750 E28.0520
G1 X122.064 Y79.750 E28.0729
G1 X97.200 Y104.614 E29.3724
G1 X97.200 Y105.179 E29.3933
G1 X122.629 Y79.750 E30.7223
G1 X123.195 Y79.750 E30.7432
G1 X97.296 Y105.649 E32.0968
G1 X97.579 Y105.932 E32.1115
G1 X123.761 Y79.750 E33.4799
G1 X124.327 Y79.750 E33.5008
G1 X97.862 Y106.214 E34.8839
G1 X98.145 Y106.497 E34.8987
G1 X124.892 Y79.750 E36.2966
G1 X125.458 Y79.750 E36.3175
G1 X98.428 Y106.780 E37.7302
G1 X98.711 Y107.063 E37.7450
G1 X126.024 Y79.750 E39.1724
G1 X126.589 Y79.750 E39.1933
G1 X98.993 Y107.346 E40.6356
G1 X99.276 Y107.629 E40.6504
G1 X127.155 Y79.750 E42.1074
G1 X127.721 Y79.750 E42.1283
G1 X99.559 Y107.912 E43.6001
G1 X99.842 Y108.194 E43.6149
G1 X128.286 Y79.750 E45.1015
G1 X128.852 Y79.750 E45.1224
G1 X100.125 Y108.477 E46.6238
G1 X100.408 Y108.760 E46.6386
G1 X129.418 Y79.750 E48.1547
G1 X129.802 Y79.750 E48.1689
G1 X129.893 Y79.840 E48.1737
G1 X100.783 Y108.950 E49.6950
G1 X101.349 Y108.950 E49.7159
G1 X130.549 Y79.750 E51.2420
G1 X131.115 Y79.750 E51.2629
G1 X101.915 Y108.950 E52.7890
G1 X102.480 Y108.950 E52.8099
G1 X131.680 Y79.750 E54.3360
G1 X132.246 Y79.750 E54.3569
G1 X103.046 Y108.950 E55.8830
G1 X103.612 Y108.950 E55.9039
G1 X132.812 Y79.750 E57.4300
G1 X133.378 Y79.750 E57.4509
G1 X104.177 Y108.950 E58.9770
G1 X104.743 Y108.950 E58.9979
G1 X133.943 Y79.750 E60.5240
G1 X134.509 Y79.750 E60.5449
G1 X105.309 Y108.950 E62.0710
G1 X105.875 Y108.950 E62.0919
G1 X135.075 Y79.750 E63.6180
G1 X135.640 Y79.750 E63.6389
G1 X106.440 Y108.950 E65.1650
G1 X107.006 Y108.950 E65.1859
G1 X136.206 Y79.750 E66.7120
G1 X136.772 Y79.750 E66.7329
G1 X107.572 Y108.950 E68.2589
G1 X108.137 Y108.950 E68.2799
G1 X137.337 Y79.750 E69.8059
G1 X137.903 Y79.750 E69.8268
G1 X108.703 Y108.950 E71.3529
G1 X109.269 Y108.950 E71.3738
G1 X138.469 Y79.750 E72.8999
G1 X139.034 Y79.750 E72.9208
G1 X109.834 Y108.950 E74.4469
G1 X110.202 Y108.950 E74.4605
G1 X110.300 Y108.852 E74.4656
G1 X110.400 Y108.950 E74.4708
G1 X139.602 Y79.750 E75.9970
G1 X139.700 Y79.848 E76.0021
G1 X139.798 Y79.750 E76.0072
