; generated by Slic3r 1.3.0 on 2021-02-04 at 23:39:29

; external perimeters extrusion width = 0.44mm (1.59mm^3/s)
; perimeters extrusion width = 0.56mm (4.14mm^3/s)
; infill extrusion width = 0.50mm (5.48mm^3/s)
; solid infill extrusion width = 0.56mm (2.07mm^3/s)
; top infill extrusion width = 0.56mm (1.55mm^3/s)
; support material extrusion width = 0.44mm (4.76mm^3/s)

M107
M190 S60 ; set bed temperature and wait for it to be reached
M104 S215 ; set temperature
;Craftbot Start Script
G28 X0Y0 ;home xy
G28 Z0 ;home z
G91 ;relative movements
G0 F100 ;speed 100mm/sec
G0 X15 Y15 Z0.4 E12 ;purge nozzle - move to xy15
G90 ;Absolute movements
; Filament gcode

M109 S215 ; set temperature and wait for it to be reached
G21 ; set units to millimeters
G90 ; use absolute coordinates
M82 ; use absolute distances for extrusion
G92 E0
G1 Z0.200 F7800.000
G1 E-2.00000 F2400.00000
G92 E0
G1 X76.100 Y35.980 F7800.000
G1 E2.00000 F2400.00000
G1 F1800
G1 X77.242 Y34.013 E2.03328
G1 X78.991 Y32.559 E2.06656
G1 X82.220 Y31.703 E2.11543
G1 X117.780 Y31.703 E2.63568
G1 X120.020 Y32.100 E2.66896
G1 X121.987 Y33.242 E2.70224
G1 X123.441 Y34.991 E2.73552
G1 X124.297 Y38.220 E2.78439
G1 X124.297 Y161.780 E4.59212
G1 X123.900 Y164.020 E4.62539
G1 X122.758 Y165.987 E4.65867
G1 X121.009 Y167.441 E4.69195
G1 X117.780 Y168.297 E4.74082
G1 X82.220 Y168.297 E5.26108
G1 X79.980 Y167.900 E5.29436
G1 X78.013 Y166.758 E5.32763
G1 X76.559 Y165.009 E5.36091
G1 X75.703 Y161.780 E5.40978
G1 X75.703 Y38.220 E7.21751
G1 X76.089 Y36.039 E7.24991
G1 E5.24991 F2400.00000
G92 E0
G1 X82.529 Y38.419 F7800.000
G1 E2.00000 F2400.00000
G1 F1800
G1 X82.529 Y161.581 E3.38374
G1 X83.323 Y161.581 E3.39266
G1 X83.323 Y38.419 E4.77641
G1 X84.117 Y38.419 E4.78533
G1 X84.117 Y161.581 E6.16907
G1 X84.911 Y161.581 E6.17799
G1 X84.911 Y38.419 E7.56174
G1 X85.705 Y38.419 E7.57066
G1 X85.705 Y161.581 E8.95440
G1 X86.499 Y161.581 E8.96332
G1 X86.499 Y38.419 E10.34707
G1 X87.293 Y38.419 E10.35599
G1 X87.293 Y161.581 E11.73973
G1 X88.088 Y161.581 E11.74865
G1 X88.088 Y38.419 E13.13239
G1 X88.882 Y38.419 E13.14132
G1 X88.882 Y161.581 E14.52506
G1 X89.676 Y161.581 E14.53398
G1 X89.676 Y38.419 E15.91772
G1 X90.470 Y38.419 E15.92665
G1 X90.470 Y161.581 E17.31039
G1 X91.264 Y161.581 E17.31931
G1 X91.264 Y38.419 E18.70305
G1 X92.058 Y38.419 E18.71197
G1 X92.058 Y161.581 E20.09572
G1 X92.853 Y161.581 E20.10464
G1 X92.853 Y38.419 E21.48838
G1 X93.647 Y38.419 E21.49730
G1 X93.647 Y161.581 E22.88105
G1 X94.441 Y161.581 E22.88997
G1 X94.441 Y38.419 E24.27371
G1 X95.235 Y38.419 E24.28263
G1 X95.235 Y161.581 E25.66638
G1 X96.029 Y161.581 E25.67530
G1 X96.029 Y38.419 E27.05904
G1 X96.823 Y38.419 E27.06796
G1 X96.823 Y161.581 E28.45170
G1 X97.618 Y161.581 E28.46063
G1 X97.618 Y38.419 E29.84437
G1 X98.412 Y38.419 E29.85329
G1 X98.412 Y161.581 E31.23703
G1 X99.206 Y161.581 E31.24596
G1 X99.206 Y38.419 E32.62970
G1 X100.000 Y38.419 E32.63862
G1 X100.000 Y161.581 E34.02236
G1 X100.794 Y161.581 E34.03129
G1 X100.794 Y38.419 E35.41503
G1 X101.588 Y38.419 E35.42395
G1 X101.588 Y161.581 E36.80769
G1 X102.382 Y161.581 E36.81661
G1 X102.382 Y38.419 E38.20036
G1 X103.177 Y38.419 E38.20928
G1 X103.177 Y161.581 E39.59302
G1 X103.971 Y161.581 E39.60194
G1 X103.971 Y38.419 E40.98569
G1 X104.765 Y38.419 E40.99461
G1 X104.765 Y161.581 E42.37835
G1 X105.559 Y161.581 E42.38727
G1 X105.559 Y38.419 E43.77102
G1 X106.353 Y38.419 E43.77994
G1 X106.353 Y161.581 E45.16368
G1 X107.147 Y161.581 E45.17260
G1 X107.147 Y38.419 E46.55634
G1 X107.942 Y38.419 E46.56527
G1 X107.942 Y161.581 E47.94901
G1 X108.736 Y161.581 E47.95793
G1 X108.736 Y38.419 E49.34167
G1 X109.530 Y38.419 E49.35060
G1 X109.530 Y161.581 E50.73434
G1 X110.324 Y161.581 E50.74326
G1 X110.324 Y38.419 E52.12700
G1 X111.118 Y38.419 E52.13593
G1 X111.118 Y161.581 E53.51967
G1 X111.912 Y161.581 E53.52859
G1 X111.912 Y38.419 E54.91233
G1 X112.707 Y38.419 E54.92125
G1 X112.707 Y161.581 E56.30500
G1 X113.501 Y161.581 E56.31392
G1 X113.501 Y38.419 E57.69766
G1 X114.295 Y38.419 E57.70658
G1 X114.295 Y161.581 E59.09033
G1 X115.089 Y161.581 E59.09925
G1 X115.089 Y38.419 E60.48299
G1 X115.883 Y38.419 E60.49191
G1 X115.883 Y161.581 E61.87565
G1 X116.677 Y161.581 E61.88458
G1 X116.677 Y38.419 E63.26832
G1 X117.471 Y38.419 E63.27724
G1 X117.471 Y161.581 E64.66098
G1 Z0.500 F7800.000
G1 X117.780 Y161.780 F7800.000
G1 F3600
G1 X117.780 Y38.220 E66.63075
G1 X82.220 Y38.220 E67.19764
G1 X82.220 Y161.780 E69.16741
G1 X117.780 Y161.780 E69.73430
G1 X109.699 Y158.530 F7800.000
G1 F3600
G1 X108.256 Y156.030 E69.78032
G1 X104.681 Y156.030 E69.83730
G1 X103.238 Y158.530 E69.88332
G1 X99.663 Y158.530 E69.94031
G1 X98.220 Y156.030 E69.98633
G1 X94.646 Y156.030 E70.04331
G1 X93.202 Y158.530 E70.08933
G1 X89.628 Y158.530 E70.14631
G1 X88.184 Y156.030 E70.19233
G1 X84.610 Y156.030 E70.24932
G1 X83.166 Y158.530 E70.29534
G1 X82.794 Y158.530 E70.30127
G1 X82.794 Y158.927 E70.30760
G1 X83.166 Y158.927 E70.31354
G1 X84.482 Y161.206 E70.35549
G1 X88.312 Y161.206 E70.41654
G1 X89.628 Y158.927 E70.45849
G1 X93.202 Y158.927 E70.51548
G1 X94.518 Y161.206 E70.55743
G1 X98.348 Y161.206 E70.61848
G1 X99.663 Y158.927 E70.66043
G1 X103.238 Y158.927 E70.71742
G1 X104.554 Y161.206 E70.75937
G1 X108.383 Y161.206 E70.82042
G1 X109.699 Y158.927 E70.86238
G1 X113.274 Y158.927 E70.91936
G1 X114.590 Y161.206 E70.96131
G1 X117.206 Y161.206 E71.00302
G1 X117.206 Y156.030 E71.08554
G1 X114.717 Y156.030 E71.12521
G1 X113.274 Y158.530 E71.17123
G1 X109.699 Y158.530 E71.22822
G1 X109.699 Y152.736 F7800.000
G1 F3600
G1 X108.256 Y150.236 E71.27424
G1 X104.681 Y150.236 E71.33122
G1 X103.238 Y152.736 E71.37724
G1 X99.663 Y152.736 E71.43422
G1 X98.220 Y150.236 E71.48024
G1 X94.646 Y150.236 E71.53723
G1 X93.202 Y152.736 E71.58325
G1 X89.628 Y152.736 E71.64023
G1 X88.184 Y150.236 E71.68625
G1 X84.610 Y150.236 E71.74324
G1 X83.166 Y152.736 E71.78926
G1 X82.794 Y152.736 E71.79519
G1 X82.794 Y153.133 E71.80152
G1 X83.166 Y153.133 E71.80746
G1 X84.610 Y155.633 E71.85348
G1 X88.184 Y155.633 E71.91046
G1 X89.628 Y153.133 E71.95648
G1 X93.202 Y153.133 E72.01346
G1 X94.646 Y155.633 E72.05948
G1 X98.220 Y155.633 E72.11647
G1 X99.663 Y153.133 E72.16249
G1 X103.238 Y153.133 E72.21947
G1 X104.681 Y155.633 E72.26549
G1 X108.256 Y155.633 E72.32248
G1 X109.699 Y153.133 E72.36850
G1 X113.274 Y153.133 E72.42548
G1 X114.717 Y155.633 E72.47150
G1 X117.206 Y155.633 E72.51117
G1 X117.206 Y150.236 E72.59721
G1 X114.717 Y150.236 E72.63689
G1 X113.274 Y152.736 E72.68291
G1 X109.699 Y152.736 E72.73989
G1 X109.699 Y146.941 F7800.000
G1 F3600
G1 X108.256 Y144.441 E72.78591
G1 X104.681 Y144.441 E72.84290
G1 X103.238 Y146.941 E72.88892
G1 X99.663 Y146.941 E72.94590
G1 X98.220 Y144.441 E72.99192
G1 X94.646 Y144.441 E73.04890
G1 X93.202 Y146.941 E73.09492
G1 X89.628 Y146.941 E73.15191
G1 X88.184 Y144.441 E73.19793
G1 X84.610 Y144.441 E73.25491
G1 X83.166 Y146.941 E73.30093
G1 X82.794 Y146.941 E73.30687
G1 X82.794 Y147.338 E73.31320
G1 X83.166 Y147.338 E73.31913
G1 X84.610 Y149.838 E73.36515
G1 X88.184 Y149.838 E73.42214
G1 X89.628 Y147.338 E73.46816
G1 X93.202 Y147.338 E73.52514
G1 X94.646 Y149.838 E73.57116
G1 X98.220 Y149.838 E73.62814
G1 X99.663 Y147.338 E73.67416
G1 X103.238 Y147.338 E73.73115
G1 X104.681 Y149.838 E73.77717
G1 X108.256 Y149.838 E73.83415
G1 X109.699 Y147.338 E73.88017
G1 X113.274 Y147.338 E73.93715
G1 X114.717 Y149.838 E73.98317
G1 X117.206 Y149.838 E74.02285
G1 X117.206 Y144.441 E74.10889
G1 X114.717 Y144.441 E74.14856
G1 X113.274 Y146.941 E74.19458
G1 X109.699 Y146.941 E74.25157
G1 X109.699 Y141.147 F7800.000
G1 F3600
G1 X108.256 Y138.647 E74.29759
G1 X104.681 Y138.647 E74.35457
G1 X103.238 Y141.147 E74.40059
G1 X99.663 Y141.147 E74.45757
G1 X98.220 Y138.647 E74.50359
G1 X94.646 Y138.647 E74.56058
G1 X93.202 Y141.147 E74.60660
G1 X89.628 Y141.147 E74.66358
G1 X88.184 Y138.647 E74.70960
G1 X84.610 Y138.647 E74.76659
G1 X83.166 Y141.147 E74.81261
G1 X82.794 Y141.147 E74.81854
G1 X82.794 Y141.544 E74.82487
G1 X83.166 Y141.544 E74.83081
G1 X84.610 Y144.044 E74.87683
G1 X88.184 Y144.044 E74.93381
G1 X89.628 Y141.544 E74.97983
G1 X93.202 Y141.544 E75.03681
G1 X94.646 Y144.044 E75.08283
G1 X98.220 Y144.044 E75.13982
G1 X99.663 Y141.544 E75.18584
G1 X103.238 Y141.544 E75.24282
G1 X104.681 Y144.044 E75.28884
G1 X108.256 Y144.044 E75.34583
G1 X109.699 Y141.544 E75.39185
G1 X113.274 Y141.544 E75.44883
G1 X114.717 Y144.044 E75.49485
G1 X117.206 Y144.044 E75.53453
G1 X117.206 Y138.647 E75.62056
G1 X114.717 Y138.647 E75.66024
G1 X113.274 Y141.147 E75.70626
G1 X109.699 Y141.147 E75.76324
G1 X109.699 Y135.353 F7800.000
G1 F3600
G1 X108.256 Y132.853 E75.80926
G1 X104.681 Y132.853 E75.86625
G1 X103.238 Y135.353 E75.91227
G1 X99.663 Y135.353 E75.96925
G1 X98.220 Y132.853 E76.01527
G1 X94.646 Y132.853 E76.07225
G1 X93.202 Y135.353 E76.11827
G1 X89.628 Y135.353 E76.17526
G1 X88.184 Y132.853 E76.22128
G1 X84.610 Y132.853 E76.27826
G1 X83.166 Y135.353 E76.32428
G1 X82.794 Y135.353 E76.33022
G1 X82.794 Y135.750 E76.33655
G1 X83.166 Y135.750 E76.34248
G1 X84.610 Y138.250 E76.38850
G1 X88.184 Y138.250 E76.44549
G1 X89.628 Y135.750 E76.49151
G1 X93.202 Y135.750 E76.54849
G1 X94.646 Y138.250 E76.59451
G1 X98.220 Y138.250 E76.65149
G1 X99.663 Y135.750 E76.69751
G1 X103.238 Y135.750 E76.75450
G1 X104.681 Y138.250 E76.80052
G1 X108.256 Y138.250 E76.85750
G1 X109.699 Y135.750 E76.90352
G1 X113.274 Y135.750 E76.96051
G1 X114.717 Y138.250 E77.00653
G1 X117.206 Y138.250 E77.04620
G1 X117.206 Y132.853 E77.13224
G1 X114.717 Y132.853 E77.17191
G1 X113.274 Y135.353 E77.21793
G1 X109.699 Y135.353 E77.27492
G1 X109.699 Y129.559 F7800.000
G1 F3600
G1 X108.256 Y127.059 E77.32094
G1 X104.681 Y127.059 E77.37792
G1 X103.238 Y129.559 E77.42394
G1 X99.663 Y129.559 E77.48093
G1 X98.220 Y127.059 E77.52695
G1 X94.646 Y127.059 E77.58393
G1 X93.202 Y129.559 E77.62995
G1 X89.628 Y129.559 E77.68693
G1 X88.184 Y127.059 E77.73295
G1 X84.610 Y127.059 E77.78994
G1 X83.166 Y129.559 E77.83596
G1 X82.794 Y129.559 E77.84189
G1 X82.794 Y129.956 E77.84822
G1 X83.166 Y129.956 E77.85416
G1 X84.610 Y132.456 E77.90018
G1 X88.184 Y132.456 E77.95716
G1 X89.628 Y129.956 E78.00318
G1 X93.202 Y129.956 E78.06017
G1 X94.646 Y132.456 E78.10619
G1 X98.220 Y132.456 E78.16317
G1 X99.663 Y129.956 E78.20919
G1 X103.238 Y129.956 E78.26617
G1 X104.681 Y132.456 E78.31219
G1 X108.256 Y132.456 E78.36918
G1 X109.699 Y129.956 E78.41520
G1 X113.274 Y129.956 E78.47218
G1 X114.717 Y132.456 E78.51820
G1 X117.206 Y132.456 E78.55788
G1 X117.206 Y127.059 E78.64392
G1 X114.717 Y127.059 E78.68359
G1 X113.274 Y129.559 E78.72961
G1 X109.699 Y129.559 E78.78659
G1 X109.699 Y123.765 F7800.000
G1 F3600
G1 X108.256 Y121.265 E78.83261
G1 X104.681 Y121.265 E78.88960
G1 X103.238 Y123.765 E78.93562
G1 X99.663 Y123.765 E78.99260
G1 X98.220 Y121.265 E79.03862
G1 X94.646 Y121.265 E79.09561
G1 X93.202 Y123.765 E79.14163
G1 X89.628 Y123.765 E79.19861
G1 X88.184 Y121.265 E79.24463
G1 X84.610 Y121.265 E79.30161
G1 X83.166 Y123.765 E79.34763
G1 X82.794 Y123.765 E79.35357
G1 X82.794 Y124.162 E79.35990
G1 X83.166 Y124.162 E79.36583
G1 X84.610 Y126.662 E79.41185
G1 X88.184 Y126.662 E79.46884
G1 X89.628 Y124.162 E79.51486
G1 X93.202 Y124.162 E79.57184
G1 X94.646 Y126.662 E79.61786
G1 X98.220 Y126.662 E79.67485
G1 X99.663 Y124.162 E79.72087
G1 X103.238 Y124.162 E79.77785
G1 X104.681 Y126.662 E79.82387
G1 X108.256 Y126.662 E79.88085
G1 X109.699 Y124.162 E79.92687
G1 X113.274 Y124.162 E79.98386
G1 X114.717 Y126.662 E80.02988
G1 X117.206 Y126.662 E80.06955
G1 X117.206 Y121.265 E80.15559
G1 X114.717 Y121.265 E80.19527
G1 X113.274 Y123.765 E80.24129
G1 X109.699 Y123.765 E80.29827
G1 X109.699 Y117.971 F7800.000
G1 F3600
G1 X108.256 Y115.471 E80.34429
G1 X104.681 Y115.471 E80.40127
G1 X103.238 Y117.971 E80.44729
G1 X99.663 Y117.971 E80.50428
G1 X98.220 Y115.471 E80.55030
G1 X94.646 Y115.471 E80.60728
G1 X93.202 Y117.971 E80.65330
G1 X89.628 Y117.971 E80.71029
G1 X88.184 Y115.471 E80.75631
G1 X84.610 Y115.471 E80.81329
G1 X83.166 Y117.971 E80.85931
G1 X82.794 Y117.971 E80.86524
G1 X82.794 Y118.368 E80.87157
G1 X83.166 Y118.368 E80.87751
G1 X84.610 Y120.868 E80.92353
G1 X88.184 Y120.868 E80.98051
G1 X89.628 Y118.368 E81.02653
G1 X93.202 Y118.368 E81.08352
G1 X94.646 Y120.868 E81.12954
G1 X98.220 Y120.868 E81.18652
G1 X99.663 Y118.368 E81.23254
G1 X103.238 Y118.368 E81.28953
G1 X104.681 Y120.868 E81.33554
G1 X108.256 Y120.868 E81.39253
G1 X109.699 Y118.368 E81.43855
G1 X113.274 Y118.368 E81.49553
G1 X114.717 Y120.868 E81.54155
G1 X117.206 Y120.868 E81.58123
G1 X117.206 Y115.471 E81.66727
G1 X114.717 Y115.471 E81.70694
G1 X113.274 Y117.971 E81.75296
G1 X109.699 Y117.971 E81.80995
G1 X109.699 Y112.177 F7800.000
G1 F3600
G1 X108.256 Y109.677 E81.85597
G1 X104.681 Y109.677 E81.91295
G1 X103.238 Y112.177 E81.95897
G1 X99.663 Y112.177 E82.01595
G1 X98.220 Y109.677 E82.06197
G1 X94.646 Y109.677 E82.11896
G1 X93.202 Y112.177 E82.16498
G1 X89.628 Y112.177 E82.22196
G1 X88.184 Y109.677 E82.26798
G1 X84.610 Y109.677 E82.32496
G1 X83.166 Y112.177 E82.37098
G1 X82.794 Y112.177 E82.37692
G1 X82.794 Y112.574 E82.38325
G1 X83.166 Y112.574 E82.38918
G1 X84.610 Y115.074 E82.43520
G1 X88.184 Y115.074 E82.49219
G1 X89.628 Y112.574 E82.53821
G1 X93.202 Y112.574 E82.59519
G1 X94.646 Y115.074 E82.64121
G1 X98.220 Y115.074 E82.69820
G1 X99.663 Y112.574 E82.74422
G1 X103.238 Y112.574 E82.80120
G1 X104.681 Y115.074 E82.84722
G1 X108.256 Y115.074 E82.90420
G1 X109.699 Y112.574 E82.95022
G1 X113.274 Y112.574 E83.00721
G1 X114.717 Y115.074 E83.05323
G1 X117.206 Y115.074 E83.09290
G1 X117.206 Y109.677 E83.17894
G1 X114.717 Y109.677 E83.21862
G1 X113.274 Y112.177 E83.26464
G1 X109.699 Y112.177 E83.32162
G1 X109.699 Y106.382 F7800.000
G1 F3600
G1 X108.256 Y103.882 E83.36764
G1 X104.681 Y103.882 E83.42462
G1 X103.238 Y106.382 E83.47064
G1 X99.663 Y106.382 E83.52763
G1 X98.220 Y103.882 E83.57365
G1 X94.646 Y103.882 E83.63063
G1 X93.202 Y106.382 E83.67665
G1 X89.628 Y106.382 E83.73364
G1 X88.184 Y103.882 E83.77966
G1 X84.610 Y103.882 E83.83664
G1 X83.166 Y106.382 E83.88266
G1 X82.794 Y106.382 E83.88860
G1 X82.794 Y106.779 E83.89493
G1 X83.166 Y106.779 E83.90086
G1 X84.610 Y109.279 E83.94688
G1 X88.184 Y109.279 E84.00386
G1 X89.628 Y106.779 E84.04988
G1 X93.202 Y106.779 E84.10687
G1 X94.646 Y109.279 E84.15289
G1 X98.220 Y109.279 E84.20987
G1 X99.663 Y106.779 E84.25589
G1 X103.238 Y106.779 E84.31288
G1 X104.681 Y109.279 E84.35890
G1 X108.256 Y109.279 E84.41588
G1 X109.699 Y106.779 E84.46190
G1 X113.274 Y106.779 E84.51888
G1 X114.717 Y109.279 E84.56490
G1 X117.206 Y109.279 E84.60458
G1 X117.206 Y103.882 E84.69062
G1 X114.717 Y103.882 E84.73029
G1 X113.274 Y106.382 E84.77631
G1 X109.699 Y106.382 E84.83330
G1 X109.699 Y100.588 F7800.000
G1 F3600
G1 X108.256 Y98.088 E84.87932
G1 X104.681 Y98.088 E84.93630
G1 X103.238 Y100.588 E84.98232
G1 X99.663 Y100.588 E85.03930
G1 X98.220 Y98.088 E85.08532
G1 X94.646 Y98.088 E85.14231
G1 X93.202 Y100.588 E85.18833
G1 X89.628 Y100.588 E85.24531
G1 X88.184 Y98.088 E85.29133
G1 X84.610 Y98.088 E85.34832
G1 X83.166 Y100.588 E85.39434
G1 X82.794 Y100.588 E85.40027
G1 X82.794 Y100.985 E85.40660
G1 X83.166 Y100.985 E85.41254
G1 X84.610 Y103.485 E85.45856
G1 X88.184 Y103.485 E85.51554
G1 X89.628 Y100.985 E85.56156
G1 X93.202 Y100.985 E85.61854
G1 X94.646 Y103.485 E85.66456
G1 X98.220 Y103.485 E85.72155
G1 X99.663 Y100.985 E85.76757
G1 X103.238 Y100.985 E85.82455
G1 X104.681 Y103.485 E85.87057
G1 X108.256 Y103.485 E85.92756
G1 X109.699 Y100.985 E85.97358
G1 X113.274 Y100.985 E86.03056
G1 X114.717 Y103.485 E86.07658
G1 X117.206 Y103.485 E86.11625
G1 X117.206 Y98.088 E86.20229
G1 X114.717 Y98.088 E86.24197
G1 X113.274 Y100.588 E86.28799
G1 X109.699 Y100.588 E86.34497
G1 X109.699 Y94.794 F7800.000
G1 F3600
G1 X108.256 Y92.294 E86.39099
G1 X104.681 Y92.294 E86.44798
G1 X103.238 Y94.794 E86.49400
G1 X99.663 Y94.794 E86.55098
G1 X98.220 Y92.294 E86.59700
G1 X94.646 Y92.294 E86.65398
G1 X93.202 Y94.794 E86.70000
G1 X89.628 Y94.794 E86.75699
G1 X88.184 Y92.294 E86.80301
G1 X84.610 Y92.294 E86.85999
G1 X83.166 Y94.794 E86.90601
G1 X82.794 Y94.794 E86.91195
