; #disp params :
; Printmode:0
; Layer:208
; Zmax:165.609 mm
; Xmax:151.67 mm
; Ymax:42.6 mm
; Xmin:108.263 mm
; Ymin:0.3 mm
; E0diam:0.4 mm
; E0len:9.87267 m
; E0temp:215 C
; Bedtemp:215 C
; Time:127.814 min
; #params end
; GCode generated by CraftWare

G28 X Y ; home horizontally
G28 Z ; home vertically


M104 S215 ;set head temp (no wait)
M190 S60 ;set bed temp (wait)
M109 S215 ;set head temp (wait)

; ------------------------------------
; Raft Layer #0
; ------------------------------------
M106 S0 ;turn off fan
G21 ; mm
G90 ; abs
G92 E0 ;reset extr
G0 F600 Z0.300
;segType:Raft
G0 F3000 E-1.00000
G0 F600 Z2.300
G0 X108.329 Y162.825 F5400
G0 F600 Z0.300
G0 F3000 E0.00000
G1 X108.329 Y37.705 E6.24230 F600
G1 X108.395 Y37.241 E6.26569
G1 X111.179 Y34.457 E6.46208
G1 X148.291 Y34.457 E8.31360
G1 X148.755 Y34.524 E8.33700
G1 X151.539 Y37.307 E8.53338
G1 X151.539 Y162.428 E14.77568
G1 X151.472 Y162.892 E14.79907
G1 X148.821 Y165.543 E14.98611
G1 X111.179 Y165.543 E16.86409
G1 X110.715 Y165.211 E16.89255
G1 X108.329 Y162.825 E17.06088
G0 X111.134 Y165.079 F5400
G1 X111.134 Y35.186 E23.54123 F600
G0 X113.801 Y34.921 F5400
G1 X113.801 Y165.211 E30.04142 F600
G0 X116.468 Y165.211 F5400
G1 X116.468 Y34.921 E36.54160 F600
G0 X119.134 Y34.921 F5400
G1 X119.134 Y165.211 E43.04180 F600
G0 X121.801 Y165.211 F5400
G1 X121.801 Y34.921 E49.54199 F600
G0 X124.468 Y34.921 F5400
G1 X124.468 Y165.211 E56.04218 F600
G0 X127.134 Y165.211 F5400
G1 X127.134 Y34.921 E62.54237 F600
G0 X129.801 Y34.921 F5400
G1 X129.801 Y165.211 E69.04256 F600
G0 X132.468 Y165.211 F5400
G1 X132.468 Y34.921 E75.54275 F600
G0 X135.134 Y34.921 F5400
G1 X135.134 Y165.211 E82.04294 F600
G0 X137.801 Y165.211 F5400
G1 X137.801 Y34.921 E88.54313 F600
G0 X140.468 Y34.921 F5400
G1 X140.468 Y165.211 E95.04332 F600
G0 X143.134 Y165.211 F5400
G1 X143.134 Y34.921 E101.54351 F600
G0 X145.801 Y34.921 F5400
G1 X145.801 Y165.211 E108.04370 F600
G0 X148.468 Y165.211 F5400
G1 X148.468 Y34.921 E114.54389 F600
G0 X151.134 Y37.572 F5400
G1 X151.134 Y162.693 E120.78619 F600



; ------------------------------------
; Raft Layer #1
; ------------------------------------
G92 E0 ;reset extr
G0 F600 Z0.600
;segType:Raft
G0 X151.666 Y161.367 F7200
G1 X147.424 Y165.609 E0.29925 F1800
G0 X145.539 Y165.609 F7200
G1 X151.636 Y159.512 E0.72942 F1800
G0 X151.606 Y157.656 F7200
G1 X143.653 Y165.609 E1.29052 F1800
G0 X141.768 Y165.609 F7200
G1 X151.576 Y155.801 E1.98253 F1800
G0 X151.546 Y153.945 F7200
G1 X139.882 Y165.609 E2.80547 F1800
G0 X137.996 Y165.609 F7200
G1 X151.648 Y151.957 E3.76868 F1800
G0 X151.618 Y150.101 F7200
G1 X136.111 Y165.609 E4.86281 F1800
G0 X134.225 Y165.609 F7200
G1 X151.588 Y148.246 E6.08787 F1800
G0 X151.558 Y146.390 F7200
G1 X132.340 Y165.609 E7.44385 F1800
G0 X130.454 Y165.609 F7200
G1 X151.661 Y144.402 E8.94010 F1800
G0 X151.630 Y142.546 F7200
G1 X128.568 Y165.609 E10.56727 F1800
G0 X126.683 Y165.609 F7200
G1 X151.600 Y140.691 E12.32536 F1800
G0 X151.570 Y138.835 F7200
G1 X124.797 Y165.609 E14.21438 F1800
G0 X122.911 Y165.609 F7200
G1 X151.540 Y136.980 E16.23432 F1800
G0 X151.643 Y134.991 F7200
G1 X121.026 Y165.609 E18.39453 F1800
G0 X119.140 Y165.609 F7200
G1 X151.613 Y133.136 E20.68566 F1800
G0 X151.583 Y131.280 F7200
G1 X117.255 Y165.609 E23.10771 F1800
G0 X115.369 Y165.609 F7200
G1 X151.553 Y129.425 E25.66069 F1800
G0 X151.655 Y127.436 F7200
G1 X113.483 Y165.609 E28.35394 F1800
G0 X111.598 Y165.609 F7200
G1 X151.625 Y125.581 E31.17811 F1800
G0 X151.595 Y123.725 F7200
G1 X110.375 Y164.946 E34.08645 F1800
G0 X109.417 Y164.018 F7200
G1 X151.565 Y121.870 E37.06025 F1800
G0 X151.670 Y119.879 F7200
G1 X108.594 Y162.956 E40.09950 F1800
G0 X108.462 Y161.203 F7200
G1 X151.670 Y117.993 E43.14812 F1800
G0 X151.670 Y116.108 F7200
G1 X108.462 Y159.317 E46.19673 F1800
G0 X108.462 Y157.431 F7200
G1 X151.670 Y114.222 E49.24533 F1800
G0 X151.670 Y112.337 F7200
G1 X108.462 Y155.546 E52.29394 F1800
G0 X108.462 Y153.660 F7200
G1 X151.670 Y110.451 E55.34255 F1800
G0 X151.670 Y108.565 F7200
G1 X108.462 Y151.774 E58.39116 F1800
G0 X108.462 Y149.889 F7200
G1 X151.670 Y106.680 E61.43976 F1800
G0 X151.670 Y104.794 F7200
G1 X108.462 Y148.003 E64.48838 F1800
G0 X108.462 Y146.118 F7200
G1 X151.670 Y102.909 E67.53698 F1800
G0 X151.670 Y101.023 F7200
G1 X108.462 Y144.232 E70.58559 F1800
G0 X108.462 Y142.346 F7200
G1 X151.670 Y99.137 E73.63420 F1800
G0 X151.670 Y97.252 F7200
G1 X108.462 Y140.461 E76.68280 F1800
G0 X108.462 Y138.575 F7200
G1 X151.670 Y95.366 E79.73141 F1800
G0 X151.670 Y93.480 F7200
G1 X108.462 Y136.689 E82.78002 F1800
G0 X108.462 Y134.804 F7200
G1 X151.670 Y91.595 E85.82862 F1800
G0 X151.670 Y89.709 F7200
G1 X108.462 Y132.918 E88.87723 F1800
G0 X108.462 Y131.033 F7200
G1 X151.670 Y87.824 E91.92583 F1800
G0 X151.670 Y85.938 F7200
G1 X108.462 Y129.147 E94.97444 F1800
G0 X108.462 Y127.261 F7200
G1 X151.670 Y84.052 E98.02305 F1800
G0 X151.670 Y82.167 F7200
G1 X108.462 Y125.376 E101.07166 F1800
G0 X108.462 Y123.490 F7200
G1 X151.670 Y80.281 E104.12026 F1800
G0 X151.670 Y78.395 F7200
G1 X108.462 Y121.605 E107.16887 F1800
G0 X108.462 Y119.719 F7200
G1 X151.670 Y76.510 E110.21748 F1800
G0 X151.670 Y74.624 F7200
G1 X108.462 Y117.833 E113.26608 F1800
G0 X108.462 Y115.948 F7200
G1 X151.670 Y72.739 E116.31469 F1800
G0 X151.670 Y70.853 F7200
G1 X108.462 Y114.062 E119.36330 F1800
G0 X108.462 Y112.176 F7200
G1 X151.670 Y68.967 E122.41190 F1800
G0 X151.670 Y67.082 F7200
G1 X108.462 Y110.291 E125.46051 F1800
G0 X108.462 Y108.405 F7200
G1 X151.670 Y65.196 E128.50912 F1800
G0 X151.670 Y63.311 F7200
G1 X108.462 Y106.520 E131.55774 F1800
G0 X108.462 Y104.634 F7200
G1 X151.670 Y61.425 E134.60635 F1800
G0 X151.670 Y59.539 F7200
G1 X108.462 Y102.748 E137.65497 F1800
G0 X108.462 Y100.863 F7200
G1 X151.670 Y57.654 E140.70358 F1800
G0 X151.670 Y55.768 F7200
G1 X108.462 Y98.977 E143.75220 F1800
G0 X108.462 Y97.091 F7200
G1 X151.670 Y53.882 E146.80081 F1800
G0 X151.670 Y51.997 F7200
G1 X108.462 Y95.206 E149.84943 F1800
G0 X108.462 Y93.320 F7200
G1 X151.670 Y50.111 E152.89804 F1800
G0 X151.670 Y48.226 F7200
G1 X108.462 Y91.435 E155.94666 F1800
G0 X108.462 Y89.549 F7200
G1 X151.670 Y46.340 E158.99527 F1800
G0 X151.670 Y44.454 F7200
G1 X108.462 Y87.663 E162.04388 F1800
G0 X108.462 Y85.778 F7200
G1 X151.670 Y42.569 E165.09250 F1800
G0 X151.670 Y40.683 F7200
G1 X108.462 Y83.892 E168.14112 F1800
G0 X108.462 Y82.007 F7200
G1 X151.670 Y38.797 E171.18972 F1800
G0 X151.405 Y37.177 F7200
G1 X108.462 Y80.121 E174.21964 F1800
G0 X108.462 Y78.235 F7200
G1 X150.477 Y36.219 E177.18408 F1800
G0 X149.549 Y35.261 F7200
G1 X108.462 Y76.350 E180.08306 F1800
G0 X108.462 Y74.464 F7200
G1 X148.356 Y34.569 E182.89788 F1800
G0 X146.501 Y34.539 F7200
G1 X108.462 Y72.578 E185.58178 F1800
G0 X108.462 Y70.693 F7200
G1 X144.645 Y34.509 E188.13476 F1800
G0 X142.790 Y34.479 F7200
G1 X108.462 Y68.807 E190.55682 F1800
G0 X108.462 Y66.922 F7200
G1 X140.802 Y34.581 E192.83860 F1800
G0 X138.946 Y34.551 F7200
G1 X108.462 Y65.036 E194.98948 F1800
G0 X108.462 Y63.150 F7200
G1 X137.090 Y34.521 E197.00942 F1800
G0 X135.235 Y34.491 F7200
G1 X108.462 Y61.265 E198.89844 F1800
G0 X108.462 Y59.379 F7200
G1 X133.379 Y34.461 E200.65652 F1800
G0 X131.391 Y34.563 F7200
G1 X108.462 Y57.493 E202.27434 F1800
G0 X108.462 Y55.608 F7200
G1 X129.536 Y34.533 E203.76124 F1800
G0 X127.680 Y34.503 F7200
G1 X108.462 Y53.722 E205.11720 F1800
G0 X108.462 Y51.837 F7200
G1 X125.824 Y34.473 E206.34226 F1800
G0 X123.836 Y34.576 F7200
G1 X108.462 Y49.951 E207.42704 F1800
G0 X108.462 Y48.065 F7200
G1 X121.981 Y34.546 E208.38088 F1800
G0 X120.125 Y34.516 F7200
G1 X108.462 Y46.180 E209.20382 F1800
G0 X108.462 Y44.294 F7200
G1 X118.270 Y34.486 E209.89584 F1800
G0 X116.282 Y34.588 F7200
G1 X108.462 Y42.408 E210.44758 F1800
G0 X108.462 Y40.523 F7200
G1 X114.426 Y34.558 E210.86840 F1800
G0 X112.570 Y34.528 F7200
G1 X108.462 Y38.637 E211.15830 F1800



; ------------------------------------
; Raft Layer #2
; ------------------------------------
G92 E0 ;reset extr
G0 F600 Z0.800
;segType:Raft
G0 F3000 E-1.00000
G0 F600 Z2.800
G0 X148.821 Y34.599 F7200
G0 F600 Z0.800
G0 F3000 E0.00000
G1 X110.914 Y34.599 E1.26080 F2400
G1 X110.516 Y34.999 E1.27956
G1 X149.219 Y34.999 E2.56682
G1 X149.616 Y35.399 E2.58558
G1 X110.119 Y35.399 E3.89928
G1 X109.721 Y35.799 E3.91804
G1 X150.014 Y35.799 E5.25819
G1 X150.412 Y36.199 E5.27695
G1 X109.323 Y36.199 E6.64356
G1 X108.926 Y36.599 E6.66232
G1 X150.809 Y36.599 E8.05537
G1 X151.207 Y36.999 E8.07413
G1 X108.528 Y36.999 E9.49364
G1 X108.263 Y37.399 E9.50960
G1 X151.472 Y37.399 E10.94674
G1 X151.472 Y37.799 E10.96004
G1 X108.263 Y37.799 E12.39718
G1 X108.263 Y38.199 E12.41048
G1 X151.472 Y38.199 E13.84762
G1 X151.472 Y38.599 E13.86093
G1 X108.263 Y38.599 E15.29807
G1 X108.263 Y38.999 E15.31137
G1 X151.472 Y38.999 E16.74851
G1 X151.472 Y39.399 E16.76181
G1 X108.263 Y39.399 E18.19895
G1 X108.263 Y39.799 E18.21226
G1 X151.472 Y39.799 E19.64940
G1 X151.472 Y40.199 E19.66270
G1 X108.263 Y40.199 E21.09984
G1 X108.263 Y40.599 E21.11314
G1 X151.472 Y40.599 E22.55028
G1 X151.472 Y40.999 E22.56359
G1 X108.263 Y40.999 E24.00073
G1 X108.263 Y41.399 E24.01403
G1 X151.472 Y41.399 E25.45117
G1 X151.472 Y41.799 E25.46447
G1 X108.263 Y41.799 E26.90161
G1 X108.263 Y42.199 E26.91492
G1 X151.472 Y42.199 E28.35206
G1 X151.472 Y42.599 E28.36536
G1 X108.263 Y42.599 E29.80250
G1 X108.263 Y42.999 E29.81580
G1 X151.472 Y42.999 E31.25294
G1 X151.472 Y43.399 E31.26625
G1 X108.263 Y43.399 E32.70339
G1 X108.263 Y43.799 E32.71669
G1 X151.472 Y43.799 E34.15383
G1 X151.472 Y44.199 E34.16713
G1 X108.263 Y44.199 E35.60427
G1 X108.263 Y44.599 E35.61758
G1 X151.472 Y44.599 E37.05472
G1 X151.472 Y44.999 E37.06802
G1 X108.263 Y44.999 E38.50516
G1 X108.263 Y45.399 E38.51846
G1 X151.472 Y45.399 E39.95560
G1 X151.472 Y45.799 E39.96891
G1 X108.263 Y45.799 E41.40605
G1 X108.263 Y46.199 E41.41935
G1 X151.472 Y46.199 E42.85649
G1 X151.472 Y46.599 E42.86980
G1 X108.263 Y46.599 E44.30693
G1 X108.263 Y46.999 E44.32024
G1 X151.472 Y46.999 E45.75738
G1 X151.472 Y47.399 E45.77068
G1 X108.263 Y47.399 E47.20782
G1 X108.263 Y47.799 E47.22113
G1 X151.472 Y47.799 E48.65826
G1 X151.472 Y48.199 E48.67157
G1 X108.263 Y48.199 E50.10871
G1 X108.263 Y48.599 E50.12201
G1 X151.472 Y48.599 E51.55915
G1 X151.472 Y48.999 E51.57246
G1 X108.263 Y48.999 E53.00959
G1 X108.263 Y49.399 E53.02290
G1 X151.472 Y49.399 E54.46004
G1 X151.472 Y49.799 E54.47334
G1 X108.263 Y49.799 E55.91048
G1 X108.263 Y50.199 E55.92378
G1 X151.472 Y50.199 E57.36092
G1 X151.472 Y50.599 E57.37423
G1 X108.263 Y50.599 E58.81137
G1 X108.263 Y50.999 E58.82467
G1 X151.472 Y50.999 E60.26181
G1 X151.472 Y51.399 E60.27511
G1 X108.263 Y51.399 E61.71225
G1 X108.263 Y51.799 E61.72556
G1 X151.472 Y51.799 E63.16270
G1 X151.472 Y52.199 E63.17600
G1 X108.263 Y52.199 E64.61314
G1 X108.263 Y52.599 E64.62644
G1 X151.472 Y52.599 E66.06359
G1 X151.472 Y52.999 E66.07689
G1 X108.263 Y52.999 E67.51403
G1 X108.263 Y53.399 E67.52734
G1 X151.472 Y53.399 E68.96448
G1 X151.472 Y53.799 E68.97779
G1 X108.263 Y53.799 E70.41493
G1 X108.263 Y54.199 E70.42823
G1 X151.472 Y54.199 E71.86537
G1 X151.472 Y54.599 E71.87868
G1 X108.263 Y54.599 E73.31582
G1 X108.263 Y54.999 E73.32913
G1 X151.472 Y54.999 E74.76627
G1 X151.472 Y55.399 E74.77957
G1 X108.263 Y55.399 E76.21672
G1 X108.263 Y55.799 E76.23002
G1 X151.472 Y55.799 E77.66716
G1 X151.472 Y56.199 E77.68047
G1 X108.263 Y56.199 E79.11761
G1 X108.263 Y56.599 E79.13092
G1 X151.472 Y56.599 E80.56806
G1 X151.472 Y56.999 E80.58136
G1 X108.263 Y56.999 E82.01850
G1 X108.263 Y57.399 E82.03181
G1 X151.472 Y57.399 E83.46895
G1 X151.472 Y57.799 E83.48226
G1 X108.263 Y57.799 E84.91940
G1 X108.263 Y58.199 E84.93270
G1 X151.472 Y58.199 E86.36984
G1 X151.472 Y58.599 E86.38315
G1 X108.263 Y58.599 E87.82029
G1 X108.263 Y58.999 E87.83360
G1 X151.472 Y58.999 E89.27074
G1 X151.472 Y59.399 E89.28404
G1 X108.263 Y59.399 E90.72118
G1 X108.263 Y59.799 E90.73449
G1 X151.472 Y59.799 E92.17163
G1 X151.472 Y60.199 E92.18494
G1 X108.263 Y60.199 E93.62208
G1 X108.263 Y60.599 E93.63538
G1 X151.472 Y60.599 E95.07253
G1 X151.472 Y60.999 E95.08583
G1 X108.263 Y60.999 E96.52297
G1 X108.263 Y61.399 E96.53628
G1 X151.472 Y61.399 E97.97342
G1 X151.472 Y61.799 E97.98672
G1 X108.263 Y61.799 E99.42387
G1 X108.263 Y62.199 E99.43717
G1 X151.472 Y62.199 E100.87431
G1 X151.472 Y62.599 E100.88762
G1 X108.263 Y62.599 E102.32476
G1 X108.263 Y62.999 E102.33807
G1 X151.472 Y62.999 E103.77521
G1 X151.472 Y63.399 E103.78851
G1 X108.263 Y63.399 E105.22565
G1 X108.263 Y63.799 E105.23896
G1 X151.472 Y63.799 E106.67610
G1 X151.472 Y64.199 E106.68941
G1 X108.263 Y64.199 E108.12655
G1 X108.263 Y64.599 E108.13985
G1 X151.472 Y64.599 E109.57700
G1 X151.472 Y64.999 E109.59030
G1 X108.263 Y64.999 E111.02744
G1 X108.263 Y65.399 E111.04075
G1 X151.472 Y65.399 E112.47789
G1 X151.472 Y65.799 E112.49120
G1 X108.263 Y65.799 E113.92834
G1 X108.263 Y66.199 E113.94164
G1 X151.472 Y66.199 E115.37878
G1 X151.472 Y66.599 E115.39209
G1 X108.263 Y66.599 E116.82923
G1 X108.263 Y66.999 E116.84254
G1 X151.472 Y66.999 E118.27968
G1 X151.472 Y67.399 E118.29298
G1 X108.263 Y67.399 E119.73013
G1 X108.263 Y67.799 E119.74343
G1 X151.472 Y67.799 E121.18057
G1 X151.472 Y68.199 E121.19388
G1 X108.263 Y68.199 E122.63102
G1 X108.263 Y68.599 E122.64433
G1 X151.472 Y68.599 E124.08147
G1 X151.472 Y68.999 E124.09477
G1 X108.263 Y68.999 E125.53191
G1 X108.263 Y69.399 E125.54522
G1 X151.472 Y69.399 E126.98236
G1 X151.472 Y69.799 E126.99567
G1 X108.263 Y69.799 E128.43280
G1 X108.263 Y70.199 E128.44611
G1 X151.472 Y70.199 E129.88324
G1 X151.472 Y70.599 E129.89655
G1 X108.263 Y70.599 E131.33368
G1 X108.263 Y70.999 E131.34698
G1 X151.472 Y70.999 E132.78412
G1 X151.472 Y71.399 E132.79742
G1 X108.263 Y71.399 E134.23456
G1 X108.263 Y71.799 E134.24786
G1 X151.472 Y71.799 E135.68500
G1 X151.472 Y72.199 E135.69830
G1 X108.263 Y72.199 E137.13544
G1 X108.263 Y72.599 E137.14874
G1 X151.472 Y72.599 E138.58588
G1 X151.472 Y72.999 E138.59918
G1 X108.263 Y72.999 E140.03632
G1 X108.263 Y73.399 E140.04962
G1 X151.472 Y73.399 E141.48676
G1 X151.472 Y73.799 E141.50006
G1 X108.263 Y73.799 E142.93719
G1 X108.263 Y74.199 E142.95050
G1 X151.472 Y74.199 E144.38763
G1 X151.472 Y74.599 E144.40094
G1 X108.263 Y74.599 E145.83807
G1 X108.263 Y74.999 E145.85138
G1 X151.472 Y74.999 E147.28851
G1 X151.472 Y75.399 E147.30182
G1 X108.263 Y75.399 E148.73895
G1 X108.263 Y75.799 E148.75226
G1 X151.472 Y75.799 E150.18939
G1 X151.472 Y76.199 E150.20270
G1 X108.263 Y76.199 E151.63983
G1 X108.263 Y76.599 E151.65314
G1 X151.472 Y76.599 E153.09027
G1 X151.472 Y76.999 E153.10358
G1 X108.263 Y76.999 E154.54071
G1 X108.263 Y77.399 E154.55402
G1 X151.472 Y77.399 E155.99115
G1 X151.472 Y77.799 E156.00446
G1 X108.263 Y77.799 E157.44159
G1 X108.263 Y78.199 E157.45490
G1 X151.472 Y78.199 E158.89203
G1 X151.472 Y78.599 E158.90533
G1 X108.263 Y78.599 E160.34247
G1 X108.263 Y78.999 E160.35577
G1 X151.472 Y78.999 E161.79291
G1 X151.472 Y79.399 E161.80621
G1 X108.263 Y79.399 E163.24335
G1 X108.263 Y79.799 E163.25665
G1 X151.472 Y79.799 E164.69379
G1 X151.472 Y80.199 E164.70709
G1 X108.263 Y80.199 E166.14423
G1 X108.263 Y80.599 E166.15753
G1 X151.472 Y80.599 E167.59467
G1 X151.472 Y80.999 E167.60797
G1 X108.263 Y80.999 E169.04510
G1 X108.263 Y81.399 E169.05842
G1 X151.472 Y81.399 E170.49554
G1 X151.472 Y81.799 E170.50886
G1 X108.263 Y81.799 E171.94598
G1 X108.263 Y82.199 E171.95928
G1 X151.472 Y82.199 E173.39642
G1 X151.472 Y82.599 E173.40972
G1 X108.263 Y82.599 E174.84686
G1 X108.263 Y82.999 E174.86016
G1 X151.472 Y82.999 E176.29730
G1 X151.472 Y83.399 E176.31060
G1 X108.263 Y83.399 E177.74774
G1 X108.263 Y83.799 E177.76104
G1 X151.472 Y83.799 E179.19818
G1 X151.472 Y84.199 E179.21148
G1 X108.263 Y84.199 E180.64862
G1 X108.263 Y84.599 E180.66192
G1 X151.472 Y84.599 E182.09906
G1 X151.472 Y84.999 E182.11236
G1 X108.263 Y84.999 E183.54950
G1 X108.263 Y85.399 E183.56280
G1 X151.472 Y85.399 E184.99994
G1 X151.472 Y85.799 E185.01324
G1 X108.263 Y85.799 E186.45038
G1 X108.263 Y86.199 E186.46368
G1 X151.472 Y86.199 E187.90082
G1 X151.472 Y86.599 E187.91412
G1 X108.263 Y86.599 E189.35126
G1 X108.263 Y86.999 E189.36456
G1 X151.472 Y86.999 E190.80170
G1 X151.472 Y87.399 E190.81500
G1 X108.263 Y87.399 E192.25214
G1 X108.263 Y87.799 E192.26544
G1 X151.472 Y87.799 E193.70258
G1 X151.472 Y88.199 E193.71588
G1 X108.263 Y88.199 E195.15302
G1 X108.263 Y88.599 E195.16632
G1 X151.472 Y88.599 E196.60346
G1 X151.472 Y88.999 E196.61676
G1 X108.263 Y88.999 E198.05390
G1 X108.263 Y89.399 E198.06720
G1 X151.472 Y89.399 E199.50434
G1 X151.472 Y89.799 E199.51764
G1 X108.263 Y89.799 E200.95478
G1 X108.263 Y90.199 E200.96808
G1 X151.472 Y90.199 E202.40522
G1 X151.472 Y90.599 E202.41852
G1 X108.263 Y90.599 E203.85566
G1 X108.263 Y90.999 E203.86896
G1 X151.472 Y90.999 E205.30610
G1 X151.472 Y91.399 E205.31940
G1 X108.263 Y91.399 E206.75654
G1 X108.263 Y91.799 E206.76984
G1 X151.472 Y91.799 E208.20698
G1 X151.472 Y92.199 E208.22028
G1 X108.263 Y92.199 E209.65740
G1 X108.263 Y92.599 E209.67072
G1 X151.472 Y92.599 E211.10784
G1 X151.472 Y92.999 E211.12116
G1 X108.263 Y92.999 E212.55828
G1 X108.263 Y93.399 E212.57160
G1 X151.472 Y93.399 E214.00872
G1 X151.472 Y93.799 E214.02204
G1 X108.263 Y93.799 E215.45916
G1 X108.263 Y94.199 E215.47248
G1 X151.472 Y94.199 E216.90960
G1 X151.472 Y94.599 E216.92292
G1 X108.263 Y94.599 E218.36004
G1 X108.263 Y94.999 E218.37336
G1 X151.472 Y94.999 E219.81048
G1 X151.472 Y95.399 E219.82380
G1 X108.263 Y95.399 E221.26092
G1 X108.263 Y95.799 E221.27424
G1 X151.472 Y95.799 E222.71136
G1 X151.472 Y96.199 E222.72468
G1 X108.263 Y96.199 E224.16180
G1 X108.263 Y96.599 E224.17510
G1 X151.472 Y96.599 E225.61224
G1 X151.472 Y96.999 E225.62554
G1 X108.263 Y96.999 E227.06268
G1 X108.263 Y97.399 E227.07598
G1 X151.472 Y97.399 E228.51312
G1 X151.472 Y97.799 E228.52642
G1 X108.263 Y97.799 E229.96356
G1 X108.263 Y98.199 E229.97686
G1 X151.472 Y98.199 E231.41400
G1 X151.472 Y98.599 E231.42730
G1 X108.263 Y98.599 E232.86444
G1 X108.263 Y98.999 E232.87774
G1 X151.472 Y98.999 E234.31488
G1 X151.472 Y99.399 E234.32818
G1 X108.263 Y99.399 E235.76532
G1 X108.263 Y99.799 E235.77862
G1 X151.472 Y99.799 E237.21576
G1 X151.472 Y100.199 E237.22906
G1 X108.263 Y100.199 E238.66620
G1 X108.263 Y100.599 E238.67950
G1 X151.472 Y100.599 E240.11664
G1 X151.472 Y100.999 E240.12994
G1 X108.263 Y100.999 E241.56708
G1 X108.263 Y101.399 E241.58038
G1 X151.472 Y101.399 E243.01752
G1 X151.472 Y101.799 E243.03082
G1 X108.263 Y101.799 E244.46796
G1 X108.263 Y102.199 E244.48126
G1 X151.472 Y102.199 E245.91840
G1 X151.472 Y102.599 E245.93170
G1 X108.263 Y102.599 E247.36884
G1 X108.263 Y102.999 E247.38214
G1 X151.472 Y102.999 E248.81928
G1 X151.472 Y103.399 E248.83258
G1 X108.263 Y103.399 E250.26972
G1 X108.263 Y103.799 E250.28302
G1 X151.472 Y103.799 E251.72016
G1 X151.472 Y104.199 E251.73346
G1 X108.263 Y104.199 E253.17060
G1 X108.263 Y104.599 E253.18390
G1 X151.472 Y104.599 E254.62104
G1 X151.472 Y104.999 E254.63434
G1 X108.263 Y104.999 E256.07148
G1 X108.263 Y105.399 E256.08478
G1 X151.472 Y105.399 E257.52192
G1 X151.472 Y105.799 E257.53522
G1 X108.263 Y105.799 E258.97236
G1 X108.263 Y106.199 E258.98566
G1 X151.472 Y106.199 E260.42280
G1 X151.472 Y106.599 E260.43610
G1 X108.263 Y106.599 E261.87322
G1 X108.263 Y106.999 E261.88654
G1 X151.472 Y106.999 E263.32366
G1 X151.472 Y107.399 E263.33698
G1 X108.263 Y107.399 E264.77410
G1 X108.263 Y107.799 E264.78742
G1 X151.472 Y107.799 E266.22454
G1 X151.472 Y108.199 E266.23786
G1 X108.263 Y108.199 E267.67498
G1 X108.263 Y108.599 E267.68830
G1 X151.472 Y108.599 E269.12542
G1 X151.472 Y108.999 E269.13874
G1 X108.263 Y108.999 E270.57586
G1 X108.263 Y109.399 E270.58918
G1 X151.472 Y109.399 E272.02630
G1 X151.472 Y109.799 E272.03962
G1 X108.263 Y109.799 E273.47674
G1 X108.263 Y110.199 E273.49006
G1 X151.472 Y110.199 E274.92718
G1 X151.472 Y110.599 E274.94050
G1 X108.263 Y110.599 E276.37762
G1 X108.263 Y110.999 E276.39094
G1 X151.472 Y110.999 E277.82806
G1 X151.472 Y111.399 E277.84136
G1 X108.263 Y111.399 E279.27850
G1 X108.263 Y111.799 E279.29180
G1 X151.472 Y111.799 E280.72894
G1 X151.472 Y112.199 E280.74224
G1 X108.263 Y112.199 E282.17938
G1 X108.263 Y112.599 E282.19268
G1 X151.472 Y112.599 E283.62982
G1 X151.472 Y112.999 E283.64312
G1 X108.263 Y112.999 E285.08026
G1 X108.263 Y113.399 E285.09356
G1 X151.472 Y113.399 E286.53070
G1 X151.472 Y113.799 E286.54400
G1 X108.263 Y113.799 E287.98114
G1 X108.263 Y114.199 E287.99444
G1 X151.472 Y114.199 E289.43158
G1 X151.472 Y114.599 E289.44488
G1 X108.263 Y114.599 E290.88202
G1 X108.263 Y114.999 E290.89532
G1 X151.472 Y114.999 E292.33246
G1 X151.472 Y115.399 E292.34576
G1 X108.263 Y115.399 E293.78290
G1 X108.263 Y115.799 E293.79620
G1 X151.472 Y115.799 E295.23334
G1 X151.472 Y116.199 E295.24664
G1 X108.263 Y116.199 E296.68378
G1 X108.263 Y116.599 E296.69708
G1 X151.472 Y116.599 E298.13422
G1 X151.472 Y116.999 E298.14752
G1 X108.263 Y116.999 E299.58466
G1 X108.263 Y117.399 E299.59796
G1 X151.472 Y117.399 E301.03510
G1 X151.472 Y117.799 E301.04840
G1 X108.263 Y117.799 E302.48554
G1 X108.263 Y118.199 E302.49884
G1 X151.472 Y118.199 E303.93598
G1 X151.472 Y118.599 E303.94928
G1 X108.263 Y118.599 E305.38642
G1 X108.263 Y118.999 E305.39972
G1 X151.472 Y118.999 E306.83686
G1 X151.472 Y119.399 E306.85016
G1 X108.263 Y119.399 E308.28730
G1 X108.263 Y119.799 E308.30060
G1 X151.472 Y119.799 E309.73774
G1 X151.472 Y120.199 E309.75104
G1 X108.263 Y120.199 E311.18818
G1 X108.263 Y120.599 E311.20148
G1 X151.472 Y120.599 E312.63862
G1 X151.472 Y120.999 E312.65192
G1 X108.263 Y120.999 E314.08906
G1 X108.263 Y121.399 E314.10236
G1 X151.472 Y121.399 E315.53948
G1 X151.472 Y121.799 E315.55280
G1 X108.263 Y121.799 E316.98992
G1 X108.263 Y122.199 E317.00324
G1 X151.472 Y122.199 E318.44036
G1 X151.472 Y122.599 E318.45368
G1 X108.263 Y122.599 E319.89080
G1 X108.263 Y122.999 E319.90412
G1 X151.472 Y122.999 E321.34124
G1 X151.472 Y123.399 E321.35456
G1 X108.263 Y123.399 E322.79168
G1 X108.263 Y123.799 E322.80500
G1 X151.472 Y123.799 E324.24212
G1 X151.472 Y124.199 E324.25544
G1 X108.263 Y124.199 E325.69256
G1 X108.263 Y124.599 E325.70588
G1 X151.472 Y124.599 E327.14300
G1 X151.472 Y124.999 E327.15632
G1 X108.263 Y124.999 E328.59344
G1 X108.263 Y125.399 E328.60676
G1 X151.472 Y125.399 E330.04388
G1 X151.472 Y125.799 E330.05718
G1 X108.263 Y125.799 E331.49432
G1 X108.263 Y126.199 E331.50762
G1 X151.472 Y126.199 E332.94476
G1 X151.472 Y126.599 E332.95806
G1 X108.263 Y126.599 E334.39520
G1 X108.263 Y126.999 E334.40850
G1 X151.472 Y126.999 E335.84564
G1 X151.472 Y127.399 E335.85896
G1 X108.263 Y127.399 E337.29608
G1 X108.263 Y127.799 E337.30940
G1 X151.472 Y127.799 E338.74652
G1 X151.472 Y128.199 E338.75984
G1 X108.263 Y128.199 E340.19696
G1 X108.263 Y128.599 E340.21028
G1 X151.472 Y128.599 E341.64740
G1 X151.472 Y128.999 E341.66072
G1 X108.263 Y128.999 E343.09784
G1 X108.263 Y129.399 E343.11116
G1 X151.472 Y129.399 E344.54828
G1 X151.472 Y129.799 E344.56160
G1 X108.263 Y129.799 E345.99872
G1 X108.263 Y130.199 E346.01204
G1 X151.472 Y130.199 E347.44916
G1 X151.472 Y130.599 E347.46248
G1 X108.263 Y130.599 E348.89960
G1 X108.263 Y130.999 E348.91292
G1 X151.472 Y130.999 E350.35004
G1 X151.472 Y131.399 E350.36336
G1 X108.263 Y131.399 E351.80048
G1 X108.263 Y131.799 E351.81380
G1 X151.472 Y131.799 E353.25092
G1 X151.472 Y132.199 E353.26424
G1 X108.263 Y132.199 E354.70136
G1 X108.263 Y132.599 E354.71468
G1 X151.472 Y132.599 E356.15180
G1 X151.472 Y132.999 E356.16512
G1 X108.263 Y132.999 E357.60224
G1 X108.263 Y133.399 E357.61552
G1 X151.472 Y133.399 E359.05268
G1 X151.472 Y133.799 E359.06596
G1 X108.263 Y133.799 E360.50312
G1 X108.263 Y134.199 E360.51640
G1 X151.472 Y134.199 E361.95356
G1 X151.472 Y134.599 E361.96684
G1 X108.263 Y134.599 E363.40400
G1 X108.263 Y134.999 E363.41728
G1 X151.472 Y134.999 E364.85444
G1 X151.472 Y135.399 E364.86772
G1 X108.263 Y135.399 E366.30488
G1 X108.263 Y135.799 E366.31816
G1 X151.472 Y135.799 E367.75532
G1 X151.472 Y136.199 E367.76860
G1 X108.263 Y136.199 E369.20576
G1 X108.263 Y136.599 E369.21904
G1 X151.472 Y136.599 E370.65620
G1 X151.472 Y136.999 E370.66948
G1 X108.263 Y136.999 E372.10664
G1 X108.263 Y137.399 E372.11992
G1 X151.472 Y137.399 E373.55708
G1 X151.472 Y137.799 E373.57036
G1 X108.263 Y137.799 E375.00752
G1 X108.263 Y138.199 E375.02080
G1 X151.472 Y138.199 E376.45796
G1 X151.472 Y138.599 E376.47124
G1 X108.263 Y138.599 E377.90840
G1 X108.263 Y138.999 E377.92168
G1 X151.472 Y138.999 E379.35884
G1 X151.472 Y139.399 E379.37212
G1 X108.263 Y139.399 E380.80928
G1 X108.263 Y139.799 E380.82256
G1 X151.472 Y139.799 E382.25972
G1 X151.472 Y140.199 E382.27300
G1 X108.263 Y140.199 E383.71016
G1 X108.263 Y140.599 E383.72344
G1 X151.472 Y140.599 E385.16060
G1 X151.472 Y140.999 E385.17388
G1 X108.263 Y140.999 E386.61104
G1 X108.263 Y141.399 E386.62432
G1 X151.472 Y141.399 E388.06148
G1 X151.472 Y141.799 E388.07476
G1 X108.263 Y141.799 E389.51192
G1 X108.263 Y142.199 E389.52520
G1 X151.472 Y142.199 E390.96236
G1 X151.472 Y142.599 E390.97564
G1 X108.263 Y142.599 E392.41280
G1 X108.263 Y142.999 E392.42608
G1 X151.472 Y142.999 E393.86324
G1 X151.472 Y143.399 E393.87652
G1 X108.263 Y143.399 E395.31364
G1 X108.263 Y143.799 E395.32696
G1 X151.472 Y143.799 E396.76408
G1 X151.472 Y144.199 E396.77740
G1 X108.263 Y144.199 E398.21452
G1 X108.263 Y144.599 E398.22784
G1 X151.472 Y144.599 E399.66496
G1 X151.472 Y144.999 E399.67828
G1 X108.263 Y144.999 E401.11540
G1 X108.263 Y145.399 E401.12872
G1 X151.472 Y145.399 E402.56584
G1 X151.472 Y145.799 E402.57916
G1 X108.263 Y145.799 E404.01628
G1 X108.263 Y146.199 E404.02960
G1 X151.472 Y146.199 E405.46672
G1 X151.472 Y146.599 E405.48004
G1 X108.263 Y146.599 E406.91716
G1 X108.263 Y146.999 E406.93048
G1 X151.472 Y146.999 E408.36760
G1 X151.472 Y147.399 E408.38092
G1 X108.263 Y147.399 E409.81804
G1 X108.263 Y147.799 E409.83136
G1 X151.472 Y147.799 E411.26848
G1 X151.472 Y148.199 E411.28180
G1 X108.263 Y148.199 E412.71892
G1 X108.263 Y148.599 E412.73224
G1 X151.472 Y148.599 E414.16936
G1 X151.472 Y148.999 E414.18268
G1 X108.263 Y148.999 E415.61980
G1 X108.263 Y149.399 E415.63312
G1 X151.472 Y149.399 E417.07024
G1 X151.472 Y149.799 E417.08356
G1 X108.263 Y149.799 E418.52068
G1 X108.263 Y150.199 E418.53400
G1 X151.472 Y150.199 E419.97112
G1 X151.472 Y150.599 E419.98444
G1 X108.263 Y150.599 E421.42156
G1 X108.263 Y150.999 E421.43488
G1 X151.472 Y150.999 E422.87200
G1 X151.472 Y151.399 E422.88532
G1 X108.263 Y151.399 E424.32244
G1 X108.263 Y151.799 E424.33576
G1 X151.472 Y151.799 E425.77288
G1 X151.472 Y152.199 E425.78620
G1 X108.263 Y152.199 E427.22332
G1 X108.263 Y152.599 E427.23664
G1 X151.472 Y152.599 E428.67376
G1 X151.472 Y152.999 E428.68708
G1 X108.263 Y152.999 E430.12420
G1 X108.263 Y153.399 E430.13752
G1 X151.472 Y153.399 E431.57464
G1 X151.472 Y153.799 E431.58796
G1 X108.263 Y153.799 E433.02508
G1 X108.263 Y154.199 E433.03840
G1 X151.472 Y154.199 E434.47552
G1 X151.472 Y154.599 E434.48884
G1 X108.263 Y154.599 E435.92596
G1 X108.263 Y154.999 E435.93928
G1 X151.472 Y154.999 E437.37640
G1 X151.472 Y155.399 E437.38972
G1 X108.263 Y155.399 E438.82684
G1 X108.263 Y155.799 E438.84016
G1 X151.472 Y155.799 E440.27728
G1 X151.472 Y156.199 E440.29060
G1 X108.263 Y156.199 E441.72772
G1 X108.263 Y156.599 E441.74104
G1 X151.472 Y156.599 E443.17816
G1 X151.472 Y156.999 E443.19148
G1 X108.263 Y156.999 E444.62860
G1 X108.263 Y157.399 E444.64192
G1 X151.472 Y157.399 E446.07904
G1 X151.472 Y157.799 E446.09236
G1 X108.263 Y157.799 E447.52948
G1 X108.263 Y158.199 E447.54280
G1 X151.472 Y158.199 E448.97992
G1 X151.472 Y158.599 E448.99324
G1 X108.263 Y158.599 E450.43036
G1 X108.263 Y158.999 E450.44368
G1 X151.472 Y158.999 E451.88080
G1 X151.472 Y159.399 E451.89412
G1 X108.263 Y159.399 E453.33124
G1 X108.263 Y159.799 E453.34456
G1 X151.472 Y159.799 E454.78168
G1 X151.472 Y160.199 E454.79500
G1 X108.263 Y160.199 E456.23212
G1 X108.263 Y160.599 E456.24544
G1 X151.472 Y160.599 E457.68256
G1 X151.472 Y160.999 E457.69588
G1 X108.263 Y160.999 E459.13300
G1 X108.263 Y161.399 E459.14632
G1 X151.472 Y161.399 E460.58344
G1 X151.472 Y161.799 E460.59676
G1 X108.263 Y161.799 E462.03388
G1 X108.263 Y162.199 E462.04720
G1 X151.472 Y162.199 E463.48432
G1 X151.472 Y162.599 E463.49760
G1 X108.263 Y162.599 E464.93476
G1 X108.395 Y162.999 E464.94876
G1 X151.339 Y162.999 E466.37708
G1 X150.942 Y163.399 E466.39584
G1 X108.793 Y163.399 E467.79772
G1 X109.191 Y163.799 E467.81648
G1 X150.544 Y163.799 E469.19192
G1 X150.147 Y164.199 E469.21068
G1 X109.588 Y164.199 E470.55968
G1 X109.986 Y164.599 E470.57844
G1 X149.749 Y164.599 E471.90092
G1 X149.351 Y164.999 E471.91972
G1 X110.384 Y164.999 E473.21580
G1 X110.781 Y165.399 E473.23456
G1 X148.954 Y165.399 E474.50420



; ------------------------------------
; Raft Layer #3
; ------------------------------------
M106 S255 ;set fan speed
G92 E0 ;reset extr
G0 F600 Z1.000
;segType:Raft
G0 F3000 E-1.00000
G0 F600 Z3.000
G0 X151.401 Y163.091 F7200
G0 F600 Z1.000
G0 F3000 E0.00000
G1 X151.401 Y37.175 E4.18798 F2400
G1 X151.001 Y36.777 E4.20674
G1 X151.001 Y163.488 E8.42117
G1 X150.601 Y163.886 E8.43993
G1 X150.601 Y36.379 E12.68082
G1 X150.201 Y35.982 E12.69958
G1 X150.201 Y164.283 E16.96691
G1 X149.801 Y164.681 E16.98567
G1 X149.801 Y35.584 E21.27945
G1 X149.401 Y35.186 E21.29821
G1 X149.401 Y165.079 E25.61844
G1 X149.001 Y165.476 E25.63720
G1 X149.001 Y34.789 E29.98389
G1 X148.601 Y34.524 E29.99985
G1 X148.601 Y165.609 E34.35976
G1 X148.201 Y165.609 E34.37306
G1 X148.201 Y34.524 E38.73297
G1 X147.801 Y34.524 E38.74628
G1 X147.801 Y165.609 E43.10619
G1 X147.401 Y165.609 E43.11949
G1 X147.401 Y34.524 E47.47940
G1 X147.001 Y34.524 E47.49271
G1 X147.001 Y165.609 E51.85262
G1 X146.601 Y165.609 E51.86592
G1 X146.601 Y34.524 E56.22583
G1 X146.201 Y34.524 E56.23914
G1 X146.201 Y165.609 E60.59905
G1 X145.801 Y165.609 E60.61235
G1 X145.801 Y34.524 E64.97226
G1 X145.401 Y34.524 E64.98557
G1 X145.401 Y165.609 E69.34548
G1 X145.001 Y165.609 E69.35878
G1 X145.001 Y34.524 E73.71869
G1 X144.601 Y34.524 E73.73200
G1 X144.601 Y165.609 E78.09191
G1 X144.201 Y165.609 E78.10521
G1 X144.201 Y34.524 E82.46512
G1 X143.801 Y34.524 E82.47843
G1 X143.801 Y165.609 E86.83833
G1 X143.401 Y165.609 E86.85164
G1 X143.401 Y34.524 E91.21155
G1 X143.001 Y34.524 E91.22485
G1 X143.001 Y165.609 E95.58476
G1 X142.601 Y165.609 E95.59807
G1 X142.601 Y34.524 E99.95798
G1 X142.201 Y34.524 E99.97128
G1 X142.201 Y165.609 E104.33119
G1 X141.801 Y165.609 E104.34450
G1 X141.801 Y34.524 E108.70441
G1 X141.401 Y34.524 E108.71771
G1 X141.401 Y165.609 E113.07762
G1 X141.001 Y165.609 E113.09093
G1 X141.001 Y34.524 E117.45084
G1 X140.601 Y34.524 E117.46414
G1 X140.601 Y165.609 E121.82405
G1 X140.201 Y165.609 E121.83736
G1 X140.201 Y34.524 E126.19727
G1 X139.801 Y34.524 E126.21057
G1 X139.801 Y165.609 E130.57048
G1 X139.401 Y165.609 E130.58379
G1 X139.401 Y34.524 E134.94370
G1 X139.001 Y34.524 E134.95700
G1 X139.001 Y165.609 E139.31691
G1 X138.601 Y165.609 E139.33022
G1 X138.601 Y34.524 E143.69012
G1 X138.201 Y34.524 E143.70343
G1 X138.201 Y165.609 E148.06334
G1 X137.801 Y165.609 E148.07664
G1 X137.801 Y34.524 E152.43655
G1 X137.401 Y34.524 E152.44986
G1 X137.401 Y165.609 E156.80977
G1 X137.001 Y165.609 E156.82307
G1 X137.001 Y34.524 E161.18298
G1 X136.601 Y34.524 E161.19629
G1 X136.601 Y165.609 E165.55620
G1 X136.201 Y165.609 E165.56950
G1 X136.201 Y34.524 E169.92942
G1 X135.801 Y34.524 E169.94272
G1 X135.801 Y165.609 E174.30262
G1 X135.401 Y165.609 E174.31594
G1 X135.401 Y34.524 E178.67584
G1 X135.001 Y34.524 E178.68914
G1 X135.001 Y165.609 E183.04906
G1 X134.601 Y165.609 E183.06236
G1 X134.601 Y34.524 E187.42228
G1 X134.201 Y34.524 E187.43558
G1 X134.201 Y165.609 E191.79548
G1 X133.801 Y165.609 E191.80880
G1 X133.801 Y34.524 E196.16870
G1 X133.401 Y34.524 E196.18200
G1 X133.401 Y165.609 E200.54192
G1 X133.001 Y165.609 E200.55522
G1 X133.001 Y34.524 E204.91514
G1 X132.601 Y34.524 E204.92844
G1 X132.601 Y165.609 E209.28834
G1 X132.201 Y165.609 E209.30166
G1 X132.201 Y34.524 E213.66156
G1 X131.801 Y34.524 E213.67486
G1 X131.801 Y165.609 E218.03478
G1 X131.401 Y165.609 E218.04808
G1 X131.401 Y34.524 E222.40798
G1 X131.001 Y34.524 E222.42130
G1 X131.001 Y165.609 E226.78120
G1 X130.601 Y165.609 E226.79450
G1 X130.601 Y34.524 E231.15442
G1 X130.201 Y34.524 E231.16772
G1 X130.201 Y165.609 E235.52764
G1 X129.801 Y165.609 E235.54094
G1 X129.801 Y34.524 E239.90084
G1 X129.401 Y34.524 E239.91416
G1 X129.401 Y165.609 E244.27406
G1 X129.001 Y165.609 E244.28736
G1 X129.001 Y34.524 E248.64728
G1 X128.601 Y34.524 E248.66058
G1 X128.601 Y165.609 E253.02050
G1 X128.201 Y165.609 E253.03380
G1 X128.201 Y34.524 E257.39370
G1 X127.801 Y34.524 E257.40702
G1 X127.801 Y165.609 E261.76694
G1 X127.401 Y165.609 E261.78024
G1 X127.401 Y34.524 E266.14016
G1 X127.001 Y34.524 E266.15348
G1 X127.001 Y165.609 E270.51340
G1 X126.601 Y165.609 E270.52670
G1 X126.601 Y34.524 E274.88662
G1 X126.201 Y34.524 E274.89994
G1 X126.201 Y165.609 E279.25986
G1 X125.801 Y165.609 E279.27316
G1 X125.801 Y34.524 E283.63308
G1 X125.401 Y34.524 E283.64640
G1 X125.401 Y165.609 E288.00632
G1 X125.001 Y165.609 E288.01962
G1 X125.001 Y34.524 E292.37954
G1 X124.601 Y34.524 E292.39286
G1 X124.601 Y165.609 E296.75278
G1 X124.201 Y165.609 E296.76608
G1 X124.201 Y34.524 E301.12600
G1 X123.801 Y34.524 E301.13932
G1 X123.801 Y165.609 E305.49924
G1 X123.401 Y165.609 E305.51254
G1 X123.401 Y34.524 E309.87246
G1 X123.001 Y34.524 E309.88578
G1 X123.001 Y165.609 E314.24570
G1 X122.601 Y165.609 E314.25900
G1 X122.601 Y34.524 E318.61892
G1 X122.201 Y34.524 E318.63224
G1 X122.201 Y165.609 E322.99216
G1 X121.801 Y165.609 E323.00546
G1 X121.801 Y34.524 E327.36538
G1 X121.401 Y34.524 E327.37870
G1 X121.401 Y165.609 E331.73862
G1 X121.001 Y165.609 E331.75192
G1 X121.001 Y34.524 E336.11184
G1 X120.601 Y34.524 E336.12516
G1 X120.601 Y165.609 E340.48508
G1 X120.201 Y165.609 E340.49840
G1 X120.201 Y34.524 E344.85832
G1 X119.801 Y34.524 E344.87160
G1 X119.801 Y165.609 E349.23152
G1 X119.401 Y165.609 E349.24484
G1 X119.401 Y34.524 E353.60476
G1 X119.001 Y34.524 E353.61808
G1 X119.001 Y165.609 E357.97800
G1 X118.601 Y165.609 E357.99132
G1 X118.601 Y34.524 E362.35124
G1 X118.201 Y34.524 E362.36452
G1 X118.201 Y165.609 E366.72444
G1 X117.801 Y165.609 E366.73776
G1 X117.801 Y34.524 E371.09768
G1 X117.401 Y34.524 E371.11100
G1 X117.401 Y165.609 E375.47092
G1 X117.001 Y165.609 E375.48424
G1 X117.001 Y34.524 E379.84416
G1 X116.601 Y34.524 E379.85744
G1 X116.601 Y165.609 E384.21736
G1 X116.201 Y165.609 E384.23068
G1 X116.201 Y34.524 E388.59060
G1 X115.801 Y34.524 E388.60392
G1 X115.801 Y165.609 E392.96384
G1 X115.401 Y165.609 E392.97716
G1 X115.401 Y34.524 E397.33708
G1 X115.001 Y34.524 E397.35036
G1 X115.001 Y165.609 E401.71028
G1 X114.601 Y165.609 E401.72360
G1 X114.601 Y34.524 E406.08352
G1 X114.201 Y34.524 E406.09684
G1 X114.201 Y165.609 E410.45676
G1 X113.801 Y165.609 E410.47008
G1 X113.801 Y34.524 E414.83000
G1 X113.401 Y34.524 E414.84328
G1 X113.401 Y165.609 E419.20320
G1 X113.001 Y165.609 E419.21652
G1 X113.001 Y34.524 E423.57644
G1 X112.601 Y34.524 E423.58976
G1 X112.601 Y165.609 E427.94968
G1 X112.201 Y165.609 E427.96300
G1 X112.201 Y34.524 E432.32292
G1 X111.801 Y34.524 E432.33620
G1 X111.801 Y165.609 E436.69612
G1 X111.401 Y165.609 E436.70944
G1 X111.401 Y34.524 E441.06936
G1 X111.001 Y34.656 E441.08336
G1 X111.001 Y165.609 E445.43888
G1 X110.601 Y165.211 E445.45764
G1 X110.601 Y35.054 E449.78668
G1 X110.201 Y35.451 E449.80544
G1 X110.201 Y164.814 E454.10808
G1 X109.801 Y164.416 E454.12684
G1 X109.801 Y35.849 E458.40300
G1 X109.401 Y36.247 E458.42176
G1 X109.401 Y164.018 E462.67144
G1 X109.001 Y163.621 E462.69020
G1 X109.001 Y36.644 E466.91344
G1 X108.601 Y37.042 E466.93224
G1 X108.601 Y163.223 E471.12904


; ------------------------------------
; Layer #0
; ------------------------------------
G21 ; mm
G90 ; abs
G92 E0 ;reset extr
G0 F600 Z1.450
;segType:HShell
G0 F3000 E-1.00000
G0 X117.439 Y159.539 F5400
G0 F3000 E0.00000
G1 X114.460 Y156.561 E0.14008 F2400
G0 X114.460 Y157.127 F5400
G1 X116.873 Y159.539 E0.25355 F2400
G0 X116.307 Y159.539 F5400
G1 X114.460 Y157.693 E0.34041 F2400
G0 X114.460 Y158.258 F5400
G1 X115.741 Y159.539 E0.40066 F2400
G0 X115.176 Y159.539 F5400
G1 X114.460 Y158.824 E0.43431 F2400
G0 X114.610 Y159.539 F5400
G1 X114.460 Y159.390 E0.44135 F2400
G0 X114.280 Y160.084 F5400
;segType:Perimeter
G1 X113.700 Y160.240 E0.46130 F1200
G1 X113.700 Y39.700 E4.47045
G1 X146.300 Y39.700 E5.55471
G1 X146.300 Y160.300 E9.56586
G1 X113.760 Y160.300 E10.64812
G0 X113.700 Y160.240 F5400
G0 X113.700 Y158.640
G0 X114.100 Y159.200
;segType:Loop
G1 X114.100 Y40.100 E14.60937 F2400
G1 X145.900 Y40.100 E15.66702
G1 X145.900 Y159.900 E19.65156
G1 X114.100 Y159.900 E20.70921
G1 X114.100 Y159.400 E20.72584
G0 F3000 E19.72584
G0 X130.527 Y153.960 F5400
G0 F3000 E20.72584
;segType:HShell
G1 X136.106 Y159.539 E20.98826 F2400
G0 X136.672 Y159.539 F5400
G1 X131.093 Y153.960 E21.25067 F2400
G0 X130.390 Y153.200 F5400
;segType:Perimeter
G1 X124.550 Y153.200 E21.44494 F1200
G1 X124.550 Y149.300 E21.57468
G1 X130.450 Y149.300 E21.77094
G1 X130.450 Y153.140 E21.89869
G0 X130.390 Y153.200 F5400
G0 X128.790 Y153.200
G0 X129.350 Y153.600
;segType:Loop
G1 X124.150 Y153.600 E22.07167 F2400
G1 X124.150 Y148.900 E22.22802
G1 X130.850 Y148.900 E22.45089
G1 X130.850 Y153.600 E22.60723
G1 X129.550 Y153.600 E22.65047
G0 F3000 E21.65047
G0 X145.540 Y159.356 F5400
G0 F3000 E22.65047
;segType:HShell
G1 X129.986 Y143.802 E23.38208 F2400
G0 X129.553 Y144.117 F5400
;segType:Perimeter
G1 X129.445 Y144.910 E23.40869 F1200
G1 X129.391 Y145.335 E23.42297
G1 X129.211 Y145.790 E23.43923
G1 X128.923 Y146.186 E23.45551
G1 X128.546 Y146.498 E23.47179
G1 X128.103 Y146.706 E23.48806
G1 X127.622 Y146.798 E23.50434
G1 X127.134 Y146.767 E23.52061
G1 X126.669 Y146.616 E23.53689
G1 X126.256 Y146.354 E23.55316
G1 X125.921 Y145.997 E23.56943
G1 X125.685 Y145.569 E23.58570
G1 X125.563 Y145.095 E23.60198
G1 X125.563 Y144.606 E23.61825
G1 X125.685 Y144.131 E23.63453
G1 X125.921 Y143.703 E23.65081
G1 X126.256 Y143.346 E23.66708
G1 X126.669 Y143.084 E23.68335
G1 X127.134 Y142.932 E23.69962
G1 X127.623 Y142.902 E23.71590
G1 X128.103 Y142.994 E23.73218
G1 X128.546 Y143.202 E23.74844
G1 X128.923 Y143.514 E23.76472
G1 X129.211 Y143.910 E23.78100
G1 X129.391 Y144.365 E23.79727
G1 X129.445 Y144.791 E23.81155
G0 X129.445 Y144.910 F5400
G0 X129.391 Y145.335
G0 X129.211 Y145.790
G0 X128.923 Y146.186
G0 X128.775 Y146.309
G0 X129.217 Y146.462
G0 X129.505 Y146.065
;segType:Loop
G1 X129.217 Y146.462 E23.82786 F2400
G1 X128.762 Y146.839 E23.84751
G1 X128.228 Y147.090 E23.86714
G1 X127.648 Y147.200 E23.88678
G1 X127.059 Y147.163 E23.90641
G1 X126.497 Y146.981 E23.92605
G1 X125.999 Y146.665 E23.94568
G1 X125.595 Y146.234 E23.96531
G1 X125.310 Y145.717 E23.98495
G1 X125.163 Y145.145 E24.00459
G1 X125.163 Y144.555 E24.02422
G1 X125.310 Y143.983 E24.04386
G1 X125.595 Y143.465 E24.06350
G1 X125.999 Y143.035 E24.08313
G1 X126.337 Y142.821 E24.09646
G1 X126.370 Y142.692 E24.10290
G0 X126.685 Y142.628 F5400
G0 X127.028 Y142.574
G0 X127.142 Y142.566
G0 X127.600 Y142.552
G0 X127.714 Y142.557
G0 X128.057 Y142.589
G1 X128.463 Y142.658 E24.12053 F2400
G1 X128.595 Y142.687 E24.12698
G1 X128.640 Y142.804 E24.13114
G1 X128.762 Y142.861 E24.13562
G1 X129.217 Y143.238 E24.15526
G1 X129.564 Y143.716 E24.17491
G1 X129.781 Y144.264 E24.19454
G1 X129.855 Y144.850 E24.21417
G1 X129.781 Y145.436 E24.23381
G1 X129.601 Y145.891 E24.25010
G0 F3000 E23.25010
G0 X145.900 Y156.190 F5400
G0 X145.540 Y155.962
G0 F3000 E24.25010
;segType:HShell
G1 X131.961 Y142.383 E24.88882 F2400
G0 X131.940 Y142.201 F5400
;segType:Perimeter
G1 X131.140 Y142.201 E24.91543 F1200
G1 X123.800 Y142.201 E25.15958
G1 X123.800 Y126.800 E25.67182
G1 X131.200 Y126.800 E25.91797
G1 X131.200 Y142.141 E26.42821
G0 X131.140 Y142.201 F5400
G0 X129.540 Y142.201
G0 X130.100 Y142.601
;segType:Loop
G1 X128.742 Y142.601 E26.47338 F2400
G1 X128.628 Y142.695 E26.48061
G1 X128.514 Y142.669 E26.48584
G1 X128.400 Y142.643 E26.49058
G1 X128.285 Y142.618 E26.49481
G1 X128.171 Y142.592 E26.49855
G1 X128.057 Y142.589 E26.50213
G1 X127.942 Y142.578 E26.50553
G1 X127.828 Y142.567 E26.50871
G1 X127.714 Y142.557 E26.51170
G1 X127.600 Y142.552 E26.51457
G1 X127.485 Y142.555 E26.51751
G1 X127.371 Y142.559 E26.52052
G1 X127.257 Y142.562 E26.52359
G1 X127.142 Y142.566 E26.52674
G1 X127.028 Y142.574 E26.53004
G1 X126.914 Y142.592 E26.53373
G1 X126.800 Y142.610 E26.53777
G1 X126.685 Y142.628 E26.54216
G0 X126.571 Y142.633 F5400
G0 X126.457 Y142.666
G0 X126.342 Y142.700
G1 X126.228 Y142.601 E26.54719 F2400
G1 X123.400 Y142.601 E26.64126
G1 X123.400 Y126.400 E27.18011
G1 X126.228 Y126.400 E27.27418
G1 X126.342 Y126.300 E27.28171
G1 X126.457 Y126.334 E27.28697
G1 X126.571 Y126.367 E27.29158
G0 X126.685 Y126.372 F5400
G0 X127.028 Y126.426
G0 X127.142 Y126.434
G0 X127.600 Y126.449
G0 X127.714 Y126.443
G0 X128.057 Y126.411
G1 X128.171 Y126.408 E27.29523 F2400
G1 X128.285 Y126.382 E27.29946
G1 X128.400 Y126.357 E27.30419
G1 X128.514 Y126.331 E27.30942
G1 X128.628 Y126.306 E27.31515
G1 X128.742 Y126.400 E27.32007
G1 X131.600 Y126.400 E27.41513
G1 X131.600 Y142.601 E27.95398
G1 X130.300 Y142.601 E27.99721
G0 F3000 E26.99721
G0 X130.300 Y142.601 F5400
G0 X131.600 Y142.601
G0 X131.600 Y142.341
G0 X145.900 Y139.485
G0 X145.540 Y139.557
G0 F3000 E27.99721
;segType:HShell
G1 X130.209 Y124.226 E28.71834 F2400
G0 X129.551 Y125.993 F5400
;segType:InnerHair
G1 X129.439 Y126.042 E28.72155 F2400
G1 X129.320 Y126.085 E28.72395
G0 X129.586 Y125.867 F5400
;segType:HShell
G0 X129.472 Y126.035
G1 X130.075 Y125.789 E28.75441 F2400
G0 X130.003 Y125.153 F5400
G1 X130.890 Y126.039 E28.79613 F2400
G0 X131.456 Y126.039 F5400
G1 X130.145 Y124.728 E28.85780 F2400
G0 X129.652 Y124.497 F5400
;segType:Perimeter
G1 X129.175 Y125.139 E28.88441 F1200
G1 X128.923 Y125.486 E28.89868
G1 X128.546 Y125.798 E28.91496
G1 X128.103 Y126.006 E28.93123
G1 X127.623 Y126.098 E28.94751
G1 X127.134 Y126.067 E28.96378
G1 X126.669 Y125.916 E28.98006
G1 X126.256 Y125.654 E28.99633
G1 X125.921 Y125.297 E29.01261
G1 X125.685 Y124.868 E29.02888
G1 X125.563 Y124.395 E29.04516
G1 X125.563 Y123.905 E29.06142
G1 X125.685 Y123.431 E29.07770
G1 X125.921 Y123.003 E29.09398
G1 X126.256 Y122.646 E29.11026
G1 X126.669 Y122.384 E29.12653
G1 X127.134 Y122.233 E29.14280
G1 X127.623 Y122.202 E29.15907
G1 X128.103 Y122.294 E29.17535
G1 X128.546 Y122.502 E29.19162
G1 X128.923 Y122.814 E29.20790
G1 X129.211 Y123.210 E29.22418
G1 X129.391 Y123.665 E29.24045
G1 X129.452 Y124.150 E29.25672
G1 X129.391 Y124.635 E29.27299
G1 X129.233 Y125.035 E29.28727
G0 X129.175 Y125.139 F5400
G0 X128.923 Y125.486
G0 X128.546 Y125.798
G0 X128.103 Y126.006
G0 X127.914 Y126.042
G0 X127.942 Y126.422
G0 X128.057 Y126.411
G0 X128.449 Y126.346
G0 X128.581 Y126.316
G0 X128.590 Y126.294
G0 X128.624 Y126.307
G0 X128.628 Y126.306
G0 X128.590 Y126.294
;segType:Loop
G1 X128.581 Y126.316 E29.28807 F2400
G1 X128.449 Y126.346 E29.29445
G1 X128.057 Y126.411 E29.31125
G1 X127.942 Y126.422 E29.31485
G1 X127.828 Y126.433 E29.31824
G1 X127.714 Y126.443 E29.32143
G1 X127.600 Y126.449 E29.32440
G1 X127.485 Y126.445 E29.32727
G1 X127.371 Y126.441 E29.33021
G1 X127.257 Y126.438 E29.33322
G1 X127.142 Y126.434 E29.33630
G1 X127.028 Y126.426 E29.33945
G1 X126.914 Y126.408 E29.34280
G1 X126.800 Y126.390 E29.34649
G1 X126.685 Y126.372 E29.35053
G1 X126.348 Y126.186 E29.36512
G1 X125.999 Y125.965 E29.37887
G1 X125.595 Y125.534 E29.39851
G1 X125.310 Y125.017 E29.41815
G1 X125.163 Y124.445 E29.43778
G1 X125.163 Y123.855 E29.45741
G1 X125.310 Y123.283 E29.47705
G1 X125.595 Y122.765 E29.49669
G1 X125.999 Y122.335 E29.51632
G1 X126.497 Y122.019 E29.53596
G1 X127.059 Y121.837 E29.55559
G1 X127.648 Y121.799 E29.57523
G1 X128.228 Y121.910 E29.59487
G1 X128.762 Y122.161 E29.61449
G1 X129.217 Y122.538 E29.63414
G1 X129.564 Y123.015 E29.65378
G1 X129.781 Y123.564 E29.67341
G1 X129.855 Y124.150 E29.69304
G1 X129.781 Y124.736 E29.71268
G1 X129.564 Y125.285 E29.73231
G1 X129.217 Y125.762 E29.75194
G1 X128.762 Y126.139 E29.77159
G0 F3000 E28.77159
G0 X129.217 Y125.762 F5400
G0 X129.564 Y125.285
G0 X129.781 Y124.736
G0 X129.855 Y124.150
G0 X129.817 Y123.851
G0 X145.540 Y89.777
G0 F3000 E29.77159
;segType:HShell
G1 X129.723 Y73.961 E30.51554 F2400
G0 X129.314 Y73.913 F5400
;segType:InnerHair
G1 X129.428 Y73.944 E30.51837 F2400
G1 X129.542 Y74.002 E30.52267
G0 X128.946 Y74.219 F5400
;segType:Perimeter
G1 X129.233 Y74.965 E30.54928 F1200
G1 X129.391 Y75.365 E30.56356
G1 X129.452 Y75.850 E30.57983
G1 X129.391 Y76.335 E30.59610
G1 X129.211 Y76.790 E30.61238
G1 X128.923 Y77.186 E30.62866
G1 X128.546 Y77.498 E30.64493
G1 X128.103 Y77.706 E30.66120
G1 X127.623 Y77.798 E30.67748
G1 X127.134 Y77.767 E30.69375
G1 X126.669 Y77.616 E30.71003
G1 X126.256 Y77.354 E30.72630
G1 X125.921 Y76.997 E30.74257
G1 X125.685 Y76.569 E30.75885
G1 X125.563 Y76.095 E30.77513
G1 X125.563 Y75.605 E30.79140
G1 X125.685 Y75.132 E30.80767
G1 X125.921 Y74.703 E30.82395
G1 X126.256 Y74.346 E30.84022
G1 X126.669 Y74.084 E30.85650
G1 X127.134 Y73.933 E30.87277
G1 X127.623 Y73.902 E30.88904
G1 X128.103 Y73.994 E30.90532
G1 X128.546 Y74.202 E30.92159
G1 X128.923 Y74.514 E30.93788
G1 X129.175 Y74.861 E30.95215
G0 X129.233 Y74.965 F5400
G0 X129.391 Y75.365
G0 X129.452 Y75.850
G0 X129.391 Y76.335
G0 X129.320 Y76.514
G0 X129.781 Y76.436
G0 X129.843 Y75.949
;segType:Loop
G1 X129.781 Y76.436 E30.96846 F2400
G1 X129.564 Y76.985 E30.98809
G1 X129.217 Y77.462 E31.00773
G1 X128.762 Y77.839 E31.02737
G1 X128.228 Y78.090 E31.04700
G1 X127.648 Y78.201 E31.06664
G1 X127.059 Y78.163 E31.08627
G1 X126.497 Y77.981 E31.10591
G1 X125.999 Y77.665 E31.12555
G1 X125.595 Y77.235 E31.14517
G1 X125.310 Y76.717 E31.16482
G1 X125.163 Y76.145 E31.18446
G1 X125.163 Y75.555 E31.20408
G1 X125.310 Y74.983 E31.22372
G1 X125.595 Y74.466 E31.24336
G1 X125.999 Y74.035 E31.26299
G1 X126.345 Y73.815 E31.27665
G0 X126.685 Y73.628 F5400
G0 X127.028 Y73.574
G0 X127.142 Y73.566
G0 X127.600 Y73.551
G0 X127.714 Y73.557
G0 X128.057 Y73.589
G1 X128.452 Y73.655 E31.29363 F2400
G1 X128.584 Y73.685 E31.30002
G1 X128.631 Y73.800 E31.30415
G1 X128.762 Y73.861 E31.30897
G1 X129.217 Y74.238 E31.32862
G1 X129.564 Y74.715 E31.34825
G1 X129.781 Y75.264 E31.36788
G1 X129.843 Y75.751 E31.38419
G0 F3000 E30.38419
G0 X145.900 Y87.205 F5400
G0 X145.540 Y86.948
G0 F3000 E31.38419
;segType:HShell
G1 X131.961 Y73.369 E32.02290 F2400
G0 X131.940 Y73.200 F5400
;segType:Perimeter
G1 X131.140 Y73.200 E32.04951 F1200
G1 X123.800 Y73.200 E32.29366
G1 X123.800 Y57.799 E32.80590
G1 X131.200 Y57.799 E33.05205
G1 X131.200 Y73.140 E33.56229
G0 X131.140 Y73.200 F5400
G0 X129.540 Y73.200
G0 X130.100 Y73.600
;segType:Loop
G1 X128.742 Y73.600 E33.60746 F2400
G1 X128.628 Y73.694 E33.61470
G1 X128.514 Y73.669 E33.61993
G1 X128.400 Y73.643 E33.62466
G1 X128.285 Y73.618 E33.62889
G1 X128.171 Y73.592 E33.63263
G1 X128.057 Y73.589 E33.63622
G1 X127.942 Y73.578 E33.63961
G1 X127.828 Y73.567 E33.64280
G1 X127.714 Y73.557 E33.64578
G1 X127.600 Y73.551 E33.64865
G1 X127.485 Y73.555 E33.65159
G1 X127.371 Y73.559 E33.65460
G1 X127.257 Y73.562 E33.65768
G1 X127.142 Y73.566 E33.66083
G1 X127.028 Y73.574 E33.66414
G1 X126.914 Y73.592 E33.66783
G1 X126.800 Y73.610 E33.67187
G1 X126.685 Y73.628 E33.67626
G1 X126.571 Y73.633 E33.68068
G1 X126.457 Y73.666 E33.68595
G1 X126.342 Y73.700 E33.69187
G1 X126.228 Y73.600 E33.69690
G1 X123.400 Y73.600 E33.79097
G1 X123.400 Y57.399 E34.32982
G1 X126.228 Y57.399 E34.42389
G1 X126.342 Y57.300 E34.43142
G1 X126.457 Y57.334 E34.43669
G1 X126.571 Y57.367 E34.44130
G0 X126.685 Y57.372 F5400
G0 X127.028 Y57.426
G0 X127.142 Y57.434
G0 X127.600 Y57.448
G0 X127.714 Y57.443
G0 X128.057 Y57.411
G1 X128.171 Y57.408 E34.44494 F2400
G1 X128.285 Y57.382 E34.44918
G1 X128.400 Y57.357 E34.45391
G1 X128.514 Y57.331 E34.45914
G1 X128.628 Y57.305 E34.46486
G1 X128.742 Y57.399 E34.46979
G1 X131.600 Y57.399 E34.56484
G1 X131.600 Y73.600 E35.10369
G1 X130.300 Y73.600 E35.14693
G0 F3000 E34.14693
G0 X130.300 Y73.600 F5400
G0 X131.600 Y73.600
G0 X131.600 Y73.195
G0 X145.900 Y68.734
G0 X145.540 Y68.847
G0 F3000 E35.14693
;segType:HShell
G1 X128.154 Y51.461 E35.96471 F2400
G0 X127.588 Y51.461 F5400
G1 X129.106 Y52.978 E36.03609 F2400
G0 X128.946 Y53.519 F5400
;segType:Perimeter
G1 X129.233 Y54.265 E36.06270 F1200
G1 X129.391 Y54.665 E36.07698
G1 X129.452 Y55.150 E36.09325
G1 X129.391 Y55.635 E36.10953
G1 X129.211 Y56.090 E36.12580
G1 X128.923 Y56.486 E36.14208
G1 X128.546 Y56.798 E36.15835
G1 X128.103 Y57.006 E36.17462
G1 X127.623 Y57.098 E36.19090
G1 X127.134 Y57.068 E36.20717
G1 X126.669 Y56.916 E36.22345
G1 X126.256 Y56.654 E36.23972
G1 X125.921 Y56.298 E36.25599
G1 X125.685 Y55.869 E36.27227
G1 X125.563 Y55.394 E36.28855
G1 X125.563 Y54.905 E36.30481
G1 X125.685 Y54.431 E36.32109
G1 X125.921 Y54.003 E36.33737
G1 X126.256 Y53.646 E36.35364
G1 X126.669 Y53.384 E36.36992
G1 X127.134 Y53.233 E36.38619
G1 X127.623 Y53.202 E36.40246
G1 X128.103 Y53.294 E36.41874
G1 X128.546 Y53.502 E36.43501
G1 X128.923 Y53.814 E36.45130
G1 X129.175 Y54.161 E36.46557
G0 X129.233 Y54.265 F5400
G0 X129.391 Y54.665
G0 X129.452 Y55.150
G0 X129.391 Y55.635
G0 X129.320 Y55.814
G0 X129.781 Y55.736
G0 X129.843 Y55.249
;segType:Loop
G1 X129.781 Y55.736 E36.48188 F2400
G1 X129.564 Y56.285 E36.50151
G1 X129.217 Y56.762 E36.52115
G1 X128.762 Y57.139 E36.54080
G1 X128.637 Y57.197 E36.54537
G1 X128.592 Y57.313 E36.55131
G1 X128.460 Y57.343 E36.55708
G1 X128.057 Y57.411 E36.56991
G1 X127.942 Y57.422 E36.57330
G1 X127.828 Y57.432 E36.57649
G1 X127.714 Y57.443 E36.57947
G1 X127.600 Y57.448 E36.58235
G1 X127.485 Y57.445 E36.58529
G1 X127.371 Y57.441 E36.58830
G1 X127.257 Y57.438 E36.59137
G1 X127.142 Y57.434 E36.59451
G1 X127.028 Y57.426 E36.59782
G1 X126.914 Y57.408 E36.60151
G1 X126.800 Y57.390 E36.60555
G1 X126.685 Y57.372 E36.60993
G1 X126.339 Y57.181 E36.62307
G1 X125.999 Y56.965 E36.63649
G1 X125.595 Y56.535 E36.65611
G1 X125.310 Y56.017 E36.67576
G1 X125.163 Y55.445 E36.69540
G1 X125.163 Y54.855 E36.71503
G1 X125.310 Y54.283 E36.73467
G1 X125.595 Y53.766 E36.75430
G1 X125.999 Y53.335 E36.77393
G1 X126.497 Y53.019 E36.79358
G1 X127.059 Y52.837 E36.81321
G1 X127.648 Y52.799 E36.83284
G1 X128.228 Y52.910 E36.85248
G1 X128.762 Y53.161 E36.87211
G1 X129.217 Y53.538 E36.89176
G1 X129.564 Y54.015 E36.91139
G1 X129.781 Y54.564 E36.93103
G1 X129.843 Y55.051 E36.94734
G0 F3000 E35.94734
G0 X129.843 Y55.051 F5400
G0 X145.900 Y65.691
G0 X145.540 Y65.452
G0 F3000 E36.94734
;segType:HShell
G1 X131.211 Y51.123 E37.62132 F2400
G0 X131.190 Y50.700 F5400
;segType:Perimeter
G1 X130.390 Y50.700 E37.64793 F1200
G1 X124.550 Y50.700 E37.84220
G1 X124.550 Y46.800 E37.97194
G1 X130.450 Y46.800 E38.16820
G1 X130.450 Y50.640 E38.29595
G0 X130.390 Y50.700 F5400
G0 X128.790 Y50.700
G0 X129.350 Y51.100
;segType:Loop
G1 X124.150 Y51.100 E38.46893 F2400
G1 X124.150 Y46.400 E38.62528
G1 X130.850 Y46.400 E38.84815
G1 X130.850 Y51.100 E39.00449
G1 X129.550 Y51.100 E39.04773
G0 F3000 E38.04773
G0 X127.757 Y52.820 F5400
G0 X128.228 Y52.910
G0 X128.076 Y52.514
G0 F3000 E39.04773
;segType:HShell
G1 X127.022 Y51.461 E39.09731 F2400
G0 X126.457 Y51.461 F5400
G1 X127.447 Y52.451 E39.14390 F2400
G0 X126.930 Y52.500 F5400
G1 X125.891 Y51.461 E39.19278 F2400
G0 X125.325 Y51.461 F5400
G1 X126.503 Y52.638 E39.24817 F2400
G0 X126.126 Y52.828 F5400
G1 X124.760 Y51.461 E39.31247 F2400
G0 X124.194 Y51.461 F5400
G1 X125.780 Y53.047 E39.38710 F2400
G0 X125.504 Y53.336 F5400
G1 X114.461 Y42.293 E39.90654 F2400
G0 X114.461 Y42.859 F5400
G1 X125.249 Y53.647 E40.41400 F2400
G0 X125.048 Y54.012 F5400
G1 X114.461 Y43.424 E40.91201 F2400
G0 X114.461 Y43.990 F5400
G1 X124.901 Y54.430 E41.40308 F2400
G0 X124.803 Y54.898 F5400
G1 X114.461 Y44.556 E41.88957 F2400
G0 X114.461 Y45.121 F5400
G1 X124.803 Y55.464 E42.37606 F2400
G0 X125.032 Y56.258 F5400
G1 X114.461 Y45.687 E42.87330 F2400
G0 X114.461 Y46.253 F5400
G1 X125.247 Y57.039 E43.38067 F2400
G0 X124.681 Y57.039 F5400
G1 X114.461 Y46.818 E43.86143 F2400
G0 X114.461 Y47.384 F5400
G1 X124.116 Y57.039 E44.31558 F2400
G0 X123.550 Y57.039 F5400
G1 X114.461 Y47.950 E44.74312 F2400
G0 X114.461 Y48.516 F5400
G1 X123.040 Y57.095 E45.14666 F2400
G0 X123.040 Y57.660 F5400
G1 X114.461 Y49.081 E45.55019 F2400
G0 X114.461 Y49.647 F5400
G1 X123.040 Y58.226 E45.95373 F2400
G0 X123.040 Y58.792 F5400
G1 X114.461 Y50.213 E46.35726 F2400
G0 X114.461 Y50.778 F5400
G1 X123.040 Y59.357 E46.76079 F2400
G0 X123.040 Y59.923 F5400
G1 X114.461 Y51.344 E47.16433 F2400
G0 X114.461 Y51.910 F5400
G1 X123.040 Y60.489 E47.56786 F2400
G0 X123.040 Y61.054 F5400
G1 X114.461 Y52.475 E47.97140 F2400
G0 X114.461 Y53.041 F5400
G1 X123.040 Y61.620 E48.37493 F2400
G0 X123.040 Y62.186 F5400
G1 X114.461 Y53.607 E48.77846 F2400
G0 X114.461 Y54.172 F5400
G1 X123.040 Y62.751 E49.18200 F2400
G0 X123.040 Y63.317 F5400
G1 X114.461 Y54.738 E49.58553 F2400
G0 X114.461 Y55.304 F5400
G1 X123.040 Y63.883 E49.98907 F2400
G0 X123.040 Y64.448 F5400
G1 X114.461 Y55.869 E50.39260 F2400
G0 X114.461 Y56.435 F5400
G1 X123.040 Y65.014 E50.79613 F2400
G0 X123.040 Y65.580 F5400
G1 X114.461 Y57.001 E51.19967 F2400
G0 X114.461 Y57.566 F5400
G1 X123.040 Y66.146 E51.60320 F2400
G0 X123.040 Y66.711 F5400
G1 X114.461 Y58.132 E52.00674 F2400
G0 X114.461 Y58.698 F5400
G1 X123.040 Y67.277 E52.41027 F2400
G0 X123.040 Y67.843 F5400
G1 X114.461 Y59.264 E52.81380 F2400
G0 X114.461 Y59.829 F5400
G1 X123.040 Y68.408 E53.21734 F2400
G0 X123.040 Y68.974 F5400
G1 X114.461 Y60.395 E53.62087 F2400
G0 X114.461 Y60.961 F5400
G1 X123.040 Y69.540 E54.02441 F2400
G0 X123.040 Y70.105 F5400
G1 X114.461 Y61.526 E54.42794 F2400
G0 X114.461 Y62.092 F5400
G1 X123.040 Y70.671 E54.83147 F2400
G0 X123.040 Y71.237 F5400
G1 X114.461 Y62.658 E55.23501 F2400
G0 X114.461 Y63.223 F5400
G1 X123.040 Y71.802 E55.63854 F2400
G0 X123.040 Y72.368 F5400
G1 X114.461 Y63.789 E56.04207 F2400
G0 X114.461 Y64.355 F5400
G1 X123.040 Y72.934 E56.44561 F2400
G0 X123.040 Y73.499 F5400
G1 X114.461 Y64.920 E56.84914 F2400
G0 X114.461 Y66.617 F5400
G1 X125.457 Y77.614 E57.36640 F2400
G0 X124.874 Y76.465 F5400
G1 X114.461 Y66.052 E57.85620 F2400
G0 X114.461 Y65.486 F5400
G1 X124.803 Y75.829 E58.34270 F2400
G0 X124.854 Y75.313 F5400
G1 X123.501 Y73.961 E58.40633 F2400
G0 X124.066 Y73.961 F5400
G1 X124.969 Y74.863 E58.44879 F2400
G0 X124.723 Y74.334 F5400
G1 X125.253 Y74.016 E58.50022 F2400
G0 X125.425 Y74.026 F5400
;segType:InnerHair
G1 X125.537 Y73.977 E58.50382 F2400
G1 X125.650 Y73.928 E58.50643
G0 F3000 E57.50643
G0 X125.657 Y74.400 F5400
G0 X125.646 Y73.600
G0 X123.400 Y73.600
G0 X123.400 Y57.399
G0 X125.424 Y57.399
G0 X125.407 Y56.193
G0 X125.595 Y56.535
G0 X125.418 Y56.971
G0 F3000 E58.50643
G1 X125.530 Y57.020 E58.51010 F2400
G1 X125.643 Y57.069 E58.51276
G1 X125.756 Y57.118 E58.51443
G1 X125.657 Y57.075 E58.51668
G1 X125.542 Y57.025 E58.52029
G1 X125.428 Y57.020 E58.52371
G1 X125.418 Y56.971 E58.52558
G0 F3000 E57.52558
G0 X125.540 Y57.399 F5400
G0 X123.400 Y57.399
G0 X123.400 Y73.600
G0 X126.228 Y73.600
G0 X126.342 Y73.700
G0 X126.457 Y73.666
G0 X126.571 Y73.633
G0 X126.685 Y73.628
G0 X126.800 Y73.610
G0 X126.914 Y73.592
G0 X127.028 Y73.574
G0 X127.142 Y73.566
G0 X127.257 Y73.562
G0 X127.371 Y73.559
G0 X127.485 Y73.555
G0 X127.600 Y73.551
G0 X127.714 Y73.557
G0 X127.828 Y73.567
G0 X127.942 Y73.578
G0 X128.057 Y73.589
G0 X128.171 Y73.592
G0 X128.285 Y73.618
G0 X128.400 Y73.643
G0 X128.514 Y73.669
G0 X128.628 Y73.694
G0 X128.742 Y73.600
G0 X130.186 Y73.600
G0 X130.289 Y73.961
G0 F3000 E58.52558
;segType:HShell
G1 X145.540 Y89.211 E59.24293 F2400
G0 X145.540 Y88.646 F5400
G1 X130.855 Y73.961 E59.93366 F2400
G0 X131.420 Y73.961 F5400
G1 X145.540 Y88.080 E60.59779 F2400
G0 X145.540 Y87.514 F5400
G1 X131.961 Y73.935 E61.23650 F2400
G0 F3000 E60.23650
G0 X125.873 Y122.469 F5400
G0 X125.595 Y122.765
G0 X125.310 Y123.283
G0 X125.163 Y123.855
G0 X125.163 Y124.445
G0 X125.310 Y125.017
G0 X125.509 Y125.378
G0 X125.380 Y126.400
G0 X125.428 Y126.020
G0 F3000 E61.23650
;segType:InnerHair
G1 X125.542 Y126.025 E61.23982 F2400
G1 X125.657 Y126.075 E61.24240
G0 F3000 E60.24240
G0 X131.961 Y126.544 F5400
G0 F3000 E61.24240
;segType:HShell
G1 X145.540 Y140.123 E61.88111 F2400
G0 X145.540 Y140.689 F5400
G1 X131.961 Y127.110 E62.51983 F2400
G0 X131.961 Y127.675 F5400
G1 X145.540 Y141.254 E63.15854 F2400
G0 X145.540 Y141.820 F5400
G1 X131.961 Y128.241 E63.79726 F2400
G0 X131.961 Y128.807 F5400
G1 X145.540 Y142.386 E64.43597 F2400
G0 X145.540 Y142.951 F5400
G1 X131.961 Y129.372 E65.07468 F2400
G0 X131.961 Y129.938 F5400
G1 X145.540 Y143.517 E65.71339 F2400
G0 X145.540 Y144.083 F5400
G1 X131.961 Y130.504 E66.35210 F2400
G0 X131.961 Y131.069 F5400
G1 X145.540 Y144.648 E66.99081 F2400
G0 X145.540 Y145.214 F5400
G1 X131.961 Y131.635 E67.62952 F2400
G0 X131.961 Y132.201 F5400
G1 X145.540 Y145.780 E68.26823 F2400
G0 X145.540 Y146.345 F5400
G1 X131.961 Y132.766 E68.90694 F2400
G0 X131.961 Y133.332 F5400
G1 X145.540 Y146.911 E69.54565 F2400
G0 X145.540 Y147.477 F5400
G1 X131.961 Y133.898 E70.18436 F2400
G0 X131.961 Y134.464 F5400
G1 X145.540 Y148.042 E70.82307 F2400
G0 X145.540 Y148.608 F5400
G1 X131.961 Y135.029 E71.46178 F2400
G0 X131.961 Y135.595 F5400
G1 X145.540 Y149.174 E72.10049 F2400
G0 X145.540 Y149.740 F5400
G1 X131.961 Y136.161 E72.73920 F2400
G0 X131.961 Y136.726 F5400
G1 X145.540 Y150.305 E73.37791 F2400
G0 X145.540 Y150.871 F5400
G1 X131.961 Y137.292 E74.01662 F2400
G0 X131.961 Y137.858 F5400
G1 X145.540 Y151.437 E74.65533 F2400
G0 X145.540 Y152.002 F5400
G1 X131.961 Y138.423 E75.29404 F2400
G0 X131.961 Y138.989 F5400
G1 X145.540 Y152.568 E75.93275 F2400
G0 X145.540 Y153.134 F5400
G1 X131.961 Y139.555 E76.57146 F2400
G0 X131.961 Y140.120 F5400
G1 X145.540 Y153.699 E77.21017 F2400
G0 X145.540 Y154.265 F5400
G1 X131.961 Y140.686 E77.84888 F2400
G0 X131.961 Y141.252 F5400
G1 X145.540 Y154.831 E78.48759 F2400
G0 X145.540 Y155.396 F5400
G1 X131.961 Y141.817 E79.12630 F2400
G0 F3000 E78.12630
G0 X131.600 Y141.907 F5400
G0 X145.900 Y138.336
G0 X145.540 Y138.426
G0 F3000 E79.12630
G1 X129.690 Y122.577 E79.87179 F2400
G0 X130.149 Y123.601 F5400
G1 X145.540 Y138.992 E80.59573 F2400
G0 X129.182 Y146.958 F5400
G1 X130.763 Y148.539 E80.67009 F2400
G0 X130.197 Y148.539 F5400
G1 X128.852 Y147.194 E80.73336 F2400
G0 X128.467 Y147.375 F5400
G1 X129.632 Y148.539 E80.78813 F2400
G0 X129.066 Y148.539 F5400
G1 X128.022 Y147.496 E80.83722 F2400
G0 X127.514 Y147.553 F5400
G1 X128.500 Y148.539 E80.88363 F2400
G0 X127.935 Y148.539 F5400
G1 X126.879 Y147.484 E80.93329 F2400
G0 X125.784 Y146.955 F5400
G1 X127.369 Y148.539 E81.00781 F2400
G0 X126.803 Y148.539 F5400
G1 X114.460 Y136.197 E81.58837 F2400
G0 X114.460 Y136.762 F5400
G1 X126.237 Y148.539 E82.14233 F2400
G0 X125.672 Y148.539 F5400
G1 X114.460 Y137.328 E82.66967 F2400
G0 X114.460 Y137.894 F5400
G1 X125.106 Y148.539 E83.17041 F2400
G0 X124.540 Y148.539 F5400
G1 X114.460 Y138.459 E83.64454 F2400
G0 X114.460 Y139.025 F5400
G1 X123.975 Y148.539 E84.09206 F2400
G0 X123.790 Y148.920 F5400
G1 X114.460 Y139.591 E84.53088 F2400
G0 X114.460 Y140.157 F5400
G1 X123.790 Y149.486 E84.96969 F2400
G0 X123.790 Y150.051 F5400
G1 X114.460 Y140.722 E85.40850 F2400
G0 X114.460 Y141.288 F5400
G1 X123.790 Y150.617 E85.84731 F2400
G0 X123.790 Y151.183 F5400
G1 X114.460 Y141.854 E86.28613 F2400
G0 X114.460 Y142.419 F5400
G1 X123.790 Y151.748 E86.72494 F2400
G0 X123.790 Y152.314 F5400
G1 X114.460 Y142.985 E87.16375 F2400
G0 X114.460 Y143.551 F5400
G1 X123.790 Y152.880 E87.60256 F2400
G0 X123.790 Y153.445 F5400
G1 X114.460 Y144.116 E88.04137 F2400
G0 X114.460 Y155.996 F5400
G1 X118.004 Y159.539 E88.20806 F2400
G0 X118.570 Y159.539 F5400
G1 X114.460 Y155.430 E88.40135 F2400
G0 X114.460 Y154.864 F5400
G1 X119.136 Y159.539 E88.62125 F2400
G0 X119.701 Y159.539 F5400
G1 X114.460 Y154.299 E88.86777 F2400
G0 X114.460 Y153.733 F5400
G1 X120.267 Y159.539 E89.14088 F2400
G0 X120.833 Y159.539 F5400
G1 X114.460 Y153.167 E89.44061 F2400
G0 X114.460 Y152.602 F5400
G1 X121.398 Y159.539 E89.76694 F2400
G0 X121.964 Y159.539 F5400
G1 X114.460 Y152.036 E90.11989 F2400
G0 X114.460 Y151.470 F5400
G1 X122.530 Y159.539 E90.49944 F2400
G0 X123.095 Y159.539 F5400
G1 X114.460 Y150.905 E90.90560 F2400
G0 X114.460 Y150.339 F5400
G1 X123.661 Y159.539 E91.33837 F2400
G0 X124.227 Y159.539 F5400
G1 X114.460 Y149.773 E91.79774 F2400
G0 X114.460 Y149.207 F5400
G1 X124.792 Y159.539 E92.28373 F2400
G0 X125.358 Y159.539 F5400
G1 X114.460 Y148.642 E92.79632 F2400
G0 X114.460 Y148.076 F5400
G1 X125.924 Y159.539 E93.33552 F2400
G0 X126.489 Y159.539 F5400
G1 X114.460 Y147.510 E93.90133 F2400
G0 X114.460 Y146.945 F5400
G1 X127.055 Y159.539 E94.49374 F2400
G0 X127.621 Y159.539 F5400
G1 X114.460 Y146.379 E95.11277 F2400
G0 X114.460 Y145.813 F5400
G1 X128.187 Y159.539 E95.75840 F2400
G0 X128.752 Y159.539 F5400
G1 X114.460 Y145.248 E96.43064 F2400
G0 X114.460 Y144.682 F5400
G1 X129.318 Y159.539 E97.12949 F2400
G0 X129.884 Y159.539 F5400
G1 X124.305 Y153.960 E97.39191 F2400
G0 X124.870 Y153.960 F5400
G1 X130.449 Y159.539 E97.65433 F2400
G0 X131.015 Y159.539 F5400
G1 X125.436 Y153.960 E97.91675 F2400
G0 X126.002 Y153.960 F5400
G1 X131.581 Y159.539 E98.17917 F2400
G0 X132.146 Y159.539 F5400
G1 X126.567 Y153.960 E98.44159 F2400
G0 X127.133 Y153.960 F5400
G1 X132.712 Y159.539 E98.70401 F2400
G0 X133.278 Y159.539 F5400
G1 X127.699 Y153.960 E98.96643 F2400
G0 X128.264 Y153.960 F5400
G1 X133.843 Y159.539 E99.22885 F2400
G0 X134.409 Y159.539 F5400
G1 X128.830 Y153.960 E99.49127 F2400
G0 X129.396 Y153.960 F5400
G1 X134.975 Y159.539 E99.75369 F2400
G0 X135.540 Y159.539 F5400
G1 X129.961 Y153.960 E100.01611 F2400
G0 X131.211 Y153.513 F5400
G1 X137.238 Y159.539 E100.29960 F2400
G0 X137.803 Y159.539 F5400
G1 X131.211 Y152.947 E100.60970 F2400
G0 X131.211 Y152.381 F5400
G1 X138.369 Y159.539 E100.94640 F2400
G0 X138.935 Y159.539 F5400
G1 X131.211 Y151.815 E101.30971 F2400
G0 X131.211 Y151.250 F5400
G1 X139.500 Y159.539 E101.69962 F2400
G0 X140.066 Y159.539 F5400
G1 X131.211 Y150.684 E102.11615 F2400
G0 X131.211 Y150.118 F5400
G1 X140.632 Y159.539 E102.55929 F2400
G0 X141.197 Y159.539 F5400
G1 X131.211 Y149.553 E103.02903 F2400
G0 X131.211 Y148.987 F5400
G1 X141.763 Y159.539 E103.52538 F2400
G0 X142.329 Y159.539 F5400
G1 X129.489 Y146.700 E104.12931 F2400
G0 X129.727 Y146.372 F5400
G1 X142.894 Y159.539 E104.74865 F2400
G0 X143.460 Y159.539 F5400
G1 X129.938 Y146.018 E105.38467 F2400
G0 X130.099 Y145.612 F5400
G1 X144.026 Y159.539 E106.03976 F2400
G0 X144.591 Y159.539 F5400
G1 X130.183 Y145.131 E106.71751 F2400
G0 X130.182 Y144.564 F5400
G1 X145.157 Y159.539 E107.42188 F2400
G0 F3000 E106.42188
G0 X145.540 Y156.528 F5400
G0 F3000 E107.42188
G1 X131.961 Y142.949 E108.06059 F2400
G0 X131.407 Y142.961 F5400
G1 X145.540 Y157.093 E108.72536 F2400
G0 X145.540 Y157.659 F5400
G1 X130.841 Y142.961 E109.41673 F2400
G0 X130.275 Y142.961 F5400
G1 X145.540 Y158.225 E110.13470 F2400
G0 X145.540 Y158.791 F5400
G1 X129.710 Y142.961 E110.87930 F2400
G0 X129.542 Y143.002 F5400
;segType:InnerHair
G1 X129.428 Y142.944 E110.88235 F2400
G1 X129.314 Y142.913 E110.88457
G0 F3000 E109.88457
G0 X128.834 Y142.921 F5400
G0 X128.762 Y142.861
G0 X128.640 Y142.804
G0 X128.595 Y142.687
G0 X128.463 Y142.658
G0 X128.057 Y142.589
G0 X127.714 Y142.557
G0 X127.600 Y142.552
G0 X127.142 Y142.566
G0 X127.028 Y142.574
G0 X126.685 Y142.628
G0 X126.370 Y142.692
G0 X126.337 Y142.821
G0 X126.104 Y142.969
G0 X125.428 Y142.980
G0 F3000 E110.88457
G1 X125.542 Y142.975 E110.88788 F2400
G1 X125.657 Y142.925 E110.89046
G1 X125.753 Y142.883 E110.89191
G1 X125.641 Y142.932 E110.89461
G1 X125.528 Y142.981 E110.89830
G1 X125.415 Y143.030 E110.90298
G1 X125.428 Y142.980 E110.90451
G0 X125.184 Y142.961 F5400
;segType:HShell
G0 X125.424 Y142.918
G1 X124.890 Y143.233 E110.92641 F2400
G0 X124.053 Y142.961 F5400
G1 X124.966 Y143.874 E110.96937 F2400
G0 X124.851 Y144.324 F5400
G1 X123.487 Y142.961 E111.03351 F2400
G0 X125.671 Y146.842 F5400
G1 X114.460 Y135.631 E111.56082 F2400
G0 X114.460 Y135.065 F5400
G1 X124.878 Y145.483 E112.05085 F2400
G0 X124.803 Y144.842 F5400
G1 X114.460 Y134.500 E112.53735 F2400
G0 X114.460 Y133.934 F5400
G1 X123.040 Y142.513 E112.94088 F2400
G0 X123.040 Y141.947 F5400
G1 X114.460 Y133.368 E113.34441 F2400
G0 X114.460 Y132.803 F5400
G1 X123.040 Y141.382 E113.74795 F2400
G0 X123.040 Y140.816 F5400
G1 X114.460 Y132.237 E114.15148 F2400
G0 X114.460 Y131.671 F5400
G1 X123.040 Y140.250 E114.55502 F2400
G0 X123.040 Y139.685 F5400
G1 X114.460 Y131.106 E114.95855 F2400
G0 X114.460 Y130.540 F5400
G1 X123.040 Y139.119 E115.36208 F2400
G0 X123.040 Y138.553 F5400
G1 X114.460 Y129.974 E115.76562 F2400
G0 X114.460 Y129.409 F5400
G1 X123.040 Y137.988 E116.16915 F2400
G0 X123.040 Y137.422 F5400
G1 X114.460 Y128.843 E116.57269 F2400
G0 X114.460 Y128.277 F5400
G1 X123.040 Y136.856 E116.97622 F2400
G0 X123.040 Y136.291 F5400
G1 X114.460 Y127.711 E117.37975 F2400
G0 X114.460 Y127.146 F5400
G1 X123.040 Y135.725 E117.78329 F2400
G0 X123.040 Y135.159 F5400
G1 X114.460 Y126.580 E118.18682 F2400
G0 X114.460 Y126.014 F5400
G1 X123.040 Y134.593 E118.59035 F2400
G0 X123.040 Y134.028 F5400
G1 X114.460 Y125.449 E118.99389 F2400
G0 X114.460 Y124.883 F5400
G1 X123.040 Y133.462 E119.39742 F2400
G0 X123.040 Y132.896 F5400
G1 X114.460 Y124.317 E119.80096 F2400
G0 X114.460 Y123.752 F5400
G1 X123.040 Y132.331 E120.20449 F2400
G0 X123.040 Y131.765 F5400
G1 X114.460 Y123.186 E120.60802 F2400
G0 X114.460 Y122.620 F5400
G1 X123.040 Y131.199 E121.01156 F2400
G0 X123.040 Y130.634 F5400
G1 X114.460 Y122.055 E121.41509 F2400
G0 X114.460 Y121.489 F5400
G1 X123.040 Y130.068 E121.81863 F2400
G0 X123.040 Y129.502 F5400
G1 X114.460 Y120.923 E122.22216 F2400
G0 X114.460 Y120.358 F5400
G1 X123.040 Y128.937 E122.62569 F2400
G0 X123.040 Y128.371 F5400
G1 X114.460 Y119.792 E123.02923 F2400
G0 X114.460 Y119.226 F5400
G1 X123.040 Y127.805 E123.43276 F2400
G0 X123.040 Y127.240 F5400
G1 X114.460 Y118.660 E123.83630 F2400
G0 X114.460 Y118.095 F5400
G1 X123.040 Y126.674 E124.23983 F2400
G0 X123.040 Y126.108 F5400
G1 X114.460 Y117.529 E124.64336 F2400
G0 X114.460 Y116.963 F5400
G1 X123.536 Y126.039 E125.07027 F2400
G0 X124.102 Y126.039 F5400
G1 X114.460 Y116.398 E125.52379 F2400
G0 X114.460 Y115.832 F5400
G1 X124.668 Y126.039 E126.00391 F2400
G0 X125.234 Y126.039 F5400
G1 X114.460 Y115.266 E126.51064 F2400
G0 X114.460 Y114.701 F5400
G1 X125.049 Y125.289 E127.00868 F2400
G0 X124.803 Y124.478 F5400
G1 X114.460 Y114.135 E127.49518 F2400
G0 X114.460 Y113.569 F5400
G1 X124.803 Y123.912 E127.98167 F2400
G0 X124.898 Y123.441 F5400
G1 X114.460 Y113.004 E128.47261 F2400
G0 X114.460 Y112.438 F5400
G1 X125.043 Y123.021 E128.97040 F2400
G0 X125.244 Y122.656 F5400
G1 X114.460 Y111.872 E129.47763 F2400
G0 X114.460 Y111.307 F5400
G1 X125.497 Y122.343 E129.99677 F2400
G0 X125.772 Y122.053 F5400
G1 X114.460 Y110.741 E130.52884 F2400
G0 X114.460 Y110.175 F5400
G1 X126.118 Y121.833 E131.07718 F2400
G0 X126.493 Y121.642 F5400
G1 X114.460 Y109.610 E131.64314 F2400
G0 X114.460 Y109.044 F5400
G1 X126.920 Y121.503 E132.22919 F2400
G0 X127.434 Y121.452 F5400
G1 X114.460 Y108.478 E132.83945 F2400
G0 X114.460 Y107.912 F5400
G1 X128.059 Y121.511 E133.47910 F2400
G0 X129.027 Y121.913 F5400
G1 X114.460 Y107.347 E134.16426 F2400
G0 X114.460 Y106.781 F5400
G1 X145.540 Y137.860 E135.62613 F2400
G0 X145.540 Y137.294 F5400
G1 X114.460 Y106.215 E137.08800 F2400
G0 X114.460 Y105.650 F5400
G1 X145.540 Y136.729 E138.54987 F2400
G0 X145.540 Y136.163 F5400
G1 X114.460 Y105.084 E140.01173 F2400
G0 X114.460 Y104.518 F5400
G1 X145.540 Y135.597 E141.47360 F2400
G0 X145.540 Y135.032 F5400
G1 X114.460 Y103.953 E142.93547 F2400
G0 X114.460 Y103.387 F5400
G1 X145.540 Y134.466 E144.39734 F2400
G0 X145.540 Y133.900 F5400
G1 X114.460 Y102.821 E145.85921 F2400
G0 X114.460 Y102.256 F5400
G1 X145.540 Y133.335 E147.32108 F2400
G0 X145.540 Y132.769 F5400
G1 X114.460 Y101.690 E148.78294 F2400
G0 X114.460 Y101.124 F5400
G1 X145.540 Y132.203 E150.24481 F2400
G0 X145.540 Y131.638 F5400
G1 X114.460 Y100.559 E151.70668 F2400
G0 X114.460 Y99.993 F5400
G1 X145.540 Y131.072 E153.16855 F2400
G0 X145.540 Y130.506 F5400
G1 X114.460 Y99.427 E154.63042 F2400
G0 X114.460 Y98.861 F5400
G1 X145.540 Y129.941 E156.09229 F2400
G0 X145.540 Y129.375 F5400
G1 X114.460 Y98.296 E157.55415 F2400
G0 X114.460 Y97.730 F5400
G1 X145.540 Y128.809 E159.01602 F2400
G0 X145.540 Y128.244 F5400
G1 X114.460 Y97.164 E160.47789 F2400
G0 X114.460 Y96.599 F5400
G1 X145.540 Y127.678 E161.93976 F2400
G0 X145.540 Y127.112 F5400
G1 X114.460 Y96.033 E163.40163 F2400
G0 X114.460 Y95.467 F5400
G1 X145.540 Y126.546 E164.86349 F2400
G0 X145.540 Y125.981 F5400
G1 X114.460 Y94.902 E166.32536 F2400
G0 X114.460 Y94.336 F5400
G1 X145.540 Y125.415 E167.78724 F2400
G0 X145.540 Y124.849 F5400
G1 X114.460 Y93.770 E169.24910 F2400
G0 X114.460 Y93.205 F5400
G1 X145.540 Y124.284 E170.71096 F2400
G0 X145.540 Y123.718 F5400
G1 X114.460 Y92.639 E172.17284 F2400
G0 X114.460 Y92.073 F5400
G1 X145.540 Y123.152 E173.63470 F2400
G0 X145.540 Y122.587 F5400
G1 X114.460 Y91.508 E175.09658 F2400
G0 X114.460 Y90.942 F5400
G1 X145.540 Y122.021 E176.55844 F2400
G0 X145.540 Y121.455 F5400
G1 X114.460 Y90.376 E178.02030 F2400
G0 X114.460 Y89.811 F5400
G1 X145.540 Y120.890 E179.48218 F2400
G0 X145.540 Y120.324 F5400
G1 X114.460 Y89.245 E180.94404 F2400
G0 X114.460 Y88.679 F5400
G1 X145.540 Y119.758 E182.40592 F2400
G0 X145.540 Y119.193 F5400
G1 X114.461 Y88.113 E183.86778 F2400
G0 X114.460 Y87.548 F5400
G1 X145.540 Y118.627 E185.32966 F2400
G0 X145.540 Y118.061 F5400
G1 X114.460 Y86.982 E186.79152 F2400
G0 X114.460 Y86.416 F5400
G1 X145.540 Y117.495 E188.25338 F2400
G0 X145.540 Y116.930 F5400
G1 X114.460 Y85.851 E189.71526 F2400
G0 X114.461 Y85.285 F5400
G1 X145.540 Y116.364 E191.17712 F2400
G0 X145.540 Y115.798 F5400
G1 X114.460 Y84.719 E192.63900 F2400
G0 X114.460 Y84.154 F5400
G1 X145.540 Y115.233 E194.10086 F2400
G0 X145.540 Y114.667 F5400
G1 X114.460 Y83.588 E195.56272 F2400
G0 X114.461 Y83.022 F5400
G1 X145.540 Y114.101 E197.02460 F2400
G0 X145.540 Y113.536 F5400
G1 X114.461 Y82.457 E198.48646 F2400
G0 X114.461 Y81.891 F5400
G1 X145.540 Y112.970 E199.94834 F2400
G0 X145.540 Y112.404 F5400
G1 X114.461 Y81.325 E201.41020 F2400
G0 X114.461 Y80.760 F5400
G1 X145.540 Y111.839 E202.87208 F2400
G0 X145.540 Y111.273 F5400
G1 X114.461 Y80.194 E204.33394 F2400
G0 X114.461 Y79.628 F5400
G1 X145.540 Y110.707 E205.79580 F2400
G0 X145.540 Y110.142 F5400
G1 X114.461 Y79.063 E207.25768 F2400
G0 X114.461 Y78.497 F5400
G1 X145.540 Y109.576 E208.71954 F2400
G0 X145.540 Y109.010 F5400
G1 X114.461 Y77.931 E210.18142 F2400
G0 X114.461 Y77.365 F5400
G1 X145.540 Y108.445 E211.64328 F2400
G0 X145.540 Y107.879 F5400
G1 X114.461 Y76.800 E213.10514 F2400
G0 X114.461 Y76.234 F5400
G1 X145.540 Y107.313 E214.56702 F2400
G0 X145.540 Y106.747 F5400
G1 X114.461 Y75.668 E216.02888 F2400
G0 X114.461 Y75.103 F5400
G1 X145.540 Y106.182 E217.49076 F2400
G0 X145.540 Y105.616 F5400
G1 X114.461 Y74.537 E218.95262 F2400
G0 X114.461 Y73.971 F5400
G1 X145.540 Y105.050 E220.41448 F2400
G0 X145.540 Y104.485 F5400
G1 X114.461 Y73.406 E221.87636 F2400
G0 X114.461 Y72.840 F5400
G1 X145.540 Y103.919 E223.33822 F2400
G0 X145.540 Y103.353 F5400
G1 X114.461 Y72.274 E224.80010 F2400
G0 X114.461 Y71.709 F5400
G1 X145.540 Y102.788 E226.26196 F2400
G0 X145.540 Y102.222 F5400
G1 X114.461 Y71.143 E227.72384 F2400
G0 X114.461 Y70.577 F5400
G1 X145.540 Y101.656 E229.18570 F2400
G0 X145.540 Y101.091 F5400
G1 X114.461 Y70.012 E230.64756 F2400
G0 X114.461 Y69.446 F5400
G1 X145.540 Y100.525 E232.10944 F2400
G0 X145.540 Y99.959 F5400
G1 X114.461 Y68.880 E233.57130 F2400
G0 X114.461 Y68.315 F5400
G1 X145.540 Y99.394 E235.03318 F2400
G0 X145.540 Y98.828 F5400
G1 X114.461 Y67.749 E236.49504 F2400
G0 X114.461 Y67.183 F5400
G1 X145.540 Y98.262 E237.95690 F2400
G0 X145.540 Y97.696 F5400
G1 X125.822 Y77.979 E238.88436 F2400
G0 X126.899 Y78.490 F5400
G1 X145.540 Y97.131 E239.76116 F2400
G0 X145.540 Y96.565 F5400
G1 X127.528 Y78.554 E240.60836 F2400
G0 X128.034 Y78.494 F5400
G1 X145.540 Y95.999 E241.43178 F2400
G0 X145.540 Y95.434 F5400
G1 X128.477 Y78.371 E242.23436 F2400
G0 X128.861 Y78.190 F5400
G1 X145.540 Y94.868 E243.01886 F2400
G0 X145.540 Y94.302 F5400
G1 X129.190 Y77.952 E243.78792 F2400
G0 X129.495 Y77.692 F5400
G1 X145.540 Y93.737 E244.54260 F2400
G0 X145.540 Y93.171 F5400
G1 X129.733 Y77.365 E245.28608 F2400
G0 X129.942 Y77.008 F5400
G1 X145.540 Y92.605 E246.01974 F2400
G0 X145.540 Y92.040 F5400
G1 X130.102 Y76.602 E246.74586 F2400
G0 X130.184 Y76.119 F5400
G1 X145.540 Y91.474 E247.46814 F2400
G0 X145.540 Y90.908 F5400
G1 X130.180 Y75.549 E248.19060 F2400
G0 X129.977 Y74.780 F5400
G1 X145.540 Y90.343 E248.92262 F2400
G0 X145.540 Y86.383 F5400
G1 X131.961 Y72.804 E249.56134 F2400
G0 X131.961 Y72.238 F5400
G1 X145.540 Y85.817 E250.20006 F2400
G0 X145.540 Y85.251 F5400
G1 X131.961 Y71.672 E250.83878 F2400
G0 X131.961 Y71.107 F5400
G1 X145.540 Y84.686 E251.47750 F2400
G0 X145.540 Y84.120 F5400
G1 X131.961 Y70.541 E252.11622 F2400
G0 X131.961 Y69.975 F5400
G1 X145.540 Y83.554 E252.75492 F2400
G0 X145.540 Y82.989 F5400
G1 X131.961 Y69.410 E253.39364 F2400
G0 X131.961 Y68.844 F5400
G1 X145.540 Y82.423 E254.03236 F2400
G0 X145.540 Y81.857 F5400
G1 X131.961 Y68.278 E254.67108 F2400
G0 X131.961 Y67.713 F5400
G1 X145.540 Y81.292 E255.30980 F2400
G0 X145.540 Y80.726 F5400
G1 X131.961 Y67.147 E255.94852 F2400
G0 X131.961 Y66.581 F5400
G1 X145.540 Y80.160 E256.58722 F2400
G0 X145.540 Y79.595 F5400
G1 X131.961 Y66.016 E257.22592 F2400
G0 X131.961 Y65.450 F5400
G1 X145.540 Y79.029 E257.86462 F2400
G0 X145.540 Y78.463 F5400
G1 X131.961 Y64.884 E258.50332 F2400
G0 X131.961 Y64.319 F5400
G1 X145.540 Y77.898 E259.14202 F2400
G0 X145.540 Y77.332 F5400
G1 X131.961 Y63.753 E259.78074 F2400
G0 X131.961 Y63.187 F5400
G1 X145.540 Y76.766 E260.41944 F2400
G0 X145.540 Y76.200 F5400
G1 X131.961 Y62.621 E261.05814 F2400
G0 X131.961 Y62.056 F5400
G1 X145.540 Y75.635 E261.69684 F2400
G0 X145.540 Y75.069 F5400
G1 X131.961 Y61.490 E262.33554 F2400
G0 X131.961 Y60.924 F5400
G1 X145.540 Y74.503 E262.97424 F2400
G0 X145.540 Y73.938 F5400
G1 X131.961 Y60.359 E263.61294 F2400
G0 X131.961 Y59.793 F5400
G1 X145.540 Y73.372 E264.25164 F2400
G0 X145.540 Y72.806 F5400
G1 X131.961 Y59.227 E264.89036 F2400
G0 X131.961 Y58.662 F5400
G1 X145.540 Y72.241 E265.52906 F2400
G0 X145.540 Y71.675 F5400
G1 X131.961 Y58.096 E266.16776 F2400
G0 X131.961 Y57.530 F5400
G1 X145.540 Y71.109 E266.80646 F2400
G0 X145.540 Y70.544 F5400
G1 X130.210 Y55.214 E267.52750 F2400
G0 X130.147 Y54.585 F5400
G1 X145.540 Y69.978 E268.25152 F2400
G0 X145.540 Y69.412 F5400
G1 X129.654 Y53.527 E268.99872 F2400
G0 F3000 E267.99872
G0 X129.601 Y54.109 F5400
G0 X129.781 Y54.564
G0 X129.855 Y55.150
G0 X129.781 Y55.736
G0 X129.564 Y56.285
G0 X129.379 Y56.539
G0 X129.301 Y57.399
G0 X129.330 Y57.082
G0 F3000 E268.99872
;segType:InnerHair
G1 X129.449 Y57.039 E269.00210 F2400
G1 X129.560 Y56.989 E269.00638
G0 X129.592 Y56.859 F5400
;segType:HShell
G0 X129.481 Y57.031
G1 X130.084 Y56.785 E269.03820 F2400
G0 X130.007 Y56.143 F5400
G1 X130.904 Y57.039 E269.08038 F2400
G0 X131.470 Y57.039 F5400
G1 X130.147 Y55.716 E269.14260 F2400
G0 X130.982 Y51.461 F5400
G1 X145.540 Y66.018 E269.82736 F2400
G0 X145.540 Y66.584 F5400
G1 X130.416 Y51.461 E270.53870 F2400
G0 X129.851 Y51.461 F5400
G1 X145.540 Y67.149 E271.27664 F2400
G0 X145.540 Y67.715 F5400
G1 X129.285 Y51.461 E272.04120 F2400
G0 X128.719 Y51.461 F5400
G1 X145.540 Y68.281 E272.83236 F2400
G0 X145.540 Y64.887 F5400
G1 X131.211 Y50.558 E273.50634 F2400
G0 X131.211 Y49.992 F5400
G1 X145.540 Y64.321 E274.18032 F2400
G0 X145.540 Y63.755 F5400
G1 X131.211 Y49.426 E274.85430 F2400
G0 X131.211 Y48.861 F5400
G1 X145.540 Y63.190 E275.52828 F2400
G0 X145.540 Y62.624 F5400
G1 X131.211 Y48.295 E276.20228 F2400
G0 X131.211 Y47.729 F5400
G1 X145.540 Y62.058 E276.87626 F2400
G0 X145.540 Y61.493 F5400
G1 X131.211 Y47.164 E277.55024 F2400
G0 X131.211 Y46.598 F5400
G1 X145.540 Y60.927 E278.22422 F2400
G0 X145.540 Y60.361 F5400
G1 X125.639 Y40.461 E279.16028 F2400
G0 X126.205 Y40.461 F5400
G1 X145.540 Y59.796 E280.06974 F2400
G0 X145.540 Y59.230 F5400
G1 X126.770 Y40.461 E280.95258 F2400
G0 X127.336 Y40.461 F5400
G1 X145.540 Y58.664 E281.80880 F2400
G0 X145.540 Y58.099 F5400
G1 X127.902 Y40.461 E282.63846 F2400
G0 X128.467 Y40.461 F5400
G1 X145.540 Y57.533 E283.44150 F2400
G0 X145.540 Y56.967 F5400
G1 X129.033 Y40.461 E284.21792 F2400
G0 X129.599 Y40.461 F5400
G1 X145.540 Y56.401 E284.96774 F2400
G0 X145.540 Y55.836 F5400
G1 X130.164 Y40.461 E285.69094 F2400
G0 X130.730 Y40.461 F5400
G1 X145.540 Y55.270 E286.38754 F2400
G0 X145.540 Y54.704 F5400
G1 X131.296 Y40.461 E287.05752 F2400
G0 X131.861 Y40.461 F5400
G1 X145.540 Y54.139 E287.70090 F2400
G0 X145.540 Y53.573 F5400
G1 X132.427 Y40.461 E288.31766 F2400
G0 X132.993 Y40.461 F5400
G1 X145.540 Y53.007 E288.90780 F2400
G0 X145.540 Y52.442 F5400
G1 X133.558 Y40.461 E289.47138 F2400
G0 X134.124 Y40.461 F5400
G1 X145.540 Y51.876 E290.00834 F2400
G0 X145.540 Y51.310 F5400
G1 X134.690 Y40.461 E290.51868 F2400
G0 X135.256 Y40.461 F5400
G1 X145.540 Y50.745 E291.00242 F2400
G0 X145.540 Y50.179 F5400
G1 X135.821 Y40.461 E291.45954 F2400
G0 X136.387 Y40.461 F5400
G1 X145.540 Y49.613 E291.89004 F2400
G0 X145.540 Y49.048 F5400
G1 X136.953 Y40.461 E292.29394 F2400
G0 X137.518 Y40.461 F5400
G1 X145.540 Y48.482 E292.67124 F2400
G0 X145.540 Y47.916 F5400
G1 X138.084 Y40.461 E293.02192 F2400
G0 X138.650 Y40.461 F5400
G1 X145.540 Y47.351 E293.34600 F2400
G0 X145.540 Y46.785 F5400
G1 X139.215 Y40.461 E293.64350 F2400
G0 X139.781 Y40.461 F5400
G1 X145.540 Y46.219 E293.91436 F2400
G0 X145.540 Y45.653 F5400
G1 X140.347 Y40.461 E294.15864 F2400
G0 X140.912 Y40.461 F5400
G1 X145.540 Y45.088 E294.37628 F2400
G0 X145.540 Y44.522 F5400
G1 X141.478 Y40.461 E294.56732 F2400
G0 X142.044 Y40.461 F5400
G1 X145.540 Y43.956 E294.73176 F2400
G0 X145.540 Y43.391 F5400
G1 X142.609 Y40.461 E294.86956 F2400
G0 X143.175 Y40.461 F5400
G1 X145.540 Y42.825 E294.98078 F2400
G0 X145.540 Y42.259 F5400
G1 X143.741 Y40.461 E295.06536 F2400
G0 X144.306 Y40.461 F5400
G1 X145.540 Y41.694 E295.12338 F2400
G0 X145.540 Y41.128 F5400
G1 X144.872 Y40.461 E295.15478 F2400
G0 X145.438 Y40.461 F5400
G1 X145.540 Y40.562 E295.15958 F2400
G0 F3000 E294.15958
G0 X125.073 Y40.461 F5400
G0 F3000 E295.15958
G1 X130.652 Y46.040 E295.42200 F2400
G0 X130.086 Y46.040 F5400
G1 X124.507 Y40.461 E295.68442 F2400
G0 X123.942 Y40.461 F5400
G1 X129.521 Y46.040 E295.94684 F2400
G0 X128.955 Y46.040 F5400
G1 X123.376 Y40.461 E296.20926 F2400
G0 X122.810 Y40.461 F5400
G1 X128.389 Y46.040 E296.47168 F2400
G0 X127.824 Y46.040 F5400
G1 X122.245 Y40.461 E296.73410 F2400
G0 X121.679 Y40.461 F5400
G1 X127.258 Y46.040 E296.99652 F2400
G0 X126.692 Y46.040 F5400
G1 X121.113 Y40.461 E297.25894 F2400
G0 X120.548 Y40.461 F5400
G1 X126.127 Y46.040 E297.52136 F2400
G0 X125.561 Y46.040 F5400
G1 X119.982 Y40.461 E297.78378 F2400
G0 X119.416 Y40.461 F5400
G1 X124.995 Y46.040 E298.04620 F2400
G0 X124.430 Y46.040 F5400
G1 X118.851 Y40.461 E298.30862 F2400
G0 X118.285 Y40.461 F5400
G1 X123.864 Y46.040 E298.57104 F2400
G0 X123.790 Y46.531 F5400
G1 X117.719 Y40.461 E298.85656 F2400
G0 X117.154 Y40.461 F5400
G1 X123.790 Y47.097 E299.16870 F2400
G0 X123.790 Y47.662 F5400
G1 X116.588 Y40.461 E299.50744 F2400
G0 X116.022 Y40.461 F5400
G1 X123.790 Y48.228 E299.87280 F2400
G0 X123.790 Y48.794 F5400
G1 X115.457 Y40.461 E300.26478 F2400
G0 X114.891 Y40.461 F5400
G1 X123.790 Y49.359 E300.68334 F2400
G0 X123.790 Y49.925 F5400
G1 X114.461 Y40.596 E301.12216 F2400
G0 X114.461 Y41.162 F5400
G1 X123.790 Y50.491 E301.56098 F2400
G0 X123.790 Y51.056 F5400
G1 X114.461 Y41.727 E301.99978 F2400
; ------------------------------------
; Layer #1
; ------------------------------------
G92 E0 ;reset extr
G0 F3000 E-1.00000
G0 F600 Z1.400
G0 X123.790 Y150.321 F7200
G0 F3000 E0.00000
;segType:HShell
G1 X114.571 Y159.539 E0.43359 F3600
G0 X114.280 Y160.084 F7200
;segType:Perimeter
G1 X113.700 Y160.240 E0.45355 F1800
G1 X113.700 Y39.700 E4.46270
G1 X146.300 Y39.700 E5.54695
G1 X146.300 Y160.300 E9.55810
G1 X113.760 Y160.300 E10.64036
G0 X113.700 Y160.240 F7200
G0 X113.700 Y158.640
G0 X114.100 Y159.200
;segType:Loop
G1 X114.100 Y40.100 E14.60162 F3600
G1 X145.900 Y40.100 E15.65927
G1 X145.900 Y159.900 E19.64380
G1 X114.100 Y159.900 E20.70145
G1 X114.100 Y159.400 E20.71808
G0 F3000 E19.71808
G0 X130.333 Y153.960 F7200
G0 F3000 E20.71808
;segType:HShell
G1 X124.754 Y159.539 E20.98050 F3600
G0 X125.319 Y159.539 F7200
G1 X130.898 Y153.960 E21.24292 F3600
G0 X130.390 Y153.200 F7200
;segType:Perimeter
G1 X124.550 Y153.200 E21.43719 F1800
G1 X124.550 Y149.300 E21.56693
G1 X130.450 Y149.300 E21.76319
G1 X130.450 Y153.140 E21.89094
G0 X130.390 Y153.200 F7200
G0 X128.790 Y153.200
G0 X129.350 Y153.600
;segType:Loop
G1 X124.150 Y153.600 E22.06391 F3600
G1 X124.150 Y148.900 E22.22026
G1 X130.850 Y148.900 E22.44313
G1 X130.850 Y153.600 E22.59948
G1 X129.550 Y153.600 E22.64272
G0 F3000 E21.64272
G0 X130.850 Y153.600 F7200
G0 X130.850 Y151.611
G0 X145.900 Y128.586
G0 X145.540 Y129.137
G0 F3000 E22.64272
;segType:HShell
G1 X131.961 Y142.716 E23.28143 F3600
G0 X131.716 Y142.961 F7200
G1 X130.174 Y144.502 E23.35395 F3600
G0 X129.542 Y143.002 F7200
;segType:InnerHair
G1 X129.428 Y142.944 E23.35701 F3600
G1 X129.314 Y142.913 E23.35922
G0 X130.019 Y142.961 F7200
;segType:HShell
G1 X129.696 Y143.284 E23.37442 F3600
G0 X129.917 Y143.628 F7200
G1 X130.585 Y142.961 E23.40583 F3600
G0 X131.150 Y142.961 F7200
G1 X130.077 Y144.034 E23.45630 F3600
G0 X129.553 Y144.117 F7200
;segType:Perimeter
G1 X129.445 Y144.910 E23.48291 F1800
G1 X129.391 Y145.335 E23.49719
G1 X129.211 Y145.790 E23.51346
G1 X128.923 Y146.186 E23.52973
G1 X128.546 Y146.498 E23.54601
G1 X128.103 Y146.706 E23.56228
G1 X127.622 Y146.798 E23.57856
G1 X127.134 Y146.767 E23.59483
G1 X126.669 Y146.616 E23.61111
G1 X126.256 Y146.354 E23.62738
G1 X125.921 Y145.997 E23.64365
G1 X125.685 Y145.569 E23.65993
G1 X125.563 Y145.095 E23.67620
G1 X125.563 Y144.606 E23.69247
G1 X125.685 Y144.131 E23.70875
G1 X125.921 Y143.703 E23.72503
G1 X126.256 Y143.346 E23.74130
G1 X126.669 Y143.084 E23.75757
G1 X127.134 Y142.932 E23.77385
G1 X127.623 Y142.902 E23.79012
G1 X128.103 Y142.994 E23.80640
G1 X128.546 Y143.202 E23.82267
G1 X128.923 Y143.514 E23.83894
G1 X129.211 Y143.910 E23.85522
G1 X129.391 Y144.365 E23.87150
G1 X129.445 Y144.791 E23.88577
G0 X129.445 Y144.910 F7200
G0 X129.391 Y145.335
G0 X129.211 Y145.790
G0 X128.923 Y146.186
G0 X128.775 Y146.309
G0 X129.217 Y146.462
G0 X129.505 Y146.065
;segType:Loop
G1 X129.217 Y146.462 E23.90209 F3600
G1 X128.762 Y146.839 E23.92173
G1 X128.228 Y147.090 E23.94137
G1 X127.648 Y147.200 E23.96100
G1 X127.059 Y147.163 E23.98063
G1 X126.497 Y146.981 E24.00028
G1 X125.999 Y146.665 E24.01991
G1 X125.595 Y146.234 E24.03953
G1 X125.310 Y145.717 E24.05918
G1 X125.163 Y145.145 E24.07881
G1 X125.163 Y144.555 E24.09844
G1 X125.310 Y143.983 E24.11808
G1 X125.595 Y143.465 E24.13773
G1 X125.999 Y143.035 E24.15736
G1 X126.337 Y142.821 E24.17068
G1 X126.370 Y142.692 E24.17712
G0 X126.685 Y142.628 F7200
G0 X127.028 Y142.574
G0 X127.142 Y142.566
G0 X127.600 Y142.552
G0 X127.714 Y142.557
G0 X128.057 Y142.589
G1 X128.463 Y142.658 E24.19475 F3600
G1 X128.595 Y142.687 E24.20121
G1 X128.640 Y142.804 E24.20537
G1 X128.762 Y142.861 E24.20985
G1 X129.217 Y143.238 E24.22949
G1 X129.564 Y143.716 E24.24913
G1 X129.781 Y144.264 E24.26876
G1 X129.855 Y144.850 E24.28839
G1 X129.781 Y145.436 E24.30803
G1 X129.601 Y145.891 E24.32433
G0 F3000 E23.32433
G0 X145.540 Y128.571 F7200
G0 F3000 E24.32433
;segType:HShell
G1 X131.961 Y142.150 E24.96304 F3600
G0 X131.940 Y142.201 F7200
;segType:Perimeter
G1 X131.140 Y142.201 E24.98965 F1800
G1 X123.800 Y142.201 E25.23381
G1 X123.800 Y126.800 E25.74604
G1 X131.200 Y126.800 E25.99219
G1 X131.200 Y142.141 E26.50244
G0 X131.140 Y142.201 F7200
G0 X129.540 Y142.201
G0 X130.100 Y142.601
;segType:Loop
G1 X128.742 Y142.601 E26.54760 F3600
G1 X128.628 Y142.695 E26.55484
G1 X128.514 Y142.669 E26.56007
G1 X128.400 Y142.643 E26.56480
G1 X128.285 Y142.618 E26.56904
G1 X128.171 Y142.592 E26.57277
G1 X128.057 Y142.589 E26.57636
G1 X127.942 Y142.578 E26.57975
G1 X127.828 Y142.567 E26.58294
G1 X127.714 Y142.557 E26.58592
G1 X127.600 Y142.552 E26.58880
G1 X127.485 Y142.555 E26.59174
G1 X127.371 Y142.559 E26.59474
G1 X127.257 Y142.562 E26.59782
G1 X127.142 Y142.566 E26.60096
G1 X127.028 Y142.574 E26.60427
G1 X126.914 Y142.592 E26.60796
G1 X126.800 Y142.610 E26.61200
G1 X126.685 Y142.628 E26.61638
G0 X126.571 Y142.633 F7200
G0 X126.457 Y142.666
G0 X126.342 Y142.700
G1 X126.228 Y142.601 E26.62142 F3600
G1 X123.400 Y142.601 E26.71549
G1 X123.400 Y126.400 E27.25433
G1 X126.228 Y126.400 E27.34841
G1 X126.342 Y126.300 E27.35594
G1 X126.457 Y126.334 E27.36120
G1 X126.571 Y126.367 E27.36581
G0 X126.685 Y126.372 F7200
G0 X127.028 Y126.426
G0 X127.142 Y126.434
G0 X127.600 Y126.449
G0 X127.714 Y126.443
G0 X128.057 Y126.411
G1 X128.171 Y126.408 E27.36945 F3600
G1 X128.285 Y126.382 E27.37369
G1 X128.400 Y126.357 E27.37842
G1 X128.514 Y126.331 E27.38365
G1 X128.628 Y126.306 E27.38938
G1 X128.742 Y126.400 E27.39430
G1 X131.600 Y126.400 E27.48936
G1 X131.600 Y142.601 E28.02820
G1 X130.300 Y142.601 E28.07144
G0 F3000 E27.07144
G0 X130.300 Y142.601 F7200
G0 X131.600 Y142.601
G0 X131.600 Y139.763
G0 X145.540 Y109.338
G0 F3000 E28.07144
;segType:HShell
G1 X130.144 Y124.733 E28.79558 F3600
G0 X129.652 Y124.497 F7200
;segType:Perimeter
G1 X129.175 Y125.139 E28.82219 F1800
G1 X128.923 Y125.486 E28.83646
G1 X128.546 Y125.798 E28.85274
G1 X128.103 Y126.006 E28.86901
G1 X127.623 Y126.098 E28.88529
G1 X127.134 Y126.067 E28.90157
G1 X126.669 Y125.916 E28.91784
G1 X126.256 Y125.654 E28.93411
G1 X125.921 Y125.297 E28.95039
G1 X125.685 Y124.868 E28.96667
G1 X125.563 Y124.395 E28.98294
G1 X125.563 Y123.905 E28.99921
G1 X125.685 Y123.431 E29.01549
G1 X125.921 Y123.003 E29.03177
G1 X126.256 Y122.646 E29.04804
G1 X126.669 Y122.384 E29.06431
G1 X127.134 Y122.233 E29.08058
G1 X127.623 Y122.202 E29.09686
G1 X128.103 Y122.294 E29.11314
G1 X128.546 Y122.502 E29.12941
G1 X128.923 Y122.814 E29.14568
G1 X129.211 Y123.210 E29.16196
G1 X129.391 Y123.665 E29.17823
G1 X129.452 Y124.150 E29.19451
G1 X129.391 Y124.635 E29.21078
G1 X129.233 Y125.035 E29.22506
G0 X129.175 Y125.139 F7200
G0 X128.923 Y125.486
G0 X128.546 Y125.798
G0 X128.103 Y126.006
G0 X127.914 Y126.042
G0 X127.942 Y126.422
G0 X128.057 Y126.411
G0 X128.449 Y126.346
G0 X128.581 Y126.316
G0 X128.590 Y126.294
G0 X128.624 Y126.307
G0 X128.628 Y126.306
G0 X128.590 Y126.294
;segType:Loop
G1 X128.581 Y126.316 E29.22585 F3600
G1 X128.449 Y126.346 E29.23223
G1 X128.057 Y126.411 E29.24903
G1 X127.942 Y126.422 E29.25263
G1 X127.828 Y126.433 E29.25602
G1 X127.714 Y126.443 E29.25921
G1 X127.600 Y126.449 E29.26218
G1 X127.485 Y126.445 E29.26506
G1 X127.371 Y126.441 E29.26800
G1 X127.257 Y126.438 E29.27101
G1 X127.142 Y126.434 E29.27409
G1 X127.028 Y126.426 E29.27724
G1 X126.914 Y126.408 E29.28058
G1 X126.800 Y126.390 E29.28427
G1 X126.685 Y126.372 E29.28831
G1 X126.348 Y126.186 E29.30291
G1 X125.999 Y125.965 E29.31666
G1 X125.595 Y125.534 E29.33629
G1 X125.310 Y125.017 E29.35593
G1 X125.163 Y124.445 E29.37557
G1 X125.163 Y123.855 E29.39519
G1 X125.310 Y123.283 E29.41484
G1 X125.595 Y122.765 E29.43448
G1 X125.999 Y122.335 E29.45411
G1 X126.497 Y122.019 E29.47374
G1 X127.059 Y121.837 E29.49338
G1 X127.648 Y121.799 E29.51301
G1 X128.228 Y121.910 E29.53265
G1 X128.762 Y122.161 E29.55228
G1 X129.217 Y122.538 E29.57192
G1 X129.564 Y123.015 E29.59156
G1 X129.781 Y123.564 E29.61120
G1 X129.855 Y124.150 E29.63083
G1 X129.781 Y124.736 E29.65046
G1 X129.564 Y125.285 E29.67010
G1 X129.217 Y125.762 E29.68973
G1 X128.762 Y126.139 E29.70937
G0 F3000 E28.70937
G0 X129.217 Y125.762 F7200
G0 X129.564 Y125.285
G0 X129.781 Y124.736
G0 X129.855 Y124.150
G0 X129.781 Y123.564
G0 X129.564 Y123.015
G0 X129.558 Y123.007
G0 X145.540 Y60.123
G0 F3000 E29.70937
;segType:HShell
G1 X131.961 Y73.702 E30.34808 F3600
G0 X131.702 Y73.961 F7200
G1 X130.173 Y75.490 E30.42004 F3600
G0 X130.073 Y75.024 F7200
G1 X131.137 Y73.961 E30.47005 F3600
G0 X130.571 Y73.961 F7200
G1 X129.913 Y74.619 E30.50100 F3600
G0 X129.690 Y74.276 F7200
G1 X130.005 Y73.961 E30.51584 F3600
G0 X129.314 Y73.913 F7200
;segType:InnerHair
G1 X129.428 Y73.944 E30.51867 F3600
G1 X129.542 Y74.002 E30.52298
G0 X128.946 Y74.219 F7200
;segType:Perimeter
G1 X129.233 Y74.965 E30.54958 F1800
G1 X129.391 Y75.365 E30.56386
G1 X129.452 Y75.850 E30.58013
G1 X129.391 Y76.335 E30.59640
G1 X129.211 Y76.790 E30.61268
G1 X128.923 Y77.186 E30.62896
G1 X128.546 Y77.498 E30.64523
G1 X128.103 Y77.706 E30.66150
G1 X127.623 Y77.798 E30.67778
G1 X127.134 Y77.767 E30.69405
G1 X126.669 Y77.616 E30.71033
G1 X126.256 Y77.354 E30.72660
G1 X125.921 Y76.997 E30.74287
G1 X125.685 Y76.569 E30.75915
G1 X125.563 Y76.095 E30.77543
G1 X125.563 Y75.605 E30.79170
G1 X125.685 Y75.132 E30.80797
G1 X125.921 Y74.703 E30.82425
G1 X126.256 Y74.346 E30.84052
G1 X126.669 Y74.084 E30.85680
G1 X127.134 Y73.933 E30.87307
G1 X127.623 Y73.902 E30.88934
G1 X128.103 Y73.994 E30.90563
G1 X128.546 Y74.202 E30.92189
G1 X128.923 Y74.514 E30.93818
G1 X129.175 Y74.861 E30.95245
G0 X129.233 Y74.965 F7200
G0 X129.391 Y75.365
G0 X129.452 Y75.850
G0 X129.391 Y76.335
G0 X129.320 Y76.514
G0 X129.781 Y76.436
G0 X129.843 Y75.949
;segType:Loop
G1 X129.781 Y76.436 E30.96876 F3600
G1 X129.564 Y76.985 E30.98839
G1 X129.217 Y77.462 E31.00804
G1 X128.762 Y77.839 E31.02767
G1 X128.228 Y78.090 E31.04730
G1 X127.648 Y78.201 E31.06694
G1 X127.059 Y78.163 E31.08658
G1 X126.497 Y77.981 E31.10622
G1 X125.999 Y77.665 E31.12585
G1 X125.595 Y77.235 E31.14547
G1 X125.310 Y76.717 E31.16512
G1 X125.163 Y76.145 E31.18476
G1 X125.163 Y75.555 E31.20439
G1 X125.310 Y74.983 E31.22402
G1 X125.595 Y74.466 E31.24366
G1 X125.999 Y74.035 E31.26329
G1 X126.345 Y73.815 E31.27695
G0 X126.685 Y73.628 F7200
G0 X127.028 Y73.574
G0 X127.142 Y73.566
G0 X127.600 Y73.551
G0 X127.714 Y73.557
G0 X128.057 Y73.589
G1 X128.452 Y73.655 E31.29393 F3600
G1 X128.584 Y73.685 E31.30032
G1 X128.631 Y73.800 E31.30445
G1 X128.762 Y73.861 E31.30927
G1 X129.217 Y74.238 E31.32892
G1 X129.564 Y74.715 E31.34855
G1 X129.781 Y75.264 E31.36818
G1 X129.843 Y75.751 E31.38449
G0 F3000 E30.38449
G0 X145.900 Y59.186 F7200
G0 X145.540 Y59.558
G0 F3000 E31.38449
;segType:HShell
G1 X131.961 Y73.137 E32.02320 F3600
G0 X131.940 Y73.200 F7200
;segType:Perimeter
G1 X131.140 Y73.200 E32.04981 F1800
G1 X123.800 Y73.200 E32.29396
G1 X123.800 Y57.799 E32.80620
G1 X131.200 Y57.799 E33.05235
G1 X131.200 Y73.140 E33.56259
G0 X131.140 Y73.200 F7200
G0 X129.540 Y73.200
G0 X130.100 Y73.600
;segType:Loop
G1 X128.742 Y73.600 E33.60776 F3600
G1 X128.628 Y73.694 E33.61500
G1 X128.514 Y73.669 E33.62023
G1 X128.400 Y73.643 E33.62496
G1 X128.285 Y73.618 E33.62919
G1 X128.171 Y73.592 E33.63293
G1 X128.057 Y73.589 E33.63652
G1 X127.942 Y73.578 E33.63991
G1 X127.828 Y73.567 E33.64310
G1 X127.714 Y73.557 E33.64608
G1 X127.600 Y73.551 E33.64895
G1 X127.485 Y73.555 E33.65189
G1 X127.371 Y73.559 E33.65490
G1 X127.257 Y73.562 E33.65798
G1 X127.142 Y73.566 E33.66113
G1 X127.028 Y73.574 E33.66444
G1 X126.914 Y73.592 E33.66813
G1 X126.800 Y73.610 E33.67217
G1 X126.685 Y73.628 E33.67656
G1 X126.571 Y73.633 E33.68099
G1 X126.457 Y73.666 E33.68625
G1 X126.342 Y73.700 E33.69217
G1 X126.228 Y73.600 E33.69720
G1 X123.400 Y73.600 E33.79128
G1 X123.400 Y57.399 E34.33012
G1 X126.228 Y57.399 E34.42420
G1 X126.342 Y57.300 E34.43173
G1 X126.457 Y57.334 E34.43699
G1 X126.571 Y57.367 E34.44160
G0 X126.685 Y57.372 F7200
G0 X127.028 Y57.426
G0 X127.142 Y57.434
G0 X127.600 Y57.448
G0 X127.714 Y57.443
G0 X128.057 Y57.411
G1 X128.171 Y57.408 E34.44525 F3600
G1 X128.285 Y57.382 E34.44948
G1 X128.400 Y57.357 E34.45421
G1 X128.514 Y57.331 E34.45944
G1 X128.628 Y57.305 E34.46517
G1 X128.742 Y57.399 E34.47009
G1 X131.600 Y57.399 E34.56514
G1 X131.600 Y73.600 E35.10399
G1 X130.300 Y73.600 E35.14723
G0 F3000 E34.14723
G0 X131.600 Y73.600 F7200
G0 X131.600 Y57.399
G0 X128.742 Y57.399
G0 X128.628 Y57.305
G0 X128.514 Y57.331
G0 X128.400 Y57.357
G0 X128.285 Y57.382
G0 X128.171 Y57.408
G0 X127.942 Y57.422
G0 X128.057 Y57.411
G0 X128.460 Y57.343
G0 X128.592 Y57.313
G0 X128.637 Y57.197
G0 X128.762 Y57.139
G0 X129.217 Y56.762
G0 X129.564 Y56.285
G0 X129.781 Y55.736
G0 X129.855 Y55.150
G0 X129.781 Y54.564
G0 X129.564 Y54.015
G0 X129.217 Y53.538
G0 X128.762 Y53.161
G0 X128.228 Y52.910
G0 X127.648 Y52.799
G0 X127.226 Y52.826
G0 X127.173 Y52.469
G0 F3000 E35.14723
;segType:HShell
G1 X128.181 Y51.461 E35.19464 F3600
G0 X128.746 Y51.461 F7200
G1 X127.754 Y52.453 E35.24132 F3600
G0 X128.229 Y52.544 F7200
G1 X129.312 Y51.461 E35.29226 F3600
G0 X129.878 Y51.461 F7200
G1 X128.635 Y52.704 E35.35072 F3600
G0 X129.007 Y52.897 F7200
G1 X130.444 Y51.461 E35.41828 F3600
G0 X131.009 Y51.461 F7200
G1 X129.317 Y53.153 E35.49789 F3600
G0 X128.946 Y53.519 F7200
;segType:Perimeter
G1 X129.233 Y54.265 E35.52450 F1800
G1 X129.391 Y54.665 E35.53877
G1 X129.452 Y55.150 E35.55505
G1 X129.391 Y55.635 E35.57132
G1 X129.211 Y56.090 E35.58759
G1 X128.923 Y56.486 E35.60387
G1 X128.546 Y56.798 E35.62015
G1 X128.103 Y57.006 E35.63641
G1 X127.623 Y57.098 E35.65269
G1 X127.134 Y57.068 E35.66897
G1 X126.669 Y56.916 E35.68525
G1 X126.256 Y56.654 E35.70152
G1 X125.921 Y56.298 E35.71778
G1 X125.685 Y55.869 E35.73406
G1 X125.563 Y55.394 E35.75034
G1 X125.563 Y54.905 E35.76661
G1 X125.685 Y54.431 E35.78288
G1 X125.921 Y54.003 E35.79916
G1 X126.256 Y53.646 E35.81544
G1 X126.669 Y53.384 E35.83171
G1 X127.134 Y53.233 E35.84799
G1 X127.623 Y53.202 E35.86426
G1 X128.103 Y53.294 E35.88054
G1 X128.546 Y53.502 E35.89681
G1 X128.923 Y53.814 E35.91309
G1 X129.175 Y54.161 E35.92737
G0 X129.233 Y54.265 F7200
G0 X129.391 Y54.665
G0 X129.452 Y55.150
G0 X129.391 Y55.635
G0 X129.320 Y55.814
G0 X129.781 Y55.736
G0 X129.843 Y55.249
;segType:Loop
G1 X129.781 Y55.736 E35.94367 F3600
G1 X129.564 Y56.285 E35.96331
G1 X129.217 Y56.762 E35.98295
G1 X128.762 Y57.139 E36.00259
G1 X128.637 Y57.197 E36.00717
G1 X128.592 Y57.313 E36.01310
G1 X128.460 Y57.343 E36.01887
G1 X128.057 Y57.411 E36.03170
G1 X127.942 Y57.422 E36.03510
G1 X127.828 Y57.432 E36.03829
G1 X127.714 Y57.443 E36.04127
G1 X127.600 Y57.448 E36.04414
G1 X127.485 Y57.445 E36.04708
G1 X127.371 Y57.441 E36.05009
G1 X127.257 Y57.438 E36.05317
G1 X127.142 Y57.434 E36.05631
G1 X127.028 Y57.426 E36.05962
G1 X126.914 Y57.408 E36.06331
G1 X126.800 Y57.390 E36.06734
G1 X126.685 Y57.372 E36.07173
G1 X126.339 Y57.181 E36.08486
G1 X125.999 Y56.965 E36.09828
G1 X125.595 Y56.535 E36.11791
G1 X125.310 Y56.017 E36.13756
G1 X125.163 Y55.445 E36.15720
G1 X125.163 Y54.855 E36.17682
G1 X125.310 Y54.283 E36.19646
G1 X125.595 Y53.766 E36.21610
G1 X125.999 Y53.335 E36.23573
G1 X126.497 Y53.019 E36.25537
G1 X127.059 Y52.837 E36.27500
G1 X127.648 Y52.799 E36.29464
G1 X128.228 Y52.910 E36.31428
G1 X128.762 Y53.161 E36.33391
G1 X129.217 Y53.538 E36.35356
G1 X129.564 Y54.015 E36.37319
G1 X129.781 Y54.564 E36.39282
G1 X129.843 Y55.051 E36.40913
G0 F3000 E35.40913
G0 X141.150 Y40.100 F7200
G0 X140.878 Y40.461
G0 F3000 E36.40913
;segType:HShell
G1 X131.211 Y50.128 E36.86385 F3600
G0 X131.190 Y50.700 F7200
;segType:Perimeter
G1 X130.390 Y50.700 E36.89046 F1800
G1 X124.550 Y50.700 E37.08473
G1 X124.550 Y46.800 E37.21447
G1 X130.450 Y46.800 E37.41073
G1 X130.450 Y50.640 E37.53847
G0 X130.390 Y50.700 F7200
G0 X128.790 Y50.700
G0 X129.350 Y51.100
;segType:Loop
G1 X124.150 Y51.100 E37.71145 F3600
G1 X124.150 Y46.400 E37.86780
G1 X130.850 Y46.400 E38.09067
G1 X130.850 Y51.100 E38.24702
G1 X129.550 Y51.100 E38.29026
G0 F3000 E37.29026
G0 X129.605 Y54.119 F7200
G0 X129.564 Y54.015
G0 X129.217 Y53.538
G0 X129.593 Y53.443
G0 F3000 E38.29026
;segType:HShell
G1 X142.575 Y40.461 E38.90090 F3600
G0 X143.141 Y40.461 F7200
G1 X129.831 Y53.770 E39.52694 F3600
G0 X130.008 Y54.159 F7200
G1 X143.706 Y40.461 E40.17126 F3600
G0 X144.272 Y40.461 F7200
G1 X130.147 Y54.586 E40.83567 F3600
G0 X130.210 Y55.088 F7200
G1 X144.838 Y40.461 E41.52369 F3600
G0 X145.403 Y40.461 F7200
G1 X130.146 Y55.718 E42.24134 F3600
G0 X129.648 Y56.781 F7200
G1 X145.540 Y40.890 E42.98882 F3600
G0 X145.540 Y41.456 F7200
G1 X129.956 Y57.039 E43.72182 F3600
G0 X130.522 Y57.039 F7200
G1 X145.540 Y42.021 E44.42821 F3600
G0 X145.540 Y42.587 F7200
G1 X131.087 Y57.039 E45.10800 F3600
G0 X131.653 Y57.039 F7200
G1 X145.540 Y43.153 E45.76118 F3600
G0 X145.540 Y43.719 F7200
G1 X131.961 Y57.297 E46.39989 F3600
G0 X131.961 Y57.863 F7200
G1 X145.540 Y44.284 E47.03861 F3600
G0 X145.540 Y44.850 F7200
G1 X131.961 Y58.429 E47.67732 F3600
G0 X131.961 Y58.995 F7200
G1 X145.540 Y45.416 E48.31603 F3600
G0 X145.540 Y45.981 F7200
G1 X131.961 Y59.560 E48.95475 F3600
G0 X131.961 Y60.126 F7200
G1 X145.540 Y46.547 E49.59346 F3600
G0 X145.540 Y47.113 F7200
G1 X131.961 Y60.692 E50.23218 F3600
G0 X131.961 Y61.257 F7200
G1 X145.540 Y47.678 E50.87089 F3600
G0 X145.540 Y48.244 F7200
G1 X131.961 Y61.823 E51.50960 F3600
G0 X131.961 Y62.389 F7200
G1 X145.540 Y48.810 E52.14832 F3600
G0 X145.540 Y49.375 F7200
G1 X131.961 Y62.954 E52.78703 F3600
G0 X131.961 Y63.520 F7200
G1 X145.540 Y49.941 E53.42575 F3600
G0 X145.540 Y50.507 F7200
G1 X131.961 Y64.086 E54.06446 F3600
G0 X131.961 Y64.651 F7200
G1 X145.540 Y51.072 E54.70317 F3600
G0 X145.540 Y51.638 F7200
G1 X131.961 Y65.217 E55.34189 F3600
G0 X131.961 Y65.783 F7200
G1 X145.540 Y52.204 E55.98060 F3600
G0 X145.540 Y52.769 F7200
G1 X131.961 Y66.348 E56.61931 F3600
G0 X131.961 Y66.914 F7200
G1 X145.540 Y53.335 E57.25803 F3600
G0 X145.540 Y53.901 F7200
G1 X131.961 Y67.480 E57.89674 F3600
G0 X131.961 Y68.045 F7200
G1 X145.540 Y54.467 E58.53546 F3600
G0 X145.540 Y55.032 F7200
G1 X131.961 Y68.611 E59.17417 F3600
G0 X131.961 Y69.177 F7200
G1 X145.540 Y55.598 E59.81288 F3600
G0 X145.540 Y56.164 F7200
G1 X131.961 Y69.743 E60.45160 F3600
G0 X131.961 Y70.308 F7200
G1 X145.540 Y56.729 E61.09031 F3600
G0 X145.540 Y57.295 F7200
G1 X131.961 Y70.874 E61.72903 F3600
G0 X131.961 Y71.440 F7200
G1 X145.540 Y57.861 E62.36774 F3600
G0 X145.540 Y58.426 F7200
G1 X131.961 Y72.005 E63.00645 F3600
G0 X131.961 Y72.571 F7200
G1 X145.540 Y58.992 E63.64517 F3600
G0 X145.540 Y60.689 F7200
G1 X130.195 Y76.034 E64.36693 F3600
G0 X130.044 Y76.750 F7200
G1 X145.540 Y61.255 E65.09580 F3600
G0 X145.540 Y61.820 F7200
G1 X114.461 Y92.899 E66.55767 F3600
G0 X114.461 Y93.465 F7200
G1 X145.540 Y62.386 E68.01953 F3600
G0 X145.540 Y62.952 F7200
G1 X114.461 Y94.031 E69.48139 F3600
G0 X114.460 Y94.597 F7200
G1 X145.540 Y63.517 E70.94325 F3600
G0 X145.540 Y64.083 F7200
G1 X114.461 Y95.162 E72.40511 F3600
G0 X114.461 Y95.728 F7200
G1 X145.540 Y64.649 E73.86697 F3600
G0 X145.540 Y65.215 F7200
G1 X114.461 Y96.294 E75.32883 F3600
G0 X114.461 Y96.859 F7200
G1 X145.540 Y65.780 E76.79069 F3600
G0 X145.540 Y66.346 F7200
G1 X114.461 Y97.425 E78.25255 F3600
G0 X114.461 Y97.991 F7200
G1 X145.540 Y66.912 E79.71441 F3600
G0 X145.540 Y67.477 F7200
G1 X114.461 Y98.556 E81.17627 F3600
G0 X114.461 Y99.122 F7200
G1 X145.540 Y68.043 E82.63813 F3600
G0 X145.540 Y68.609 F7200
G1 X114.461 Y99.688 E84.09999 F3600
G0 X114.461 Y100.253 F7200
G1 X145.540 Y69.174 E85.56185 F3600
G0 X145.540 Y69.740 F7200
G1 X114.461 Y100.819 E87.02371 F3600
G0 X114.461 Y101.385 F7200
G1 X145.540 Y70.306 E88.48557 F3600
G0 X145.540 Y70.871 F7200
G1 X114.461 Y101.950 E89.94743 F3600
G0 X114.461 Y102.516 F7200
G1 X145.540 Y71.437 E91.40929 F3600
G0 X145.540 Y72.003 F7200
G1 X114.461 Y103.082 E92.87115 F3600
G0 X114.461 Y103.647 F7200
G1 X145.540 Y72.568 E94.33302 F3600
G0 X145.540 Y73.134 F7200
G1 X114.461 Y104.213 E95.79488 F3600
G0 X114.461 Y104.779 F7200
G1 X145.540 Y73.700 E97.25674 F3600
G0 X145.540 Y74.265 F7200
G1 X114.461 Y105.345 E98.71860 F3600
G0 X114.461 Y105.910 F7200
G1 X145.540 Y74.831 E100.18046 F3600
G0 X145.540 Y75.397 F7200
G1 X114.461 Y106.476 E101.64232 F3600
G0 X114.461 Y107.042 F7200
G1 X145.540 Y75.963 E103.10418 F3600
G0 X145.540 Y76.528 F7200
G1 X114.461 Y107.607 E104.56604 F3600
G0 X114.461 Y108.173 F7200
G1 X145.540 Y77.094 E106.02790 F3600
G0 X145.540 Y77.660 F7200
G1 X114.461 Y108.739 E107.48976 F3600
G0 X114.461 Y109.304 F7200
G1 X145.540 Y78.225 E108.95162 F3600
G0 X145.540 Y78.791 F7200
G1 X114.461 Y109.870 E110.41348 F3600
G0 X114.461 Y110.436 F7200
G1 X145.540 Y79.357 E111.87534 F3600
G0 X145.540 Y79.922 F7200
G1 X114.461 Y111.001 E113.33720 F3600
G0 X114.461 Y111.567 F7200
G1 X145.540 Y80.488 E114.79906 F3600
