; #disp params :
; Printmode:0
; Layer:425
; Zmax:165.075 mm
; Xmax:151.495 mm
; Ymax:86 mm
; Xmin:108.308 mm
; Ymin:0.3 mm
; E0diam:0.4 mm
; E0len:15.5283 m
; E0temp:215 C
; Bedtemp:215 C
; Time:208.437 min
; #params end
; GCode generated by CraftWare

G28 X Y ; home horizontally
G28 Z ; home vertically


M104 S215 ;set head temp (no wait)
M190 S60 ;set bed temp (wait)
M109 S215 ;set head temp (wait)

; ------------------------------------
; Raft Layer #0
; ------------------------------------
M106 S0 ;turn off fan
G21 ; mm
G90 ; abs
G92 E0 ;reset extr
G0 F600 Z0.300
;segType:Raft
G0 F3000 E-1.00000
G0 F600 Z2.300
G0 X108.374 Y162.315 F5400
G0 F600 Z0.300
G0 F3000 E0.00000
G1 X108.374 Y38.211 E6.19155 F600
G1 X108.440 Y37.751 E6.21475
G1 X111.200 Y34.990 E6.40954
G1 X148.537 Y34.990 E8.27225
G1 X148.866 Y35.188 E8.29139
G1 X151.495 Y37.817 E8.47690
G1 X151.495 Y161.920 E14.66845
G1 X151.429 Y162.381 E14.69165
G1 X148.800 Y165.010 E14.87716
G1 X111.069 Y165.010 E16.75955
G1 X110.872 Y164.812 E16.77348
G1 X108.374 Y162.315 E16.94972
G0 X111.136 Y164.550 F5400
G1 X111.136 Y35.713 E23.37738 F600
G0 X113.803 Y35.450 F5400
G1 X113.803 Y164.681 E29.82472 F600
G0 X116.469 Y164.681 F5400
G1 X116.469 Y35.450 E36.27206 F600
G0 X119.136 Y35.450 F5400
G1 X119.136 Y164.681 E42.71940 F600
G0 X121.803 Y164.681 F5400
G1 X121.803 Y35.450 E49.16674 F600
G0 X124.469 Y35.450 F5400
G1 X124.469 Y164.681 E55.61408 F600
G0 X127.136 Y164.681 F5400
G1 X127.136 Y35.450 E62.06143 F600
G0 X129.803 Y35.450 F5400
G1 X129.803 Y164.681 E68.50877 F600
G0 X132.469 Y164.681 F5400
G1 X132.469 Y35.450 E74.95611 F600
G0 X135.136 Y35.450 F5400
G1 X135.136 Y164.681 E81.40345 F600
G0 X137.803 Y164.681 F5400
G1 X137.803 Y35.450 E87.85079 F600
G0 X140.469 Y35.450 F5400
G1 X140.469 Y164.681 E94.29813 F600
G0 X143.136 Y164.681 F5400
G1 X143.136 Y35.450 E100.74548 F600
G0 X145.803 Y35.450 F5400
G1 X145.803 Y164.681 E107.19282 F600
G0 X148.469 Y164.681 F5400
G1 X148.469 Y35.450 E113.64016 F600



; ------------------------------------
; Raft Layer #1
; ------------------------------------
G92 E0 ;reset extr
G0 F600 Z0.600
;segType:Raft
G0 X149.194 Y35.486 F7200
G1 X108.308 Y76.372 E2.88469 F1800
G0 X108.308 Y78.257 F7200
G1 X150.114 Y36.452 E5.83431 F1800
G0 X151.034 Y37.417 F7200
G1 X108.308 Y80.143 E8.84886 F1800
G0 X108.308 Y82.028 F7200
G1 X151.429 Y38.908 E11.89123 F1800
G0 X151.429 Y40.794 F7200
G1 X108.308 Y83.914 E14.93361 F1800
G0 X108.308 Y85.800 F7200
G1 X151.429 Y42.680 E17.97598 F1800
G0 X151.429 Y44.565 F7200
G1 X108.308 Y87.685 E21.01835 F1800
G0 X108.308 Y89.571 F7200
G1 X151.429 Y46.451 E24.06073 F1800
G0 X151.429 Y48.336 F7200
G1 X108.308 Y91.456 E27.10310 F1800
G0 X108.308 Y93.342 F7200
G1 X151.429 Y50.222 E30.14547 F1800
G0 X151.429 Y52.108 F7200
G1 X108.308 Y95.228 E33.18785 F1800
G0 X108.308 Y97.113 F7200
G1 X151.429 Y53.993 E36.23022 F1800
G0 X151.429 Y55.879 F7200
G1 X108.308 Y98.999 E39.27260 F1800
G0 X108.308 Y100.885 F7200
G1 X151.429 Y57.764 E42.31497 F1800
G0 X151.429 Y59.650 F7200
G1 X108.308 Y102.770 E45.35734 F1800
G0 X108.308 Y104.656 F7200
G1 X151.429 Y61.536 E48.39972 F1800
G0 X151.429 Y63.421 F7200
G1 X108.308 Y106.541 E51.44209 F1800
G0 X108.308 Y108.427 F7200
G1 X151.429 Y65.307 E54.48447 F1800
G0 X151.429 Y67.193 F7200
G1 X108.308 Y110.313 E57.52684 F1800
G0 X108.308 Y112.198 F7200
G1 X151.429 Y69.078 E60.56921 F1800
G0 X151.429 Y70.964 F7200
G1 X108.308 Y114.084 E63.61159 F1800
G0 X108.308 Y115.969 F7200
G1 X151.429 Y72.849 E66.65396 F1800
G0 X151.429 Y74.735 F7200
G1 X108.308 Y117.855 E69.69634 F1800
G0 X108.308 Y119.741 F7200
G1 X151.429 Y76.621 E72.73871 F1800
G0 X151.429 Y78.506 F7200
G1 X108.308 Y121.626 E75.78108 F1800
G0 X108.308 Y123.512 F7200
G1 X151.429 Y80.392 E78.82346 F1800
G0 X151.429 Y82.277 F7200
G1 X108.308 Y125.398 E81.86583 F1800
G0 X108.308 Y127.283 F7200
G1 X151.429 Y84.163 E84.90820 F1800
G0 X151.429 Y86.049 F7200
G1 X108.308 Y129.169 E87.95058 F1800
G0 X108.308 Y131.054 F7200
G1 X151.429 Y87.934 E90.99295 F1800
G0 X151.429 Y89.820 F7200
G1 X108.308 Y132.940 E94.03532 F1800
G0 X108.308 Y134.826 F7200
G1 X151.429 Y91.706 E97.07770 F1800
G0 X151.429 Y93.591 F7200
G1 X108.308 Y136.711 E100.12007 F1800
G0 X108.308 Y138.597 F7200
G1 X151.429 Y95.477 E103.16245 F1800
G0 X151.429 Y97.362 F7200
G1 X108.308 Y140.482 E106.20482 F1800
G0 X108.308 Y142.368 F7200
G1 X151.429 Y99.248 E109.24719 F1800
G0 X151.429 Y101.134 F7200
G1 X108.308 Y144.254 E112.28957 F1800
G0 X108.308 Y146.139 F7200
G1 X151.429 Y103.019 E115.33194 F1800
G0 X151.429 Y104.905 F7200
G1 X108.308 Y148.025 E118.37431 F1800
G0 X108.308 Y149.910 F7200
G1 X151.429 Y106.790 E121.41669 F1800
G0 X151.429 Y108.676 F7200
G1 X108.308 Y151.796 E124.45906 F1800
G0 X108.308 Y153.682 F7200
G1 X151.429 Y110.562 E127.50143 F1800
G0 X151.429 Y112.447 F7200
G1 X108.308 Y155.567 E130.54381 F1800
G0 X108.308 Y157.453 F7200
G1 X151.429 Y114.333 E133.58618 F1800
G0 X151.429 Y116.219 F7200
G1 X108.308 Y159.339 E136.62856 F1800
G0 X108.308 Y161.224 F7200
G1 X151.429 Y118.104 E139.67093 F1800
G0 X151.429 Y119.990 F7200
G1 X108.703 Y162.715 E142.68547 F1800
G0 X109.740 Y163.564 F7200
G1 X151.414 Y121.890 E145.62581 F1800
G0 X151.460 Y123.730 F7200
G1 X110.705 Y164.484 E148.50122 F1800
G0 X112.196 Y164.878 F7200
G1 X151.373 Y125.702 E151.26534 F1800
G0 X151.418 Y127.543 F7200
G1 X114.082 Y164.878 E153.89958 F1800
G0 X115.968 Y164.878 F7200
G1 X151.463 Y129.383 E156.40398 F1800
G0 X151.377 Y131.355 F7200
G1 X117.853 Y164.878 E158.76924 F1800
G0 X119.739 Y164.878 F7200
G1 X151.422 Y133.196 E161.00464 F1800
G0 X151.467 Y135.036 F7200
G1 X121.625 Y164.878 E163.11018 F1800
G0 X123.510 Y164.878 F7200
G1 X151.381 Y137.008 E165.07660 F1800
G0 X151.426 Y138.849 F7200
G1 X125.396 Y164.878 E166.91316 F1800
G0 X127.281 Y164.878 F7200
G1 X151.471 Y140.689 E168.61986 F1800
G0 X151.385 Y142.661 F7200
G1 X129.167 Y164.878 E170.18742 F1800
G0 X131.053 Y164.878 F7200
G1 X151.430 Y144.502 E171.62514 F1800
G0 X151.475 Y146.342 F7200
G1 X132.938 Y164.878 E172.93298 F1800
G0 X134.824 Y164.878 F7200
G1 X151.389 Y148.314 E174.10170 F1800
G0 X151.434 Y150.154 F7200
G1 X136.710 Y164.878 E175.14056 F1800
G0 X138.595 Y164.878 F7200
G1 X151.479 Y151.995 E176.04956 F1800
G0 X151.392 Y153.967 F7200
G1 X140.481 Y164.878 E176.81942 F1800
G0 X142.366 Y164.878 F7200
G1 X151.438 Y155.807 E177.45944 F1800
G0 X151.483 Y157.648 F7200
G1 X144.252 Y164.878 E177.96958 F1800
G0 X146.138 Y164.878 F7200
G1 X151.396 Y159.620 E178.34060 F1800
G0 X151.441 Y161.460 F7200
G1 X148.023 Y164.878 E178.58178 F1800
G0 X108.308 Y74.486 F7200
G1 X147.879 Y34.915 E181.37370 F1800
G0 X146.039 Y34.870 F7200
G1 X108.308 Y72.600 E184.03578 F1800
G0 X108.308 Y70.715 F7200
G1 X144.067 Y34.957 E186.55874 F1800
G0 X142.226 Y34.912 F7200
G1 X108.308 Y68.829 E188.95182 F1800
G0 X108.308 Y66.943 F7200
G1 X140.386 Y34.866 E191.21504 F1800
G0 X138.414 Y34.953 F7200
G1 X108.308 Y65.058 E193.33914 F1800
G0 X108.308 Y63.172 F7200
G1 X136.573 Y34.908 E195.33338 F1800
G0 X134.733 Y34.863 F7200
G1 X108.308 Y61.287 E197.19776 F1800
G0 X108.308 Y59.401 F7200
G1 X132.761 Y34.949 E198.92300 F1800
G0 X130.920 Y34.904 F7200
G1 X108.308 Y57.515 E200.51840 F1800
G0 X108.308 Y55.630 F7200
G1 X128.948 Y34.990 E201.97466 F1800
G0 X127.108 Y34.945 F7200
G1 X108.308 Y53.744 E203.30106 F1800
G0 X108.308 Y51.859 F7200
G1 X125.267 Y34.900 E204.49760 F1800
G0 X123.295 Y34.986 F7200
G1 X108.308 Y49.973 E205.55500 F1800
G0 X108.308 Y48.087 F7200
G1 X121.455 Y34.941 E206.48256 F1800
G0 X119.614 Y34.896 F7200
G1 X108.308 Y46.202 E207.28026 F1800
G0 X108.308 Y44.316 F7200
G1 X117.642 Y34.982 E207.93882 F1800
G0 X115.802 Y34.937 F7200
G1 X108.308 Y42.431 E208.46752 F1800
G0 X108.308 Y40.545 F7200
G1 X113.961 Y34.892 E208.86638 F1800
G0 X111.989 Y34.978 F7200
G1 X108.308 Y38.659 E209.12610 F1800



; ------------------------------------
; Raft Layer #2
; ------------------------------------
G92 E0 ;reset extr
G0 F600 Z0.800
;segType:Raft
G0 F3000 E-1.00000
G0 F600 Z2.800
G0 X148.668 Y34.998 F7200
G0 F600 Z0.800
G0 F3000 E0.00000
G1 X111.069 Y34.998 E1.25055 F2400
G1 X110.675 Y35.398 E1.26924
G1 X149.063 Y35.398 E2.54602
G1 X149.457 Y35.798 E2.56471
G1 X110.280 Y35.798 E3.86773
G1 X109.886 Y36.198 E3.88641
G1 X149.851 Y36.198 E5.21567
G1 X150.246 Y36.598 E5.23436
G1 X109.491 Y36.598 E6.58985
G1 X109.097 Y36.998 E6.60853
G1 X150.640 Y36.998 E7.99026
G1 X151.034 Y37.398 E8.00894
G1 X108.703 Y37.398 E9.41691
G1 X108.308 Y37.798 E9.43559
G1 X151.429 Y37.798 E10.86979
G1 X151.429 Y38.198 E10.88310
G1 X108.308 Y38.198 E12.31730
G1 X108.308 Y38.598 E12.33060
G1 X151.429 Y38.598 E13.76480
G1 X151.429 Y38.998 E13.77811
G1 X108.308 Y38.998 E15.21231
G1 X108.308 Y39.398 E15.22561
G1 X151.429 Y39.398 E16.65981
G1 X151.429 Y39.798 E16.67311
G1 X108.308 Y39.798 E18.10731
G1 X108.308 Y40.198 E18.12062
G1 X151.429 Y40.198 E19.55482
G1 X151.429 Y40.598 E19.56812
G1 X108.308 Y40.598 E21.00232
G1 X108.308 Y40.998 E21.01563
G1 X151.429 Y40.998 E22.44983
G1 X151.429 Y41.398 E22.46313
G1 X108.308 Y41.398 E23.89733
G1 X108.308 Y41.798 E23.91063
G1 X151.429 Y41.798 E25.34483
G1 X151.429 Y42.198 E25.35814
G1 X108.308 Y42.198 E26.79234
G1 X108.308 Y42.598 E26.80564
G1 X151.429 Y42.598 E28.23984
G1 X151.429 Y42.998 E28.25315
G1 X108.308 Y42.998 E29.68735
G1 X108.308 Y43.398 E29.70065
G1 X151.429 Y43.398 E31.13485
G1 X151.429 Y43.798 E31.14815
G1 X108.308 Y43.798 E32.58235
G1 X108.308 Y44.198 E32.59566
G1 X151.429 Y44.198 E34.02986
G1 X151.429 Y44.598 E34.04316
G1 X108.308 Y44.598 E35.47736
G1 X108.308 Y44.998 E35.49067
G1 X151.429 Y44.998 E36.92487
G1 X151.429 Y45.398 E36.93818
G1 X108.308 Y45.398 E38.37238
G1 X108.308 Y45.798 E38.38568
G1 X151.429 Y45.798 E39.81988
G1 X151.429 Y46.198 E39.83319
G1 X108.308 Y46.198 E41.26739
G1 X108.308 Y46.598 E41.28069
G1 X151.429 Y46.598 E42.71490
G1 X151.429 Y46.998 E42.72820
G1 X108.308 Y46.998 E44.16240
G1 X108.308 Y47.398 E44.17571
G1 X151.429 Y47.398 E45.60991
G1 X151.429 Y47.798 E45.62321
G1 X108.308 Y47.798 E47.05741
G1 X108.308 Y48.198 E47.07072
G1 X151.429 Y48.198 E48.50492
G1 X151.429 Y48.598 E48.51823
G1 X108.308 Y48.598 E49.95243
G1 X108.308 Y48.998 E49.96573
G1 X151.429 Y48.998 E51.39993
G1 X151.429 Y49.398 E51.41324
G1 X108.308 Y49.398 E52.84744
G1 X108.308 Y49.798 E52.86074
G1 X151.429 Y49.798 E54.29494
G1 X151.429 Y50.197 E54.30825
G1 X108.308 Y50.197 E55.74245
G1 X108.308 Y50.597 E55.75576
G1 X151.429 Y50.597 E57.18996
G1 X151.429 Y50.997 E57.20326
G1 X108.308 Y50.997 E58.63746
G1 X108.308 Y51.397 E58.65077
G1 X151.429 Y51.397 E60.08497
G1 X151.429 Y51.797 E60.09827
G1 X108.308 Y51.797 E61.53247
G1 X108.308 Y52.197 E61.54578
G1 X151.429 Y52.197 E62.97998
G1 X151.429 Y52.597 E62.99328
G1 X108.308 Y52.597 E64.42749
G1 X108.308 Y52.997 E64.44079
G1 X151.429 Y52.997 E65.87499
G1 X151.429 Y53.397 E65.88829
G1 X108.308 Y53.397 E67.32249
G1 X108.308 Y53.797 E67.33580
G1 X151.429 Y53.797 E68.76999
G1 X151.429 Y54.197 E68.78330
G1 X108.308 Y54.197 E70.21749
G1 X108.308 Y54.597 E70.23080
G1 X151.429 Y54.597 E71.66500
G1 X151.429 Y54.997 E71.67830
G1 X108.308 Y54.997 E73.11250
G1 X108.308 Y55.397 E73.12580
G1 X151.429 Y55.397 E74.56000
G1 X151.429 Y55.797 E74.57331
G1 X108.308 Y55.797 E76.00750
G1 X108.308 Y56.197 E76.02081
G1 X151.429 Y56.197 E77.45500
G1 X151.429 Y56.597 E77.46831
G1 X108.308 Y56.597 E78.90251
G1 X108.308 Y56.997 E78.91581
G1 X151.429 Y56.997 E80.35001
G1 X151.429 Y57.397 E80.36331
G1 X108.308 Y57.397 E81.79751
G1 X108.308 Y57.797 E81.81082
G1 X151.429 Y57.797 E83.24501
G1 X151.429 Y58.197 E83.25832
G1 X108.308 Y58.197 E84.69251
G1 X108.308 Y58.597 E84.70582
G1 X151.429 Y58.597 E86.14001
G1 X151.429 Y58.997 E86.15332
G1 X108.308 Y58.997 E87.58752
G1 X108.308 Y59.397 E87.60082
G1 X151.429 Y59.397 E89.03502
G1 X151.429 Y59.797 E89.04832
G1 X108.308 Y59.797 E90.48252
G1 X108.308 Y60.197 E90.49583
G1 X151.429 Y60.197 E91.93002
G1 X151.429 Y60.597 E91.94333
G1 X108.308 Y60.597 E93.37753
G1 X108.308 Y60.997 E93.39083
G1 X151.429 Y60.997 E94.82503
G1 X151.429 Y61.397 E94.83833
G1 X108.308 Y61.397 E96.27253
G1 X108.308 Y61.797 E96.28584
G1 X151.429 Y61.797 E97.72003
G1 X151.429 Y62.197 E97.73334
G1 X108.308 Y62.197 E99.16753
G1 X108.308 Y62.597 E99.18084
G1 X151.429 Y62.597 E100.61504
G1 X151.429 Y62.997 E100.62834
G1 X108.308 Y62.997 E102.06254
G1 X108.308 Y63.397 E102.07584
G1 X151.429 Y63.397 E103.51004
G1 X151.429 Y63.797 E103.52335
G1 X108.308 Y63.797 E104.95754
G1 X108.308 Y64.197 E104.97085
G1 X151.429 Y64.197 E106.40504
G1 X151.429 Y64.597 E106.41835
G1 X108.308 Y64.597 E107.85255
G1 X108.308 Y64.997 E107.86585
G1 X151.429 Y64.997 E109.30005
G1 X151.429 Y65.397 E109.31335
G1 X108.308 Y65.397 E110.74755
G1 X108.308 Y65.797 E110.76086
G1 X151.429 Y65.797 E112.19505
G1 X151.429 Y66.197 E112.20836
G1 X108.308 Y66.197 E113.64256
G1 X108.308 Y66.597 E113.65586
G1 X151.429 Y66.597 E115.09006
G1 X151.429 Y66.997 E115.10336
G1 X108.308 Y66.997 E116.53756
G1 X108.308 Y67.397 E116.55087
G1 X151.429 Y67.397 E117.98506
G1 X151.429 Y67.797 E117.99837
G1 X108.308 Y67.797 E119.43256
G1 X108.308 Y68.197 E119.44587
G1 X151.429 Y68.197 E120.88007
G1 X151.429 Y68.597 E120.89337
G1 X108.308 Y68.597 E122.32757
G1 X108.308 Y68.997 E122.34087
G1 X151.429 Y68.997 E123.77507
G1 X151.429 Y69.397 E123.78838
G1 X108.308 Y69.397 E125.22257
G1 X108.308 Y69.797 E125.23588
G1 X151.429 Y69.797 E126.67007
G1 X151.429 Y70.197 E126.68338
G1 X108.308 Y70.197 E128.11758
G1 X108.308 Y70.597 E128.13089
G1 X151.429 Y70.597 E129.56509
G1 X151.429 Y70.997 E129.57840
G1 X108.308 Y70.997 E131.01260
G1 X108.308 Y71.397 E131.02591
G1 X151.429 Y71.397 E132.46011
G1 X151.429 Y71.797 E132.47342
G1 X108.308 Y71.797 E133.90762
G1 X108.308 Y72.197 E133.92093
G1 X151.429 Y72.197 E135.35513
G1 X151.429 Y72.597 E135.36844
G1 X108.308 Y72.597 E136.80264
G1 X108.308 Y72.997 E136.81595
G1 X151.429 Y72.997 E138.25015
G1 X151.429 Y73.397 E138.26346
G1 X108.308 Y73.397 E139.69766
G1 X108.308 Y73.797 E139.71097
G1 X151.429 Y73.797 E141.14517
G1 X151.429 Y74.197 E141.15848
G1 X108.308 Y74.197 E142.59268
G1 X108.308 Y74.597 E142.60599
G1 X151.429 Y74.597 E144.04019
G1 X151.429 Y74.997 E144.05350
G1 X108.308 Y74.997 E145.48770
G1 X108.308 Y75.397 E145.50101
G1 X151.429 Y75.397 E146.93521
G1 X151.429 Y75.797 E146.94852
G1 X108.308 Y75.797 E148.38272
G1 X108.308 Y76.197 E148.39603
G1 X151.429 Y76.197 E149.83023
G1 X151.429 Y76.597 E149.84354
G1 X108.308 Y76.597 E151.27774
G1 X108.308 Y76.997 E151.29105
G1 X151.429 Y76.997 E152.72525
G1 X151.429 Y77.397 E152.73856
G1 X108.308 Y77.397 E154.17276
G1 X108.308 Y77.797 E154.18607
G1 X151.429 Y77.797 E155.62027
G1 X151.429 Y78.197 E155.63358
G1 X108.308 Y78.197 E157.06778
G1 X108.308 Y78.597 E157.08109
G1 X151.429 Y78.597 E158.51529
G1 X151.429 Y78.997 E158.52859
G1 X108.308 Y78.997 E159.96280
G1 X108.308 Y79.397 E159.97610
G1 X151.429 Y79.397 E161.41031
G1 X151.429 Y79.797 E161.42361
G1 X108.308 Y79.797 E162.85782
G1 X108.308 Y80.197 E162.87112
G1 X151.429 Y80.197 E164.30533
G1 X151.429 Y80.597 E164.31863
G1 X108.308 Y80.597 E165.75284
G1 X108.308 Y80.997 E165.76614
G1 X151.429 Y80.997 E167.20035
G1 X151.429 Y81.397 E167.21365
G1 X108.308 Y81.397 E168.64786
G1 X108.308 Y81.797 E168.66116
G1 X151.429 Y81.797 E170.09536
G1 X151.429 Y82.197 E170.10868
G1 X108.308 Y82.197 E171.54288
G1 X108.308 Y82.597 E171.55618
G1 X151.429 Y82.597 E172.99038
G1 X151.429 Y82.997 E173.00370
G1 X108.308 Y82.997 E174.43790
G1 X108.308 Y83.397 E174.45120
G1 X151.429 Y83.397 E175.88540
G1 X151.429 Y83.797 E175.89872
G1 X108.308 Y83.797 E177.33292
G1 X108.308 Y84.197 E177.34622
G1 X151.429 Y84.197 E178.78042
G1 X151.429 Y84.597 E178.79374
G1 X108.308 Y84.597 E180.22794
G1 X108.308 Y84.997 E180.24124
G1 X151.429 Y84.997 E181.67544
G1 X151.429 Y85.397 E181.68876
G1 X108.308 Y85.397 E183.12296
G1 X108.308 Y85.797 E183.13626
G1 X151.429 Y85.797 E184.57046
G1 X151.429 Y86.197 E184.58378
G1 X108.308 Y86.197 E186.01798
G1 X108.308 Y86.597 E186.03128
G1 X151.429 Y86.597 E187.46548
G1 X151.429 Y86.997 E187.47880
G1 X108.308 Y86.997 E188.91300
G1 X108.308 Y87.397 E188.92630
G1 X151.429 Y87.397 E190.36050
G1 X151.429 Y87.797 E190.37380
G1 X108.308 Y87.797 E191.80802
G1 X108.308 Y88.197 E191.82132
G1 X151.429 Y88.197 E193.25552
G1 X151.429 Y88.597 E193.26882
G1 X108.308 Y88.597 E194.70304
G1 X108.308 Y88.997 E194.71634
G1 X151.429 Y88.997 E196.15054
G1 X151.429 Y89.397 E196.16384
G1 X108.308 Y89.397 E197.59806
G1 X108.308 Y89.797 E197.61136
G1 X151.429 Y89.797 E199.04556
G1 X151.429 Y90.197 E199.05886
G1 X108.308 Y90.197 E200.49308
G1 X108.308 Y90.597 E200.50638
G1 X151.429 Y90.597 E201.94058
G1 X151.429 Y90.997 E201.95388
G1 X108.308 Y90.997 E203.38810
G1 X108.308 Y91.397 E203.40140
G1 X151.429 Y91.397 E204.83560
G1 X151.429 Y91.797 E204.84890
G1 X108.308 Y91.797 E206.28312
G1 X108.308 Y92.197 E206.29642
G1 X151.429 Y92.197 E207.73062
G1 X151.429 Y92.597 E207.74392
G1 X108.308 Y92.597 E209.17814
G1 X108.308 Y92.997 E209.19144
G1 X151.429 Y92.997 E210.62564
G1 X151.429 Y93.397 E210.63894
G1 X108.308 Y93.397 E212.07316
G1 X108.308 Y93.797 E212.08646
G1 X151.429 Y93.797 E213.52066
G1 X151.429 Y94.197 E213.53396
G1 X108.308 Y94.197 E214.96818
G1 X108.308 Y94.597 E214.98148
G1 X151.429 Y94.597 E216.41568
G1 X151.429 Y94.997 E216.42898
G1 X108.308 Y94.997 E217.86318
G1 X108.308 Y95.397 E217.87650
G1 X151.429 Y95.397 E219.31070
G1 X151.429 Y95.797 E219.32400
G1 X108.308 Y95.797 E220.75820
G1 X108.308 Y96.197 E220.77152
G1 X151.429 Y96.197 E222.20572
G1 X151.429 Y96.597 E222.21902
G1 X108.308 Y96.597 E223.65322
G1 X108.308 Y96.997 E223.66654
G1 X151.429 Y96.997 E225.10074
G1 X151.429 Y97.397 E225.11404
G1 X108.308 Y97.397 E226.54824
G1 X108.308 Y97.797 E226.56156
G1 X151.429 Y97.797 E227.99576
G1 X151.429 Y98.197 E228.00906
G1 X108.308 Y98.197 E229.44326
G1 X108.308 Y98.597 E229.45658
G1 X151.429 Y98.597 E230.89078
G1 X151.429 Y98.997 E230.90408
G1 X108.308 Y98.997 E232.33828
G1 X108.308 Y99.397 E232.35160
G1 X151.429 Y99.397 E233.78580
G1 X151.429 Y99.797 E233.79910
G1 X108.308 Y99.797 E235.23330
G1 X108.308 Y100.197 E235.24662
G1 X151.429 Y100.197 E236.68082
G1 X151.429 Y100.597 E236.69412
G1 X108.308 Y100.597 E238.12832
G1 X108.308 Y100.997 E238.14164
G1 X151.429 Y100.997 E239.57584
G1 X151.429 Y101.397 E239.58914
G1 X108.308 Y101.397 E241.02334
G1 X108.308 Y101.797 E241.03666
G1 X151.429 Y101.797 E242.47086
G1 X151.429 Y102.197 E242.48416
G1 X108.308 Y102.197 E243.91836
G1 X108.308 Y102.597 E243.93168
G1 X151.429 Y102.597 E245.36588
G1 X151.429 Y102.997 E245.37918
G1 X108.308 Y102.997 E246.81338
G1 X108.308 Y103.397 E246.82670
G1 X151.429 Y103.397 E248.26090
G1 X151.429 Y103.797 E248.27420
G1 X108.308 Y103.797 E249.70840
G1 X108.308 Y104.197 E249.72172
G1 X151.429 Y104.197 E251.15592
G1 X151.429 Y104.597 E251.16922
G1 X108.308 Y104.597 E252.60342
G1 X108.308 Y104.997 E252.61672
G1 X151.429 Y104.997 E254.05094
G1 X151.429 Y105.397 E254.06424
G1 X108.308 Y105.397 E255.49844
G1 X108.308 Y105.797 E255.51174
G1 X151.429 Y105.797 E256.94596
G1 X151.429 Y106.197 E256.95926
G1 X108.308 Y106.197 E258.39346
G1 X108.308 Y106.597 E258.40676
G1 X151.429 Y106.597 E259.84098
G1 X151.429 Y106.997 E259.85428
G1 X108.308 Y106.997 E261.28848
G1 X108.308 Y107.397 E261.30178
G1 X151.429 Y107.397 E262.73600
G1 X151.429 Y107.797 E262.74930
G1 X108.308 Y107.797 E264.18350
G1 X108.308 Y108.197 E264.19680
G1 X151.429 Y108.197 E265.63102
G1 X151.429 Y108.597 E265.64432
G1 X108.308 Y108.597 E267.07852
G1 X108.308 Y108.997 E267.09182
G1 X151.429 Y108.997 E268.52604
G1 X151.429 Y109.397 E268.53934
G1 X108.308 Y109.397 E269.97354
G1 X108.308 Y109.797 E269.98684
G1 X151.429 Y109.797 E271.42106
G1 X151.429 Y110.197 E271.43436
G1 X108.308 Y110.197 E272.86856
G1 X108.308 Y110.597 E272.88186
G1 X151.429 Y110.597 E274.31608
G1 X151.429 Y110.997 E274.32938
G1 X108.308 Y110.997 E275.76358
G1 X108.308 Y111.397 E275.77688
G1 X151.429 Y111.397 E277.21110
G1 X151.429 Y111.797 E277.22440
G1 X108.308 Y111.797 E278.65860
G1 X108.308 Y112.197 E278.67190
G1 X151.429 Y112.197 E280.10610
G1 X151.429 Y112.597 E280.11942
G1 X108.308 Y112.597 E281.55362
G1 X108.308 Y112.997 E281.56692
G1 X151.429 Y112.997 E283.00112
G1 X151.429 Y113.397 E283.01444
G1 X108.308 Y113.397 E284.44864
G1 X108.308 Y113.797 E284.46194
G1 X151.429 Y113.797 E285.89614
G1 X151.429 Y114.197 E285.90946
G1 X108.308 Y114.197 E287.34366
G1 X108.308 Y114.597 E287.35696
G1 X151.429 Y114.597 E288.79116
G1 X151.429 Y114.997 E288.80448
G1 X108.308 Y114.997 E290.23868
G1 X108.308 Y115.397 E290.25198
G1 X151.429 Y115.397 E291.68618
G1 X151.429 Y115.797 E291.69950
G1 X108.308 Y115.797 E293.13370
G1 X108.308 Y116.197 E293.14700
G1 X151.429 Y116.197 E294.58120
G1 X151.429 Y116.597 E294.59452
G1 X108.308 Y116.597 E296.02872
G1 X108.308 Y116.997 E296.04202
G1 X151.429 Y116.997 E297.47622
G1 X151.429 Y117.397 E297.48954
G1 X108.308 Y117.397 E298.92374
G1 X108.308 Y117.797 E298.93704
G1 X151.429 Y117.797 E300.37124
G1 X151.429 Y118.197 E300.38456
G1 X108.308 Y118.197 E301.81876
G1 X108.308 Y118.597 E301.83206
G1 X151.429 Y118.597 E303.26626
G1 X151.429 Y118.997 E303.27958
G1 X108.308 Y118.997 E304.71378
G1 X108.308 Y119.397 E304.72708
G1 X151.429 Y119.397 E306.16128
G1 X151.429 Y119.797 E306.17460
G1 X108.308 Y119.797 E307.60880
G1 X108.308 Y120.197 E307.62210
G1 X151.429 Y120.197 E309.05630
G1 X151.429 Y120.597 E309.06962
G1 X108.308 Y120.597 E310.50382
G1 X108.308 Y120.997 E310.51712
G1 X151.429 Y120.997 E311.95132
G1 X151.429 Y121.397 E311.96464
G1 X108.308 Y121.397 E313.39884
G1 X108.308 Y121.797 E313.41214
G1 X151.429 Y121.797 E314.84634
G1 X151.429 Y122.197 E314.85964
G1 X108.308 Y122.197 E316.29386
G1 X108.308 Y122.597 E316.30716
G1 X151.429 Y122.597 E317.74136
G1 X151.429 Y122.997 E317.75466
G1 X108.308 Y122.997 E319.18888
G1 X108.308 Y123.397 E319.20218
G1 X151.429 Y123.397 E320.63638
G1 X151.429 Y123.797 E320.64968
G1 X108.308 Y123.797 E322.08390
G1 X108.308 Y124.197 E322.09720
G1 X151.429 Y124.197 E323.53140
G1 X151.429 Y124.597 E323.54470
G1 X108.308 Y124.597 E324.97892
G1 X108.308 Y124.997 E324.99222
G1 X151.429 Y124.997 E326.42642
G1 X151.429 Y125.397 E326.43972
G1 X108.308 Y125.397 E327.87394
G1 X108.308 Y125.797 E327.88724
G1 X151.429 Y125.797 E329.32144
G1 X151.429 Y126.197 E329.33474
G1 X108.308 Y126.197 E330.76896
G1 X108.308 Y126.597 E330.78226
G1 X151.429 Y126.597 E332.21646
G1 X151.429 Y126.997 E332.22976
G1 X108.308 Y126.997 E333.66398
G1 X108.308 Y127.397 E333.67728
G1 X151.429 Y127.397 E335.11148
G1 X151.429 Y127.797 E335.12478
G1 X108.308 Y127.797 E336.55900
G1 X108.308 Y128.197 E336.57228
G1 X151.429 Y128.197 E338.00652
G1 X151.429 Y128.597 E338.01980
G1 X108.308 Y128.597 E339.45400
G1 X108.308 Y128.997 E339.46732
G1 X151.429 Y128.997 E340.90152
G1 X151.429 Y129.397 E340.91484
G1 X108.308 Y129.397 E342.34904
G1 X108.308 Y129.797 E342.36232
G1 X151.429 Y129.797 E343.79652
G1 X151.429 Y130.197 E343.80984
G1 X108.308 Y130.197 E345.24404
G1 X108.308 Y130.597 E345.25736
G1 X151.429 Y130.597 E346.69156
G1 X151.429 Y130.997 E346.70488
G1 X108.308 Y130.997 E348.13908
G1 X108.308 Y131.397 E348.15236
G1 X151.429 Y131.397 E349.58656
G1 X151.429 Y131.797 E349.59988
G1 X108.308 Y131.797 E351.03408
G1 X108.308 Y132.197 E351.04740
G1 X151.429 Y132.197 E352.48160
G1 X151.429 Y132.597 E352.49492
G1 X108.308 Y132.597 E353.92912
G1 X108.308 Y132.997 E353.94240
G1 X151.429 Y132.997 E355.37660
G1 X151.429 Y133.397 E355.38992
G1 X108.308 Y133.397 E356.82412
G1 X108.308 Y133.797 E356.83744
G1 X151.429 Y133.797 E358.27164
G1 X151.429 Y134.197 E358.28496
G1 X108.308 Y134.197 E359.71916
G1 X108.308 Y134.597 E359.73244
G1 X151.429 Y134.597 E361.16664
G1 X151.429 Y134.997 E361.17996
G1 X108.308 Y134.997 E362.61416
G1 X108.308 Y135.397 E362.62748
G1 X151.429 Y135.397 E364.06168
G1 X151.429 Y135.797 E364.07500
G1 X108.308 Y135.797 E365.50920
G1 X108.308 Y136.197 E365.52248
G1 X151.429 Y136.197 E366.95668
G1 X151.429 Y136.597 E366.97000
G1 X108.308 Y136.597 E368.40420
G1 X108.308 Y136.997 E368.41752
G1 X151.429 Y136.997 E369.85172
G1 X151.429 Y137.397 E369.86504
G1 X108.308 Y137.397 E371.29924
G1 X108.308 Y137.797 E371.31252
G1 X151.429 Y137.797 E372.74672
G1 X151.429 Y138.197 E372.76004
G1 X108.308 Y138.197 E374.19424
G1 X108.308 Y138.597 E374.20756
G1 X151.429 Y138.597 E375.64176
G1 X151.429 Y138.997 E375.65504
G1 X108.308 Y138.997 E377.08928
G1 X108.308 Y139.397 E377.10256
G1 X151.429 Y139.397 E378.53676
G1 X151.429 Y139.797 E378.55008
G1 X108.308 Y139.797 E379.98428
G1 X108.308 Y140.197 E379.99760
G1 X151.429 Y140.197 E381.43180
G1 X151.429 Y140.597 E381.44508
G1 X108.308 Y140.597 E382.87932
G1 X108.308 Y140.997 E382.89260
G1 X151.429 Y140.997 E384.32680
G1 X151.429 Y141.397 E384.34012
G1 X108.308 Y141.397 E385.77432
G1 X108.308 Y141.797 E385.78764
G1 X151.429 Y141.797 E387.22184
G1 X151.429 Y142.197 E387.23512
G1 X108.308 Y142.197 E388.66936
G1 X108.308 Y142.597 E388.68264
G1 X151.429 Y142.597 E390.11684
G1 X151.429 Y142.997 E390.13016
G1 X108.308 Y142.997 E391.56436
G1 X108.308 Y143.397 E391.57768
G1 X151.429 Y143.397 E393.01188
G1 X151.429 Y143.797 E393.02516
G1 X108.308 Y143.797 E394.45940
G1 X108.308 Y144.197 E394.47268
G1 X151.429 Y144.197 E395.90688
G1 X151.429 Y144.597 E395.92020
G1 X108.308 Y144.597 E397.35440
G1 X108.308 Y144.997 E397.36772
G1 X151.429 Y144.997 E398.80192
G1 X151.429 Y145.397 E398.81520
G1 X108.308 Y145.397 E400.24944
G1 X108.308 Y145.797 E400.26272
G1 X151.429 Y145.797 E401.69692
G1 X151.429 Y146.197 E401.71024
G1 X108.308 Y146.197 E403.14444
G1 X108.308 Y146.597 E403.15776
G1 X151.429 Y146.597 E404.59196
G1 X151.429 Y146.997 E404.60524
G1 X108.308 Y146.997 E406.03944
G1 X108.308 Y147.397 E406.05276
G1 X151.429 Y147.397 E407.48696
G1 X151.429 Y147.797 E407.50028
G1 X108.308 Y147.797 E408.93448
G1 X108.308 Y148.197 E408.94780
G1 X151.429 Y148.197 E410.38200
G1 X151.429 Y148.597 E410.39528
G1 X108.308 Y148.597 E411.82948
G1 X108.308 Y148.997 E411.84280
G1 X151.429 Y148.997 E413.27700
G1 X151.429 Y149.397 E413.29032
G1 X108.308 Y149.397 E414.72452
G1 X108.308 Y149.797 E414.73784
G1 X151.429 Y149.797 E416.17204
G1 X151.429 Y150.197 E416.18532
G1 X108.308 Y150.197 E417.61952
G1 X108.308 Y150.597 E417.63284
G1 X151.429 Y150.597 E419.06704
G1 X151.429 Y150.997 E419.08036
G1 X108.308 Y150.997 E420.51456
G1 X108.308 Y151.397 E420.52788
G1 X151.429 Y151.397 E421.96208
G1 X151.429 Y151.797 E421.97536
G1 X108.308 Y151.797 E423.40956
G1 X108.308 Y152.197 E423.42288
G1 X151.429 Y152.197 E424.85708
G1 X151.429 Y152.597 E424.87040
G1 X108.308 Y152.597 E426.30460
G1 X108.308 Y152.997 E426.31792
G1 X151.429 Y152.997 E427.75212
G1 X151.429 Y153.397 E427.76540
G1 X108.308 Y153.397 E429.19960
G1 X108.308 Y153.797 E429.21292
G1 X151.429 Y153.797 E430.64712
G1 X151.429 Y154.197 E430.66044
G1 X108.308 Y154.197 E432.09464
G1 X108.308 Y154.597 E432.10796
G1 X151.429 Y154.597 E433.54216
G1 X151.429 Y154.997 E433.55544
G1 X108.308 Y154.997 E434.98964
G1 X108.308 Y155.397 E435.00296
G1 X151.429 Y155.397 E436.43716
G1 X151.429 Y155.797 E436.45048
G1 X108.308 Y155.797 E437.88468
G1 X108.308 Y156.197 E437.89796
G1 X151.429 Y156.197 E439.33220
G1 X151.429 Y156.597 E439.34548
G1 X108.308 Y156.597 E440.77968
G1 X108.308 Y156.997 E440.79300
G1 X151.429 Y156.997 E442.22720
G1 X151.429 Y157.397 E442.24052
G1 X108.308 Y157.397 E443.67472
G1 X108.308 Y157.797 E443.68800
G1 X151.429 Y157.797 E445.12224
G1 X151.429 Y158.197 E445.13552
G1 X108.308 Y158.197 E446.56972
G1 X108.308 Y158.597 E446.58304
G1 X151.429 Y158.597 E448.01724
G1 X151.429 Y158.997 E448.03056
G1 X108.308 Y158.997 E449.46476
G1 X108.308 Y159.397 E449.47804
G1 X151.429 Y159.397 E450.91228
G1 X151.429 Y159.797 E450.92556
G1 X108.308 Y159.797 E452.35976
G1 X108.308 Y160.197 E452.37308
G1 X151.429 Y160.197 E453.80728
G1 X151.429 Y160.597 E453.82060
G1 X108.308 Y160.597 E455.25480
G1 X108.308 Y160.997 E455.26808
G1 X151.429 Y160.997 E456.70232
G1 X151.429 Y161.397 E456.71560
G1 X108.308 Y161.397 E458.14980
G1 X108.308 Y161.797 E458.16312
G1 X151.429 Y161.797 E459.59732
G1 X151.429 Y162.197 E459.61064
G1 X108.308 Y162.197 E461.04484
G1 X108.571 Y162.597 E461.06076
G1 X151.166 Y162.597 E462.47748
G1 X150.772 Y162.997 E462.49616
G1 X108.966 Y162.997 E463.88664
G1 X109.360 Y163.397 E463.90532
G1 X150.377 Y163.397 E465.26952
G1 X149.983 Y163.797 E465.28820
G1 X109.754 Y163.797 E466.62624
G1 X110.149 Y164.197 E466.64488
G1 X149.588 Y164.197 E467.95668
G1 X149.194 Y164.597 E467.97536
G1 X110.543 Y164.597 E469.26088
G1 X110.938 Y164.997 E469.27956
G1 X148.800 Y164.997 E470.53884



; ------------------------------------
; Raft Layer #3
; ------------------------------------
M106 S255 ;set fan speed
G92 E0 ;reset extr
G0 F600 Z1.000
;segType:Raft
G0 F3000 E-1.00000
G0 F600 Z3.000
G0 X151.403 Y162.446 F7200
G0 F600 Z1.000
G0 F3000 E0.00000
G1 X151.403 Y37.817 E4.14519 F2400
G1 X151.003 Y37.422 E4.16387
G1 X151.003 Y162.841 E8.33529
G1 X150.603 Y163.235 E8.35398
G1 X150.603 Y37.028 E12.55164
G1 X150.203 Y36.634 E12.57032
G1 X150.203 Y163.629 E16.79421
G1 X149.803 Y164.024 E16.81290
G1 X149.803 Y36.239 E21.06303
G1 X149.403 Y35.845 E21.08171
G1 X149.403 Y164.418 E25.35808
G1 X149.003 Y164.812 E25.37676
G1 X149.003 Y35.450 E29.67936
G1 X148.603 Y35.056 E29.69804
G1 X148.603 Y165.075 E34.02250
G1 X148.203 Y165.075 E34.03581
G1 X148.203 Y35.056 E38.36027
G1 X147.803 Y35.056 E38.37358
G1 X147.803 Y165.075 E42.69804
G1 X147.403 Y165.075 E42.71135
G1 X147.403 Y35.056 E47.03581
G1 X147.003 Y35.056 E47.04912
G1 X147.003 Y165.075 E51.37358
G1 X146.603 Y165.075 E51.38689
G1 X146.603 Y35.056 E55.71135
G1 X146.203 Y35.056 E55.72465
G1 X146.203 Y165.075 E60.04912
G1 X145.803 Y165.075 E60.06242
G1 X145.803 Y35.056 E64.38688
G1 X145.403 Y35.056 E64.40019
G1 X145.403 Y165.075 E68.72465
G1 X145.003 Y165.075 E68.73796
G1 X145.003 Y35.056 E73.06242
G1 X144.603 Y35.056 E73.07572
G1 X144.603 Y165.075 E77.40019
G1 X144.203 Y165.075 E77.41349
G1 X144.203 Y35.056 E81.73796
G1 X143.803 Y35.056 E81.75126
G1 X143.803 Y165.075 E86.07572
G1 X143.403 Y165.075 E86.08903
G1 X143.403 Y35.056 E90.41349
G1 X143.003 Y35.056 E90.42680
G1 X143.003 Y165.075 E94.75126
G1 X142.603 Y165.075 E94.76456
G1 X142.603 Y35.056 E99.08903
G1 X142.203 Y35.056 E99.10233
G1 X142.203 Y165.075 E103.42680
G1 X141.803 Y165.075 E103.44010
G1 X141.803 Y35.056 E107.76456
G1 X141.403 Y35.056 E107.77787
G1 X141.403 Y165.075 E112.10233
G1 X141.003 Y165.075 E112.11564
G1 X141.003 Y35.056 E116.44010
G1 X140.603 Y35.056 E116.45341
G1 X140.603 Y165.075 E120.77787
G1 X140.203 Y165.075 E120.79118
G1 X140.203 Y35.056 E125.11564
G1 X139.803 Y35.056 E125.12894
G1 X139.803 Y165.075 E129.45340
G1 X139.403 Y165.075 E129.46671
G1 X139.403 Y35.056 E133.79117
G1 X139.003 Y35.056 E133.80447
G1 X139.003 Y165.075 E138.12894
G1 X138.603 Y165.075 E138.14224
G1 X138.603 Y35.056 E142.46671
G1 X138.203 Y35.056 E142.48001
G1 X138.203 Y165.075 E146.80447
G1 X137.803 Y165.075 E146.81778
G1 X137.803 Y35.056 E151.14224
G1 X137.403 Y35.056 E151.15555
G1 X137.403 Y165.075 E155.48001
G1 X137.003 Y165.075 E155.49332
G1 X137.003 Y35.056 E159.81778
G1 X136.603 Y35.056 E159.83109
G1 X136.603 Y165.075 E164.15555
G1 X136.203 Y165.075 E164.16885
G1 X136.203 Y35.056 E168.49332
G1 X135.803 Y35.056 E168.50662
G1 X135.803 Y165.075 E172.83108
G1 X135.403 Y165.075 E172.84440
G1 X135.403 Y35.056 E177.16886
G1 X135.003 Y35.056 E177.18216
G1 X135.003 Y165.075 E181.50662
G1 X134.603 Y165.075 E181.51992
G1 X134.603 Y35.056 E185.84440
G1 X134.203 Y35.056 E185.85770
G1 X134.203 Y165.075 E190.18216
G1 X133.803 Y165.075 E190.19546
G1 X133.803 Y35.056 E194.51992
G1 X133.403 Y35.056 E194.53324
G1 X133.403 Y165.075 E198.85770
G1 X133.003 Y165.075 E198.87100
G1 X133.003 Y35.056 E203.19546
G1 X132.603 Y35.056 E203.20878
G1 X132.603 Y165.075 E207.53324
G1 X132.203 Y165.075 E207.54654
G1 X132.203 Y35.056 E211.87100
G1 X131.803 Y35.056 E211.88430
G1 X131.803 Y165.075 E216.20878
G1 X131.403 Y165.075 E216.22208
G1 X131.403 Y35.056 E220.54654
G1 X131.003 Y35.056 E220.55984
G1 X131.003 Y165.075 E224.88430
G1 X130.603 Y165.075 E224.89762
G1 X130.603 Y35.056 E229.22208
G1 X130.203 Y35.056 E229.23538
G1 X130.203 Y165.075 E233.55984
G1 X129.803 Y165.075 E233.57316
G1 X129.803 Y35.056 E237.89762
G1 X129.403 Y35.056 E237.91092
G1 X129.403 Y165.075 E242.23538
G1 X129.003 Y165.075 E242.24868
G1 X129.003 Y35.056 E246.57316
G1 X128.603 Y35.056 E246.58646
G1 X128.603 Y165.075 E250.91092
G1 X128.203 Y165.075 E250.92422
G1 X128.203 Y35.056 E255.24868
G1 X127.803 Y35.056 E255.26200
G1 X127.803 Y165.075 E259.58646
G1 X127.403 Y165.075 E259.59976
G1 X127.403 Y35.056 E263.92422
G1 X127.003 Y35.056 E263.93754
G1 X127.003 Y165.075 E268.26200
G1 X126.603 Y165.075 E268.27530
G1 X126.603 Y35.056 E272.59976
G1 X126.203 Y35.056 E272.61306
G1 X126.203 Y165.075 E276.93754
G1 X125.803 Y165.075 E276.95084
G1 X125.803 Y35.056 E281.27530
G1 X125.403 Y35.056 E281.28860
G1 X125.403 Y165.075 E285.61306
G1 X125.003 Y165.075 E285.62638
G1 X125.003 Y35.056 E289.95084
G1 X124.603 Y35.056 E289.96414
G1 X124.603 Y165.075 E294.28860
G1 X124.203 Y165.075 E294.30192
G1 X124.203 Y35.056 E298.62638
G1 X123.803 Y35.056 E298.63968
G1 X123.803 Y165.075 E302.96414
G1 X123.403 Y165.075 E302.97744
G1 X123.403 Y35.056 E307.30192
G1 X123.003 Y35.056 E307.31522
G1 X123.003 Y165.075 E311.63968
G1 X122.603 Y165.075 E311.65298
G1 X122.603 Y35.056 E315.97744
G1 X122.203 Y35.056 E315.99076
G1 X122.203 Y165.075 E320.31522
G1 X121.803 Y165.075 E320.32852
G1 X121.803 Y35.056 E324.65298
G1 X121.403 Y35.056 E324.66630
G1 X121.403 Y165.075 E328.99076
G1 X121.003 Y165.075 E329.00406
G1 X121.003 Y35.056 E333.32852
G1 X120.603 Y35.056 E333.34182
G1 X120.603 Y165.075 E337.66628
G1 X120.203 Y165.075 E337.67960
G1 X120.203 Y35.056 E342.00404
G1 X119.803 Y35.056 E342.01736
G1 X119.803 Y165.075 E346.34184
G1 X119.403 Y165.075 E346.35512
G1 X119.403 Y35.056 E350.67960
G1 X119.003 Y35.056 E350.69292
G1 X119.003 Y165.075 E355.01736
G1 X118.603 Y165.075 E355.03068
G1 X118.603 Y35.056 E359.35512
G1 X118.203 Y35.056 E359.36844
G1 X118.203 Y165.075 E363.69292
G1 X117.803 Y165.075 E363.70620
G1 X117.803 Y35.056 E368.03068
G1 X117.403 Y35.056 E368.04396
G1 X117.403 Y165.075 E372.36844
G1 X117.003 Y165.075 E372.38176
G1 X117.003 Y35.056 E376.70620
G1 X116.603 Y35.056 E376.71952
G1 X116.603 Y165.075 E381.04396
G1 X116.203 Y165.075 E381.05728
G1 X116.203 Y35.056 E385.38176
G1 X115.803 Y35.056 E385.39504
G1 X115.803 Y165.075 E389.71952
G1 X115.403 Y165.075 E389.73280
G1 X115.403 Y35.056 E394.05728
G1 X115.003 Y35.056 E394.07060
G1 X115.003 Y165.075 E398.39504
G1 X114.603 Y165.075 E398.40836
G1 X114.603 Y35.056 E402.73280
G1 X114.203 Y35.056 E402.74612
G1 X114.203 Y165.075 E407.07060
G1 X113.803 Y165.075 E407.08388
G1 X113.803 Y35.056 E411.40836
G1 X113.403 Y35.056 E411.42168
G1 X113.403 Y165.075 E415.74612
G1 X113.003 Y165.075 E415.75944
G1 X113.003 Y35.056 E420.08388
G1 X112.603 Y35.056 E420.09720
G1 X112.603 Y165.075 E424.42168
G1 X112.203 Y165.075 E424.43496
G1 X112.203 Y35.056 E428.75944
G1 X111.803 Y35.056 E428.77272
G1 X111.803 Y165.075 E433.09720
G1 X111.403 Y165.075 E433.11052
G1 X111.403 Y35.056 E437.43496
G1 X111.003 Y35.319 E437.45088
G1 X111.003 Y164.944 E441.76224
G1 X110.603 Y164.550 E441.78092
G1 X110.603 Y35.713 E446.06600
G1 X110.203 Y36.108 E446.08468
G1 X110.203 Y164.155 E450.34356
G1 X109.803 Y163.761 E450.36224
G1 X109.803 Y36.502 E454.59488
G1 X109.403 Y36.897 E454.61356
G1 X109.403 Y163.366 E458.81996
G1 X109.003 Y162.972 E458.83864
G1 X109.003 Y37.291 E463.01880
G1 X108.603 Y37.685 E463.03748
G1 X108.603 Y162.578 E467.19140


; ------------------------------------
; Layer #0
; ------------------------------------
G21 ; mm
G90 ; abs
G92 E0 ;reset extr
G0 F600 Z1.450
;segType:HShell
G0 F3000 E-1.00000
G0 X123.515 Y50.126 F5400
G0 F3000 E0.00000
G1 X114.461 Y41.072 E0.42587 F2400
G0 X113.916 Y40.780 F5400
;segType:Perimeter
G1 X113.760 Y40.201 E0.44583 F1200
G1 X146.300 Y40.201 E1.52808
G1 X146.300 Y159.799 E5.50596
G1 X113.700 Y159.799 E6.59021
G1 X113.700 Y40.261 E10.56609
G0 X113.760 Y40.201 F5400
G0 X115.360 Y40.201
G0 X114.800 Y40.601
;segType:Loop
G1 X145.900 Y40.601 E11.60045 F2400
G1 X145.900 Y159.399 E15.55172
G1 X114.100 Y159.399 E16.60936
G1 X114.100 Y40.601 E20.56063
G1 X114.600 Y40.601 E20.57726
G0 F3000 E19.57726
G0 X114.600 Y40.601 F5400
G0 X123.875 Y48.023
G0 X123.875 Y51.175
G0 X127.813 Y51.175
G0 X145.900 Y65.651
G0 X145.539 Y65.363
G0 F3000 E20.57726
;segType:HShell
G1 X131.486 Y51.309 E21.23831 F2400
G0 X131.466 Y50.775 F5400
;segType:Perimeter
G1 X130.666 Y50.775 E21.26492 F1200
G1 X124.275 Y50.775 E21.47748
G1 X124.275 Y46.524 E21.61886
G1 X130.725 Y46.524 E21.83341
G1 X130.725 Y50.715 E21.97280
G0 X130.666 Y50.775 F5400
G0 X129.065 Y50.775
G0 X129.625 Y51.175
;segType:Loop
G1 X123.875 Y51.175 E22.16407 F2400
G1 X123.875 Y46.124 E22.33206
G1 X131.125 Y46.124 E22.57322
G1 X131.125 Y51.175 E22.74121
G1 X129.825 Y51.175 E22.78445
G0 F3000 E21.78445
G0 X123.792 Y51.535 F5400
G0 F3000 E22.78445
;segType:HShell
G1 X125.547 Y53.290 E22.86698 F2400
G0 X125.835 Y53.013 F5400
G1 X124.358 Y51.535 E22.93647 F2400
G0 X124.924 Y51.535 F5400
G1 X126.181 Y52.793 E22.99561 F2400
G0 X126.571 Y52.616 F5400
G1 X125.489 Y51.535 E23.04646 F2400
G0 X126.055 Y51.535 F5400
G1 X126.999 Y52.479 E23.09086 F2400
G0 X127.531 Y52.446 F5400
G1 X126.621 Y51.535 E23.13369 F2400
G0 X127.187 Y51.535 F5400
G1 X128.187 Y52.536 E23.18074 F2400
G0 X128.495 Y53.210 F5400
;segType:Perimeter
G1 X128.958 Y53.862 E23.20735 F1200
G1 X129.211 Y54.210 E23.22163
G1 X129.391 Y54.665 E23.23790
G1 X129.452 Y55.150 E23.25418
G1 X129.391 Y55.635 E23.27045
G1 X129.211 Y56.090 E23.28672
G1 X128.923 Y56.486 E23.30300
G1 X128.546 Y56.798 E23.31928
G1 X128.103 Y57.006 E23.33555
G1 X127.623 Y57.098 E23.35182
G1 X127.134 Y57.067 E23.36809
G1 X126.669 Y56.916 E23.38437
G1 X126.256 Y56.654 E23.40066
G1 X125.921 Y56.297 E23.41692
G1 X125.685 Y55.869 E23.43319
G1 X125.563 Y55.395 E23.44947
G1 X125.563 Y54.905 E23.46574
G1 X125.685 Y54.431 E23.48202
G1 X125.921 Y54.003 E23.49829
G1 X126.256 Y53.646 E23.51456
G1 X126.669 Y53.384 E23.53084
G1 X127.134 Y53.232 E23.54712
G1 X127.623 Y53.202 E23.56339
G1 X128.103 Y53.294 E23.57967
G1 X128.546 Y53.502 E23.59594
G1 X128.877 Y53.775 E23.61021
G0 X128.958 Y53.862 F5400
G0 X129.211 Y54.210
G0 X129.391 Y54.665
G0 X129.452 Y55.150
G0 X129.428 Y55.340
G0 X129.855 Y55.150
G0 X129.794 Y54.663
;segType:Loop
G1 X129.855 Y55.150 E23.62653 F2400
G1 X129.781 Y55.736 E23.64616
G1 X129.564 Y56.284 E23.66579
G1 X129.217 Y56.762 E23.68543
G1 X128.762 Y57.139 E23.70507
G1 X128.643 Y57.194 E23.70943
G0 X128.599 Y57.312 F5400
G0 X128.467 Y57.342
G1 X128.098 Y57.407 E23.72145 F2400
G1 X127.983 Y57.418 E23.72492
G1 X127.869 Y57.429 E23.72818
G1 X127.755 Y57.440 E23.73124
G1 X127.640 Y57.450 E23.73409
G1 X127.526 Y57.446 E23.73701
G1 X127.412 Y57.443 E23.74000
G1 X127.298 Y57.439 E23.74305
G1 X127.183 Y57.435 E23.74618
G1 X127.069 Y57.432 E23.74936
G1 X126.955 Y57.414 E23.75293
G1 X126.840 Y57.396 E23.75684
G1 X126.726 Y57.378 E23.76111
G1 X126.612 Y57.360 E23.76572
G0 X126.356 Y57.304 F5400
G1 X126.326 Y57.173 E23.77021 F2400
G1 X125.999 Y56.964 E23.78312
G1 X125.595 Y56.534 E23.80275
G1 X125.310 Y56.017 E23.82238
G1 X125.163 Y55.445 E23.84202
G1 X125.163 Y54.855 E23.86165
G1 X125.310 Y54.283 E23.88129
G1 X125.595 Y53.766 E23.90093
G1 X125.999 Y53.335 E23.92055
G1 X126.497 Y53.019 E23.94019
G1 X127.059 Y52.836 E23.95983
G1 X127.648 Y52.799 E23.97947
G1 X128.228 Y52.910 E23.99910
G1 X128.762 Y53.162 E24.01874
G1 X129.217 Y53.538 E24.03837
G1 X129.564 Y54.016 E24.05802
G1 X129.744 Y54.471 E24.07432
G0 F3000 E23.07432
G0 X145.539 Y86.859 F5400
G0 F3000 E24.07432
;segType:HShell
G1 X131.961 Y73.280 E24.71302 F2400
G0 X131.941 Y73.200 F5400
;segType:Perimeter
G1 X131.141 Y73.200 E24.73963 F1200
G1 X123.800 Y73.200 E24.98379
G1 X123.800 Y57.800 E25.49602
G1 X131.201 Y57.800 E25.74217
G1 X131.201 Y73.140 E26.25240
G0 X131.141 Y73.200 F5400
G0 X129.541 Y73.200
G0 X130.101 Y73.600
;segType:Loop
G1 X128.783 Y73.600 E26.29622 F2400
G0 X128.669 Y73.680 F5400
G0 X128.555 Y73.678
G0 X128.440 Y73.653
G0 X128.326 Y73.627
G0 X128.212 Y73.602
G1 X128.098 Y73.593 E26.29989 F2400
G1 X127.983 Y73.582 E26.30336
G1 X127.869 Y73.571 E26.30662
G1 X127.755 Y73.560 E26.30967
G1 X127.640 Y73.550 E26.31252
G1 X127.526 Y73.554 E26.31544
G1 X127.412 Y73.557 E26.31842
G1 X127.298 Y73.561 E26.32148
G1 X127.183 Y73.565 E26.32460
G1 X127.069 Y73.568 E26.32778
G1 X126.955 Y73.586 E26.33135
G1 X126.840 Y73.604 E26.33526
G1 X126.726 Y73.622 E26.33953
G1 X126.612 Y73.640 E26.34414
G1 X126.498 Y73.655 E26.34901
G1 X126.383 Y73.688 E26.35470
G1 X126.269 Y73.600 E26.35948
G1 X123.400 Y73.600 E26.45492
G1 X123.400 Y57.400 E26.99375
G1 X126.269 Y57.400 E27.08919
G1 X126.383 Y57.312 E27.09606
G1 X126.498 Y57.345 E27.10110
G0 X126.612 Y57.360 F5400
G0 X127.069 Y57.432
G0 X127.183 Y57.435
G0 X127.526 Y57.446
G0 X127.640 Y57.450
G0 X128.098 Y57.407
G1 X128.212 Y57.399 E27.10493 F2400
G1 X128.326 Y57.373 E27.10934
G1 X128.440 Y57.348 E27.11425
G1 X128.555 Y57.322 E27.11966
G1 X128.669 Y57.320 E27.12498
G1 X128.783 Y57.400 E27.12962
G1 X131.601 Y57.400 E27.22333
G1 X131.601 Y73.600 E27.76216
G1 X130.301 Y73.600 E27.80540
G0 F3000 E26.80540
G0 X128.783 Y73.600 F5400
G0 X128.669 Y73.680
G0 X128.555 Y73.678
G0 X128.440 Y73.653
G0 X128.326 Y73.627
G0 X128.212 Y73.602
G0 X128.098 Y73.593
G0 X127.983 Y73.582
G0 X127.869 Y73.571
G0 X127.755 Y73.560
G0 X127.640 Y73.550
G0 X127.526 Y73.554
G0 X127.412 Y73.557
G0 X127.298 Y73.561
G0 X127.183 Y73.565
G0 X127.069 Y73.568
G0 X126.955 Y73.586
G0 X126.840 Y73.604
G0 X126.726 Y73.622
G0 X126.612 Y73.640
G0 X126.498 Y73.655
G0 X126.383 Y73.688
G0 X126.269 Y73.600
G0 X123.400 Y73.600
G0 X123.400 Y70.026
G0 X114.100 Y65.210
G0 X114.461 Y65.397
G0 F3000 E27.80540
;segType:HShell
G1 X124.803 Y75.739 E28.29189 F2400
G0 X124.872 Y75.242 F5400
G1 X123.590 Y73.961 E28.35218 F2400
G0 X124.156 Y73.961 F5400
G1 X124.998 Y74.803 E28.39180 F2400
G0 X125.199 Y74.438 F5400
G0 X124.783 Y74.304
G1 X125.316 Y73.989 E28.44331 F2400
G0 X125.656 Y73.925 F5400
;segType:InnerHair
G1 X125.543 Y73.974 E28.44687 F2400
G1 X125.431 Y74.023 E28.45142
G0 X126.897 Y73.755 F5400
;segType:Perimeter
G1 X127.682 Y73.913 E28.47802 F1200
G1 X128.103 Y73.994 E28.49231
G1 X128.546 Y74.202 E28.50858
G1 X128.923 Y74.514 E28.52485
G1 X129.211 Y74.910 E28.54112
G1 X129.391 Y75.364 E28.55739
G1 X129.452 Y75.850 E28.57366
G1 X129.391 Y76.335 E28.58994
G1 X129.211 Y76.790 E28.60622
G1 X128.923 Y77.186 E28.62249
G1 X128.546 Y77.498 E28.63876
G1 X128.103 Y77.706 E28.65504
G1 X127.623 Y77.798 E28.67131
G1 X127.134 Y77.767 E28.68758
G1 X126.669 Y77.616 E28.70385
G1 X126.256 Y77.354 E28.72013
G1 X125.921 Y76.997 E28.73641
G1 X125.685 Y76.569 E28.75268
G1 X125.563 Y76.095 E28.76895
G1 X125.563 Y75.605 E28.78523
G1 X125.685 Y75.131 E28.80150
G1 X125.921 Y74.703 E28.81778
G1 X126.256 Y74.346 E28.83405
G1 X126.669 Y74.084 E28.85032
G1 X127.134 Y73.933 E28.86660
G1 X127.563 Y73.906 E28.88088
G0 X127.682 Y73.913 F5400
G0 X128.103 Y73.994
G0 X128.546 Y74.202
G0 X128.923 Y74.514
G0 X129.036 Y74.669
G0 X129.217 Y74.238
G0 X128.762 Y73.861
G0 X128.617 Y73.793
G0 X128.607 Y73.772
G0 X128.566 Y73.681
G0 X128.563 Y73.680
G0 X128.562 Y73.678
G0 X128.607 Y73.772
;segType:Loop
G1 X128.616 Y73.793 E28.88193 F2400
G1 X128.762 Y73.861 E28.88729
G1 X129.217 Y74.238 E28.90693
G1 X129.564 Y74.715 E28.92656
G1 X129.781 Y75.264 E28.94619
G1 X129.855 Y75.850 E28.96583
G1 X129.781 Y76.436 E28.98546
G1 X129.564 Y76.985 E29.00510
G1 X129.217 Y77.462 E29.02474
G1 X128.762 Y77.839 E29.04438
G1 X128.228 Y78.090 E29.06401
G1 X127.648 Y78.200 E29.08364
G1 X127.059 Y78.163 E29.10328
G1 X126.497 Y77.981 E29.12291
G1 X125.999 Y77.665 E29.14255
G1 X125.595 Y77.234 E29.16219
G1 X125.310 Y76.717 E29.18182
G1 X125.163 Y76.145 E29.20145
G1 X125.163 Y75.555 E29.22109
G1 X125.310 Y74.983 E29.24073
G1 X125.595 Y74.466 E29.26036
G1 X125.999 Y74.035 E29.28000
G1 X126.351 Y73.812 E29.29386
G1 X126.612 Y73.640 E29.30426
G0 X127.069 Y73.568 F5400
G0 X127.183 Y73.565
G0 X127.526 Y73.554
G0 X127.640 Y73.550
G0 X128.098 Y73.593
G0 X128.434 Y73.651
G0 F3000 E28.30426
G0 X128.317 Y73.200 F5400
G0 X128.586 Y74.235
G0 X128.923 Y74.514
G0 X129.211 Y74.910
G0 X129.391 Y75.364
G0 X129.452 Y75.850
G0 X129.391 Y76.335
G0 X129.235 Y76.730
G0 X145.539 Y139.468
G0 F3000 E29.30426
;segType:HShell
G1 X130.218 Y124.146 E30.02495 F2400
G0 X130.155 Y124.649 F5400
G1 X131.546 Y126.039 E30.09035 F2400
G0 X130.980 Y126.039 F5400
G1 X130.029 Y125.088 E30.13509 F2400
G0 X130.339 Y125.681 F5400
G1 X129.736 Y125.927 E30.18921 F2400
G0 X128.361 Y126.153 F5400
;segType:Perimeter
G1 X127.563 Y126.094 E30.21582 F1200
G1 X127.134 Y126.067 E30.23010
G1 X126.669 Y125.916 E30.24638
G1 X126.256 Y125.654 E30.26265
G1 X125.921 Y125.297 E30.27892
G1 X125.685 Y124.869 E30.29519
G1 X125.563 Y124.395 E30.31147
G1 X125.563 Y123.905 E30.32775
G1 X125.685 Y123.432 E30.34402
G1 X125.921 Y123.003 E30.36029
G1 X126.256 Y122.646 E30.37657
G1 X126.669 Y122.384 E30.39284
G1 X127.134 Y122.233 E30.40912
G1 X127.623 Y122.202 E30.42540
G1 X128.103 Y122.294 E30.44167
G1 X128.546 Y122.502 E30.45794
G1 X128.923 Y122.814 E30.47421
G1 X129.211 Y123.210 E30.49049
G1 X129.391 Y123.665 E30.50676
G1 X129.452 Y124.150 E30.52304
G1 X129.391 Y124.636 E30.53931
G1 X129.211 Y125.090 E30.55559
G1 X128.923 Y125.486 E30.57186
G1 X128.546 Y125.798 E30.58813
G1 X128.103 Y126.006 E30.60440
G1 X127.682 Y126.087 E30.61868
G0 X127.563 Y126.094 F5400
G0 X127.134 Y126.067
G0 X126.669 Y125.916
G0 X126.256 Y125.654
G0 X126.124 Y125.514
G0 F3000 E29.61868
G0 X126.742 Y126.380 F5400
G0 F3000 E30.61868
;segType:Loop
G1 X126.726 Y126.378 E30.61921 F2400
G1 X126.612 Y126.360 E30.62348
G1 X126.367 Y126.307 E30.63347
G0 X126.335 Y126.178 F5400
G1 X125.999 Y125.965 E30.64670 F2400
G1 X125.595 Y125.534 E30.66633
G1 X125.310 Y125.017 E30.68597
G1 X125.163 Y124.445 E30.70560
G1 X125.163 Y123.855 E30.72525
G1 X125.310 Y123.283 E30.74487
G1 X125.595 Y122.766 E30.76450
G1 X125.999 Y122.335 E30.78414
G1 X126.497 Y122.019 E30.80378
G1 X127.059 Y121.837 E30.82342
G1 X127.648 Y121.800 E30.84305
G1 X128.228 Y121.910 E30.86268
G1 X128.762 Y122.161 E30.88232
G1 X129.217 Y122.538 E30.90196
G1 X129.564 Y123.015 E30.92159
G1 X129.781 Y123.564 E30.94123
G1 X129.855 Y124.150 E30.96086
G1 X129.781 Y124.736 E30.98050
G1 X129.564 Y125.285 E31.00013
G1 X129.217 Y125.762 E31.01976
G1 X128.762 Y126.139 E31.03940
G1 X128.634 Y126.199 E31.04410
G1 X128.588 Y126.314 E31.04825
G0 X128.456 Y126.344 F5400
G0 X128.098 Y126.407
G1 X127.983 Y126.418 E31.05192 F2400
G1 X127.869 Y126.429 E31.05539
G1 X127.755 Y126.440 E31.05865
G1 X127.640 Y126.450 E31.06171
G1 X127.526 Y126.446 E31.06455
G1 X127.412 Y126.443 E31.06746
G1 X127.298 Y126.439 E31.07045
G1 X127.183 Y126.435 E31.07350
G1 X127.069 Y126.432 E31.07662
G1 X126.955 Y126.414 E31.07984
G0 F3000 E30.07984
G0 X126.621 Y125.886 F5400
G0 X127.198 Y126.800
G0 X131.201 Y126.800
G0 X131.201 Y133.144
G0 X145.539 Y155.872
G0 F3000 E31.07984
;segType:HShell
G1 X131.961 Y142.294 E31.71855 F2400
G0 X131.941 Y142.200 F5400
;segType:Perimeter
G1 X131.141 Y142.200 E31.74515 F1200
G1 X123.800 Y142.200 E31.98931
G1 X123.800 Y126.800 E32.50154
G1 X131.201 Y126.800 E32.74769
G1 X131.201 Y142.140 E33.25793
G0 X131.141 Y142.200 F5400
G0 X129.541 Y142.200
G0 X130.101 Y142.600
;segType:Loop
G1 X128.783 Y142.600 E33.30174 F2400
G0 X128.669 Y142.680 F5400
G0 X128.555 Y142.678
G0 X128.440 Y142.652
G0 X128.326 Y142.627
G0 X128.212 Y142.601
G1 X128.098 Y142.593 E33.30541 F2400
G1 X127.983 Y142.582 E33.30888
G1 X127.869 Y142.571 E33.31214
G1 X127.755 Y142.560 E33.31519
G1 X127.640 Y142.550 E33.31804
G1 X127.526 Y142.554 E33.32096
G1 X127.412 Y142.557 E33.32395
G1 X127.298 Y142.561 E33.32700
G1 X127.183 Y142.565 E33.33013
G1 X127.069 Y142.568 E33.33331
G1 X126.955 Y142.586 E33.33688
G1 X126.840 Y142.604 E33.34079
G1 X126.726 Y142.622 E33.34506
G1 X126.612 Y142.640 E33.34967
G1 X126.498 Y142.655 E33.35454
G1 X126.383 Y142.688 E33.36023
G1 X126.269 Y142.600 E33.36502
G1 X123.400 Y142.600 E33.46045
G1 X123.400 Y126.400 E33.99929
G1 X126.269 Y126.400 E34.09472
G1 X126.383 Y126.312 E34.10160
G1 X126.498 Y126.345 E34.10663
G0 X126.612 Y126.360 F5400
G0 X127.069 Y126.432
G0 X127.183 Y126.435
G0 X127.526 Y126.446
G0 X127.640 Y126.450
G0 X128.098 Y126.407
G1 X128.212 Y126.399 E34.11046 F2400
G1 X128.326 Y126.373 E34.11488
G1 X128.440 Y126.347 E34.11979
G1 X128.555 Y126.322 E34.12520
G1 X128.669 Y126.320 E34.13052
G1 X128.783 Y126.400 E34.13516
G1 X131.601 Y126.400 E34.22886
G1 X131.601 Y142.600 E34.76770
G1 X130.301 Y142.600 E34.81094
G0 F3000 E33.81094
G0 X145.539 Y158.701 F5400
G0 F3000 E34.81094
;segType:HShell
G1 X129.799 Y142.960 E35.55132 F2400
G0 X127.981 Y142.724 F5400
;segType:Perimeter
G1 X128.592 Y143.240 E35.57793 F1200
G1 X128.923 Y143.514 E35.59221
G1 X129.211 Y143.910 E35.60849
G1 X129.391 Y144.365 E35.62476
G1 X129.452 Y144.850 E35.64103
G1 X129.391 Y145.335 E35.65730
G1 X129.211 Y145.790 E35.67357
G1 X128.923 Y146.186 E35.68984
G1 X128.546 Y146.498 E35.70611
G1 X128.103 Y146.706 E35.72239
G1 X127.623 Y146.798 E35.73866
G1 X127.134 Y146.768 E35.75494
G1 X126.669 Y146.616 E35.77121
G1 X126.256 Y146.354 E35.78750
G1 X125.921 Y145.997 E35.80377
G1 X125.685 Y145.569 E35.82004
G1 X125.563 Y145.095 E35.83632
G1 X125.563 Y144.605 E35.85259
G1 X125.685 Y144.131 E35.86886
G1 X125.921 Y143.703 E35.88514
G1 X126.256 Y143.346 E35.90141
G1 X126.669 Y143.084 E35.91769
G1 X127.134 Y142.933 E35.93397
G1 X127.623 Y142.902 E35.95024
G1 X128.103 Y142.994 E35.96651
G1 X128.492 Y143.176 E35.98079
G0 X128.592 Y143.240 F5400
G0 X128.923 Y143.514
G0 X129.211 Y143.910
G0 X129.391 Y144.365
G0 X129.415 Y144.555
G0 X129.601 Y143.809
;segType:Loop
G1 X129.781 Y144.264 E35.99709 F2400
G1 X129.855 Y144.850 E36.01673
G1 X129.781 Y145.436 E36.03637
G1 X129.564 Y145.985 E36.05600
G1 X129.217 Y146.462 E36.07563
G1 X128.762 Y146.838 E36.09526
G1 X128.228 Y147.090 E36.11490
G1 X127.648 Y147.201 E36.13453
G1 X127.059 Y147.164 E36.15417
G1 X126.497 Y146.981 E36.17381
G1 X125.999 Y146.665 E36.19345
G1 X125.595 Y146.234 E36.21308
G1 X125.310 Y145.717 E36.23271
G1 X125.163 Y145.145 E36.25235
G1 X125.163 Y144.555 E36.27199
G1 X125.310 Y143.983 E36.29162
G1 X125.595 Y143.466 E36.31126
G1 X125.999 Y143.035 E36.33089
G1 X126.342 Y142.817 E36.34443
G0 X126.612 Y142.640 F5400
G0 X127.069 Y142.568
G0 X127.183 Y142.565
G0 X127.526 Y142.554
G0 X127.640 Y142.550
G0 X128.098 Y142.593
G1 X128.446 Y142.654 E36.35932 F2400
G1 X128.578 Y142.683 E36.36569
G1 X128.625 Y142.797 E36.36979
G1 X128.762 Y142.861 E36.37482
G1 X129.217 Y143.238 E36.39446
G1 X129.505 Y143.635 E36.41077
G0 F3000 E35.41077
G0 X130.236 Y149.225 F5400
G0 X130.725 Y149.225
G0 X130.725 Y152.964
G0 X130.892 Y154.236
G0 F3000 E36.41077
;segType:HShell
G1 X135.696 Y159.039 E36.63672 F2400
G0 X135.130 Y159.039 F5400
G1 X130.326 Y154.236 E36.86267 F2400
G0 X130.666 Y153.476 F5400
;segType:Perimeter
G1 X124.275 Y153.476 E37.07523 F1200
G1 X124.275 Y149.225 E37.21661
G1 X130.725 Y149.225 E37.43117
G1 X130.725 Y153.416 E37.57055
G0 X130.666 Y153.476 F5400
G0 X129.065 Y153.476
G0 X129.625 Y153.876
;segType:Loop
G1 X123.875 Y153.876 E37.76182 F2400
G1 X123.875 Y148.825 E37.92981
G1 X131.125 Y148.825 E38.17097
G1 X131.125 Y153.876 E38.33896
G1 X129.825 Y153.876 E38.38220
G0 X129.760 Y154.236 F5400
;segType:HShell
G1 X134.564 Y159.039 E38.60815 F2400
G0 X133.998 Y159.039 F5400
G1 X129.195 Y154.236 E38.83410 F2400
G0 X128.629 Y154.236 F5400
G1 X133.433 Y159.039 E39.06006 F2400
G0 X132.867 Y159.039 F5400
G1 X128.063 Y154.236 E39.28601 F2400
G0 X127.498 Y154.236 F5400
G1 X132.301 Y159.039 E39.51196 F2400
G0 X131.736 Y159.039 F5400
G1 X126.932 Y154.236 E39.73791 F2400
G0 X126.366 Y154.236 F5400
G1 X131.170 Y159.039 E39.96386 F2400
G0 X130.604 Y159.039 F5400
G1 X125.801 Y154.236 E40.18982 F2400
G0 X125.235 Y154.236 F5400
G1 X130.039 Y159.039 E40.41577 F2400
G0 X129.473 Y159.039 F5400
G1 X124.669 Y154.236 E40.64172 F2400
G0 X124.104 Y154.236 F5400
G1 X128.907 Y159.039 E40.86767 F2400
G0 X128.342 Y159.039 F5400
G1 X123.538 Y154.236 E41.09363 F2400
G0 X114.461 Y158.735 F5400
G1 X114.765 Y159.039 E41.10795 F2400
G0 X115.331 Y159.039 F5400
G1 X114.461 Y158.169 E41.14889 F2400
G0 X114.461 Y157.603 F5400
G1 X115.897 Y159.039 E41.21643 F2400
G0 X116.462 Y159.039 F5400
G1 X114.461 Y157.038 E41.31058 F2400
G0 X114.461 Y156.472 F5400
G1 X117.028 Y159.039 E41.43134 F2400
G0 X117.594 Y159.039 F5400
G1 X114.461 Y155.906 E41.57871 F2400
G0 X114.461 Y155.341 F5400
G1 X118.159 Y159.039 E41.75268 F2400
G0 X118.725 Y159.039 F5400
G1 X114.461 Y154.775 E41.95327 F2400
G0 X114.461 Y154.209 F5400
G1 X119.291 Y159.039 E42.18046 F2400
G0 X119.856 Y159.039 F5400
G1 X114.461 Y153.644 E42.43426 F2400
G0 X114.461 Y153.078 F5400
G1 X120.422 Y159.039 E42.71467 F2400
G0 X120.988 Y159.039 F5400
G1 X114.461 Y152.512 E43.02168 F2400
G0 X114.461 Y151.947 F5400
G1 X121.553 Y159.039 E43.35531 F2400
G0 X122.119 Y159.039 F5400
G1 X114.461 Y151.381 E43.71554 F2400
G0 X114.461 Y150.815 F5400
G1 X122.685 Y159.039 E44.10238 F2400
G0 X123.250 Y159.039 F5400
G1 X114.461 Y150.249 E44.51583 F2400
G0 X114.461 Y149.684 F5400
G1 X123.816 Y159.039 E44.95589 F2400
G0 X124.382 Y159.039 F5400
G1 X114.461 Y149.118 E45.42255 F2400
G0 X114.461 Y148.552 F5400
G1 X124.948 Y159.039 E45.91582 F2400
G0 X125.513 Y159.039 F5400
G1 X114.461 Y147.987 E46.43571 F2400
G0 X114.461 Y147.421 F5400
G1 X126.079 Y159.039 E46.98220 F2400
G0 X126.645 Y159.039 F5400
G1 X114.461 Y146.855 E47.55529 F2400
G0 X114.461 Y146.290 F5400
G1 X127.210 Y159.039 E48.15500 F2400
G0 X127.776 Y159.039 F5400
G1 X114.461 Y145.724 E48.78131 F2400
G0 X114.461 Y145.158 F5400
G1 X123.515 Y154.212 E49.20718 F2400
G0 X123.515 Y153.647 F5400
G1 X114.461 Y144.593 E49.63306 F2400
G0 X114.461 Y144.027 F5400
G1 X123.515 Y153.081 E50.05893 F2400
G0 X123.515 Y152.515 F5400
G1 X114.461 Y143.461 E50.48480 F2400
G0 X114.461 Y142.896 F5400
G1 X123.515 Y151.950 E50.91067 F2400
G0 X123.515 Y151.384 F5400
G1 X114.461 Y142.330 E51.33655 F2400
G0 X114.461 Y141.764 F5400
G1 X123.515 Y150.818 E51.76242 F2400
G0 X123.515 Y150.253 F5400
G1 X114.461 Y141.198 E52.18829 F2400
G0 X114.461 Y140.633 F5400
G1 X123.515 Y149.687 E52.61416 F2400
G0 X123.515 Y149.121 F5400
G1 X114.461 Y140.067 E53.04004 F2400
G0 X114.461 Y139.501 F5400
G1 X123.515 Y148.555 E53.46591 F2400
G0 X123.989 Y148.465 F5400
G1 X114.461 Y138.936 E53.91412 F2400
G0 X114.461 Y138.370 F5400
G1 X124.555 Y148.465 E54.38893 F2400
G0 X125.121 Y148.465 F5400
G1 X114.461 Y137.804 E54.89036 F2400
G0 X114.461 Y137.239 F5400
G1 X125.686 Y148.465 E55.41839 F2400
G0 X126.252 Y148.465 F5400
G1 X114.461 Y136.673 E55.97302 F2400
G0 X114.461 Y136.107 F5400
G1 X126.818 Y148.465 E56.55427 F2400
G0 X127.384 Y148.465 F5400
G1 X126.030 Y147.111 E56.61795 F2400
G0 X127.006 Y147.521 F5400
G1 X127.949 Y148.465 E56.66233 F2400
G0 X128.515 Y148.465 F5400
G1 X127.609 Y147.559 E56.70492 F2400
G0 X128.097 Y147.481 F5400
G1 X129.081 Y148.465 E56.75117 F2400
G0 X129.646 Y148.465 F5400
G1 X128.528 Y147.347 E56.80376 F2400
G0 X128.913 Y147.165 F5400
G1 X130.212 Y148.465 E56.86487 F2400
G0 X130.778 Y148.465 F5400
G1 X129.231 Y146.918 E56.93762 F2400
G0 X129.527 Y146.648 F5400
G1 X131.343 Y148.465 E57.02306 F2400
G0 X131.458 Y154.236 F5400
G1 X136.261 Y159.039 E57.24901 F2400
G0 X136.827 Y159.039 F5400
G1 X131.486 Y153.698 E57.50025 F2400
G0 X131.486 Y153.132 F5400
G1 X137.393 Y159.039 E57.77810 F2400
G0 X137.958 Y159.039 F5400
G1 X131.486 Y152.567 E58.08255 F2400
G0 X131.486 Y152.001 F5400
G1 X138.524 Y159.039 E58.41361 F2400
G0 X139.090 Y159.039 F5400
G1 X131.486 Y151.435 E58.77128 F2400
G0 X131.486 Y150.870 F5400
G1 X139.655 Y159.039 E59.15556 F2400
G0 X140.221 Y159.039 F5400
G1 X131.486 Y150.304 E59.56645 F2400
G0 X131.486 Y149.738 F5400
G1 X140.787 Y159.039 E60.00394 F2400
G0 X141.352 Y159.039 F5400
G1 X131.486 Y149.173 E60.46805 F2400
G0 X131.486 Y148.607 F5400
G1 X141.918 Y159.039 E60.95876 F2400
G0 X142.484 Y159.039 F5400
G1 X129.765 Y146.320 E61.55701 F2400
G0 X129.964 Y145.953 F5400
G1 X143.049 Y159.039 E62.17253 F2400
G0 X143.615 Y159.039 F5400
G1 X130.124 Y145.548 E62.80712 F2400
G0 X130.193 Y145.051 F5400
G1 X144.181 Y159.039 E63.46507 F2400
G0 X144.747 Y159.039 F5400
G1 X130.169 Y144.462 E64.15074 F2400
G0 X129.927 Y143.654 F5400
G1 X145.312 Y159.039 E64.87442 F2400
G0 F3000 E63.87442
G0 X145.539 Y155.307 F5400
G0 F3000 E64.87442
G1 X131.961 Y141.728 E65.51313 F2400
G0 X131.961 Y141.162 F5400
G1 X145.539 Y154.741 E66.15183 F2400
G0 X145.539 Y154.175 F5400
G1 X131.961 Y140.597 E66.79053 F2400
G0 X131.961 Y140.031 F5400
G1 X145.539 Y153.610 E67.42923 F2400
G0 X145.539 Y153.044 F5400
G1 X131.961 Y139.465 E68.06793 F2400
G0 X131.961 Y138.900 F5400
G1 X145.539 Y152.478 E68.70664 F2400
G0 X145.539 Y151.913 F5400
G1 X131.961 Y138.334 E69.34534 F2400
G0 X131.961 Y137.768 F5400
G1 X145.539 Y151.347 E69.98404 F2400
G0 X145.539 Y150.781 F5400
G1 X131.961 Y137.203 E70.62274 F2400
G0 X131.961 Y136.637 F5400
G1 X145.539 Y150.216 E71.26145 F2400
G0 X145.539 Y149.650 F5400
G1 X131.961 Y136.071 E71.90015 F2400
G0 X131.961 Y135.505 F5400
G1 X145.539 Y149.084 E72.53885 F2400
G0 X145.539 Y148.519 F5400
G1 X131.961 Y134.940 E73.17755 F2400
G0 X131.961 Y134.374 F5400
G1 X145.539 Y147.953 E73.81626 F2400
G0 X145.539 Y147.387 F5400
G1 X131.961 Y133.808 E74.45496 F2400
G0 X131.961 Y133.243 F5400
G1 X145.539 Y146.821 E75.09366 F2400
G0 X145.539 Y146.256 F5400
G1 X131.961 Y132.677 E75.73236 F2400
G0 X131.961 Y132.111 F5400
G1 X145.539 Y145.690 E76.37107 F2400
G0 X145.539 Y145.124 F5400
G1 X131.961 Y131.546 E77.00977 F2400
G0 X131.961 Y130.980 F5400
G1 X145.539 Y144.559 E77.64847 F2400
G0 X145.539 Y143.993 F5400
G1 X131.961 Y130.414 E78.28717 F2400
G0 X131.961 Y129.849 F5400
G1 X145.539 Y143.427 E78.92588 F2400
G0 X145.539 Y142.862 F5400
G1 X131.961 Y129.283 E79.56458 F2400
G0 X131.961 Y128.717 F5400
G1 X145.539 Y142.296 E80.20328 F2400
G0 X145.539 Y141.730 F5400
G1 X131.961 Y128.152 E80.84198 F2400
G0 X131.961 Y127.586 F5400
G1 X145.539 Y141.165 E81.48068 F2400
G0 X145.539 Y140.599 F5400
G1 X131.961 Y127.020 E82.11939 F2400
G0 X131.961 Y126.455 F5400
G1 X145.539 Y140.033 E82.75809 F2400
G0 F3000 E81.75809
G0 X131.201 Y130.003 F5400
G0 X131.201 Y126.800
G0 X126.621 Y126.800
G0 X125.469 Y125.994
G0 F3000 E82.75809
;segType:InnerHair
G1 X125.583 Y126.043 E82.76133 F2400
G1 X125.698 Y126.093 E82.76355
G1 X125.750 Y126.115 E82.76436
G1 X125.638 Y126.067 E82.76708
G1 X125.525 Y126.018 E82.77079
G1 X125.412 Y125.969 E82.77551
G1 X125.469 Y125.994 E82.77763
G0 F3000 E81.77763
G0 X126.904 Y125.992 F5400
G0 X127.134 Y126.067
G0 X127.623 Y126.098
G0 X128.103 Y126.006
G0 X128.135 Y125.991
G0 X129.557 Y125.990
G0 F3000 E82.77763
G1 X129.445 Y126.040 E82.78088 F2400
G1 X129.326 Y126.083 E82.78333
G1 X129.240 Y126.114 E82.78463
G1 X129.355 Y126.073 E82.78720
G1 X129.469 Y126.035 E82.79048
G1 X129.583 Y125.977 E82.79523
G1 X129.557 Y125.990 E82.79625
G0 X130.136 Y123.498 F5400
;segType:HShell
G1 X145.539 Y138.902 E83.52078 F2400
G0 X145.539 Y138.336 F5400
G1 X114.461 Y107.257 E84.98264 F2400
G0 X114.461 Y106.692 F5400
G1 X145.539 Y137.771 E86.44449 F2400
G0 X145.539 Y137.205 F5400
G1 X114.461 Y106.126 E87.90634 F2400
G0 X114.461 Y105.560 F5400
G1 X145.539 Y136.639 E89.36819 F2400
G0 X145.539 Y136.073 F5400
G1 X114.461 Y104.995 E90.83005 F2400
G0 X114.461 Y104.429 F5400
G1 X145.539 Y135.508 E92.29190 F2400
G0 X145.539 Y134.942 F5400
G1 X114.461 Y103.863 E93.75375 F2400
G0 X114.461 Y103.298 F5400
G1 X145.539 Y134.376 E95.21561 F2400
G0 X145.539 Y133.811 F5400
G1 X114.461 Y102.732 E96.67746 F2400
G0 X114.461 Y102.166 F5400
G1 X145.539 Y133.245 E98.13931 F2400
G0 X145.539 Y132.679 F5400
G1 X114.461 Y101.601 E99.60117 F2400
G0 X114.461 Y101.035 F5400
G1 X145.539 Y132.114 E101.06302 F2400
G0 X145.539 Y131.548 F5400
G1 X114.461 Y100.469 E102.52487 F2400
G0 X114.461 Y99.903 F5400
G1 X145.539 Y130.982 E103.98672 F2400
G0 X145.539 Y130.417 F5400
G1 X114.461 Y99.338 E105.44858 F2400
G0 X114.461 Y98.772 F5400
G1 X145.539 Y129.851 E106.91043 F2400
G0 X145.539 Y129.285 F5400
G1 X114.461 Y98.206 E108.37228 F2400
G0 X114.461 Y97.641 F5400
G1 X145.539 Y128.720 E109.83414 F2400
G0 X145.539 Y128.154 F5400
G1 X114.461 Y97.075 E111.29599 F2400
G0 X114.461 Y96.509 F5400
G1 X145.539 Y127.588 E112.75784 F2400
G0 X145.539 Y127.023 F5400
G1 X114.461 Y95.944 E114.21970 F2400
G0 X114.461 Y95.378 F5400
G1 X145.539 Y126.457 E115.68155 F2400
G0 X145.539 Y125.891 F5400
G1 X114.461 Y94.812 E117.14340 F2400
G0 X114.461 Y94.247 F5400
G1 X145.539 Y125.325 E118.60526 F2400
G0 X145.539 Y124.760 F5400
G1 X114.461 Y93.681 E120.06711 F2400
G0 X114.461 Y93.115 F5400
G1 X145.539 Y124.194 E121.52896 F2400
G0 X145.539 Y123.628 F5400
G1 X114.461 Y92.550 E122.99081 F2400
G0 X114.461 Y91.984 F5400
G1 X145.539 Y123.063 E124.45267 F2400
G0 X145.539 Y122.497 F5400
G1 X114.461 Y91.418 E125.91452 F2400
G0 X114.461 Y90.852 F5400
G1 X145.539 Y121.931 E127.37637 F2400
G0 X145.539 Y121.366 F5400
G1 X114.461 Y90.287 E128.83823 F2400
G0 X114.461 Y89.721 F5400
G1 X145.539 Y120.800 E130.30008 F2400
G0 X145.539 Y120.234 F5400
G1 X114.461 Y89.155 E131.76193 F2400
G0 X114.461 Y88.590 F5400
G1 X145.539 Y119.669 E133.22379 F2400
G0 X145.539 Y119.103 F5400
G1 X114.461 Y88.024 E134.68564 F2400
G0 X114.461 Y87.458 F5400
G1 X145.539 Y118.537 E136.14749 F2400
G0 X145.539 Y117.972 F5400
G1 X114.461 Y86.893 E137.60934 F2400
G0 X114.461 Y86.327 F5400
G1 X145.539 Y117.406 E139.07120 F2400
G0 X145.539 Y116.840 F5400
G1 X114.461 Y85.761 E140.53305 F2400
G0 X114.461 Y85.196 F5400
G1 X145.539 Y116.274 E141.99490 F2400
G0 X145.539 Y115.709 F5400
G1 X114.461 Y84.630 E143.45676 F2400
G0 X114.461 Y84.064 F5400
G1 X145.539 Y115.143 E144.91861 F2400
G0 X145.539 Y114.577 F5400
G1 X114.461 Y83.499 E146.38046 F2400
G0 X114.461 Y82.933 F5400
G1 X145.539 Y114.012 E147.84232 F2400
G0 X145.539 Y113.446 F5400
G1 X114.461 Y82.367 E149.30417 F2400
G0 X114.461 Y81.802 F5400
G1 X145.539 Y112.880 E150.76602 F2400
G0 X145.539 Y112.315 F5400
G1 X114.461 Y81.236 E152.22787 F2400
G0 X114.461 Y80.670 F5400
G1 X145.539 Y111.749 E153.68973 F2400
G0 X145.539 Y111.183 F5400
G1 X114.461 Y80.104 E155.15158 F2400
G0 X114.461 Y79.539 F5400
G1 X145.539 Y110.618 E156.61343 F2400
G0 X145.539 Y110.052 F5400
G1 X114.461 Y78.973 E158.07529 F2400
G0 X114.461 Y78.407 F5400
G1 X145.539 Y109.486 E159.53714 F2400
G0 X145.539 Y108.921 F5400
G1 X114.461 Y77.842 E160.99899 F2400
G0 X114.461 Y77.276 F5400
G1 X145.539 Y108.355 E162.46085 F2400
G0 X145.539 Y107.789 F5400
G1 X114.461 Y76.710 E163.92270 F2400
G0 X114.461 Y76.145 F5400
G1 X145.539 Y107.224 E165.38455 F2400
G0 X145.539 Y106.658 F5400
G1 X114.461 Y75.579 E166.84641 F2400
G0 X114.461 Y75.013 F5400
G1 X145.539 Y106.092 E168.30826 F2400
G0 X145.539 Y105.526 F5400
G1 X114.461 Y74.448 E169.77012 F2400
G0 X114.461 Y73.882 F5400
G1 X145.539 Y104.961 E171.23196 F2400
G0 X145.539 Y104.395 F5400
G1 X114.461 Y73.316 E172.69382 F2400
G0 X114.461 Y72.751 F5400
G1 X145.539 Y103.829 E174.15568 F2400
G0 X145.539 Y103.264 F5400
G1 X114.461 Y72.185 E175.61752 F2400
G0 X114.461 Y71.619 F5400
G1 X145.539 Y102.698 E177.07938 F2400
G0 X145.539 Y102.132 F5400
G1 X114.461 Y71.053 E178.54122 F2400
G0 X114.461 Y70.488 F5400
G1 X145.539 Y101.567 E180.00308 F2400
G0 X145.539 Y101.001 F5400
G1 X114.461 Y69.922 E181.46494 F2400
G0 X114.461 Y69.356 F5400
G1 X145.539 Y100.435 E182.92678 F2400
G0 X145.539 Y99.870 F5400
G1 X114.461 Y68.791 E184.38864 F2400
G0 X114.461 Y68.225 F5400
G1 X145.539 Y99.304 E185.85050 F2400
G0 X145.539 Y98.738 F5400
G1 X114.461 Y67.659 E187.31234 F2400
G0 X114.461 Y67.094 F5400
G1 X145.539 Y98.173 E188.77420 F2400
G0 X145.539 Y97.607 F5400
G1 X126.067 Y78.135 E189.69010 F2400
G0 X127.020 Y78.522 F5400
G1 X145.539 Y97.041 E190.56120 F2400
G0 X145.539 Y96.475 F5400
G1 X127.624 Y78.560 E191.40390 F2400
G0 X128.109 Y78.479 F5400
G1 X145.539 Y95.910 E192.22378 F2400
G0 X145.539 Y95.344 F5400
G1 X128.537 Y78.342 E193.02350 F2400
G0 X128.922 Y78.161 F5400
G1 X145.539 Y94.778 E193.80512 F2400
G0 X145.539 Y94.213 F5400
G1 X129.238 Y77.912 E194.57186 F2400
G0 X129.533 Y77.640 F5400
G1 X145.539 Y93.647 E195.32478 F2400
G0 X145.539 Y93.081 F5400
G1 X129.771 Y77.313 E196.06650 F2400
G0 X129.967 Y76.944 F5400
G1 X145.539 Y92.516 E196.79896 F2400
G0 X145.539 Y91.950 F5400
G1 X130.128 Y76.538 E197.52388 F2400
G0 X130.194 Y76.039 F5400
G1 X145.539 Y91.384 E198.24566 F2400
G0 X145.539 Y90.819 F5400
G1 X130.167 Y75.446 E198.96874 F2400
G0 X129.918 Y74.631 F5400
G1 X145.539 Y90.253 E199.70352 F2400
G0 X145.539 Y89.687 F5400
G1 X129.813 Y73.961 E200.44326 F2400
G0 X130.378 Y73.961 F5400
G1 X145.539 Y89.122 E201.15638 F2400
G0 X145.539 Y88.556 F5400
G1 X130.944 Y73.961 E201.84292 F2400
G0 X131.510 Y73.961 F5400
G1 X145.539 Y87.990 E202.50282 F2400
G0 X145.539 Y87.425 F5400
G1 X131.961 Y73.846 E203.14152 F2400
G0 X129.539 Y74.001 F5400
;segType:InnerHair
G1 X129.426 Y73.953 E203.14466 F2400
G1 X129.307 Y73.910 E203.14696
G1 X129.240 Y73.886 E203.14796
G1 X129.355 Y73.927 E203.15052
G1 X129.469 Y73.965 E203.15380
G1 X129.583 Y74.023 E203.15856
G1 X129.539 Y74.001 E203.16018
G0 F3000 E202.16018
G0 X130.931 Y73.200 F5400
G0 X131.201 Y73.200
G0 X131.201 Y73.045
G0 X145.539 Y64.797
G0 F3000 E203.16018
;segType:HShell
G1 X131.486 Y50.743 E203.82122 F2400
G0 X131.486 Y50.178 F5400
G1 X145.539 Y64.231 E204.48226 F2400
G0 X145.539 Y63.666 F5400
G1 X131.486 Y49.612 E205.14332 F2400
G0 X131.486 Y49.046 F5400
G1 X145.539 Y63.100 E205.80436 F2400
G0 X145.539 Y62.534 F5400
G1 X131.486 Y48.481 E206.46540 F2400
G0 X131.486 Y47.915 F5400
G1 X145.539 Y61.969 E207.12644 F2400
G0 X145.539 Y61.403 F5400
G1 X131.486 Y47.349 E207.78748 F2400
G0 X131.486 Y46.783 F5400
G1 X145.539 Y60.837 E208.44852 F2400
G0 X145.539 Y60.272 F5400
G1 X131.486 Y46.218 E209.10956 F2400
G0 F3000 E208.10956
G0 X130.725 Y47.579 F5400
G0 X130.725 Y50.775
G0 X128.941 Y50.775
G0 X127.585 Y53.204
G0 X127.134 Y53.232
G0 X126.669 Y53.384
G0 X126.256 Y53.646
G0 X125.921 Y54.003
G0 X125.685 Y54.431
G0 X125.563 Y54.905
G0 X125.563 Y55.395
G0 X125.685 Y55.869
G0 X125.890 Y56.240
G0 X125.469 Y56.994
G0 F3000 E209.10956
;segType:InnerHair
G1 X125.583 Y57.043 E209.11280 F2400
G1 X125.698 Y57.093 E209.11502
G1 X125.741 Y57.111 E209.11572
G1 X125.628 Y57.063 E209.11854
G1 X125.515 Y57.014 E209.12232
G1 X125.403 Y56.965 E209.12714
G1 X125.469 Y56.994 E209.12962
G0 F3000 E208.12962
G0 X124.538 Y57.800 F5400
G0 X123.800 Y57.800
G0 X123.800 Y58.439
G0 X114.461 Y66.528
G0 F3000 E209.12962
;segType:HShell
G1 X125.204 Y77.272 E209.63498 F2400
G0 X124.843 Y76.345 F5400
G1 X114.461 Y65.962 E210.12332 F2400
G0 X114.461 Y64.831 F5400
G1 X123.040 Y73.410 E210.52686 F2400
G0 X123.040 Y72.844 F5400
G1 X114.461 Y64.265 E210.93038 F2400
G0 X114.461 Y63.700 F5400
G1 X123.040 Y72.279 E211.33392 F2400
G0 X123.040 Y71.713 F5400
G1 X114.461 Y63.134 E211.73746 F2400
G0 X114.461 Y62.568 F5400
G1 X123.040 Y71.147 E212.14100 F2400
G0 X123.040 Y70.582 F5400
G1 X114.461 Y62.002 E212.54452 F2400
G0 X114.461 Y61.437 F5400
G1 X123.040 Y70.016 E212.94806 F2400
G0 X123.040 Y69.450 F5400
G1 X114.461 Y60.871 E213.35160 F2400
G0 X114.461 Y60.305 F5400
G1 X123.040 Y68.884 E213.75512 F2400
G0 X123.040 Y68.319 F5400
G1 X114.461 Y59.740 E214.15866 F2400
G0 X114.461 Y59.174 F5400
G1 X123.040 Y67.753 E214.56220 F2400
G0 X123.040 Y67.187 F5400
G1 X114.461 Y58.608 E214.96572 F2400
G0 X114.461 Y58.043 F5400
G1 X123.040 Y66.622 E215.36926 F2400
G0 X123.040 Y66.056 F5400
G1 X114.461 Y57.477 E215.77280 F2400
G0 X114.461 Y56.911 F5400
G1 X123.040 Y65.490 E216.17634 F2400
G0 X123.040 Y64.925 F5400
G1 X114.461 Y56.346 E216.57986 F2400
G0 X114.461 Y55.780 F5400
G1 X123.040 Y64.359 E216.98340 F2400
G0 X123.040 Y63.793 F5400
G1 X114.461 Y55.214 E217.38694 F2400
G0 X114.461 Y54.649 F5400
G1 X123.040 Y63.228 E217.79046 F2400
G0 X123.040 Y62.662 F5400
G1 X114.461 Y54.083 E218.19400 F2400
G0 X114.461 Y53.517 F5400
G1 X123.040 Y62.096 E218.59754 F2400
G0 X123.040 Y61.531 F5400
G1 X114.461 Y52.952 E219.00106 F2400
G0 X114.461 Y52.386 F5400
G1 X123.040 Y60.965 E219.40460 F2400
G0 X123.040 Y60.399 F5400
G1 X114.461 Y51.820 E219.80814 F2400
G0 X114.461 Y51.254 F5400
G1 X123.040 Y59.833 E220.21166 F2400
G0 X123.040 Y59.268 F5400
G1 X114.461 Y50.689 E220.61520 F2400
G0 X114.461 Y50.123 F5400
G1 X123.040 Y58.702 E221.01874 F2400
G0 X123.040 Y58.136 F5400
G1 X114.461 Y49.557 E221.42228 F2400
G0 X114.461 Y48.992 F5400
G1 X123.040 Y57.571 E221.82580 F2400
G0 X123.074 Y57.040 F5400
G1 X114.461 Y48.426 E222.23096 F2400
G0 X114.461 Y47.860 F5400
G1 X123.640 Y57.040 E222.66272 F2400
G0 X124.205 Y57.040 F5400
G1 X114.461 Y47.295 E223.12110 F2400
G0 X114.461 Y46.729 F5400
G1 X124.771 Y57.040 E223.60606 F2400
G0 X125.337 Y57.040 F5400
G1 X114.461 Y46.163 E224.11764 F2400
G0 X114.461 Y45.598 F5400
G1 X124.959 Y56.096 E224.61146 F2400
G0 X124.803 Y55.375 F5400
G1 X114.461 Y45.032 E225.09794 F2400
G0 X114.461 Y44.466 F5400
G1 X124.803 Y54.809 E225.58444 F2400
G0 X124.919 Y54.359 F5400
G1 X114.461 Y43.901 E226.07638 F2400
G0 X114.461 Y43.335 F5400
G1 X125.080 Y53.954 E226.57588 F2400
G0 X125.281 Y53.589 F5400
G1 X114.461 Y42.769 E227.08482 F2400
G0 X114.461 Y42.204 F5400
G1 X123.515 Y51.258 E227.51070 F2400
G0 X123.515 Y50.692 F5400
G1 X114.461 Y41.638 E227.93656 F2400
G0 X123.515 Y49.560 F5400
G1 X114.915 Y40.961 E228.34108 F2400
G0 X115.480 Y40.961 F5400
G1 X123.515 Y48.995 E228.71898 F2400
G0 X123.515 Y48.429 F5400
G1 X116.046 Y40.961 E229.07026 F2400
G0 X116.612 Y40.961 F5400
G1 X123.515 Y47.863 E229.39496 F2400
G0 X123.515 Y47.298 F5400
G1 X117.177 Y40.961 E229.69304 F2400
G0 X117.743 Y40.961 F5400
G1 X123.515 Y46.732 E229.96450 F2400
G0 X123.515 Y46.166 F5400
G1 X118.309 Y40.961 E230.20936 F2400
G0 X118.875 Y40.961 F5400
G1 X123.678 Y45.764 E230.43532 F2400
G0 X124.244 Y45.764 F5400
G1 X119.440 Y40.961 E230.66128 F2400
G0 X120.006 Y40.961 F5400
G1 X124.810 Y45.764 E230.88722 F2400
G0 X125.375 Y45.764 F5400
G1 X120.572 Y40.961 E231.11318 F2400
G0 X121.137 Y40.961 F5400
G1 X125.941 Y45.764 E231.33912 F2400
G0 X126.507 Y45.764 F5400
G1 X121.703 Y40.961 E231.56508 F2400
G0 X122.269 Y40.961 F5400
G1 X127.072 Y45.764 E231.79104 F2400
G0 X127.638 Y45.764 F5400
G1 X122.834 Y40.961 E232.01698 F2400
G0 X123.400 Y40.961 F5400
G1 X128.204 Y45.764 E232.24294 F2400
G0 X128.769 Y45.764 F5400
G1 X123.966 Y40.961 E232.46888 F2400
G0 X124.531 Y40.961 F5400
G1 X129.335 Y45.764 E232.69484 F2400
G0 X129.901 Y45.764 F5400
G1 X125.097 Y40.961 E232.92080 F2400
G0 X125.663 Y40.961 F5400
G1 X130.466 Y45.764 E233.14674 F2400
G0 X131.032 Y45.764 F5400
G1 X126.228 Y40.961 E233.37270 F2400
G0 X126.794 Y40.961 F5400
G1 X145.539 Y59.706 E234.25442 F2400
G0 X145.539 Y59.140 F5400
G1 X127.360 Y40.961 E235.10954 F2400
G0 X127.925 Y40.961 F5400
G1 X145.539 Y58.575 E235.93804 F2400
G0 X145.539 Y58.009 F5400
G1 X128.491 Y40.961 E236.73994 F2400
G0 X129.057 Y40.961 F5400
G1 X145.539 Y57.443 E237.51522 F2400
G0 X145.539 Y56.878 F5400
G1 X129.623 Y40.961 E238.26392 F2400
G0 X130.188 Y40.961 F5400
G1 X145.539 Y56.312 E238.98600 F2400
G0 X145.539 Y55.746 F5400
G1 X130.754 Y40.961 E239.68146 F2400
G0 X131.320 Y40.961 F5400
G1 X145.539 Y55.180 E240.35032 F2400
G0 X145.539 Y54.615 F5400
G1 X131.885 Y40.961 E240.99256 F2400
G0 X132.451 Y40.961 F5400
G1 X145.539 Y54.049 E241.60822 F2400
G0 X145.539 Y53.483 F5400
G1 X133.017 Y40.961 E242.19726 F2400
G0 X133.582 Y40.961 F5400
G1 X145.539 Y52.918 E242.75968 F2400
G0 X145.539 Y52.352 F5400
G1 X134.148 Y40.961 E243.29548 F2400
G0 X134.714 Y40.961 F5400
G1 X145.539 Y51.786 E243.80470 F2400
G0 X145.539 Y51.221 F5400
G1 X135.279 Y40.961 E244.28730 F2400
G0 X135.845 Y40.961 F5400
G1 X145.539 Y50.655 E244.74330 F2400
G0 X145.539 Y50.089 F5400
G1 X136.411 Y40.961 E245.17268 F2400
G0 X136.976 Y40.961 F5400
G1 X145.539 Y49.524 E245.57546 F2400
G0 X145.539 Y48.958 F5400
G1 X137.542 Y40.961 E245.95162 F2400
G0 X138.108 Y40.961 F5400
G1 X145.539 Y48.392 E246.30120 F2400
G0 X145.539 Y47.827 F5400
G1 X138.673 Y40.961 E246.62414 F2400
G0 X139.239 Y40.961 F5400
G1 X145.539 Y47.261 E246.92048 F2400
G0 X145.539 Y46.695 F5400
G1 X139.805 Y40.961 E247.19022 F2400
G0 X140.371 Y40.961 F5400
G1 X145.539 Y46.129 E247.43334 F2400
G0 X145.539 Y45.564 F5400
G1 X140.936 Y40.961 E247.64988 F2400
G0 X141.502 Y40.961 F5400
G1 X145.539 Y44.998 E247.83978 F2400
G0 X145.539 Y44.432 F5400
G1 X142.068 Y40.961 E248.00308 F2400
G0 X142.633 Y40.961 F5400
G1 X145.539 Y43.867 E248.13978 F2400
G0 X145.539 Y43.301 F5400
G1 X143.199 Y40.961 E248.24988 F2400
G0 X143.765 Y40.961 F5400
G1 X145.539 Y42.735 E248.33336 F2400
G0 X145.539 Y42.170 F5400
G1 X144.330 Y40.961 E248.39022 F2400
G0 X144.896 Y40.961 F5400
G1 X145.539 Y41.604 E248.42048 F2400
G0 X145.539 Y41.038 F5400
G1 X145.462 Y40.961 E248.42414 F2400
G0 F3000 E247.42414
G0 X129.583 Y56.977 F5400
G0 F3000 E248.42414
;segType:InnerHair
G1 X129.469 Y57.035 E248.42766 F2400
G1 X129.355 Y57.073 E248.43020
G1 X129.240 Y57.114 E248.43194
G1 X129.336 Y57.079 E248.43398
G1 X129.455 Y57.037 E248.43740
G1 X129.566 Y56.986 E248.44174
G1 X129.583 Y56.977 E248.44246
G0 X129.630 Y56.807 F5400
;segType:HShell
G0 X129.545 Y57.005
G1 X130.148 Y56.759 E248.48350 F2400
G0 X130.033 Y56.079 F5400
G1 X130.994 Y57.040 E248.52870 F2400
G0 X131.559 Y57.040 F5400
G1 X130.157 Y55.637 E248.59468 F2400
G0 X131.146 Y51.535 F5400
G1 X145.539 Y65.928 E249.27168 F2400
G0 X145.539 Y66.494 F5400
G1 X130.581 Y51.535 E249.97530 F2400
G0 X130.015 Y51.535 F5400
G1 X145.539 Y67.060 E250.70552 F2400
G0 X145.539 Y67.626 F5400
G1 X129.449 Y51.535 E251.46236 F2400
G0 X128.884 Y51.535 F5400
G1 X145.539 Y68.191 E252.24578 F2400
G0 X145.539 Y68.757 F5400
G1 X128.318 Y51.535 E253.05584 F2400
G0 X127.752 Y51.535 F5400
G1 X145.539 Y69.323 E253.89248 F2400
G0 X145.539 Y69.888 F5400
G1 X130.134 Y54.483 E254.61712 F2400
G0 X130.216 Y55.130 F5400
G1 X145.539 Y70.454 E255.33790 F2400
G0 X145.539 Y71.020 F5400
G1 X131.961 Y57.441 E255.97660 F2400
G0 X131.961 Y58.007 F5400
G1 X145.539 Y71.585 E256.61530 F2400
G0 X145.539 Y72.151 F5400
G1 X131.961 Y58.572 E257.25400 F2400
G0 X131.961 Y59.138 F5400
G1 X145.539 Y72.717 E257.89270 F2400
G0 X145.539 Y73.282 F5400
G1 X131.961 Y59.704 E258.53140 F2400
G0 X131.961 Y60.269 F5400
G1 X145.539 Y73.848 E259.17010 F2400
G0 X145.539 Y74.414 F5400
G1 X131.961 Y60.835 E259.80880 F2400
G0 X131.961 Y61.401 F5400
G1 X145.539 Y74.979 E260.44750 F2400
G0 X145.539 Y75.545 F5400
G1 X131.961 Y61.966 E261.08622 F2400
G0 X131.961 Y62.532 F5400
G1 X145.539 Y76.111 E261.72492 F2400
G0 X145.539 Y76.677 F5400
G1 X131.961 Y63.098 E262.36362 F2400
G0 X131.961 Y63.663 F5400
G1 X145.539 Y77.242 E263.00232 F2400
G0 X145.539 Y77.808 F5400
G1 X131.961 Y64.229 E263.64102 F2400
G0 X131.961 Y64.795 F5400
G1 X145.539 Y78.374 E264.27972 F2400
G0 X145.539 Y78.939 F5400
G1 X131.961 Y65.360 E264.91842 F2400
G0 X131.961 Y65.926 F5400
G1 X145.539 Y79.505 E265.55712 F2400
G0 X145.539 Y80.071 F5400
G1 X131.961 Y66.492 E266.19584 F2400
G0 X131.961 Y67.058 F5400
G1 X145.539 Y80.636 E266.83454 F2400
G0 X145.539 Y81.202 F5400
G1 X131.961 Y67.623 E267.47324 F2400
G0 X131.961 Y68.189 F5400
G1 X145.539 Y81.768 E268.11194 F2400
G0 X145.539 Y82.333 F5400
G1 X131.961 Y68.755 E268.75064 F2400
G0 X131.961 Y69.320 F5400
G1 X145.539 Y82.899 E269.38934 F2400
G0 X145.539 Y83.465 F5400
G1 X131.961 Y69.886 E270.02804 F2400
G0 X131.961 Y70.452 F5400
G1 X145.539 Y84.030 E270.66674 F2400
G0 X145.539 Y84.596 F5400
G1 X131.961 Y71.017 E271.30546 F2400
G0 X131.961 Y71.583 F5400
G1 X145.539 Y85.162 E271.94416 F2400
G0 X145.539 Y85.727 F5400
G1 X131.961 Y72.149 E272.58286 F2400
G0 X131.961 Y72.714 F5400
G1 X145.539 Y86.293 E273.22156 F2400
G0 F3000 E272.22156
G0 X128.103 Y122.294 F5400
G0 X128.170 Y121.533
G0 F3000 E273.22156
G1 X114.461 Y107.823 E273.86640 F2400
G0 X114.461 Y108.389 F5400
G1 X127.519 Y121.447 E274.48062 F2400
G0 X126.987 Y121.481 F5400
G1 X114.461 Y108.954 E275.06982 F2400
G0 X114.461 Y109.520 F5400
G1 X126.560 Y121.620 E275.63894 F2400
G0 X126.173 Y121.798 F5400
G1 X114.461 Y110.086 E276.18984 F2400
G0 X114.461 Y110.652 F5400
G1 X125.827 Y122.018 E276.72448 F2400
G0 X125.541 Y122.297 F5400
G1 X114.461 Y111.217 E277.24566 F2400
G0 X114.461 Y111.783 F5400
G1 X125.276 Y122.598 E277.75440 F2400
G0 X125.075 Y122.963 F5400
G1 X114.461 Y112.349 E278.25366 F2400
G0 X114.461 Y112.914 F5400
G1 X124.916 Y123.370 E278.74546 F2400
G0 X124.803 Y123.823 F5400
G1 X114.461 Y113.480 E279.23194 F2400
G0 X114.461 Y114.046 F5400
G1 X124.803 Y124.388 E279.71842 F2400
G0 X124.963 Y125.114 F5400
G1 X114.461 Y114.611 E280.21244 F2400
G0 X114.461 Y115.177 F5400
G1 X125.323 Y126.039 E280.72336 F2400
G0 X124.757 Y126.039 F5400
G1 X114.461 Y115.743 E281.20770 F2400
G0 X114.461 Y116.308 F5400
G1 X124.192 Y126.039 E281.66544 F2400
G0 X123.626 Y126.039 F5400
G1 X114.461 Y116.874 E282.09656 F2400
G0 X114.461 Y117.440 F5400
G1 X123.060 Y126.039 E282.50106 F2400
G0 X123.040 Y126.584 F5400
G1 X114.461 Y118.005 E282.90460 F2400
G0 X114.461 Y118.571 F5400
G1 X123.040 Y127.150 E283.30814 F2400
G0 X123.040 Y127.716 F5400
G1 X114.461 Y119.137 E283.71166 F2400
G0 X114.461 Y119.702 F5400
G1 X123.040 Y128.281 E284.11520 F2400
G0 X123.040 Y128.847 F5400
G1 X114.461 Y120.268 E284.51874 F2400
G0 X114.461 Y120.834 F5400
G1 X123.040 Y129.413 E284.92228 F2400
G0 X123.040 Y129.978 F5400
G1 X114.461 Y121.400 E285.32580 F2400
G0 X114.461 Y121.965 F5400
G1 X123.040 Y130.544 E285.72934 F2400
G0 X123.040 Y131.110 F5400
G1 X114.461 Y122.531 E286.13288 F2400
G0 X114.461 Y123.097 F5400
G1 X123.040 Y131.676 E286.53640 F2400
G0 X123.040 Y132.241 F5400
G1 X114.461 Y123.662 E286.93994 F2400
G0 X114.461 Y124.228 F5400
G1 X123.040 Y132.807 E287.34348 F2400
G0 X123.040 Y133.373 F5400
G1 X114.461 Y124.794 E287.74700 F2400
G0 X114.461 Y125.359 F5400
G1 X123.040 Y133.938 E288.15054 F2400
G0 X123.040 Y134.504 F5400
G1 X114.461 Y125.925 E288.55408 F2400
G0 X114.461 Y126.491 F5400
G1 X123.040 Y135.070 E288.95762 F2400
G0 X123.040 Y135.635 F5400
G1 X114.461 Y127.056 E289.36114 F2400
G0 X114.461 Y127.622 F5400
G1 X123.040 Y136.201 E289.76468 F2400
G0 X123.040 Y136.767 F5400
G1 X114.461 Y128.188 E290.16822 F2400
G0 X114.461 Y128.753 F5400
G1 X123.040 Y137.332 E290.57174 F2400
G0 X123.040 Y137.898 F5400
G1 X114.461 Y129.319 E290.97528 F2400
G0 X114.461 Y129.885 F5400
G1 X123.040 Y138.464 E291.37882 F2400
G0 X123.040 Y139.029 F5400
G1 X114.461 Y130.450 E291.78234 F2400
G0 X114.461 Y131.016 F5400
G1 X123.040 Y139.595 E292.18588 F2400
G0 X123.040 Y140.161 F5400
G1 X114.461 Y131.582 E292.58942 F2400
G0 X114.461 Y132.148 F5400
G1 X123.040 Y140.727 E292.99296 F2400
G0 X123.040 Y141.292 F5400
G1 X114.461 Y132.713 E293.39648 F2400
G0 X114.461 Y133.279 F5400
G1 X123.040 Y141.858 E293.80002 F2400
G0 X123.040 Y142.424 F5400
G1 X114.461 Y133.845 E294.20356 F2400
G0 X114.461 Y135.542 F5400
G1 X125.221 Y146.302 E294.70968 F2400
G0 X124.848 Y145.363 F5400
G1 X114.461 Y134.976 E295.19824 F2400
G0 X114.461 Y134.410 F5400
G1 X124.803 Y144.753 E295.68472 F2400
G0 X124.869 Y144.253 F5400
G1 X123.576 Y142.960 E295.74552 F2400
G0 X124.142 Y142.960 F5400
G1 X124.993 Y143.812 E295.78556 F2400
G0 X124.773 Y143.308 F5400
G1 X125.308 Y142.995 E295.83712 F2400
G0 X125.421 Y143.027 F5400
;segType:InnerHair
G1 X125.534 Y142.978 E295.84076 F2400
G1 X125.647 Y142.929 E295.84342
G1 X125.759 Y142.881 E295.84506
G1 X125.698 Y142.907 E295.84626
G1 X125.583 Y142.957 E295.84948
G1 X125.469 Y143.006 E295.85376
G1 X125.421 Y143.027 E295.85574
G0 F3000 E294.85574
G0 X126.867 Y143.019 F5400
G0 X127.134 Y142.933
G0 X127.623 Y142.902
G0 X128.103 Y142.994
G0 X128.144 Y143.013
G0 X129.549 Y143.005
G0 F3000 E295.85574
G1 X129.436 Y142.956 E295.85894 F2400
G1 X129.317 Y142.914 E295.86132
G1 X129.240 Y142.886 E295.86248
G1 X129.355 Y142.927 E295.86506
G1 X129.469 Y142.965 E295.86834
G1 X129.583 Y143.023 E295.87310
G1 X129.549 Y143.005 E295.87442
G0 X130.365 Y142.960 F5400
;segType:HShell
G1 X145.539 Y158.135 E296.58820 F2400
G0 X145.539 Y157.570 F5400
G1 X130.930 Y142.960 E297.27536 F2400
G0 X131.496 Y142.960 F5400
G1 X145.539 Y157.004 E297.93592 F2400
G0 X145.539 Y156.438 F5400
G1 X131.961 Y142.859 E298.57462 F2400
; ------------------------------------
; Layer #1
; ------------------------------------
G92 E0 ;reset extr
G0 F3000 E-1.00000
G0 F600 Z1.400
G0 X131.201 Y138.561 F7200
G0 X131.201 Y126.800
G0 X129.120 Y126.800
G0 X128.893 Y125.511
G0 X128.923 Y125.486
G0 X129.211 Y125.090
G0 X129.391 Y124.636
G0 X129.452 Y124.150
G0 X129.391 Y123.665
G0 X129.211 Y123.210
G0 X128.923 Y122.814
G0 X128.546 Y122.502
G0 X128.344 Y122.407
G0 X114.461 Y43.906
G0 F3000 E0.00000
;segType:HShell
G1 X117.406 Y40.961 E0.13852 F3600
G0 X116.840 Y40.961 F7200
G1 X114.461 Y43.340 E0.25044 F3600
G0 X114.461 Y42.774 F7200
G1 X116.274 Y40.961 E0.33574 F3600
G0 X115.708 Y40.961 F7200
G1 X114.461 Y42.209 E0.39444 F3600
G0 X114.461 Y41.643 F7200
G1 X115.143 Y40.961 E0.42653 F3600
G0 X114.461 Y41.077 F7200
G1 X114.577 Y40.961 E0.43201 F3600
G0 X113.916 Y40.780 F7200
;segType:Perimeter
G1 X113.760 Y40.201 E0.45197 F1800
G1 X146.300 Y40.201 E1.53422
G1 X146.300 Y159.799 E5.51210
G1 X113.700 Y159.799 E6.59635
G1 X113.700 Y40.261 E10.57223
G0 X113.760 Y40.201 F7200
G0 X115.360 Y40.201
G0 X114.800 Y40.601
;segType:Loop
G1 X145.900 Y40.601 E11.60659 F3600
G1 X145.900 Y159.399 E15.55786
G1 X114.100 Y159.399 E16.61550
G1 X114.100 Y40.601 E20.56677
G1 X114.600 Y40.601 E20.58340
G0 F3000 E19.58340
G0 X141.164 Y40.961 F7200
G0 F3000 E20.58340
;segType:HShell
G1 X131.486 Y50.639 E21.03865 F3600
G0 X131.466 Y50.775 F7200
;segType:Perimeter
G1 X130.666 Y50.775 E21.06526 F1800
G1 X124.275 Y50.775 E21.27782
G1 X124.275 Y46.524 E21.41920
G1 X130.725 Y46.524 E21.63376
G1 X130.725 Y50.715 E21.77314
G0 X130.666 Y50.775 F7200
G0 X129.065 Y50.775
G0 X129.625 Y51.175
;segType:Loop
G1 X123.875 Y51.175 E21.96441 F3600
G1 X123.875 Y46.124 E22.13240
G1 X131.125 Y46.124 E22.37356
G1 X131.125 Y51.175 E22.54155
G1 X129.825 Y51.175 E22.58479
G0 F3000 E21.58479
G0 X130.295 Y50.775 F7200
G0 X127.434 Y53.214
G0 X127.134 Y53.232
G0 X126.669 Y53.384
G0 X126.256 Y53.646
G0 X125.921 Y54.003
G0 X125.685 Y54.431
G0 X125.596 Y54.780
G0 X114.461 Y64.270
G0 F3000 E22.58479
;segType:HShell
G1 X127.195 Y51.535 E23.18380 F3600
G0 X127.761 Y51.535 F7200
G1 X126.733 Y52.564 E23.23216 F3600
G0 X127.409 Y52.454 F7200
G1 X128.327 Y51.535 E23.27535 F3600
G0 X128.892 Y51.535 F7200
G1 X127.939 Y52.488 E23.32018 F3600
G0 X128.400 Y52.593 F7200
G1 X129.458 Y51.535 E23.36994 F3600
G0 X130.024 Y51.535 F7200
G1 X128.785 Y52.774 E23.42821 F3600
G0 X128.546 Y53.502 F7200
G0 X128.611 Y53.373
;segType:Perimeter
G1 X128.958 Y53.862 E23.44817 F1800
G1 X129.211 Y54.210 E23.46244
G1 X129.391 Y54.665 E23.47871
G1 X129.452 Y55.150 E23.49499
G1 X129.391 Y55.635 E23.51126
G1 X129.211 Y56.090 E23.52753
G1 X128.923 Y56.486 E23.54381
G1 X128.546 Y56.798 E23.56009
G1 X128.103 Y57.006 E23.57636
G1 X127.623 Y57.098 E23.59263
G1 X127.134 Y57.067 E23.60891
G1 X126.669 Y56.916 E23.62518
G1 X126.256 Y56.654 E23.64147
G1 X125.921 Y56.297 E23.65773
G1 X125.685 Y55.869 E23.67400
G1 X125.563 Y55.395 E23.69028
G1 X125.563 Y54.905 E23.70655
G1 X125.685 Y54.431 E23.72283
G1 X125.921 Y54.003 E23.73910
G1 X126.256 Y53.646 E23.75537
G1 X126.669 Y53.384 E23.77165
G1 X127.134 Y53.232 E23.78793
G1 X127.623 Y53.202 E23.80420
G1 X128.103 Y53.294 E23.82048
G1 X128.546 Y53.502 E23.83676
G1 X128.877 Y53.776 E23.85103
G0 X128.958 Y53.862 F7200
G0 X129.211 Y54.210
G0 X129.391 Y54.665
G0 X129.452 Y55.150
G0 X129.428 Y55.341
G0 X129.794 Y54.663
;segType:Loop
G1 X129.855 Y55.150 E23.86734 F3600
G1 X129.781 Y55.736 E23.88698
G1 X129.564 Y56.284 E23.90661
G1 X129.217 Y56.762 E23.92624
G1 X128.762 Y57.139 E23.94589
G1 X128.643 Y57.194 E23.95025
G0 X128.599 Y57.312 F7200
G0 X128.467 Y57.342
G1 X128.098 Y57.407 E23.96227 F3600
G1 X127.983 Y57.418 E23.96574
G1 X127.869 Y57.429 E23.96900
G1 X127.755 Y57.440 E23.97206
G1 X127.640 Y57.450 E23.97491
G1 X127.526 Y57.446 E23.97783
G1 X127.412 Y57.443 E23.98082
G1 X127.298 Y57.439 E23.98387
G1 X127.183 Y57.435 E23.98699
G1 X127.069 Y57.432 E23.99017
G1 X126.955 Y57.414 E23.99374
G1 X126.840 Y57.396 E23.99766
G1 X126.726 Y57.378 E24.00192
G1 X126.612 Y57.360 E24.00653
G0 X126.356 Y57.304 F7200
G1 X126.326 Y57.173 E24.01103 F3600
G1 X125.999 Y56.964 E24.02394
G1 X125.595 Y56.534 E24.04357
G1 X125.310 Y56.017 E24.06320
G1 X125.163 Y55.445 E24.08284
G1 X125.163 Y54.855 E24.10247
G1 X125.310 Y54.283 E24.12211
G1 X125.595 Y53.766 E24.14174
G1 X125.999 Y53.335 E24.16137
G1 X126.497 Y53.019 E24.18101
G1 X127.059 Y52.836 E24.20065
G1 X127.648 Y52.799 E24.22029
G1 X128.228 Y52.910 E24.23992
G1 X128.762 Y53.162 E24.25956
G1 X129.217 Y53.538 E24.27919
G1 X129.564 Y54.015 E24.29883
G1 X129.744 Y54.471 E24.31513
G0 F3000 E23.31513
G0 X129.256 Y54.325 F7200
G0 X146.300 Y59.441
G0 X145.539 Y59.213
G0 F3000 E24.31513
;segType:HShell
G1 X131.961 Y72.792 E24.95384 F3600
G0 X131.941 Y73.200 F7200
;segType:Perimeter
G1 X131.141 Y73.200 E24.98044 F1800
G1 X123.800 Y73.200 E25.22460
G1 X123.800 Y57.800 E25.73683
G1 X131.201 Y57.800 E25.98298
G1 X131.201 Y73.140 E26.49322
G0 X131.141 Y73.200 F7200
G0 X129.541 Y73.200
G0 X130.101 Y73.600
;segType:Loop
G1 X128.783 Y73.600 E26.53703 F3600
G0 X128.669 Y73.680 F7200
G0 X128.555 Y73.678
G0 X128.440 Y73.653
G0 X128.326 Y73.627
G0 X128.212 Y73.602
G1 X128.098 Y73.593 E26.54070 F3600
G1 X127.983 Y73.582 E26.54417
G1 X127.869 Y73.571 E26.54743
G1 X127.755 Y73.560 E26.55049
G1 X127.640 Y73.550 E26.55333
G1 X127.526 Y73.554 E26.55625
G1 X127.412 Y73.557 E26.55924
G1 X127.298 Y73.561 E26.56229
G1 X127.183 Y73.565 E26.56541
G1 X127.069 Y73.568 E26.56859
G1 X126.955 Y73.586 E26.57216
G1 X126.840 Y73.604 E26.57608
G1 X126.726 Y73.622 E26.58034
G1 X126.612 Y73.640 E26.58495
G1 X126.498 Y73.655 E26.58982
G1 X126.383 Y73.688 E26.59551
G1 X126.269 Y73.600 E26.60030
G1 X123.400 Y73.600 E26.69573
G1 X123.400 Y57.400 E27.23457
G1 X126.269 Y57.400 E27.33000
G1 X126.383 Y57.312 E27.33688
G1 X126.498 Y57.345 E27.34191
G0 X126.612 Y57.360 F7200
G0 X127.069 Y57.432
G0 X127.183 Y57.435
G0 X127.526 Y57.446
G0 X127.640 Y57.450
G0 X128.098 Y57.407
G1 X128.212 Y57.399 E27.34574 F3600
G1 X128.326 Y57.373 E27.35016
G1 X128.440 Y57.348 E27.35507
G1 X128.555 Y57.322 E27.36047
G1 X128.669 Y57.320 E27.36580
G1 X128.783 Y57.400 E27.37044
G1 X131.601 Y57.400 E27.46414
G1 X131.601 Y73.600 E28.00298
G1 X130.301 Y73.600 E28.04621
G0 F3000 E27.04621
G0 X130.875 Y73.200 F7200
G0 X128.945 Y74.545
G0 X128.923 Y74.514
G0 X128.546 Y74.202
G0 X128.103 Y73.994
G0 X127.623 Y73.902
G0 X127.134 Y73.933
G0 X126.669 Y74.084
G0 X126.256 Y74.346
G0 X125.921 Y74.703
G0 X125.685 Y75.131
G0 X125.563 Y75.605
G0 X125.563 Y76.095
G0 X125.685 Y76.569
G0 X125.783 Y76.747
G0 X114.461 Y84.635
G0 F3000 E28.04621
;segType:HShell
G1 X125.135 Y73.961 E28.54830 F3600
G0 X125.656 Y73.925 F7200
;segType:InnerHair
G1 X125.543 Y73.974 E28.55186 F3600
G1 X125.431 Y74.023 E28.55641
G0 X126.897 Y73.755 F7200
;segType:Perimeter
G1 X127.682 Y73.913 E28.58301 F1800
G1 X128.103 Y73.994 E28.59730
G1 X128.546 Y74.202 E28.61357
G1 X128.923 Y74.514 E28.62984
G1 X129.211 Y74.910 E28.64611
G1 X129.391 Y75.364 E28.66238
G1 X129.452 Y75.850 E28.67865
G1 X129.391 Y76.335 E28.69493
G1 X129.211 Y76.790 E28.71121
G1 X128.923 Y77.186 E28.72748
G1 X128.546 Y77.498 E28.74375
G1 X128.103 Y77.706 E28.76003
G1 X127.623 Y77.798 E28.77630
G1 X127.134 Y77.767 E28.79257
G1 X126.669 Y77.616 E28.80884
G1 X126.256 Y77.354 E28.82512
G1 X125.921 Y76.997 E28.84140
G1 X125.685 Y76.569 E28.85767
G1 X125.563 Y76.095 E28.87394
G1 X125.563 Y75.605 E28.89022
G1 X125.685 Y75.131 E28.90649
G1 X125.921 Y74.703 E28.92277
G1 X126.256 Y74.346 E28.93904
G1 X126.669 Y74.084 E28.95531
G1 X127.134 Y73.933 E28.97159
G1 X127.563 Y73.906 E28.98587
G0 X127.682 Y73.913 F7200
G0 X128.103 Y73.994
G0 X128.546 Y74.202
G0 X128.923 Y74.514
G0 X129.036 Y74.669
G0 F3000 E27.98587
G0 X128.607 Y73.772 F7200
G0 F3000 E28.98587
;segType:Loop
G1 X128.616 Y73.793 E28.98692 F3600
G1 X128.762 Y73.861 E28.99228
G1 X129.217 Y74.238 E29.01192
G1 X129.564 Y74.715 E29.03155
G1 X129.781 Y75.264 E29.05118
G1 X129.855 Y75.850 E29.07082
G1 X129.781 Y76.436 E29.09045
G1 X129.564 Y76.985 E29.11009
G1 X129.217 Y77.462 E29.12973
G1 X128.762 Y77.839 E29.14937
G1 X128.228 Y78.090 E29.16900
G1 X127.648 Y78.200 E29.18863
G1 X127.059 Y78.163 E29.20827
G1 X126.497 Y77.981 E29.22790
G1 X125.999 Y77.665 E29.24754
G1 X125.595 Y77.234 E29.26718
G1 X125.310 Y76.717 E29.28681
G1 X125.163 Y76.145 E29.30644
G1 X125.163 Y75.555 E29.32608
G1 X125.310 Y74.983 E29.34572
G1 X125.595 Y74.466 E29.36535
G1 X125.999 Y74.035 E29.38499
G1 X126.351 Y73.812 E29.39885
G1 X126.612 Y73.640 E29.40925
G0 X127.069 Y73.568 F7200
G0 X127.183 Y73.565
G0 X127.526 Y73.554
G0 X127.640 Y73.550
G0 X128.098 Y73.593
G0 X128.434 Y73.651
G0 F3000 E28.40925
G0 X128.223 Y73.200 F7200
G0 X128.786 Y74.400
G0 X128.923 Y74.514
G0 X129.211 Y74.910
G0 X129.391 Y75.364
G0 X129.447 Y75.810
G0 X145.540 Y110.124
G0 F3000 E29.40925
;segType:HShell
G1 X129.670 Y125.994 E30.15570 F3600
G0 X128.361 Y126.153 F7200
;segType:Perimeter
G1 X127.563 Y126.094 E30.18231 F1800
G1 X127.134 Y126.067 E30.19659
G1 X126.669 Y125.916 E30.21286
G1 X126.256 Y125.654 E30.22914
G1 X125.921 Y125.297 E30.24541
G1 X125.685 Y124.869 E30.26168
G1 X125.563 Y124.395 E30.27796
G1 X125.563 Y123.905 E30.29424
G1 X125.685 Y123.432 E30.31050
G1 X125.921 Y123.003 E30.32678
G1 X126.256 Y122.646 E30.34305
G1 X126.669 Y122.384 E30.35933
G1 X127.134 Y122.233 E30.37561
G1 X127.623 Y122.202 E30.39188
G1 X128.103 Y122.294 E30.40815
G1 X128.546 Y122.502 E30.42443
G1 X128.923 Y122.814 E30.44070
G1 X129.211 Y123.210 E30.45697
G1 X129.391 Y123.665 E30.47325
G1 X129.452 Y124.150 E30.48952
G1 X129.391 Y124.636 E30.50580
G1 X129.211 Y125.090 E30.52207
G1 X128.923 Y125.486 E30.53834
G1 X128.546 Y125.798 E30.55461
G1 X128.103 Y126.006 E30.57089
G1 X127.682 Y126.087 E30.58517
G0 X127.563 Y126.094 F7200
G0 X127.134 Y126.067
G0 X126.669 Y125.916
G0 X126.256 Y125.654
G0 X126.124 Y125.514
G0 F3000 E29.58517
G0 X126.742 Y126.380 F7200
G0 F3000 E30.58517
;segType:Loop
G1 X126.726 Y126.378 E30.58570 F3600
G1 X126.612 Y126.360 E30.58996
G1 X126.367 Y126.307 E30.59996
G0 X126.335 Y126.178 F7200
G1 X125.999 Y125.965 E30.61318 F3600
G1 X125.595 Y125.534 E30.63282
G1 X125.310 Y125.017 E30.65245
G1 X125.163 Y124.445 E30.67209
G1 X125.163 Y123.855 E30.69173
G1 X125.310 Y123.283 E30.71136
G1 X125.595 Y122.766 E30.73099
G1 X125.999 Y122.335 E30.75063
G1 X126.497 Y122.019 E30.77027
G1 X127.059 Y121.837 E30.78990
G1 X127.648 Y121.800 E30.80954
G1 X128.228 Y121.910 E30.82917
G1 X128.762 Y122.161 E30.84881
G1 X129.217 Y122.538 E30.86844
G1 X129.564 Y123.015 E30.88807
G1 X129.781 Y123.564 E30.90771
G1 X129.855 Y124.150 E30.92735
G1 X129.781 Y124.736 E30.94698
G1 X129.564 Y125.285 E30.96662
G1 X129.217 Y125.762 E30.98625
G1 X128.762 Y126.139 E31.00589
G1 X128.634 Y126.199 E31.01059
G1 X128.588 Y126.314 E31.01473
G0 X128.456 Y126.344 F7200
G0 X128.098 Y126.407
G1 X127.983 Y126.418 E31.01841 F3600
G1 X127.869 Y126.429 E31.02188
G1 X127.755 Y126.440 E31.02514
G1 X127.640 Y126.450 E31.02819
G1 X127.526 Y126.446 E31.03103
G1 X127.412 Y126.443 E31.03395
G1 X127.298 Y126.439 E31.03693
G1 X127.183 Y126.435 E31.03999
G1 X127.069 Y126.432 E31.04311
G1 X126.955 Y126.414 E31.04633
G0 F3000 E30.04633
G0 X130.907 Y126.800 F7200
G0 X131.201 Y126.800
G0 X131.201 Y126.828
G0 X146.300 Y128.301
G0 X145.540 Y128.226
G0 F3000 E31.04633
;segType:HShell
G1 X131.961 Y141.805 E31.68504 F3600
G0 X131.941 Y142.200 F7200
;segType:Perimeter
G1 X131.141 Y142.200 E31.71165 F1800
G1 X123.800 Y142.200 E31.95581
G1 X123.800 Y126.800 E32.46803
G1 X131.201 Y126.800 E32.71419
G1 X131.201 Y142.140 E33.22442
G0 X131.141 Y142.200 F7200
G0 X129.541 Y142.200
G0 X130.101 Y142.600
;segType:Loop
G1 X128.783 Y142.600 E33.26823 F3600
G0 X128.669 Y142.680 F7200
G0 X128.555 Y142.678
G0 X128.440 Y142.652
G0 X128.326 Y142.627
G0 X128.212 Y142.601
G1 X128.098 Y142.593 E33.27190 F3600
G1 X127.983 Y142.582 E33.27537
G1 X127.869 Y142.571 E33.27863
G1 X127.755 Y142.560 E33.28169
G1 X127.640 Y142.550 E33.28454
G1 X127.526 Y142.554 E33.28745
G1 X127.412 Y142.557 E33.29044
G1 X127.298 Y142.561 E33.29350
G1 X127.183 Y142.565 E33.29662
G1 X127.069 Y142.568 E33.29980
G1 X126.955 Y142.586 E33.30337
G1 X126.840 Y142.604 E33.30729
G1 X126.726 Y142.622 E33.31155
G1 X126.612 Y142.640 E33.31616
G1 X126.498 Y142.655 E33.32103
G1 X126.383 Y142.688 E33.32672
G1 X126.269 Y142.600 E33.33151
G1 X123.400 Y142.600 E33.42694
G1 X123.400 Y126.400 E33.96578
G1 X126.269 Y126.400 E34.06121
G1 X126.383 Y126.312 E34.06809
G1 X126.498 Y126.345 E34.07312
G0 X126.612 Y126.360 F7200
G0 X127.069 Y126.432
G0 X127.183 Y126.435
G0 X127.526 Y126.446
G0 X127.640 Y126.450
G0 X128.098 Y126.407
G1 X128.212 Y126.399 E34.07696 F3600
G1 X128.326 Y126.373 E34.08137
G1 X128.440 Y126.347 E34.08628
G1 X128.555 Y126.322 E34.09169
G1 X128.669 Y126.320 E34.09701
G1 X128.783 Y126.400 E34.10166
G1 X131.601 Y126.400 E34.19536
G1 X131.601 Y142.600 E34.73419
G1 X130.301 Y142.600 E34.77743
G0 F3000 E33.77743
G0 X130.761 Y142.200 F7200
G0 X131.201 Y142.200
G0 X131.201 Y141.818
G0 X145.540 Y129.358
G0 F3000 E34.77743
;segType:HShell
G1 X131.961 Y142.937 E35.41614 F3600
G0 X131.371 Y142.960 F7200
G1 X130.136 Y144.196 E35.47427 F3600
G0 X129.979 Y143.787 F7200
G1 X130.806 Y142.960 E35.51313 F3600
G0 X130.240 Y142.960 F7200
G1 X129.788 Y143.412 E35.53437 F3600
G0 X127.981 Y142.724 F7200
;segType:Perimeter
G1 X128.592 Y143.240 E35.56098 F1800
G1 X128.923 Y143.514 E35.57525
G1 X129.211 Y143.910 E35.59153
G1 X129.391 Y144.365 E35.60780
G1 X129.452 Y144.850 E35.62407
G1 X129.391 Y145.335 E35.64035
G1 X129.211 Y145.790 E35.65662
G1 X128.923 Y146.186 E35.67289
G1 X128.546 Y146.498 E35.68916
G1 X128.103 Y146.706 E35.70543
G1 X127.623 Y146.798 E35.72171
G1 X127.134 Y146.768 E35.73798
G1 X126.669 Y146.616 E35.75426
G1 X126.256 Y146.354 E35.77054
G1 X125.921 Y145.997 E35.78681
G1 X125.685 Y145.569 E35.80308
G1 X125.563 Y145.095 E35.81936
G1 X125.563 Y144.605 E35.83563
G1 X125.685 Y144.131 E35.85191
G1 X125.921 Y143.703 E35.86818
G1 X126.256 Y143.346 E35.88445
G1 X126.669 Y143.084 E35.90073
G1 X127.134 Y142.933 E35.91701
G1 X127.623 Y142.902 E35.93328
G1 X128.103 Y142.994 E35.94955
G1 X128.492 Y143.176 E35.96383
G0 X128.592 Y143.240 F7200
G0 X128.923 Y143.514
G0 X129.211 Y143.910
G0 X129.391 Y144.365
G0 X129.415 Y144.555
G0 X129.601 Y143.809
;segType:Loop
G1 X129.781 Y144.264 E35.98013 F3600
G1 X129.855 Y144.850 E35.99977
G1 X129.781 Y145.436 E36.01941
G1 X129.564 Y145.985 E36.03904
G1 X129.217 Y146.462 E36.05867
G1 X128.762 Y146.838 E36.07830
G1 X128.228 Y147.090 E36.09794
G1 X127.648 Y147.201 E36.11758
G1 X127.059 Y147.164 E36.13721
G1 X126.497 Y146.981 E36.15685
G1 X125.999 Y146.665 E36.17650
G1 X125.595 Y146.234 E36.19612
G1 X125.310 Y145.717 E36.21576
G1 X125.163 Y145.145 E36.23539
G1 X125.163 Y144.555 E36.25503
G1 X125.310 Y143.983 E36.27467
G1 X125.595 Y143.466 E36.29430
G1 X125.999 Y143.035 E36.31393
G1 X126.342 Y142.817 E36.32748
G0 X126.612 Y142.640 F7200
G0 X127.069 Y142.568
G0 X127.183 Y142.565
G0 X127.526 Y142.554
G0 X127.640 Y142.550
G0 X128.098 Y142.593
G1 X128.446 Y142.654 E36.34236 F3600
G1 X128.578 Y142.683 E36.34873
G1 X128.625 Y142.797 E36.35284
G1 X128.762 Y142.861 E36.35786
G1 X129.217 Y143.238 E36.37750
G1 X129.505 Y143.635 E36.39381
G0 F3000 E35.39381
G0 X130.211 Y149.225 F7200
G0 X130.725 Y149.225
G0 X130.725 Y153.297
G0 X130.844 Y154.236
G0 F3000 E36.39381
;segType:HShell
G1 X126.040 Y159.039 E36.61976 F3600
G0 X125.475 Y159.039 F7200
G1 X130.278 Y154.236 E36.84572 F3600
G0 X130.666 Y153.476 F7200
;segType:Perimeter
G1 X124.275 Y153.476 E37.05827 F1800
G1 X124.275 Y149.225 E37.19965
G1 X130.725 Y149.225 E37.41421
G1 X130.725 Y153.416 E37.55359
G0 X130.666 Y153.476 F7200
G0 X129.065 Y153.476
G0 X129.625 Y153.876
;segType:Loop
G1 X123.875 Y153.876 E37.74487 F3600
G1 X123.875 Y148.825 E37.91285
G1 X131.125 Y148.825 E38.15402
G1 X131.125 Y153.876 E38.32200
G1 X129.825 Y153.876 E38.36524
G0 X129.713 Y154.236 F7200
;segType:HShell
G1 X124.909 Y159.039 E38.59120 F3600
G0 X124.343 Y159.039 F7200
G1 X129.147 Y154.236 E38.81715 F3600
G0 X128.581 Y154.236 F7200
G1 X123.778 Y159.039 E39.04310 F3600
G0 X123.212 Y159.039 F7200
G1 X128.016 Y154.236 E39.26905 F3600
G0 X127.450 Y154.236 F7200
G1 X122.646 Y159.039 E39.49500 F3600
G0 X122.081 Y159.039 F7200
G1 X126.884 Y154.236 E39.72096 F3600
G0 X126.319 Y154.236 F7200
G1 X121.515 Y159.039 E39.94691 F3600
G0 X120.949 Y159.039 F7200
G1 X125.753 Y154.236 E40.17286 F3600
G0 X125.187 Y154.236 F7200
G1 X120.384 Y159.039 E40.39881 F3600
G0 X119.818 Y159.039 F7200
G1 X124.622 Y154.236 E40.62476 F3600
G0 X124.056 Y154.236 F7200
G1 X119.252 Y159.039 E40.85072 F3600
G0 X118.686 Y159.039 F7200
G1 X123.515 Y154.211 E41.07782 F3600
G0 X123.515 Y153.646 F7200
G1 X118.121 Y159.039 E41.33153 F3600
G0 X117.555 Y159.039 F7200
G1 X123.515 Y153.080 E41.61184 F3600
G0 X123.515 Y152.514 F7200
G1 X116.989 Y159.039 E41.91876 F3600
G0 X116.424 Y159.039 F7200
G1 X123.515 Y151.948 E42.25230 F3600
G0 X123.515 Y151.383 F7200
G1 X115.858 Y159.039 E42.61244 F3600
G0 X115.292 Y159.039 F7200
G1 X123.515 Y150.817 E42.99919 F3600
G0 X123.515 Y150.251 F7200
G1 X114.727 Y159.039 E43.41254 F3600
G0 X114.461 Y158.740 F7200
G1 X123.515 Y149.686 E43.83841 F3600
G0 X123.515 Y149.120 F7200
G1 X114.461 Y158.174 E44.26428 F3600
G0 X114.461 Y157.608 F7200
G1 X123.515 Y148.554 E44.69015 F3600
G0 F3000 E43.69015
G0 X125.421 Y143.027 F7200
G0 F3000 E44.69015
;segType:InnerHair
G1 X125.534 Y142.978 E44.69379 F3600
G1 X125.647 Y142.929 E44.69643
G1 X125.759 Y142.881 E44.69807
G1 X125.698 Y142.907 E44.69927
G1 X125.583 Y142.957 E44.70252
G1 X125.469 Y143.006 E44.70679
G1 X125.421 Y143.027 E44.70876
G0 F3000 E43.70876
G0 X126.867 Y143.019 F7200
G0 X127.134 Y142.933
G0 X127.623 Y142.902
G0 X128.103 Y142.994
G0 X128.144 Y143.013
G0 X129.549 Y143.005
G0 F3000 E44.70876
G1 X129.436 Y142.956 E44.71195 F3600
G1 X129.317 Y142.914 E44.71433
G1 X129.240 Y142.886 E44.71549
G1 X129.355 Y142.927 E44.71805
G1 X129.469 Y142.965 E44.72134
G1 X129.583 Y143.023 E44.72609
G1 X129.549 Y143.005 E44.72742
G0 F3000 E43.72742
G0 X145.540 Y158.773 F7200
G0 F3000 E44.72742
;segType:HShell
G1 X145.274 Y159.039 E44.73992 F3600
G0 X144.708 Y159.039 F7200
G1 X145.540 Y158.208 E44.77904 F3600
G0 X145.540 Y157.642 F7200
G1 X144.142 Y159.039 E44.84476 F3600
G0 X143.577 Y159.039 F7200
G1 X145.540 Y157.076 E44.93709 F3600
G0 X145.540 Y156.511 F7200
G1 X143.011 Y159.039 E45.05603 F3600
G0 X142.445 Y159.039 F7200
G1 X145.540 Y155.945 E45.20157 F3600
G0 X145.540 Y155.379 F7200
G1 X141.880 Y159.039 E45.37373 F3600
G0 X141.314 Y159.039 F7200
G1 X145.540 Y154.814 E45.57249 F3600
G0 X145.540 Y154.248 F7200
G1 X140.748 Y159.039 E45.79787 F3600
G0 X140.183 Y159.039 F7200
G1 X145.540 Y153.682 E46.04985 F3600
G0 X145.540 Y153.117 F7200
G1 X139.617 Y159.039 E46.32843 F3600
G0 X139.051 Y159.039 F7200
G1 X145.540 Y152.551 E46.63363 F3600
G0 X145.540 Y151.985 F7200
G1 X138.485 Y159.039 E46.96543 F3600
G0 X137.920 Y159.039 F7200
G1 X145.540 Y151.420 E47.32384 F3600
G0 X145.540 Y150.854 F7200
G1 X137.354 Y159.039 E47.70886 F3600
G0 X136.788 Y159.039 F7200
G1 X145.540 Y150.288 E48.12049 F3600
G0 X145.540 Y149.723 F7200
G1 X136.223 Y159.039 E48.55873 F3600
G0 X135.657 Y159.039 F7200
G1 X145.540 Y149.157 E49.02357 F3600
G0 X145.540 Y148.591 F7200
G1 X135.091 Y159.039 E49.51502 F3600
G0 X134.526 Y159.039 F7200
G1 X145.540 Y148.025 E50.03308 F3600
G0 X145.540 Y147.460 F7200
G1 X133.960 Y159.039 E50.57775 F3600
G0 X133.394 Y159.039 F7200
G1 X145.540 Y146.894 E51.14902 F3600
G0 X145.540 Y146.328 F7200
G1 X132.829 Y159.039 E51.74691 F3600
G0 X132.263 Y159.039 F7200
G1 X145.540 Y145.763 E52.37140 F3600
G0 X145.540 Y145.197 F7200
G1 X131.697 Y159.039 E53.02250 F3600
G0 X131.132 Y159.039 F7200
G1 X145.540 Y144.631 E53.70021 F3600
G0 X145.540 Y144.066 F7200
G1 X130.566 Y159.039 E54.40452 F3600
G0 X130.000 Y159.039 F7200
G1 X145.540 Y143.500 E55.13545 F3600
G0 X145.540 Y142.934 F7200
G1 X129.434 Y159.039 E55.89298 F3600
G0 X128.869 Y159.039 F7200
G1 X145.540 Y142.369 E56.67712 F3600
G0 X145.540 Y141.803 F7200
G1 X128.303 Y159.039 E57.48787 F3600
G0 X127.737 Y159.039 F7200
G1 X145.540 Y141.237 E58.32523 F3600
G0 X145.540 Y140.672 F7200
G1 X127.172 Y159.039 E59.18919 F3600
G0 X126.606 Y159.039 F7200
G1 X131.410 Y154.236 E59.41514 F3600
G0 X131.486 Y154.160 F7200
