; GCode generated by CraftWare

G28 X0 Y0
G28 Z0

M425 S1; Wiper Strip enabled
M430 Z0 F1200; Head change ZHop settings
M431 E4 F3000; Head change Exit Retract settings
M432 E0 F3000; Head change Enter Retract settings
M433 E4 F3000; Head change Enter Prime settings

M9006 S0; Selected Normal Dual Extruder Mode
M104 T0 S208 ;set head temp 1 (no wait)
M104 T1 S208 ;set head temp 2 (no wait)
M190 S60 ;set bed temp (wait)
M109 T0 S208 ;set head temp 1 (wait)
M109 T1 S208 ;set head temp 2 (wait)
; ------------------------------------
; Layer #0
; ------------------------------------
G21 ; mm
G90 ; abs
G92 E0 ;reset extr
T0 X171.000 Y149.003 Z0.200 F5400
M106 S0 T0 ;turn off fan 1
G92 E0 ;reset extr
;segType:Skirt
G1 X170.803 Y148.806 E0.0093 F2400
G1 X167.915 Y145.919 E0.1451
G1 X167.915 Y104.444 E1.5246
G1 X167.981 Y103.984 E1.5400
G1 X170.869 Y101.097 E1.6758
G1 X179.794 Y101.097 E1.9727
G1 X179.990 Y101.031 E1.9796
G1 X179.990 Y81.081 E2.6431
G1 X180.778 Y80.294 E2.6801
G1 X181.106 Y80.097 E2.6929
G1 X202.894 Y80.097 E3.4175
G1 X203.681 Y80.884 E3.4546
G1 X203.878 Y81.213 E3.4673
G1 X203.878 Y82.788 E3.5197
G1 X203.813 Y83.247 E3.5351
G1 X203.616 Y83.575 E3.5479
G1 X203.616 Y87.775 E3.6875
G1 X203.747 Y88.169 E3.7014
G1 X203.747 Y94.469 E3.9109
G1 X203.878 Y94.600 E3.9171
G1 X203.878 Y100.900 E4.1266
G1 X203.944 Y101.097 E4.1335
G1 X212.869 Y101.097 E4.4303
G1 X213.197 Y101.294 E4.4431
G1 X215.953 Y104.050 E4.5727
G1 X215.953 Y145.525 E5.9522
G1 X215.888 Y145.985 E5.9676
G1 X212.869 Y149.003 E6.1096
G1 X171.000 Y149.003 E7.5022
G0 X171.000 Y149.397 F5400
G1 X167.588 Y145.985 E7.6627 F2400
G1 X167.522 Y145.525 E7.6781
G1 X167.522 Y104.050 E9.0576
G1 X170.672 Y100.900 E9.2058
G1 X171.000 Y100.703 E9.2185
G1 X179.400 Y100.703 E9.4979
G1 X179.597 Y100.638 E9.5048
G1 X179.597 Y81.213 E10.1509
G1 X179.794 Y80.884 E10.1636
G1 X180.975 Y79.703 E10.2192
G1 X202.500 Y79.703 E10.9351
G1 X202.960 Y79.769 E10.9505
G1 X204.272 Y81.081 E11.0123
G1 X204.272 Y83.181 E11.0821
G1 X204.010 Y83.444 E11.0945
G1 X204.010 Y87.906 E11.2429
G1 X204.141 Y88.038 E11.2491
G1 X204.141 Y94.338 E11.4586
G1 X204.272 Y94.731 E11.4724
G1 X204.272 Y100.506 E11.6645
G1 X204.338 Y100.703 E11.6714
G1 X213.000 Y100.703 E11.9595
G1 X216.150 Y103.853 E12.1077
G1 X216.347 Y104.181 E12.1204
G1 X216.347 Y145.919 E13.5086
G1 X212.869 Y149.397 E13.6722
G1 X171.000 Y149.397 E15.0648
G0 X170.803 Y149.594 F5400
G1 X167.128 Y145.919 E15.2376 F2400
G1 X167.128 Y104.444 E16.6171
;segType:HShell
G0 F3000 E15.6171
G0 F1200 Z1.200
G0 X206.540 Y112.495 F5400
G0 F1200 Z0.200
G0 F3000 E16.6171
G1 X204.505 Y110.460 E16.7128 F2400
G0 X203.940 Y110.460 F5400
G1 X206.540 Y113.060 E16.8350 F2400
G0 X206.453 Y113.539 F5400
G1 X203.461 Y110.547 E16.9758 F2400
;segType:Perimeter
G0 X202.907 Y110.473 F5400
G1 X202.700 Y109.700 E17.0024 F1439
G1 X207.300 Y109.700 E17.1554
G1 X207.300 Y114.300 E17.3084
G1 X202.700 Y114.300 E17.4613
G1 X202.700 Y109.700 E17.6143
G0 X203.473 Y109.907 F5400
;segType:Loop
G0 X203.800 Y110.100
G1 X206.900 Y110.100 E17.7174 F2400
G1 X206.900 Y113.900 E17.8438
G1 X203.100 Y113.900 E17.9701
G1 X203.100 Y110.100 E18.0965
G1 X203.600 Y110.100 E18.1131
;segType:HShell
G0 X203.461 Y111.113 F5400
G1 X205.887 Y113.539 E18.2273 F2400
G0 X205.322 Y113.539 F5400
G1 X203.461 Y111.678 E18.3148 F2400
G0 X203.461 Y112.244 F5400
G1 X204.756 Y113.539 E18.3757 F2400
G0 X204.190 Y113.539 F5400
G1 X203.461 Y112.810 E18.4101 F2400
G0 X206.540 Y111.929 F5400
G1 X205.071 Y110.460 E18.4791 F2400
G0 X205.637 Y110.460 F5400
G1 X206.540 Y111.363 E18.5216 F2400
G0 X206.540 Y110.797 F5400
G1 X206.203 Y110.460 E18.5375 F2400
G0 F3000 E17.5375
G0 F1200 Z1.200
G0 X198.496 Y116.896 F5400
G0 X192.716 Y121.723
G0 X190.790 Y123.332
G0 F1200 Z0.200
G0 F3000 E18.5375
G1 X189.033 Y121.575 E18.6201 F2400
G0 X188.738 Y121.846 F5400
G1 X190.682 Y123.790 E18.7115 F2400
G0 X190.116 Y123.790 F5400
G1 X188.477 Y122.150 E18.7886 F2400
G0 X188.238 Y122.477 F5400
G1 X189.550 Y123.790 E18.8503 F2400
G0 X188.985 Y123.790 F5400
G1 X188.023 Y122.828 E18.8955 F2400
G0 X187.833 Y123.204 F5400
G1 X188.419 Y123.790 E18.9231 F2400
;segType:Perimeter
G0 X187.501 Y124.343 F5400
G1 X186.729 Y124.550 E18.9497 F1439
G1 X186.774 Y124.123 E18.9640
G1 X186.918 Y123.500 E18.9852
G1 X187.136 Y122.898 E19.0065
G1 X187.424 Y122.327 E19.0278
G1 X187.780 Y121.795 E19.0491
G1 X188.197 Y121.310 E19.0704
G1 X188.669 Y120.878 E19.0916
G1 X189.190 Y120.507 E19.1129
G1 X189.752 Y120.201 E19.1342
G1 X190.347 Y119.965 E19.1555
G1 X190.966 Y119.803 E19.1768
G1 X191.457 Y119.735 E19.1933
G1 X191.550 Y119.786 E19.1968
G1 X191.550 Y124.550 E19.3552
G1 X186.729 Y124.550 E19.5156
G0 X187.016 Y123.803 F5400
;segType:Loop
G0 X187.336 Y123.519
G1 X187.503 Y123.057 E19.5319 F2400
G1 X187.770 Y122.529 E19.5516
G1 X188.099 Y122.038 E19.5713
G1 X188.484 Y121.589 E19.5909
G1 X188.921 Y121.190 E19.6106
G1 X189.402 Y120.847 E19.6303
G1 X189.922 Y120.564 E19.6499
G1 X190.472 Y120.346 E19.6696
G1 X191.044 Y120.196 E19.6893
G1 X191.150 Y120.243 E19.6931
G1 X191.150 Y124.150 E19.8231
G1 X187.229 Y124.150 E19.9535
G1 X187.183 Y124.129 E19.9552
G1 X187.280 Y123.710 E19.9694
;segType:HShell
G0 X189.350 Y121.327 F5400
G1 X190.790 Y122.766 E20.0371 F2400
G0 X190.790 Y122.200 F5400
G1 X189.690 Y121.101 E20.0889 F2400
G0 X190.056 Y120.901 F5400
G1 X190.790 Y121.635 E20.1234 F2400
G0 X190.790 Y121.069 F5400
G1 X190.459 Y120.739 E20.1389 F2400
G0 F3000 E19.1389
G0 F1200 Z1.200
G0 X193.210 Y126.318 F5400
G0 F1200 Z0.200
G0 F3000 E20.1389
G1 X195.150 Y128.258 E20.2301 F2400
G0 X195.424 Y127.966 F5400
G1 X193.668 Y126.210 E20.3127 F2400
G0 X194.234 Y126.210 F5400
G1 X195.676 Y127.652 E20.3805 F2400
G0 X195.902 Y127.313 F5400
G1 X194.800 Y126.210 E20.4324 F2400
G0 X195.365 Y126.210 F5400
G1 X196.095 Y126.940 E20.4667 F2400
G0 X196.260 Y126.539 F5400
G1 X195.931 Y126.210 E20.4821 F2400
;segType:Perimeter
G0 X196.499 Y125.657 F5400
G1 X197.271 Y125.450 E20.5087 F1439
G1 X197.226 Y125.877 E20.5230
G1 X197.082 Y126.501 E20.5443
G1 X196.864 Y127.102 E20.5656
G1 X196.576 Y127.673 E20.5869
G1 X196.220 Y128.205 E20.6081
G1 X195.803 Y128.690 E20.6294
G1 X195.331 Y129.122 E20.6507
G1 X194.810 Y129.493 E20.6720
G1 X194.248 Y129.799 E20.6933
G1 X193.653 Y130.035 E20.7145
G1 X193.034 Y130.197 E20.7358
G1 X192.486 Y130.272 E20.7542
G1 X192.450 Y130.186 E20.7573
G1 X192.450 Y125.450 E20.9148
G1 X197.271 Y125.450 E21.0752
G0 X196.984 Y126.197 F5400
;segType:Loop
G0 X196.664 Y126.481
G1 X196.497 Y126.943 E21.0915 F2400
G1 X196.230 Y127.471 E21.1112
G1 X195.901 Y127.963 E21.1309
G1 X195.516 Y128.411 E21.1505
G1 X195.079 Y128.810 E21.1702
G1 X194.598 Y129.153 E21.1899
G1 X194.078 Y129.436 E21.2096
G1 X193.528 Y129.654 E21.2292
G1 X192.956 Y129.804 E21.2489
G1 X192.850 Y129.729 E21.2532
G1 X192.850 Y125.850 E21.3822
G1 X196.827 Y125.850 E21.5145
G1 X196.831 Y125.811 E21.5158
G1 X196.720 Y126.290 E21.5321
;segType:HShell
G0 X193.210 Y128.581 F5400
G1 X193.791 Y129.162 E21.5595 F2400
G0 X194.171 Y128.976 F5400
G1 X193.210 Y128.015 E21.6046 F2400
G0 X193.210 Y127.450 F5400
G1 X194.524 Y128.763 E21.6664 F2400
G0 X194.854 Y128.528 F5400
G1 X193.210 Y126.884 E21.7437 F2400
G0 F3000 E20.7437
G0 F1200 Z1.200
G0 X183.639 Y131.859 F5400
G0 X176.460 Y135.590
G0 F1200 Z0.200
G0 F3000 E21.7437
G1 X181.410 Y140.540 E21.9765 F2400
G0 X181.539 Y140.103 F5400
G1 X176.897 Y135.461 E22.1949 F2400
;segType:Perimeter
G0 X175.907 Y135.473 F5400
G1 X175.700 Y134.700 E22.2215 F1439
G1 X182.300 Y134.700 E22.4410
G1 X182.300 Y141.300 E22.6605
G1 X175.700 Y141.300 E22.8800
G1 X175.700 Y134.700 E23.0995
G0 X176.473 Y134.907 F5400
;segType:Loop
G0 X176.800 Y135.100
G1 X181.900 Y135.100 E23.2691 F2400
G1 X181.900 Y140.900 E23.4620
G1 X176.100 Y140.900 E23.6549
G1 X176.100 Y135.100 E23.8478
G1 X176.600 Y135.100 E23.8644
;segType:HShell
G0 X177.462 Y135.461 F5400
G1 X181.539 Y139.538 E24.0562 F2400
G0 X181.539 Y138.972 F5400
G1 X178.028 Y135.461 E24.2213 F2400
G0 X178.594 Y135.461 F5400
G1 X181.539 Y138.406 E24.3599 F2400
G0 X181.539 Y137.841 F5400
G1 X179.160 Y135.461 E24.4718 F2400
G0 X179.725 Y135.461 F5400
G1 X181.539 Y137.275 E24.5572 F2400
G0 X181.539 Y136.709 F5400
G1 X180.291 Y135.461 E24.6159 F2400
G0 X180.857 Y135.461 F5400
G1 X181.539 Y136.143 E24.6480 F2400
G0 X176.460 Y140.115 F5400
G1 X176.885 Y140.540 E24.6680 F2400
G0 X177.450 Y140.540 F5400
G1 X176.460 Y139.550 E24.7145 F2400
G0 X176.460 Y138.984 F5400
G1 X178.016 Y140.540 E24.7877 F2400
G0 X178.582 Y140.540 F5400
G1 X176.460 Y138.418 E24.8875 F2400
G0 X176.460 Y137.853 F5400
G1 X179.147 Y140.540 E25.0138 F2400
G0 X179.713 Y140.540 F5400
G1 X176.460 Y137.287 E25.1668 F2400
G0 X176.460 Y136.721 F5400
G1 X180.279 Y140.540 E25.3464 F2400
G0 X180.844 Y140.540 F5400
G1 X176.460 Y136.156 E25.5526 F2400
G0 F3000 E24.5526
G0 F1200 Z1.200
G0 X182.959 Y132.159 F5400
G0 X185.125 Y130.826
G0 X187.291 Y129.494
G0 X195.955 Y124.165
G0 X198.121 Y122.832
G0 X200.287 Y121.500
G0 F1200 Z0.200
G0 F3000 E25.5526
;segType:InnerHair
G0 X200.147 Y121.185 F5400
G0 X200.096 Y121.075
G0 X199.933 Y120.753
G0 X199.874 Y120.650
G0 X199.818 Y120.545
G0 X199.636 Y120.242
G0 X199.573 Y120.144
G0 X199.509 Y120.046
G0 X199.445 Y119.948
G0 X199.312 Y119.758
G0 X199.244 Y119.665
G0 X199.174 Y119.572
G0 X199.105 Y119.480
G0 X198.888 Y119.212
G0 X198.813 Y119.125
G0 X198.738 Y119.039
G0 X198.662 Y118.953
G0 X198.506 Y118.786
G0 X198.426 Y118.704
G0 X198.265 Y118.542
G0 X198.181 Y118.464
G0 X198.098 Y118.386
G0 X198.014 Y118.308
G0 X197.841 Y118.158
G0 X197.754 Y118.084
G0 X197.575 Y117.939
G0 X197.484 Y117.868
G0 X197.300 Y117.730
G0 X197.205 Y117.663
G0 X197.110 Y117.596
G0 X197.014 Y117.530
G0 X196.818 Y117.403
G0 X196.719 Y117.340
G0 X196.618 Y117.280
G0 X196.518 Y117.219
G0 X196.206 Y117.046
G0 X196.098 Y116.992
G0 X195.992 Y116.936
G0 X195.662 Y116.782
G1 X195.548 Y116.733 E25.5567 F2400
G0 X195.229 Y116.603 F5400
G0 X195.114 Y116.558
G0 X194.771 Y116.440
G0 X194.657 Y116.406
G0 X194.543 Y116.371
G0 X194.429 Y116.338
G0 X194.200 Y116.276
G0 X194.086 Y116.249
G0 X193.971 Y116.223
G0 X193.857 Y116.197
G0 X193.629 Y116.152
G0 X193.514 Y116.132
G0 X193.286 Y116.096
G0 X193.171 Y116.080
G0 X192.943 Y116.052
G0 X192.714 Y116.032
G0 X192.600 Y116.023
G0 X192.371 Y116.011
G0 X192.257 Y116.007
G0 X191.686 Y115.997
G0 X191.229 Y116.005
G1 X191.343 Y116.003 E25.5610 F2400
G1 X191.457 Y116.001 E25.5652
G1 X191.571 Y115.999 E25.5692
G1 X191.686 Y115.997 E25.5732
G1 X191.800 Y115.999 E25.5771
G1 X191.914 Y116.001 E25.5809
G1 X192.029 Y116.003 E25.5848
G1 X192.143 Y116.005 E25.5886
G1 X192.257 Y116.007 E25.5923
G1 X192.371 Y116.011 E25.5961
G1 X192.486 Y116.017 E25.5998
G1 X192.600 Y116.023 E25.6037
G1 X192.714 Y116.032 E25.6075
G1 X192.829 Y116.042 E25.6113
G1 X192.943 Y116.052 E25.6150
G1 X193.057 Y116.066 E25.6188
G1 X193.171 Y116.080 E25.6227
G1 X193.286 Y116.096 E25.6265
G1 X193.400 Y116.114 E25.6303
G1 X193.514 Y116.132 E25.6341
G1 X193.629 Y116.152 E25.6379
G1 X193.743 Y116.174 E25.6418
G1 X193.857 Y116.197 E25.6457
G1 X193.971 Y116.223 E25.6496
G1 X194.086 Y116.249 E25.6535
G1 X194.200 Y116.276 E25.6573
G1 X194.314 Y116.307 E25.6612
G1 X194.429 Y116.338 E25.6652
G1 X194.543 Y116.371 E25.6691
G1 X194.657 Y116.406 E25.6731
G1 X194.771 Y116.440 E25.6770
G1 X194.886 Y116.479 E25.6809
G1 X195.000 Y116.519 E25.6850
G1 X195.114 Y116.558 E25.6890
G1 X195.229 Y116.603 E25.6931
G0 X195.343 Y116.646 F5400
G0 X195.457 Y116.695
G0 X195.571 Y116.743
G0 X195.686 Y116.792
G1 X195.662 Y116.782 E25.6940 F2400
G1 X195.772 Y116.833 E25.6980
G1 X195.882 Y116.884 E25.7020
G1 X195.992 Y116.936 E25.7060
G1 X196.098 Y116.992 E25.7099
G1 X196.206 Y117.046 E25.7140
G1 X196.310 Y117.103 E25.7179
G1 X196.414 Y117.161 E25.7218
G1 X196.518 Y117.219 E25.7257
G1 X196.618 Y117.280 E25.7296
G1 X196.719 Y117.340 E25.7335
G1 X196.818 Y117.403 E25.7374
G1 X196.916 Y117.466 E25.7413
G1 X197.014 Y117.530 E25.7451
G1 X197.110 Y117.596 E25.7489
G1 X197.205 Y117.663 E25.7528
G1 X197.300 Y117.730 E25.7567
G1 X197.392 Y117.799 E25.7605
G1 X197.484 Y117.868 E25.7643
G1 X197.575 Y117.939 E25.7681
G1 X197.664 Y118.011 E25.7719
G1 X197.754 Y118.084 E25.7757
G1 X197.841 Y118.158 E25.7795
G1 X197.927 Y118.233 E25.7833
G1 X198.014 Y118.308 E25.7871
G1 X198.098 Y118.386 E25.7908
G1 X198.181 Y118.464 E25.7946
G1 X198.265 Y118.542 E25.7985
G1 X198.345 Y118.623 E25.8023
G1 X198.426 Y118.704 E25.8060
G1 X198.506 Y118.786 E25.8098
G1 X198.584 Y118.870 E25.8135
G1 X198.662 Y118.953 E25.8174
G1 X198.738 Y119.039 E25.8212
G1 X198.813 Y119.125 E25.8250
G1 X198.888 Y119.212 E25.8287
G1 X198.961 Y119.301 E25.8325
G1 X199.033 Y119.390 E25.8363
G1 X199.105 Y119.480 E25.8402
G1 X199.174 Y119.572 E25.8440
G1 X199.244 Y119.665 E25.8478
G1 X199.312 Y119.758 E25.8516
G1 X199.378 Y119.853 E25.8554
G1 X199.445 Y119.948 E25.8593
G1 X199.509 Y120.046 E25.8632
G1 X199.573 Y120.144 E25.8670
G1 X199.636 Y120.242 E25.8709
G1 X199.697 Y120.343 E25.8748
G1 X199.757 Y120.444 E25.8787
G1 X199.818 Y120.545 E25.8826
G1 X199.874 Y120.650 E25.8866
G1 X199.933 Y120.753 E25.8905
G1 X199.987 Y120.860 E25.8944
G1 X200.042 Y120.968 E25.8984
G1 X200.096 Y121.075 E25.9024
G1 X200.147 Y121.185 E25.9065
G0 X200.200 Y121.294 F5400
G0 X200.248 Y121.408
G0 X200.296 Y121.521
G0 X200.344 Y121.635
G1 X200.336 Y121.614 E25.9072 F2400
G1 X200.380 Y121.729 E25.9113
G1 X200.424 Y121.843 E25.9153
G1 X200.468 Y121.957 E25.9193
G1 X200.506 Y122.071 E25.9233
G1 X200.547 Y122.186 E25.9274
G1 X200.581 Y122.300 E25.9313
G1 X200.616 Y122.414 E25.9353
G1 X200.651 Y122.529 E25.9392
G1 X200.682 Y122.643 E25.9431
G1 X200.712 Y122.757 E25.9470
G1 X200.741 Y122.871 E25.9510
G1 X200.768 Y122.986 E25.9548
G1 X200.794 Y123.100 E25.9587
G1 X200.817 Y123.214 E25.9625
G1 X200.839 Y123.329 E25.9664
G1 X200.861 Y123.443 E25.9703
G1 X200.880 Y123.557 E25.9741
G1 X200.898 Y123.671 E25.9779
G1 X200.914 Y123.786 E25.9817
G1 X200.928 Y123.900 E25.9855
G1 X200.942 Y124.014 E25.9894
G1 X200.954 Y124.129 E25.9932
G1 X200.964 Y124.243 E25.9970
G1 X200.974 Y124.357 E26.0007
G1 X200.981 Y124.471 E26.0045
G1 X200.987 Y124.586 E26.0083
G1 X200.992 Y124.700 E26.0121
G1 X200.995 Y124.814 E26.0160
G1 X200.998 Y124.929 E26.0198
G1 X201.000 Y125.043 E26.0236
G1 X201.000 Y125.157 E26.0274
G1 X201.000 Y125.271 E26.0313
G1 X200.999 Y125.386 E26.0352
G1 X200.996 Y125.500 E26.0393
G1 X200.993 Y125.614 E26.0434
G1 X200.990 Y125.729 E26.0477
;segType:Perimeter
G0 X201.003 Y125.200 F5400
G1 X201.803 Y125.200 E26.0743 F1439
G1 X211.800 Y125.200 E26.4068
G1 X211.800 Y144.800 E27.0586
G1 X192.200 Y144.800 E27.7105
G1 X192.200 Y134.806 E28.0429
G1 X191.316 Y134.776 E28.0723
G1 X190.636 Y134.704 E28.0951
G1 X189.962 Y134.585 E28.1178
G1 X189.299 Y134.420 E28.1406
G1 X188.648 Y134.209 E28.1633
G1 X188.014 Y133.952 E28.1861
G1 X187.399 Y133.652 E28.2088
G1 X186.807 Y133.310 E28.2315
G1 X186.240 Y132.928 E28.2543
G1 X185.701 Y132.507 E28.2771
G1 X185.193 Y132.049 E28.2998
G1 X184.717 Y131.557 E28.3226
G1 X184.278 Y131.033 E28.3453
G1 X183.876 Y130.480 E28.3680
G1 X183.513 Y129.900 E28.3908
G1 X183.192 Y129.296 E28.4135
G1 X182.914 Y128.671 E28.4363
G1 X182.680 Y128.028 E28.4590
G1 X182.492 Y127.371 E28.4818
G1 X182.349 Y126.702 E28.5045
G1 X182.254 Y126.024 E28.5273
G1 X182.206 Y125.340 E28.5501
G1 X182.197 Y124.800 E28.5681
G1 X172.200 Y124.800 E28.9006
G1 X172.200 Y105.200 E29.5524
G1 X191.800 Y105.200 E30.2043
G1 X191.800 Y115.193 E30.5367
G1 X192.683 Y115.224 E30.5661
G1 X193.364 Y115.296 E30.5889
G1 X194.038 Y115.415 E30.6116
G1 X194.701 Y115.580 E30.6343
G1 X195.352 Y115.792 E30.6571
G1 X195.986 Y116.048 E30.6799
G1 X196.601 Y116.348 E30.7026
G1 X197.193 Y116.690 E30.7254
G1 X197.760 Y117.072 E30.7481
G1 X198.299 Y117.493 E30.7708
G1 X198.807 Y117.951 E30.7936
G1 X199.283 Y118.443 E30.8164
G1 X199.722 Y118.967 E30.8391
G1 X200.124 Y119.520 E30.8619
G1 X200.486 Y120.100 E30.8846
G1 X200.808 Y120.704 E30.9074
G1 X201.086 Y121.329 E30.9301
G1 X201.320 Y121.972 E30.9528
G1 X201.508 Y122.629 E30.9756
G1 X201.651 Y123.298 E30.9984
G1 X201.746 Y123.976 E31.0211
G1 X201.794 Y124.660 E31.0439
G1 X201.803 Y125.200 E31.0619
G0 X201.817 Y126.000 F5400
;segType:Loop
G0 X202.903 Y125.600
G1 X211.400 Y125.600 E31.3445 F2400
G1 X211.400 Y144.400 E31.9697
G1 X192.600 Y144.400 E32.5950
G1 X192.600 Y134.420 E32.9269
G1 X191.344 Y134.376 E32.9687
G1 X190.692 Y134.308 E32.9906
G1 X190.046 Y134.194 E33.0124
G1 X189.409 Y134.035 E33.0342
G1 X188.785 Y133.832 E33.0560
G1 X188.177 Y133.587 E33.0778
G1 X187.587 Y133.299 E33.0997
G1 X187.019 Y132.971 E33.1215
G1 X186.475 Y132.604 E33.1433
G1 X185.958 Y132.200 E33.1651
G1 X185.471 Y131.761 E33.1869
G1 X185.015 Y131.289 E33.2088
G1 X184.593 Y130.787 E33.2306
G1 X184.208 Y130.256 E33.2524
G1 X183.860 Y129.700 E33.2742
G1 X183.552 Y129.121 E33.2960
G1 X183.285 Y128.521 E33.3179
G1 X183.061 Y127.905 E33.3397
G1 X182.880 Y127.274 E33.3615
G1 X182.744 Y126.632 E33.3833
G1 X182.652 Y125.983 E33.4051
G1 X182.606 Y125.323 E33.4272
G1 X182.590 Y124.400 E33.4579
G1 X172.600 Y124.400 E33.7901
G1 X172.600 Y105.600 E34.4154
G1 X191.400 Y105.600 E35.0406
G1 X191.400 Y115.580 E35.3725
G1 X192.655 Y115.624 E35.4143
G1 X193.308 Y115.692 E35.4362
G1 X193.954 Y115.806 E35.4580
G1 X194.591 Y115.965 E35.4798
G1 X195.215 Y116.168 E35.5016
G1 X195.823 Y116.413 E35.5234
G1 X196.413 Y116.701 E35.5453
G1 X196.981 Y117.029 E35.5671
G1 X197.525 Y117.396 E35.5889
G1 X198.042 Y117.800 E35.6107
G1 X198.529 Y118.239 E35.6325
G1 X198.985 Y118.711 E35.6544
G1 X199.407 Y119.213 E35.6762
G1 X199.792 Y119.744 E35.6980
G1 X200.140 Y120.300 E35.7198
G1 X200.448 Y120.880 E35.7417
G1 X200.715 Y121.479 E35.7635
G1 X200.939 Y122.095 E35.7853
G1 X201.120 Y122.726 E35.8071
G1 X201.256 Y123.368 E35.8289
G1 X201.348 Y124.017 E35.8507
G1 X201.394 Y124.677 E35.8728
G1 X201.410 Y125.600 E35.9035
G1 X202.703 Y125.600 E35.9465
G0 X202.703 Y125.600 F5400
G0 X200.029 Y128.071
G0 X200.029 Y128.071
G0 X199.974 Y128.222
G0 X199.730 Y128.770
G0 X199.449 Y129.300
G0 X199.130 Y129.810
G0 X198.778 Y130.295
G0 X198.392 Y130.755
G0 X197.975 Y131.187
G0 X197.528 Y131.589
G0 X197.055 Y131.958
G0 X196.558 Y132.294
G0 X196.038 Y132.594
G0 X195.498 Y132.857
G0 X194.942 Y133.082
G0 X194.424 Y133.250
G0 X194.424 Y133.250
G0 X193.858 Y133.773
;segType:HShell
G0 X193.868 Y133.764
G1 X200.539 Y140.436 E36.2603 F2400
G0 X200.539 Y141.001 F5400
G1 X193.381 Y133.843 E36.5970 F2400
;segType:Perimeter
G0 X193.655 Y133.239 F5400
G1 X192.859 Y133.156 E36.6236 F1439
G1 X192.286 Y133.196 E36.6427
G1 X191.714 Y133.196 E36.6617
G1 X191.143 Y133.156 E36.6808
G1 X190.576 Y133.076 E36.6998
G1 X190.016 Y132.957 E36.7188
G1 X189.466 Y132.799 E36.7379
G1 X188.928 Y132.603 E36.7569
G1 X188.405 Y132.371 E36.7760
G1 X187.900 Y132.102 E36.7950
G1 X187.414 Y131.798 E36.8140
G1 X186.951 Y131.462 E36.8331
G1 X186.513 Y131.094 E36.8521
G1 X186.101 Y130.697 E36.8711
G1 X185.718 Y130.271 E36.8902
G1 X185.366 Y129.820 E36.9092
G1 X185.045 Y129.346 E36.9283
G1 X184.759 Y128.850 E36.9473
G1 X184.508 Y128.335 E36.9663
G1 X184.294 Y127.805 E36.9854
G1 X184.117 Y127.260 E37.0044
G1 X183.979 Y126.705 E37.0235
G1 X183.879 Y126.141 E37.0425
G1 X183.819 Y125.572 E37.0615
G1 X183.799 Y125.000 E37.0806
G1 X183.819 Y124.428 E37.0996
G1 X183.879 Y123.859 E37.1186
G1 X183.979 Y123.295 E37.1377
G1 X184.117 Y122.740 E37.1567
G1 X184.294 Y122.195 E37.1758
G1 X184.508 Y121.665 E37.1948
G1 X184.759 Y121.150 E37.2138
G1 X185.045 Y120.654 E37.2329
G1 X185.366 Y120.180 E37.2519
G1 X185.718 Y119.729 E37.2709
G1 X186.101 Y119.303 E37.2900
G1 X186.513 Y118.906 E37.3090
G1 X186.951 Y118.538 E37.3281
G1 X187.414 Y118.202 E37.3471
G1 X187.900 Y117.898 E37.3661
G1 X188.405 Y117.629 E37.3852
G1 X188.928 Y117.397 E37.4042
G1 X189.466 Y117.201 E37.4232
G1 X190.016 Y117.043 E37.4423
G1 X190.576 Y116.924 E37.4613
G1 X191.143 Y116.844 E37.4804
G1 X191.714 Y116.804 E37.4994
G1 X192.286 Y116.804 E37.5184
G1 X192.857 Y116.844 E37.5375
G1 X193.424 Y116.924 E37.5565
G1 X193.984 Y117.043 E37.5755
G1 X194.534 Y117.201 E37.5946
G1 X195.072 Y117.397 E37.6136
G1 X195.595 Y117.629 E37.6327
G1 X196.100 Y117.898 E37.6517
G1 X196.586 Y118.202 E37.6707
G1 X197.049 Y118.538 E37.6898
G1 X197.487 Y118.906 E37.7088
G1 X197.899 Y119.303 E37.7278
G1 X198.282 Y119.729 E37.7469
G1 X198.634 Y120.180 E37.7659
G1 X198.955 Y120.654 E37.7850
G1 X199.241 Y121.150 E37.8040
G1 X199.492 Y121.665 E37.8230
G1 X199.706 Y122.195 E37.8421
G1 X199.883 Y122.740 E37.8611
G1 X200.021 Y123.295 E37.8802
G1 X200.121 Y123.859 E37.8992
G1 X200.181 Y124.428 E37.9182
G1 X200.201 Y124.998 E37.9372
G1 X200.196 Y125.288 E37.9468
G1 X200.156 Y125.857 E37.9658
G1 X200.076 Y126.424 E37.9849
G1 X199.957 Y126.984 E38.0039
G1 X199.799 Y127.534 E38.0229
G1 X199.603 Y128.072 E38.0420
G1 X199.371 Y128.595 E38.0610
G1 X199.102 Y129.100 E38.0801
G1 X198.798 Y129.586 E38.0991
G1 X198.462 Y130.049 E38.1181
G1 X198.094 Y130.487 E38.1372
G1 X197.697 Y130.899 E38.1562
G1 X197.271 Y131.282 E38.1752
G1 X196.820 Y131.634 E38.1943
G1 X196.346 Y131.955 E38.2133
G1 X195.850 Y132.241 E38.2324
G1 X195.335 Y132.492 E38.2514
G1 X194.805 Y132.706 E38.2704
G1 X194.260 Y132.883 E38.2895
G1 X193.703 Y133.022 E38.3086
G1 X192.859 Y133.156 E38.3370
G0 X192.102 Y133.416 F5400
;segType:Loop
G0 X191.760 Y133.596
G1 X191.700 Y133.596 E38.3390 F2400
G1 X191.101 Y133.554 E38.3590
G1 X190.507 Y133.470 E38.3789
G1 X189.919 Y133.345 E38.3989
G1 X189.342 Y133.180 E38.4189
G1 X188.778 Y132.974 E38.4389
G1 X188.230 Y132.730 E38.4588
G1 X187.700 Y132.449 E38.4788
G1 X187.190 Y132.130 E38.4988
G1 X186.705 Y131.778 E38.5187
G1 X186.245 Y131.392 E38.5387
G1 X185.813 Y130.975 E38.5586
G1 X185.411 Y130.528 E38.5786
G1 X185.042 Y130.055 E38.5986
G1 X184.706 Y129.558 E38.6186
G1 X184.406 Y129.038 E38.6385
G1 X184.143 Y128.498 E38.6585
G1 X183.918 Y127.942 E38.6784
G1 X183.732 Y127.371 E38.6984
G1 X183.587 Y126.788 E38.7184
G1 X183.483 Y126.197 E38.7383
G1 X183.420 Y125.600 E38.7583
G1 X183.399 Y125.000 E38.7783
G1 X183.420 Y124.400 E38.7982
G1 X183.483 Y123.803 E38.8182
G1 X183.587 Y123.212 E38.8382
G1 X183.732 Y122.629 E38.8581
G1 X183.918 Y122.058 E38.8781
G1 X184.143 Y121.502 E38.8981
G1 X184.406 Y120.962 E38.9180
G1 X184.706 Y120.442 E38.9380
G1 X185.042 Y119.945 E38.9580
G1 X185.411 Y119.472 E38.9780
G1 X185.813 Y119.025 E38.9979
G1 X186.245 Y118.608 E39.0179
G1 X186.705 Y118.222 E39.0379
G1 X187.190 Y117.870 E39.0578
G1 X187.699 Y117.551 E39.0778
G1 X188.230 Y117.270 E39.0978
G1 X188.778 Y117.026 E39.1177
G1 X189.342 Y116.820 E39.1377
G1 X189.919 Y116.655 E39.1577
G1 X190.507 Y116.530 E39.1776
G1 X191.101 Y116.446 E39.1976
G1 X191.700 Y116.404 E39.2176
G1 X192.300 Y116.404 E39.2375
G1 X192.899 Y116.446 E39.2575
G1 X193.493 Y116.530 E39.2775
G1 X194.081 Y116.655 E39.2974
G1 X194.658 Y116.820 E39.3174
G1 X195.222 Y117.026 E39.3374
G1 X195.770 Y117.270 E39.3573
G1 X196.301 Y117.552 E39.3773
G1 X196.809 Y117.870 E39.3973
G1 X197.295 Y118.223 E39.4172
G1 X197.755 Y118.608 E39.4372
G1 X198.187 Y119.025 E39.4572
G1 X198.588 Y119.472 E39.4771
G1 X198.958 Y119.945 E39.4971
G1 X199.294 Y120.442 E39.5171
G1 X199.594 Y120.962 E39.5370
G1 X199.857 Y121.502 E39.5570
G1 X200.082 Y122.058 E39.5770
G1 X200.268 Y122.629 E39.5969
G1 X200.413 Y123.212 E39.6169
G1 X200.517 Y123.803 E39.6369
G1 X200.580 Y124.400 E39.6568
G1 X200.601 Y124.995 E39.6766
G1 X200.595 Y125.305 E39.6870
G1 X200.554 Y125.899 E39.7067
G1 X200.470 Y126.494 E39.7267
G1 X200.345 Y127.081 E39.7467
G1 X200.180 Y127.658 E39.7667
G1 X199.974 Y128.222 E39.7866
G1 X199.730 Y128.770 E39.8066
G1 X199.449 Y129.300 E39.8266
G1 X199.130 Y129.810 E39.8465
G1 X198.778 Y130.295 E39.8665
G1 X198.392 Y130.755 E39.8864
G1 X197.975 Y131.187 E39.9064
G1 X197.528 Y131.589 E39.9264
G1 X197.055 Y131.958 E39.9463
G1 X196.558 Y132.294 E39.9663
G1 X196.038 Y132.594 E39.9863
G1 X195.498 Y132.857 E40.0063
G1 X194.942 Y133.082 E40.0262
G1 X194.371 Y133.268 E40.0462
G1 X193.783 Y133.414 E40.0663
G1 X192.904 Y133.553 E40.0959
G1 X192.300 Y133.596 E40.1161
G1 X191.960 Y133.596 E40.1274
G0 X191.960 Y133.596 F5400
G0 X200.900 Y137.214
G0 X200.900 Y137.214
G0 X200.900 Y133.900
G0 X209.100 Y133.900
G0 X209.100 Y140.534
G0 X209.100 Y140.534
G0 X211.052 Y141.324
;segType:HShell
G0 X211.039 Y141.319
G1 X209.461 Y139.740 E40.2016 F2400
G0 X209.461 Y140.306 F5400
G1 X211.039 Y141.885 E40.2759 F2400
G0 X211.039 Y142.450 F5400
G1 X209.461 Y140.871 E40.3502 F2400
G0 X209.461 Y141.437 F5400
G1 X211.039 Y143.016 E40.4244 F2400
G0 X211.039 Y143.582 F5400
G1 X209.461 Y142.003 E40.4987 F2400
;segType:Perimeter
G0 X209.500 Y141.700 F5400
G1 X208.700 Y141.700 E40.5253 F1439
G1 X201.300 Y141.700 E40.7715
G1 X201.300 Y134.300 E41.0176
G1 X208.700 Y134.300 E41.2638
G1 X208.700 Y141.700 E41.5099
G0 X208.700 Y142.500 F5400
;segType:Loop
G0 X207.600 Y142.101
G1 X200.900 Y142.101 E41.7328 F2400
G1 X200.900 Y133.900 E42.0056
G1 X209.100 Y133.900 E42.2783
G1 X209.100 Y142.101 E42.5511
G1 X207.800 Y142.101 E42.5943
G0 X207.800 Y142.101 F5400
G0 X200.900 Y142.101
G0 X200.900 Y134.263
G0 X200.900 Y134.263
G0 X198.088 Y131.070
G0 X198.088 Y131.070
G0 X198.392 Y130.755
G0 X198.778 Y130.295
G0 X199.130 Y129.810
G0 X199.449 Y129.300
G0 X199.730 Y128.770
G0 X199.974 Y128.222
G0 X200.180 Y127.658
G0 X200.345 Y127.081
G0 X200.470 Y126.494
G0 X200.554 Y125.899
G0 X200.595 Y125.305
G0 X200.601 Y124.995
G0 X200.580 Y124.400
G0 X200.517 Y123.803
G0 X200.413 Y123.212
G0 X200.268 Y122.629
G0 X200.082 Y122.058
G0 X199.857 Y121.502
G0 X199.594 Y120.962
G0 X199.294 Y120.442
G0 X198.958 Y119.945
G0 X198.588 Y119.472
G0 X198.187 Y119.025
G0 X197.755 Y118.608
G0 X197.295 Y118.223
G0 X196.809 Y117.870
G0 X196.301 Y117.552
G0 X195.770 Y117.270
G0 X195.222 Y117.026
G0 X194.658 Y116.820
G0 X194.081 Y116.655
G0 X193.493 Y116.530
G0 X192.899 Y116.446
G0 X192.300 Y116.404
G0 X191.700 Y116.404
G0 X191.101 Y116.446
G0 X190.507 Y116.530
G0 X189.919 Y116.655
G0 X189.342 Y116.820
G0 X188.778 Y117.026
G0 X188.230 Y117.270
G0 X187.699 Y117.551
G0 X187.190 Y117.870
G0 X186.748 Y118.191
G0 X186.748 Y118.191
G0 X186.500 Y117.910
;segType:HShell
G0 X186.509 Y117.920
G1 X183.461 Y114.871 E42.7377 F2400
G0 X183.461 Y115.437 F5400
G1 X186.200 Y118.176 E42.8665 F2400
G0 X185.899 Y118.442 F5400
G1 X183.461 Y116.003 E42.9813 F2400
;segType:Perimeter
G0 X183.500 Y115.700 F5400
G1 X182.700 Y115.700 E43.0079 F1439
G1 X175.300 Y115.700 E43.2540
G1 X175.300 Y108.300 E43.5002
G1 X182.700 Y108.300 E43.7463
G1 X182.700 Y115.700 E43.9925
G0 X182.700 Y116.500 F5400
;segType:Loop
G0 X181.600 Y116.100
G1 X174.900 Y116.100 E44.2154 F2400
G1 X174.900 Y107.900 E44.4881
G1 X183.100 Y107.900 E44.7609
G1 X183.100 Y116.100 E45.0336
G1 X181.800 Y116.100 E45.0769
;segType:HShell
G0 X183.353 Y116.461 F5400
G1 X185.611 Y118.719 E45.1831 F2400
G0 X185.340 Y119.013 F5400
G1 X182.787 Y116.461 E45.3032 F2400
G0 X182.221 Y116.461 F5400
G1 X185.076 Y119.316 E45.4375 F2400
G0 X184.828 Y119.633 F5400
G1 X181.656 Y116.461 E45.5867 F2400
G0 X181.090 Y116.461 F5400
G1 X184.594 Y119.965 E45.7515 F2400
G0 X184.369 Y120.305 F5400
G1 X180.524 Y116.461 E45.9324 F2400
G0 X179.959 Y116.461 F5400
G1 X184.162 Y120.664 E46.1301 F2400
G0 X183.969 Y121.037 F5400
G1 X179.393 Y116.461 E46.3454 F2400
G0 X178.827 Y116.461 F5400
G1 X183.787 Y121.421 E46.5787 F2400
G0 X183.624 Y121.823 F5400
G1 X178.261 Y116.461 E46.8309 F2400
G0 X177.696 Y116.461 F5400
G1 X183.479 Y122.244 E47.1029 F2400
G0 X183.349 Y122.679 F5400
G1 X177.130 Y116.461 E47.3954 F2400
G0 X176.564 Y116.461 F5400
G1 X183.236 Y123.132 E47.7092 F2400
G0 X183.151 Y123.613 F5400
G1 X175.999 Y116.461 E48.0457 F2400
G0 X175.433 Y116.461 F5400
G1 X183.088 Y124.115 E48.4057 F2400
G0 X182.446 Y124.040 F5400
G1 X174.867 Y116.461 E48.7622 F2400
G0 X172.961 Y123.605 F5400
G1 X173.395 Y124.039 E48.7827 F2400
G0 X173.961 Y124.039 F5400
G1 X172.961 Y123.039 E48.8297 F2400
G0 X172.961 Y122.473 F5400
G1 X174.527 Y124.039 E48.9034 F2400
G0 X175.092 Y124.039 F5400
G1 X172.961 Y121.908 E49.0037 F2400
G0 X172.961 Y121.342 F5400
G1 X175.658 Y124.039 E49.1305 F2400
G0 X176.224 Y124.039 F5400
G1 X172.961 Y120.776 E49.2840 F2400
G0 X172.961 Y120.211 F5400
G1 X176.789 Y124.039 E49.4641 F2400
G0 X177.355 Y124.039 F5400
G1 X172.961 Y119.645 E49.6708 F2400
G0 X172.961 Y119.079 F5400
G1 X177.921 Y124.039 E49.9042 F2400
G0 X178.487 Y124.039 F5400
G1 X172.961 Y118.514 E50.1641 F2400
G0 X172.961 Y117.948 F5400
G1 X179.052 Y124.039 E50.4506 F2400
G0 X179.618 Y124.039 F5400
G1 X172.961 Y117.382 E50.7638 F2400
G0 X172.961 Y116.816 F5400
G1 X180.184 Y124.039 E51.1035 F2400
G0 X180.749 Y124.040 F5400
G1 X172.961 Y116.251 E51.4699 F2400
G0 X172.961 Y115.685 F5400
G1 X181.315 Y124.039 E51.8628 F2400
G0 X181.881 Y124.040 F5400
G1 X172.961 Y115.119 E52.2824 F2400
G0 X172.961 Y114.554 F5400
G1 X174.539 Y116.133 E52.3567 F2400
G0 X174.539 Y115.567 F5400
G1 X172.961 Y113.988 E52.4309 F2400
G0 X172.961 Y113.422 F5400
G1 X174.539 Y115.001 E52.5052 F2400
G0 X174.539 Y114.436 F5400
G1 X172.961 Y112.857 E52.5795 F2400
G0 X172.961 Y112.291 F5400
G1 X174.539 Y113.870 E52.6537 F2400
G0 X174.539 Y113.304 F5400
G1 X172.961 Y111.725 E52.7280 F2400
G0 X172.961 Y111.160 F5400
G1 X174.539 Y112.738 E52.8023 F2400
G0 X174.539 Y112.173 F5400
G1 X172.961 Y110.594 E52.8765 F2400
G0 X172.961 Y110.028 F5400
G1 X174.539 Y111.607 E52.9508 F2400
G0 X174.539 Y111.041 F5400
G1 X172.961 Y109.463 E53.0250 F2400
G0 X172.961 Y108.897 F5400
G1 X174.539 Y110.476 E53.0993 F2400
G0 X174.539 Y109.910 F5400
G1 X172.961 Y108.331 E53.1736 F2400
G0 X172.961 Y107.766 F5400
G1 X174.539 Y109.344 E53.2478 F2400
G0 X174.539 Y108.779 F5400
G1 X172.961 Y107.200 E53.3221 F2400
G0 X172.961 Y106.634 F5400
G1 X174.539 Y108.213 E53.3964 F2400
G0 X174.539 Y107.647 F5400
G1 X172.961 Y106.068 E53.4706 F2400
G0 X173.418 Y105.961 F5400
G1 X174.997 Y107.539 E53.5449 F2400
G0 X175.563 Y107.539 F5400
G1 X173.984 Y105.961 E53.6192 F2400
G0 X174.550 Y105.961 F5400
G1 X176.129 Y107.539 E53.6934 F2400
G0 X176.694 Y107.539 F5400
G1 X175.115 Y105.961 E53.7677 F2400
G0 X175.681 Y105.961 F5400
G1 X177.260 Y107.539 E53.8420 F2400
G0 X177.826 Y107.539 F5400
G1 X176.247 Y105.961 E53.9162 F2400
G0 X176.812 Y105.961 F5400
G1 X178.391 Y107.539 E53.9905 F2400
G0 X178.957 Y107.539 F5400
G1 X177.378 Y105.961 E54.0647 F2400
G0 X177.944 Y105.961 F5400
G1 X179.523 Y107.539 E54.1390 F2400
G0 X180.088 Y107.539 F5400
G1 X178.510 Y105.961 E54.2133 F2400
G0 X179.075 Y105.961 F5400
G1 X180.654 Y107.539 E54.2875 F2400
G0 X181.220 Y107.539 F5400
G1 X179.641 Y105.961 E54.3618 F2400
G0 X180.207 Y105.961 F5400
G1 X181.785 Y107.539 E54.4361 F2400
G0 X182.351 Y107.539 F5400
G1 X180.772 Y105.961 E54.5103 F2400
G0 X181.338 Y105.961 F5400
G1 X182.917 Y107.539 E54.5846 F2400
G0 X191.039 Y106.611 F5400
G1 X190.389 Y105.961 E54.6152 F2400
G0 X189.823 Y105.961 F5400
G1 X191.039 Y107.177 E54.6724 F2400
G0 X191.039 Y107.743 F5400
G1 X189.258 Y105.961 E54.7562 F2400
G0 X188.692 Y105.961 F5400
G1 X191.039 Y108.308 E54.8667 F2400
G0 X191.039 Y108.874 F5400
G1 X188.126 Y105.961 E55.0037 F2400
G0 X187.560 Y105.961 F5400
G1 X191.039 Y109.440 E55.1673 F2400
G0 X191.039 Y110.005 F5400
G1 X186.995 Y105.961 E55.3576 F2400
G0 X186.429 Y105.961 F5400
G1 X191.039 Y110.571 E55.5744 F2400
G0 X191.039 Y111.137 F5400
G1 X185.863 Y105.961 E55.8179 F2400
G0 X185.298 Y105.961 F5400
G1 X191.039 Y111.702 E56.0880 F2400
G0 X191.039 Y112.268 F5400
G1 X184.732 Y105.961 E56.3847 F2400
G0 X184.166 Y105.961 F5400
G1 X191.039 Y112.834 E56.7079 F2400
G0 X191.039 Y113.399 F5400
G1 X183.601 Y105.961 E57.0578 F2400
G0 X183.035 Y105.961 F5400
G1 X191.039 Y113.965 E57.4343 F2400
G0 X191.039 Y114.531 F5400
G1 X182.469 Y105.961 E57.8375 F2400
G0 X181.904 Y105.961 F5400
G1 X191.039 Y115.096 E58.2672 F2400
G0 X191.039 Y115.662 F5400
G1 X183.461 Y108.083 E58.6237 F2400
G0 X183.461 Y108.649 F5400
G1 X190.920 Y116.108 E58.9745 F2400
G0 X190.425 Y116.179 F5400
G1 X183.461 Y109.215 E59.3021 F2400
G0 X183.461 Y109.780 F5400
G1 X189.958 Y116.278 E59.6078 F2400
G0 X189.512 Y116.397 F5400
G1 X183.461 Y110.346 E59.8924 F2400
G0 X183.461 Y110.912 F5400
G1 X189.081 Y116.532 E60.1567 F2400
G0 X188.666 Y116.683 F5400
G1 X183.461 Y111.477 E60.4016 F2400
G0 X183.461 Y112.043 F5400
G1 X188.274 Y116.856 E60.6280 F2400
G0 X187.893 Y117.041 F5400
G1 X183.461 Y112.609 E60.8365 F2400
G0 X183.461 Y113.174 F5400
G1 X187.523 Y117.237 E61.0276 F2400
G0 X187.175 Y117.455 F5400
G1 X183.461 Y113.740 E61.2023 F2400
G0 X183.461 Y114.306 F5400
G1 X186.837 Y117.682 E61.3611 F2400
G0 X186.992 Y118.014 F5400
G0 X186.705 Y118.222
G0 X186.245 Y118.608
G0 X185.813 Y119.025
G0 X185.411 Y119.472
G0 X185.042 Y119.945
G0 X184.706 Y120.442
G0 X184.406 Y120.962
G0 X184.143 Y121.502
G0 X183.918 Y122.058
G0 X183.732 Y122.629
G0 X183.587 Y123.212
G0 X183.483 Y123.803
G0 X183.420 Y124.400
G0 X183.399 Y125.000
G0 X183.420 Y125.600
G0 X183.483 Y126.197
G0 X183.587 Y126.788
G0 X183.732 Y127.371
G0 X183.918 Y127.942
G0 X184.143 Y128.498
G0 X184.406 Y129.038
G0 X184.706 Y129.558
G0 X185.042 Y130.055
G0 X185.411 Y130.528
G0 X185.813 Y130.975
G0 X186.245 Y131.392
G0 X186.705 Y131.778
G0 X187.190 Y132.130
G0 X187.700 Y132.449
G0 X188.230 Y132.730
G0 X188.778 Y132.974
G0 X189.342 Y133.180
G0 X189.919 Y133.345
G0 X190.507 Y133.470
G0 X191.101 Y133.554
G0 X191.700 Y133.596
G0 X192.300 Y133.596
G0 X192.904 Y133.553
G0 X193.783 Y133.414
G0 X194.165 Y133.319
G0 X194.165 Y133.319
G0 X194.326 Y133.663
G0 X194.321 Y133.651
G1 X200.539 Y139.870 E61.6536 F2400
G0 X200.539 Y139.304 F5400
G1 X194.756 Y133.521 E61.9256 F2400
G0 X195.177 Y133.376 F5400
G1 X200.539 Y138.739 E62.1779 F2400
G0 X200.539 Y138.173 F5400
G1 X195.579 Y133.213 E62.4112 F2400
G0 X195.963 Y133.031 F5400
G1 X200.539 Y137.607 E62.6264 F2400
G0 X200.539 Y137.041 F5400
G1 X196.336 Y132.838 E62.8242 F2400
G0 X196.695 Y132.631 F5400
G1 X200.539 Y136.476 E63.0050 F2400
G0 X200.539 Y135.910 F5400
G1 X197.035 Y132.406 E63.1698 F2400
G0 X197.367 Y132.172 F5400
G1 X200.539 Y135.344 E63.3191 F2400
G0 X200.539 Y134.779 F5400
G1 X197.684 Y131.924 E63.4534 F2400
G0 X197.987 Y131.660 F5400
G1 X200.539 Y134.213 E63.5734 F2400
G0 X200.539 Y133.647 F5400
G1 X198.281 Y131.389 E63.6797 F2400
G0 X198.559 Y131.101 F5400
G1 X200.997 Y133.539 E63.7944 F2400
G0 X201.563 Y133.539 F5400
G1 X198.824 Y130.800 E63.9232 F2400
G0 X199.080 Y130.491 F5400
G1 X202.129 Y133.539 E64.0666 F2400
G0 X202.694 Y133.539 F5400
G1 X199.318 Y130.163 E64.2254 F2400
G0 X199.545 Y129.825 F5400
G1 X203.260 Y133.539 E64.4001 F2400
G0 X203.826 Y133.539 F5400
G1 X199.763 Y129.477 E64.5912 F2400
G0 X199.959 Y129.107 F5400
G1 X204.391 Y133.539 E64.7997 F2400
G0 X204.957 Y133.539 F5400
G1 X200.144 Y128.726 E65.0261 F2400
G0 X200.317 Y128.334 F5400
G1 X205.523 Y133.539 E65.2710 F2400
G0 X206.088 Y133.539 F5400
G1 X200.468 Y127.919 E65.5353 F2400
G0 X200.603 Y127.488 F5400
G1 X206.654 Y133.539 E65.8199 F2400
G0 X207.220 Y133.539 F5400
G1 X200.722 Y127.042 E66.1256 F2400
G0 X200.821 Y126.575 F5400
G1 X207.785 Y133.539 E66.4532 F2400
G0 X208.351 Y133.539 F5400
G1 X200.892 Y126.080 E66.8040 F2400
G0 X201.338 Y125.961 F5400
G1 X208.917 Y133.539 E67.1605 F2400
G0 X211.039 Y126.611 F5400
G1 X210.389 Y125.961 E67.1911 F2400
G0 X209.823 Y125.961 F5400
G1 X211.039 Y127.177 E67.2483 F2400
G0 X211.039 Y127.742 F5400
G1 X209.258 Y125.961 E67.3321 F2400
G0 X208.692 Y125.961 F5400
G1 X211.039 Y128.308 E67.4426 F2400
G0 X211.039 Y128.874 F5400
G1 X208.126 Y125.961 E67.5796 F2400
G0 X207.560 Y125.961 F5400
G1 X211.039 Y129.440 E67.7433 F2400
G0 X211.039 Y130.005 F5400
G1 X206.995 Y125.961 E67.9335 F2400
G0 X206.429 Y125.961 F5400
G1 X211.039 Y130.571 E68.1504 F2400
G0 X211.039 Y131.137 F5400
G1 X205.863 Y125.961 E68.3938 F2400
G0 X205.298 Y125.961 F5400
G1 X211.039 Y131.702 E68.6639 F2400
G0 X211.039 Y132.268 F5400
G1 X204.732 Y125.961 E68.9606 F2400
G0 X204.166 Y125.961 F5400
G1 X211.039 Y132.834 E69.2839 F2400
G0 X211.039 Y133.399 F5400
G1 X203.601 Y125.961 E69.6338 F2400
G0 X203.035 Y125.961 F5400
G1 X211.039 Y133.965 E70.0103 F2400
G0 X211.039 Y134.531 F5400
G1 X202.469 Y125.961 E70.4134 F2400
G0 X201.904 Y125.961 F5400
G1 X211.039 Y135.096 E70.8431 F2400
G0 X211.039 Y135.662 F5400
G1 X209.461 Y134.083 E70.9174 F2400
G0 X209.461 Y134.649 F5400
G1 X211.039 Y136.228 E70.9916 F2400
G0 X211.039 Y136.793 F5400
G1 X209.461 Y135.215 E71.0659 F2400
G0 X209.461 Y135.780 F5400
G1 X211.039 Y137.359 E71.1402 F2400
G0 X211.039 Y137.925 F5400
G1 X209.461 Y136.346 E71.2144 F2400
G0 X209.461 Y136.912 F5400
G1 X211.039 Y138.491 E71.2887 F2400
G0 X211.039 Y139.056 F5400
G1 X209.461 Y137.477 E71.3629 F2400
G0 X209.461 Y138.043 F5400
G1 X211.039 Y139.622 E71.4372 F2400
G0 X211.039 Y140.188 F5400
G1 X209.461 Y138.609 E71.5115 F2400
G0 X209.461 Y139.174 F5400
G1 X211.039 Y140.753 E71.5857 F2400
G0 X209.353 Y142.461 F5400
G1 X210.932 Y144.039 E71.6600 F2400
G0 X210.366 Y144.039 F5400
G1 X208.787 Y142.461 E71.7343 F2400
G0 X208.221 Y142.461 F5400
G1 X209.800 Y144.039 E71.8085 F2400
G0 X209.235 Y144.039 F5400
G1 X207.656 Y142.461 E71.8828 F2400
G0 X207.090 Y142.461 F5400
G1 X208.669 Y144.039 E71.9571 F2400
G0 X208.103 Y144.039 F5400
G1 X206.524 Y142.461 E72.0313 F2400
G0 X205.959 Y142.461 F5400
G1 X207.537 Y144.039 E72.1056 F2400
G0 X206.972 Y144.039 F5400
G1 X205.393 Y142.461 E72.1799 F2400
G0 X204.827 Y142.461 F5400
G1 X206.406 Y144.039 E72.2541 F2400
G0 X205.840 Y144.039 F5400
G1 X204.262 Y142.461 E72.3284 F2400
G0 X203.696 Y142.461 F5400
G1 X205.275 Y144.039 E72.4027 F2400
G0 X204.709 Y144.039 F5400
G1 X203.130 Y142.461 E72.4769 F2400
G0 X202.564 Y142.461 F5400
G1 X204.143 Y144.039 E72.5512 F2400
G0 X203.578 Y144.039 F5400
G1 X201.999 Y142.461 E72.6254 F2400
G0 X201.433 Y142.461 F5400
G1 X203.012 Y144.039 E72.6997 F2400
G0 X202.446 Y144.039 F5400
G1 X200.867 Y142.461 E72.7740 F2400
G0 X192.961 Y143.605 F5400
G1 X193.395 Y144.039 E72.7944 F2400
G0 X193.961 Y144.039 F5400
G1 X192.961 Y143.039 E72.8415 F2400
G0 X192.961 Y142.473 F5400
G1 X194.527 Y144.039 E72.9152 F2400
G0 X195.092 Y144.039 F5400
G1 X192.961 Y141.908 E73.0154 F2400
G0 X192.961 Y141.342 F5400
G1 X195.658 Y144.039 E73.1423 F2400
G0 X196.224 Y144.039 F5400
G1 X192.961 Y140.776 E73.2958 F2400
G0 X192.961 Y140.211 F5400
G1 X196.789 Y144.039 E73.4759 F2400
G0 X197.355 Y144.039 F5400
G1 X192.961 Y139.645 E73.6826 F2400
G0 X192.961 Y139.079 F5400
G1 X197.921 Y144.039 E73.9159 F2400
G0 X198.486 Y144.039 F5400
G1 X192.961 Y138.514 E74.1759 F2400
G0 X192.961 Y137.948 F5400
G1 X199.052 Y144.039 E74.4624 F2400
G0 X199.618 Y144.039 F5400
G1 X192.961 Y137.382 E74.7755 F2400
G0 X192.961 Y136.816 F5400
G1 X200.184 Y144.039 E75.1153 F2400
G0 X200.749 Y144.039 F5400
G1 X192.961 Y136.251 E75.4816 F2400
G0 X192.961 Y135.685 F5400
G1 X201.315 Y144.039 E75.8746 F2400
G0 X201.881 Y144.039 F5400
G1 X192.961 Y135.119 E76.2942 F2400
G0 X192.961 Y134.554 F5400
G1 X200.539 Y142.133 E76.6507 F2400
G0 X200.539 Y141.567 F5400
G1 X192.948 Y133.975 E77.0078 F2400
;segType:InnerHair
G0 X192.714 Y133.996 F5400
G1 X192.600 Y133.998 E77.0120 F2400
G1 X192.486 Y134.000 E77.0161
G1 X192.371 Y134.002 E77.0201
G1 X192.257 Y134.002 E77.0240
G1 X192.143 Y134.000 E77.0279
G1 X192.029 Y133.998 E77.0317
G1 X191.914 Y133.996 E77.0355
G1 X191.800 Y133.994 E77.0393
G1 X191.686 Y133.992 E77.0430
G1 X191.571 Y133.986 E77.0468
G1 X191.457 Y133.980 E77.0506
G1 X191.343 Y133.973 E77.0544
G1 X191.229 Y133.963 E77.0582
G1 X191.114 Y133.953 E77.0620
G1 X191.000 Y133.941 E77.0658
G1 X190.886 Y133.927 E77.0696
G1 X190.771 Y133.913 E77.0734
G1 X190.657 Y133.895 E77.0773
G1 X190.543 Y133.877 E77.0811
G1 X190.429 Y133.859 E77.0849
G1 X190.314 Y133.837 E77.0887
G1 X190.200 Y133.814 E77.0926
G1 X190.086 Y133.791 E77.0965
G1 X189.971 Y133.764 E77.1004
G1 X189.857 Y133.739 E77.1042
G1 X189.743 Y133.708 E77.1081
G1 X189.629 Y133.678 E77.1120
G1 X189.514 Y133.647 E77.1160
G1 X189.400 Y133.612 E77.1199
G1 X189.286 Y133.577 E77.1239
G1 X189.171 Y133.540 E77.1278
G1 X189.057 Y133.501 E77.1318
G1 X188.943 Y133.462 E77.1358
G1 X188.829 Y133.419 E77.1399
G1 X188.714 Y133.375 E77.1439
G0 X188.600 Y133.330 F5400
G0 X188.486 Y133.281
G0 X188.371 Y133.233
G1 X188.406 Y133.250 E77.1452 F2400
G1 X188.296 Y133.199 E77.1493
G1 X188.185 Y133.147 E77.1533
G1 X188.075 Y133.096 E77.1573
G1 X187.968 Y133.042 E77.1613
G1 X187.860 Y132.987 E77.1653
G1 X187.754 Y132.932 E77.1693
G1 X187.650 Y132.874 E77.1732
G1 X187.546 Y132.817 E77.1771
G1 X187.444 Y132.757 E77.1810
G1 X187.343 Y132.697 E77.1849
G1 X187.242 Y132.636 E77.1889
G1 X187.144 Y132.573 E77.1927
G1 X187.046 Y132.509 E77.1966
G1 X186.948 Y132.445 E77.2004
G1 X186.853 Y132.378 E77.2042
G1 X186.758 Y132.312 E77.2081
G1 X186.665 Y132.244 E77.2120
G1 X186.572 Y132.174 E77.2158
G1 X186.480 Y132.105 E77.2195
G1 X186.390 Y132.033 E77.2233
G1 X186.301 Y131.961 E77.2272
G1 X186.212 Y131.888 E77.2310
G1 X186.125 Y131.813 E77.2348
G1 X186.039 Y131.738 E77.2386
G1 X185.953 Y131.662 E77.2423
G1 X185.870 Y131.584 E77.2461
G1 X185.786 Y131.506 E77.2499
G1 X185.704 Y131.426 E77.2537
G1 X185.623 Y131.345 E77.2575
G1 X185.542 Y131.265 E77.2612
G1 X185.464 Y131.181 E77.2650
G1 X185.386 Y131.098 E77.2688
G1 X185.308 Y131.014 E77.2726
G1 X185.233 Y130.927 E77.2765
G1 X185.158 Y130.841 E77.2802
G1 X185.084 Y130.754 E77.2840
G1 X185.011 Y130.664 E77.2878
G1 X184.939 Y130.575 E77.2916
G1 X184.868 Y130.484 E77.2955
G1 X184.799 Y130.392 E77.2993
G1 X184.729 Y130.300 E77.3030
G1 X184.663 Y130.205 E77.3069
G1 X184.596 Y130.110 E77.3107
G1 X184.530 Y130.015 E77.3146
G1 X184.466 Y129.916 E77.3185
G1 X184.403 Y129.818 E77.3223
G1 X184.340 Y129.719 E77.3262
G1 X184.280 Y129.618 E77.3301
G1 X184.219 Y129.517 E77.3340
G1 X184.161 Y129.414 E77.3380
G1 X184.103 Y129.310 E77.3419
G1 X184.046 Y129.205 E77.3458
G1 X183.992 Y129.098 E77.3497
G1 X183.937 Y128.991 E77.3538
G1 X183.882 Y128.884 E77.3578
G1 X183.833 Y128.772 E77.3619
G0 X183.781 Y128.662 F5400
G0 X183.733 Y128.548
G0 X183.685 Y128.435
G0 X183.637 Y128.321
G1 X183.653 Y128.357 E77.3632 F2400
G1 X183.609 Y128.243 E77.3672
G1 X183.565 Y128.129 E77.3712
G1 X183.521 Y128.014 E77.3752
G1 X183.484 Y127.900 E77.3792
G1 X183.445 Y127.786 E77.3833
G1 X183.410 Y127.671 E77.3872
G1 X183.375 Y127.557 E77.3911
G1 X183.340 Y127.443 E77.3950
G1 X183.311 Y127.329 E77.3989
G1 X183.279 Y127.214 E77.4029
G1 X183.252 Y127.100 E77.4068
G1 X183.226 Y126.986 E77.4107
G1 X183.199 Y126.871 E77.4145
G1 X183.177 Y126.757 E77.4184
G1 X183.155 Y126.643 E77.4223
G1 X183.134 Y126.529 E77.4261
G1 X183.116 Y126.414 E77.4300
G1 X183.098 Y126.300 E77.4338
G1 X183.082 Y126.186 E77.4375
G1 X183.068 Y126.071 E77.4414
G1 X183.053 Y125.957 E77.4452
G1 X183.043 Y125.843 E77.4490
G1 X183.033 Y125.729 E77.4528
G1 X183.023 Y125.614 E77.4566
G1 X183.018 Y125.500 E77.4603
G1 X183.012 Y125.386 E77.4642
G1 X183.007 Y125.271 E77.4680
G1 X183.004 Y125.157 E77.4718
G1 X183.001 Y125.043 E77.4756
G1 X183.000 Y124.929 E77.4794
G1 X183.001 Y124.814 E77.4833
G1 X183.002 Y124.700 E77.4872
G1 X183.003 Y124.586 E77.4912
G1 X183.004 Y124.471 E77.4953
G1 X183.006 Y124.357 E77.4994
G1 X183.011 Y124.243 E77.5036
G0 X183.006 Y124.357 F5400
G0 X183.004 Y124.471
G0 X183.000 Y124.929
G0 X183.001 Y125.043
G0 X183.007 Y125.271
G0 X183.012 Y125.386
G0 X183.018 Y125.500
G0 X183.023 Y125.614
G0 X183.053 Y125.957
G0 X183.068 Y126.071
G0 X183.082 Y126.186
G0 X183.098 Y126.300
G0 X183.134 Y126.529
G0 X183.155 Y126.643
G0 X183.199 Y126.871
G0 X183.279 Y127.214
G0 X183.311 Y127.329
G0 X183.340 Y127.443
G0 X183.445 Y127.786
G0 X183.484 Y127.900
G0 X183.521 Y128.014
G0 X183.653 Y128.357
G1 X183.701 Y128.471 E77.5078 F2400
G0 X183.833 Y128.772 F5400
G0 X183.882 Y128.884
G0 X184.046 Y129.205
G0 X184.103 Y129.310
G0 X184.161 Y129.414
G0 X184.219 Y129.517
G0 X184.340 Y129.719
G0 X184.403 Y129.818
G0 X184.466 Y129.916
G0 X184.530 Y130.015
G0 X184.729 Y130.300
G0 X184.799 Y130.392
G0 X184.868 Y130.484
G0 X184.939 Y130.575
G0 X185.084 Y130.754
G0 X185.158 Y130.841
G0 X185.233 Y130.927
G0 X185.308 Y131.014
G0 X185.464 Y131.181
G0 X185.542 Y131.265
G0 X185.704 Y131.426
G0 X185.786 Y131.506
G0 X185.953 Y131.662
G0 X186.039 Y131.738
G0 X186.212 Y131.888
G0 X186.301 Y131.961
G0 X186.390 Y132.033
G0 X186.480 Y132.105
G0 X186.665 Y132.244
G0 X186.758 Y132.312
G0 X186.853 Y132.378
G0 X186.948 Y132.445
G0 X187.242 Y132.636
G0 X187.343 Y132.697
G0 X187.444 Y132.757
G0 X187.546 Y132.817
G0 X187.754 Y132.932
G0 X187.860 Y132.987
G0 X187.968 Y133.042
G0 X188.075 Y133.096
G0 X188.406 Y133.250
G1 X188.521 Y133.296 E77.5119 F2400
M106 S0 T0 ;turn off fan 1
T1 X167.194 Y103.984 Z0.200 F5400
M106 S0 T1 ;turn off fan 2
G92 E0 ;reset extr
;segType:Skirt
G1 X170.869 Y100.309 E0.1729 F2400
G1 X178.744 Y100.309 E0.4348
G1 X179.203 Y100.244 E0.4502
G1 X179.203 Y81.081 E1.0876
G1 X180.778 Y79.506 E1.1616
G1 X181.106 Y79.309 E1.1744
G1 X202.894 Y79.309 E1.8990
G1 X204.469 Y80.884 E1.9731
G1 X204.666 Y81.213 E1.9859
G1 X204.666 Y82.788 E2.0382
G1 X204.600 Y83.247 E2.0537
G1 X204.403 Y83.575 E2.0664
G1 X204.403 Y87.775 E2.2061
G1 X204.535 Y88.169 E2.2199
G1 X204.535 Y94.469 E2.4294
G1 X204.666 Y94.600 E2.4356
G1 X204.666 Y99.850 E2.6102
G1 X204.731 Y100.309 E2.6256
G1 X212.606 Y100.309 E2.8876
G1 X213.066 Y100.375 E2.9030
G1 X216.741 Y104.050 E3.0759
G1 X216.741 Y145.525 E4.4553
G1 X216.675 Y145.985 E4.4708
G1 X212.869 Y149.791 E4.6498
G1 X171.000 Y149.791 E6.0424
G1 X170.803 Y149.594 E6.0517
G0 F3000 E5.0517
G0 F1200 Z1.200
G0 X166.865 Y103.919 F5400
G0 F1200 Z0.200
G0 F3000 E6.0517
G1 X170.803 Y99.981 E6.2369 F2400
G1 X171.263 Y99.915 E6.2523
G1 X178.613 Y99.915 E6.4968
G1 X178.809 Y99.850 E6.5037
G1 X178.809 Y81.475 E7.1148
G1 X178.875 Y81.015 E7.1303
G1 X180.975 Y78.915 E7.2290
G1 X202.500 Y78.915 E7.9450
G1 X202.960 Y78.981 E7.9604
G1 X205.060 Y81.081 E8.0592
G1 X205.060 Y83.181 E8.1290
G1 X204.797 Y83.444 E8.1414
G1 X204.797 Y87.906 E8.2898
G1 X204.928 Y88.038 E8.2960
G1 X204.928 Y94.338 E8.5055
G1 X205.060 Y94.731 E8.5193
G1 X205.060 Y99.456 E8.6765
G1 X205.125 Y99.915 E8.6919
G1 X213.000 Y99.915 E8.9538
G1 X216.938 Y103.853 E9.1390
G1 X217.135 Y104.181 E9.1518
G1 X217.135 Y105.888 E9.2085
G0 X217.135 Y106.019 F5400
G1 X217.135 Y145.919 E10.5356 F2400
G1 X212.935 Y150.119 E10.7331
G1 X212.475 Y150.185 E10.7486
G1 X171.000 Y150.185 E12.1281
G1 X166.734 Y145.919 E12.3287
G1 X166.734 Y104.444 E13.7082
G1 X166.800 Y103.984 E13.7236
G0 X166.406 Y103.984 F5400
G1 X170.869 Y99.522 E13.9335 F2400
G1 X178.219 Y99.522 E14.1780
G1 X178.415 Y99.456 E14.1849
G1 X178.415 Y81.081 E14.7960
G1 X180.778 Y78.719 E14.9072
G1 X181.106 Y78.522 E14.9199
G1 X202.894 Y78.522 E15.6445
G1 X205.256 Y80.884 E15.7557
G1 X205.453 Y81.213 E15.7684
G1 X205.453 Y82.788 E15.8208
G1 X205.388 Y83.247 E15.8362
G1 X205.191 Y83.575 E15.8490
G1 X205.191 Y87.775 E15.9886
G1 X205.322 Y88.169 E16.0025
G1 X205.322 Y94.469 E16.2120
G1 X205.388 Y94.535 E16.2151
;segType:Pillar
G0 F3000 E15.2151
G0 F1200 Z1.200
G0 X202.000 Y82.000 F5400
G0 F1200 Z0.200
G0 F3000 E16.2151
G1 X182.000 Y82.000 E16.9468 F2400
G1 X182.000 Y102.000 E17.6785
G1 X202.000 Y102.000 E18.4103
G1 X201.600 Y82.400 E19.1275
G1 X182.400 Y82.400 E19.8300
G1 X182.400 Y101.600 E20.5324
G1 X201.600 Y101.600 E21.2349
G1 X201.200 Y82.800 E21.9228
G1 X182.800 Y82.800 E22.5960
G1 X182.800 Y101.200 E23.2692
G1 X201.200 Y101.200 E23.9424
G1 X200.800 Y83.200 E24.6011
G1 X183.200 Y83.200 E25.2450
G1 X183.200 Y100.800 E25.8889
G1 X200.800 Y100.800 E26.5329
G1 X200.400 Y83.600 E27.1623
G1 X183.600 Y83.600 E27.7770
G1 X183.600 Y100.400 E28.3916
G1 X200.400 Y100.400 E29.0063
G1 X200.000 Y84.000 E29.6064
G1 X184.000 Y84.000 E30.1918
G1 X184.000 Y100.000 E30.7772
G1 X200.000 Y100.000 E31.3626
G1 X199.600 Y84.400 E31.9335
G1 X184.400 Y84.400 E32.4896
G1 X184.400 Y99.600 E33.0457
G1 X199.600 Y99.600 E33.6018
G1 X199.200 Y84.800 E34.1435
G1 X184.800 Y84.800 E34.6704
G1 X184.800 Y99.200 E35.1972
G1 X199.200 Y99.200 E35.7240
G1 X198.800 Y85.200 E36.2365
G1 X185.200 Y85.200 E36.7340
G1 X185.200 Y98.800 E37.2316
G1 X198.800 Y98.800 E37.7292
G1 X198.400 Y85.600 E38.2123
G1 X185.600 Y85.600 E38.6806
G1 X185.600 Y98.400 E39.1489
G1 X198.400 Y98.400 E39.6172
G1 X198.000 Y86.000 E40.0711
G1 X186.000 Y86.000 E40.5102
G1 X186.000 Y98.000 E40.9492
G1 X198.000 Y98.000 E41.3882
G1 X197.600 Y86.400 E41.8129
G1 X186.400 Y86.400 E42.2227
G1 X186.400 Y97.600 E42.6324
G1 X197.600 Y97.600 E43.0422
G1 X197.200 Y86.800 E43.4376
G1 X186.800 Y86.800 E43.8181
G1 X186.800 Y97.200 E44.1986
G1 X197.200 Y97.200 E44.5791
G1 X196.800 Y87.200 E44.9452
G1 X187.200 Y87.200 E45.2965
G1 X187.200 Y96.800 E45.6477
G1 X196.800 Y96.800 E45.9989
G1 X196.400 Y87.600 E46.3358
G1 X187.600 Y87.600 E46.6578
G1 X187.600 Y96.400 E46.9797
G1 X196.400 Y96.400 E47.3017
G1 X196.000 Y88.000 E47.6094
G1 X188.000 Y88.000 E47.9021
G1 X188.000 Y96.000 E48.1947
G1 X196.000 Y96.000 E48.4874
G1 X195.600 Y88.400 E48.7659
G1 X188.400 Y88.400 E49.0293
G1 X188.400 Y95.600 E49.2927
G1 X195.600 Y95.600 E49.5561
G1 X195.200 Y88.800 E49.8053
G1 X188.800 Y88.800 E50.0395
G1 X188.800 Y95.200 E50.2736
G1 X195.200 Y95.200 E50.5078
G1 X194.800 Y89.200 E50.7278
G1 X189.200 Y89.200 E50.9327
G1 X189.200 Y94.800 E51.1376
G1 X194.800 Y94.800 E51.3425
G1 X194.400 Y89.600 E51.5333
G1 X189.600 Y89.600 E51.7089
G1 X189.600 Y94.400 E51.8845
G1 X194.400 Y94.400 E52.0601
G1 X194.000 Y90.000 E52.2217
G1 X190.000 Y90.000 E52.3681
G1 X190.000 Y94.000 E52.5144
G1 X194.000 Y94.000 E52.6608
G1 X193.600 Y90.400 E52.7933
G1 X190.400 Y90.400 E52.9104
G1 X190.400 Y93.600 E53.0274
G1 X193.600 Y93.600 E53.1445
G1 X193.200 Y90.800 E53.2480
G1 X190.800 Y90.800 E53.3358
G1 X190.800 Y93.200 E53.4236
G1 X193.200 Y93.200 E53.5114
G1 X192.800 Y91.200 E53.5860
G1 X191.200 Y91.200 E53.6446
G1 X191.200 Y92.800 E53.7031
G1 X192.800 Y92.800 E53.7617
G1 X192.400 Y91.600 E53.8079
G1 X191.600 Y91.600 E53.8372
G1 X191.600 Y92.400 E53.8665
G1 X192.400 Y92.400 E53.8957
;segType:Loop
G0 F3000 E52.8957
G0 F1200 Z1.200
G0 X184.827 Y123.202 F5400
G0 F1200 Z0.200
G0 F3000 E53.8957
G1 X184.887 Y122.960 E53.9040 F2400
G1 X185.047 Y122.469 E53.9212
G1 X185.240 Y121.991 E53.9384
G1 X185.467 Y121.526 E53.9555
G1 X185.725 Y121.079 E53.9727
G1 X186.014 Y120.651 E53.9899
G1 X186.332 Y120.244 E54.0071
G1 X186.677 Y119.860 E54.0243
G1 X187.049 Y119.501 E54.0414
G1 X187.445 Y119.169 E54.0586
G1 X187.862 Y118.866 E54.0758
G1 X188.300 Y118.592 E54.0930
G1 X188.756 Y118.350 E54.1101
G1 X189.228 Y118.140 E54.1273
G1 X189.713 Y117.963 E54.1445
G1 X190.210 Y117.820 E54.1617
G1 X190.715 Y117.713 E54.1789
G1 X191.227 Y117.641 E54.1960
G1 X191.742 Y117.605 E54.2132
G1 X192.258 Y117.605 E54.2304
G1 X192.773 Y117.641 E54.2476
G1 X193.285 Y117.713 E54.2647
G1 X193.790 Y117.820 E54.2819
G1 X194.286 Y117.963 E54.2991
G1 X194.772 Y118.140 E54.3163
G1 X195.244 Y118.350 E54.3335
G1 X195.700 Y118.592 E54.3506
G1 X196.138 Y118.866 E54.3678
G1 X196.555 Y119.169 E54.3850
G1 X196.951 Y119.501 E54.4022
G1 X197.323 Y119.860 E54.4193
G1 X197.668 Y120.244 E54.4365
G1 X197.986 Y120.651 E54.4537
G1 X198.275 Y121.079 E54.4709
G1 X198.533 Y121.526 E54.4881
G1 X198.760 Y121.991 E54.5052
G1 X198.953 Y122.469 E54.5224
G1 X199.113 Y122.960 E54.5396
G1 X199.238 Y123.462 E54.5568
G1 X199.327 Y123.970 E54.5739
G1 X199.381 Y124.484 E54.5911
G1 X199.399 Y125.000 E54.6083
G1 X199.381 Y125.516 E54.6255
G1 X199.327 Y126.030 E54.6427
G1 X199.238 Y126.538 E54.6598
G1 X199.113 Y127.040 E54.6770
G1 X198.953 Y127.531 E54.6942
G1 X198.760 Y128.009 E54.7114
G1 X198.533 Y128.474 E54.7285
G1 X198.275 Y128.921 E54.7457
G1 X197.986 Y129.349 E54.7629
G1 X197.668 Y129.756 E54.7801
G1 X197.323 Y130.140 E54.7973
G1 X196.951 Y130.499 E54.8144
G1 X196.555 Y130.831 E54.8316
G1 X196.138 Y131.134 E54.8488
G1 X195.700 Y131.408 E54.8660
G1 X195.244 Y131.650 E54.8831
G1 X194.772 Y131.860 E54.9003
G1 X194.287 Y132.037 E54.9175
G1 X193.790 Y132.180 E54.9347
G1 X193.285 Y132.287 E54.9519
G1 X192.773 Y132.359 E54.9690
G1 X192.258 Y132.395 E54.9862
G1 X191.742 Y132.395 E55.0034
G1 X191.232 Y132.359 E55.0204
G1 X190.457 Y132.236 E55.0465
G1 X189.960 Y132.113 E55.0635
G1 X189.469 Y131.953 E55.0807
G1 X188.991 Y131.760 E55.0979
G1 X188.526 Y131.533 E55.1150
G1 X188.079 Y131.275 E55.1322
G1 X187.651 Y130.986 E55.1494
G1 X187.244 Y130.668 E55.1666
G1 X186.860 Y130.323 E55.1838
G1 X186.501 Y129.951 E55.2009
G1 X186.169 Y129.555 E55.2181
G1 X185.866 Y129.138 E55.2353
G1 X185.592 Y128.700 E55.2525
G1 X185.350 Y128.244 E55.2696
G1 X185.140 Y127.772 E55.2868
G1 X184.963 Y127.287 E55.3040
G1 X184.820 Y126.790 E55.3212
G1 X184.713 Y126.285 E55.3383
G1 X184.641 Y125.773 E55.3555
G1 X184.605 Y125.258 E55.3727
G1 X184.605 Y124.742 E55.3899
G1 X184.641 Y124.232 E55.4069
G1 X184.764 Y123.457 E55.4330
G1 X184.779 Y123.396 E55.4351
;segType:Perimeter
G0 X184.396 Y124.972 F5400
G1 X184.243 Y124.187 E55.4617 F1439
G1 X184.371 Y123.377 E55.4889
G1 X184.503 Y122.850 E55.5070
G1 X184.671 Y122.332 E55.5251
G1 X184.875 Y121.828 E55.5432
G1 X185.113 Y121.338 E55.5613
G1 X185.386 Y120.867 E55.5794
G1 X185.690 Y120.416 E55.5975
G1 X186.025 Y119.987 E55.6157
G1 X186.390 Y119.582 E55.6338
G1 X186.781 Y119.204 E55.6519
G1 X187.198 Y118.854 E55.6700
G1 X187.639 Y118.534 E55.6881
G1 X188.100 Y118.245 E55.7062
G1 X188.581 Y117.990 E55.7243
G1 X189.078 Y117.769 E55.7424
G1 X189.590 Y117.582 E55.7605
G1 X190.113 Y117.432 E55.7786
G1 X190.646 Y117.319 E55.7967
G1 X191.185 Y117.243 E55.8148
G1 X191.728 Y117.205 E55.8329
G1 X192.272 Y117.205 E55.8510
G1 X192.815 Y117.243 E55.8691
G1 X193.354 Y117.319 E55.8872
G1 X193.887 Y117.432 E55.9054
G1 X194.410 Y117.582 E55.9235
G1 X194.922 Y117.769 E55.9416
G1 X195.419 Y117.990 E55.9597
G1 X195.900 Y118.245 E55.9778
G1 X196.361 Y118.534 E55.9959
G1 X196.802 Y118.854 E56.0140
G1 X197.219 Y119.204 E56.0321
G1 X197.611 Y119.582 E56.0502
G1 X197.975 Y119.987 E56.0683
G1 X198.310 Y120.416 E56.0864
G1 X198.614 Y120.867 E56.1045
G1 X198.887 Y121.338 E56.1226
G1 X199.125 Y121.828 E56.1407
G1 X199.329 Y122.332 E56.1589
G1 X199.497 Y122.850 E56.1770
G1 X199.629 Y123.379 E56.1951
G1 X199.724 Y123.915 E56.2132
G1 X199.781 Y124.456 E56.2313
G1 X199.800 Y125.000 E56.2494
G1 X199.781 Y125.544 E56.2675
G1 X199.724 Y126.085 E56.2856
G1 X199.629 Y126.622 E56.3037
G1 X199.497 Y127.150 E56.3218
G1 X199.329 Y127.668 E56.3399
G1 X199.125 Y128.172 E56.3580
G1 X198.887 Y128.662 E56.3761
G1 X198.614 Y129.133 E56.3942
G1 X198.310 Y129.584 E56.4123
G1 X197.975 Y130.013 E56.4305
G1 X197.611 Y130.418 E56.4486
G1 X197.219 Y130.796 E56.4667
G1 X196.802 Y131.146 E56.4848
G1 X196.361 Y131.466 E56.5029
G1 X195.900 Y131.755 E56.5210
G1 X195.419 Y132.010 E56.5391
G1 X194.922 Y132.232 E56.5572
G1 X194.410 Y132.418 E56.5753
G1 X193.887 Y132.568 E56.5934
G1 X193.354 Y132.681 E56.6115
G1 X192.815 Y132.757 E56.6296
G1 X192.272 Y132.795 E56.6477
G1 X191.728 Y132.795 E56.6658
G1 X191.187 Y132.757 E56.6839
G1 X190.377 Y132.629 E56.7112
G1 X189.850 Y132.497 E56.7292
G1 X189.332 Y132.329 E56.7473
G1 X188.828 Y132.125 E56.7654
G1 X188.338 Y131.887 E56.7835
G1 X187.867 Y131.614 E56.8016
G1 X187.416 Y131.310 E56.8197
G1 X186.987 Y130.975 E56.8379
G1 X186.582 Y130.611 E56.8560
G1 X186.204 Y130.219 E56.8741
G1 X185.854 Y129.802 E56.8922
G1 X185.534 Y129.361 E56.9103
G1 X185.245 Y128.900 E56.9284
G1 X184.990 Y128.419 E56.9465
G1 X184.769 Y127.922 E56.9646
G1 X184.582 Y127.410 E56.9827
G1 X184.432 Y126.887 E57.0008
G1 X184.319 Y126.354 E57.0189
G1 X184.243 Y125.815 E57.0370
G1 X184.205 Y125.272 E57.0551
G1 X184.205 Y124.728 E57.0732
G1 X184.243 Y124.187 E57.0913
G0 X184.568 Y123.456 F5400
G0 X184.777 Y123.404
G0 X185.654 Y123.185
G0 X185.654 Y123.185
G0 X185.655 Y123.180
G0 X185.797 Y122.742
G0 X185.970 Y122.315
G0 X186.172 Y121.901
G0 X186.402 Y121.502
G0 X186.663 Y121.116
G0 X187.091 Y120.587
G0 X187.415 Y120.252
G0 X187.757 Y119.944
G0 X188.124 Y119.657
G0 X188.695 Y119.286
G0 X189.107 Y119.067
G0 X189.527 Y118.880
G0 X189.960 Y118.722
G0 X190.403 Y118.595
G0 X190.854 Y118.500
G0 X191.310 Y118.435
G0 X191.770 Y118.403
G0 X192.230 Y118.403
G0 X192.690 Y118.435
G0 X193.146 Y118.500
G0 X193.602 Y118.596
G0 X194.253 Y118.795
G0 X194.685 Y118.970
G0 X195.099 Y119.172
G0 X195.498 Y119.402
G0 X195.884 Y119.663
G0 X196.413 Y120.091
G0 X196.748 Y120.415
G0 X196.752 Y120.419
G0 X196.752 Y120.419
G0 X196.765 Y120.416
;segType:Loop
G0 X196.752 Y120.419
G1 X197.056 Y120.757 E57.1064 F2400
G1 X197.340 Y121.120 E57.1217
G1 X197.598 Y121.502 E57.1371
G1 X197.828 Y121.901 E57.1524
G1 X198.030 Y122.315 E57.1677
G1 X198.203 Y122.742 E57.1830
G1 X198.345 Y123.181 E57.1984
G1 X198.456 Y123.628 E57.2137
G1 X198.537 Y124.081 E57.2290
G1 X198.585 Y124.539 E57.2443
G1 X198.601 Y125.005 E57.2598
G1 X198.565 Y125.685 E57.2825
G1 X198.500 Y126.146 E57.2980
G1 X198.405 Y126.597 E57.3133
G1 X198.278 Y127.040 E57.3286
G1 X198.120 Y127.473 E57.3439
G1 X197.933 Y127.893 E57.3592
G1 X197.716 Y128.300 E57.3746
G1 X197.472 Y128.691 E57.3899
G1 X197.202 Y129.064 E57.4052
G1 X196.905 Y129.417 E57.4205
G1 X196.585 Y129.748 E57.4359
G1 X196.243 Y130.057 E57.4512
G1 X195.880 Y130.340 E57.4665
G1 X195.498 Y130.598 E57.4818
G1 X195.099 Y130.828 E57.4972
G1 X194.685 Y131.030 E57.5125
G1 X194.258 Y131.203 E57.5278
G1 X193.819 Y131.345 E57.5431
G1 X193.372 Y131.456 E57.5585
G1 X192.919 Y131.537 E57.5738
G1 X192.461 Y131.585 E57.5891
G1 X192.000 Y131.601 E57.6044
G1 X191.539 Y131.585 E57.6198
G1 X191.081 Y131.537 E57.6351
G1 X190.628 Y131.456 E57.6504
G1 X190.181 Y131.345 E57.6657
G1 X189.742 Y131.203 E57.6811
G1 X189.315 Y131.030 E57.6964
G1 X188.901 Y130.828 E57.7117
G1 X188.502 Y130.598 E57.7270
G1 X188.116 Y130.337 E57.7425
G1 X187.587 Y129.909 E57.7652
G1 X187.252 Y129.585 E57.7807
G1 X186.943 Y129.243 E57.7960
G1 X186.660 Y128.880 E57.8113
G1 X186.402 Y128.498 E57.8266
G1 X186.172 Y128.099 E57.8420
G1 X185.970 Y127.685 E57.8573
G1 X185.797 Y127.258 E57.8726
G1 X185.655 Y126.819 E57.8879
G1 X185.544 Y126.372 E57.9032
G1 X185.463 Y125.919 E57.9186
G1 X185.415 Y125.461 E57.9339
G1 X185.399 Y125.000 E57.9492
G1 X185.415 Y124.539 E57.9645
G1 X185.463 Y124.081 E57.9799
G1 X185.544 Y123.628 E57.9952
G1 X185.655 Y123.180 E58.0105
G1 X185.797 Y122.742 E58.0258
G1 X185.970 Y122.315 E58.0412
G1 X186.172 Y121.901 E58.0565
G1 X186.402 Y121.502 E58.0718
G1 X186.663 Y121.116 E58.0873
G1 X187.091 Y120.587 E58.1099
G1 X187.415 Y120.252 E58.1254
G1 X187.757 Y119.944 E58.1408
G1 X188.124 Y119.657 E58.1562
G1 X188.695 Y119.286 E58.1789
G1 X189.107 Y119.067 E58.1944
G1 X189.527 Y118.880 E58.2097
G1 X189.960 Y118.722 E58.2250
G1 X190.403 Y118.595 E58.2404
G1 X190.854 Y118.500 E58.2557
G1 X191.310 Y118.435 E58.2710
G1 X191.770 Y118.403 E58.2863
G1 X192.230 Y118.403 E58.3017
G1 X192.690 Y118.435 E58.3170
G1 X193.146 Y118.500 E58.3323
G1 X193.602 Y118.596 E58.3478
G1 X194.253 Y118.795 E58.3704
G1 X194.685 Y118.970 E58.3859
G1 X195.099 Y119.172 E58.4013
G1 X195.498 Y119.402 E58.4166
G1 X195.884 Y119.663 E58.4321
G1 X196.413 Y120.091 E58.4547
G1 X196.609 Y120.280 E58.4637
;segType:Perimeter
G0 X195.121 Y119.381 F5400
G1 X195.646 Y119.985 E58.4904 F1439
G1 X196.148 Y120.391 E58.5118
G1 X196.460 Y120.693 E58.5263
G1 X196.750 Y121.014 E58.5407
G1 X197.016 Y121.355 E58.5551
G1 X197.258 Y121.714 E58.5695
G1 X197.475 Y122.089 E58.5839
G1 X197.664 Y122.478 E58.5983
G1 X197.827 Y122.879 E58.6127
G1 X197.960 Y123.291 E58.6270
G1 X198.065 Y123.711 E58.6414
G1 X198.140 Y124.137 E58.6558
G1 X198.185 Y124.567 E58.6702
G1 X198.201 Y125.002 E58.6847
G1 X198.167 Y125.647 E58.7062
G1 X198.106 Y126.077 E58.7206
G1 X198.016 Y126.500 E58.7350
G1 X197.897 Y126.916 E58.7494
G1 X197.749 Y127.323 E58.7638
G1 X197.573 Y127.718 E58.7782
G1 X197.370 Y128.100 E58.7926
G1 X197.140 Y128.467 E58.8070
G1 X196.886 Y128.817 E58.8214
G1 X196.608 Y129.149 E58.8358
G1 X196.307 Y129.460 E58.8502
G1 X195.986 Y129.750 E58.8646
G1 X195.645 Y130.016 E58.8790
G1 X195.286 Y130.258 E58.8933
G1 X194.911 Y130.475 E58.9077
G1 X194.522 Y130.664 E58.9221
G1 X194.121 Y130.827 E58.9365
G1 X193.709 Y130.960 E58.9509
G1 X193.289 Y131.065 E58.9653
G1 X192.863 Y131.140 E58.9797
G1 X192.433 Y131.186 E58.9941
G1 X192.000 Y131.201 E59.0085
G1 X191.567 Y131.186 E59.0229
G1 X191.137 Y131.140 E59.0373
G1 X190.711 Y131.065 E59.0517
G1 X190.291 Y130.960 E59.0661
G1 X189.879 Y130.827 E59.0805
G1 X189.478 Y130.664 E59.0949
G1 X189.089 Y130.475 E59.1093
G1 X188.714 Y130.258 E59.1237
G1 X188.354 Y130.016 E59.1381
G1 X187.852 Y129.609 E59.1596
G1 X187.540 Y129.307 E59.1740
G1 X187.250 Y128.986 E59.1884
G1 X186.984 Y128.644 E59.2028
G1 X186.742 Y128.286 E59.2172
G1 X186.525 Y127.911 E59.2316
G1 X186.336 Y127.522 E59.2460
G1 X186.173 Y127.121 E59.2604
G1 X186.040 Y126.709 E59.2748
G1 X185.935 Y126.289 E59.2892
G1 X185.860 Y125.863 E59.3036
G1 X185.815 Y125.433 E59.3180
G1 X185.799 Y125.000 E59.3324
G1 X185.815 Y124.567 E59.3468
G1 X185.860 Y124.137 E59.3612
G1 X185.935 Y123.711 E59.3756
G1 X186.040 Y123.291 E59.3900
G1 X186.173 Y122.879 E59.4044
G1 X186.336 Y122.478 E59.4188
G1 X186.525 Y122.089 E59.4331
G1 X186.742 Y121.714 E59.4475
G1 X186.985 Y121.354 E59.4620
G1 X187.391 Y120.852 E59.4835
G1 X187.693 Y120.540 E59.4979
G1 X188.014 Y120.250 E59.5123
G1 X188.357 Y119.983 E59.5268
G1 X188.898 Y119.631 E59.5482
G1 X189.282 Y119.427 E59.5627
G1 X189.677 Y119.251 E59.5771
G1 X190.084 Y119.103 E59.5915
G1 X190.500 Y118.984 E59.6059
G1 X190.923 Y118.894 E59.6203
G1 X191.352 Y118.833 E59.6347
G1 X191.784 Y118.803 E59.6491
G1 X192.216 Y118.803 E59.6635
G1 X192.648 Y118.833 E59.6779
G1 X193.077 Y118.894 E59.6922
G1 X193.502 Y118.984 E59.7067
G1 X194.119 Y119.173 E59.7282
G1 X194.522 Y119.336 E59.7426
G1 X194.911 Y119.525 E59.7570
G1 X195.286 Y119.742 E59.7714
G1 X195.646 Y119.985 E59.7859
G0 X196.377 Y120.310 F5400
G0 X197.210 Y121.643
G0 X197.300 Y121.787
G0 X197.300 Y121.787
G0 X198.986 Y124.483
;segType:InnerHair
G0 X198.979 Y124.471
G1 X198.967 Y124.357 E59.7897 F2400
G1 X198.955 Y124.243 E59.7935
G1 X198.943 Y124.129 E59.7973
G1 X198.930 Y124.014 E59.8011
G1 X198.910 Y123.900 E59.8049
G1 X198.890 Y123.786 E59.8088
G1 X198.869 Y123.671 E59.8126
G1 X198.850 Y123.557 E59.8164
G1 X198.822 Y123.443 E59.8203
G1 X198.793 Y123.329 E59.8242
G1 X198.765 Y123.214 E59.8281
G1 X198.737 Y123.100 E59.8320
G1 X198.701 Y122.986 E59.8360
G1 X198.664 Y122.871 E59.8399
G1 X198.627 Y122.757 E59.8439
G1 X198.591 Y122.643 E59.8479
G1 X198.547 Y122.529 E59.8519
G1 X198.500 Y122.414 E59.8560
G1 X198.454 Y122.300 E59.8601
G1 X198.409 Y122.186 E59.8641
G1 X198.388 Y122.137 E59.8659
G1 X198.334 Y122.029 E59.8699
G1 X198.228 Y121.811 E59.8779
G1 X198.175 Y121.703 E59.8819
G1 X198.115 Y121.601 E59.8858
G1 X198.056 Y121.498 E59.8897
G1 X197.997 Y121.396 E59.8936
G1 X197.938 Y121.293 E59.8975
G1 X197.873 Y121.197 E59.9014
G1 X197.808 Y121.100 E59.9053
G1 X197.743 Y121.004 E59.9091
G1 X197.678 Y120.906 E59.9130
G1 X197.608 Y120.815 E59.9168
G1 X197.537 Y120.724 E59.9206
G1 X197.466 Y120.634 E59.9244
G1 X197.395 Y120.543 E59.9282
G1 X197.322 Y120.455 E59.9320
G1 X197.245 Y120.370 E59.9358
G1 X197.168 Y120.285 E59.9396
G1 X197.092 Y120.200 E59.9434
G1 X197.014 Y120.116 E59.9472
G1 X196.932 Y120.037 E59.9510
G1 X196.849 Y119.958 E59.9547
G1 X196.767 Y119.878 E59.9585
G1 X196.685 Y119.799 E59.9623
G1 X196.597 Y119.726 E59.9661
G1 X196.508 Y119.653 E59.9699
G1 X196.419 Y119.579 E59.9738
G1 X196.331 Y119.506 E59.9777
G1 X196.240 Y119.435 E59.9815
G1 X196.149 Y119.365 E59.9853
G1 X196.055 Y119.298 E59.9891
G1 X195.960 Y119.231 E59.9930
G1 X195.863 Y119.166 E59.9968
G1 X195.765 Y119.102 E60.0007
G1 X195.666 Y119.040 E60.0045
G1 X195.565 Y118.979 E60.0085
G1 X195.464 Y118.919 E60.0124
G1 X195.359 Y118.862 E60.0163
G1 X195.254 Y118.805 E60.0203
G1 X195.147 Y118.751 E60.0243
G1 X195.040 Y118.696 E60.0283
G1 X194.929 Y118.646 E60.0323
G1 X194.818 Y118.595 E60.0363
G1 X194.704 Y118.547 E60.0404
G1 X194.591 Y118.499 E60.0445
G1 X194.657 Y118.525 E60.0469
G1 X194.543 Y118.482 E60.0510
G1 X194.429 Y118.438 E60.0550
G1 X194.314 Y118.397 E60.0590
G1 X194.200 Y118.358 E60.0631
G1 X194.086 Y118.324 E60.0671
G1 X193.971 Y118.290 E60.0711
G1 X193.857 Y118.256 E60.0751
G1 X193.743 Y118.222 E60.0790
G1 X193.629 Y118.194 E60.0829
G1 X193.514 Y118.170 E60.0868
G1 X193.400 Y118.146 E60.0907
G1 X193.286 Y118.121 E60.0945
G1 X193.171 Y118.100 E60.0984
G1 X193.057 Y118.084 E60.1022
G1 X192.943 Y118.068 E60.1060
G1 X192.829 Y118.052 E60.1098
G1 X192.714 Y118.036 E60.1136
G1 X192.600 Y118.029 E60.1174
G1 X192.486 Y118.021 E60.1212
G1 X192.371 Y118.013 E60.1250
G1 X192.257 Y118.005 E60.1288
G1 X192.143 Y118.004 E60.1326
G1 X191.800 Y118.004 E60.1439
G1 X191.686 Y118.009 E60.1477
G1 X191.571 Y118.017 E60.1515
G1 X191.457 Y118.025 E60.1553
G1 X191.343 Y118.033 E60.1591
G1 X191.229 Y118.044 E60.1629
G1 X191.114 Y118.060 E60.1667
G1 X191.000 Y118.076 E60.1705
G1 X190.886 Y118.092 E60.1743
G1 X190.771 Y118.109 E60.1782
G1 X190.657 Y118.133 E60.1820
G1 X190.543 Y118.158 E60.1859
G1 X190.429 Y118.182 E60.1898
G1 X190.314 Y118.206 E60.1936
G1 X190.200 Y118.238 E60.1976
G1 X190.086 Y118.271 E60.2015
G1 X189.971 Y118.304 E60.2054
G1 X189.857 Y118.336 E60.2094
G1 X189.743 Y118.377 E60.2134
G1 X189.629 Y118.418 E60.2174
G1 X189.514 Y118.460 E60.2214
G1 X189.400 Y118.501 E60.2254
G1 X189.424 Y118.491 E60.2263
G1 X189.309 Y118.538 E60.2303
G1 X189.199 Y118.589 E60.2344
G1 X189.087 Y118.639 E60.2384
G1 X188.974 Y118.688 E60.2425
G1 X188.867 Y118.743 E60.2465
G1 X188.762 Y118.799 E60.2504
G1 X188.656 Y118.855 E60.2544
G1 X188.551 Y118.911 E60.2583
G1 X188.448 Y118.970 E60.2623
G1 X188.350 Y119.033 E60.2662
G1 X188.251 Y119.096 E60.2701
G1 X188.152 Y119.159 E60.2740
G1 X188.054 Y119.223 E60.2779
G1 X187.959 Y119.289 E60.2818
G1 X187.864 Y119.356 E60.2856
G1 X187.772 Y119.425 E60.2894
G1 X187.680 Y119.495 E60.2933
G1 X187.591 Y119.567 E60.2971
G1 X187.501 Y119.640 E60.3008
G1 X187.415 Y119.715 E60.3046
G1 X187.329 Y119.790 E60.3084
G1 X187.245 Y119.868 E60.3122
G1 X187.161 Y119.946 E60.3160
G1 X187.079 Y120.026 E60.3197
G1 X186.999 Y120.106 E60.3236
G1 X186.919 Y120.189 E60.3274
G1 X186.841 Y120.273 E60.3311
G1 X186.765 Y120.358 E60.3349
G1 X186.690 Y120.445 E60.3387
G1 X186.617 Y120.533 E60.3426
G1 X186.545 Y120.623 E60.3464
G1 X186.474 Y120.713 E60.3503
G1 X186.402 Y120.803 E60.3541
G1 X186.331 Y120.894 E60.3579
G1 X186.266 Y120.990 E60.3617
G1 X186.201 Y121.087 E60.3656
G1 X186.136 Y121.183 E60.3694
G1 X186.071 Y121.280 E60.3733
G1 X186.011 Y121.382 E60.3772
G1 X185.952 Y121.484 E60.3811
G1 X185.893 Y121.587 E60.3850
G1 X185.833 Y121.688 E60.3889
G1 X185.779 Y121.796 E60.3929
G1 X185.673 Y122.014 E60.4009
G1 X185.619 Y122.121 E60.4049
G1 X185.591 Y122.186 E60.4072
G1 X185.546 Y122.300 E60.4113
G1 X185.500 Y122.414 E60.4153
G1 X185.453 Y122.529 E60.4194
G1 X185.409 Y122.643 E60.4235
G1 X185.373 Y122.757 E60.4274
G1 X185.336 Y122.871 E60.4314
G1 X185.299 Y122.986 E60.4354
G1 X185.263 Y123.100 E60.4393
G1 X185.235 Y123.214 E60.4432
G1 X185.207 Y123.329 E60.4471
G1 X185.178 Y123.443 E60.4510
G1 X185.151 Y123.557 E60.4549
G1 X185.132 Y123.671 E60.4587
G1 X185.113 Y123.786 E60.4625
G1 X185.094 Y123.900 E60.4663
G1 X185.075 Y124.014 E60.4700
G1 X185.059 Y124.129 E60.4738
G1 X185.044 Y124.243 E60.4776
G1 X185.033 Y124.357 E60.4814
G1 X185.023 Y124.471 E60.4852
G1 X185.015 Y124.586 E60.4890
G1 X185.009 Y124.700 E60.4928
G1 X185.005 Y124.814 E60.4966
G1 X185.003 Y124.929 E60.5004
G1 X185.003 Y125.043 E60.5041
G1 X185.005 Y125.157 E60.5079
G1 X185.008 Y125.271 E60.5117
G1 X185.014 Y125.386 E60.5155
G1 X185.020 Y125.500 E60.5192
G1 X185.030 Y125.614 E60.5230
G1 X185.040 Y125.729 E60.5269
G1 X185.054 Y125.843 E60.5307
G1 X185.068 Y125.957 E60.5345
G1 X185.086 Y126.071 E60.5383
G1 X185.104 Y126.186 E60.5421
G1 X185.125 Y126.300 E60.5460
G1 X185.146 Y126.414 E60.5498
G1 X185.172 Y126.529 E60.5537
G1 X185.198 Y126.643 E60.5576
G1 X185.227 Y126.757 E60.5615
G1 X185.258 Y126.871 E60.5654
G1 X185.291 Y126.986 E60.5693
G1 X185.326 Y127.100 E60.5733
G1 X185.361 Y127.214 E60.5773
G1 X185.399 Y127.329 E60.5812
G1 X185.443 Y127.443 E60.5852
G1 X185.487 Y127.557 E60.5893
G1 X185.531 Y127.671 E60.5934
G1 X185.499 Y127.591 E60.5963
G1 X185.547 Y127.704 E60.6004
G1 X185.595 Y127.818 E60.6045
G1 X185.646 Y127.929 E60.6085
G1 X185.696 Y128.040 E60.6126
G1 X185.751 Y128.147 E60.6166
G1 X185.805 Y128.254 E60.6205
G1 X185.862 Y128.359 E60.6245
G1 X185.919 Y128.464 E60.6285
G1 X185.979 Y128.565 E60.6324
G1 X186.040 Y128.666 E60.6362
G1 X186.102 Y128.765 E60.6401
G1 X186.166 Y128.863 E60.6440
G1 X186.231 Y128.960 E60.6479
G1 X186.298 Y129.055 E60.6517
G1 X186.365 Y129.149 E60.6555
G1 X186.435 Y129.241 E60.6593
G1 X186.505 Y129.332 E60.6632
G1 X186.577 Y129.422 E60.6670
G1 X186.650 Y129.511 E60.6707
G1 X186.725 Y129.597 E60.6745
G1 X186.800 Y129.683 E60.6783
G1 X186.878 Y129.767 E60.6821
G1 X186.956 Y129.851 E60.6859
G1 X187.037 Y129.932 E60.6897
G1 X187.118 Y130.013 E60.6935
G1 X187.201 Y130.091 E60.6973
G1 X187.284 Y130.169 E60.7010
G1 X187.370 Y130.245 E60.7048
G1 X187.457 Y130.320 E60.7086
G1 X187.545 Y130.393 E60.7125
G1 X187.635 Y130.465 E60.7164
G1 X187.725 Y130.536 E60.7202
G1 X187.815 Y130.608 E60.7240
G1 X187.907 Y130.678 E60.7278
G1 X188.004 Y130.743 E60.7317
G1 X188.100 Y130.808 E60.7355
G1 X188.197 Y130.873 E60.7394
G1 X188.293 Y130.938 E60.7433
G1 X188.396 Y130.997 E60.7472
G1 X188.498 Y131.056 E60.7511
G1 X188.601 Y131.115 E60.7550
G1 X188.703 Y131.175 E60.7589
G1 X188.811 Y131.228 E60.7629
G1 X189.029 Y131.334 E60.7709
G1 X189.137 Y131.388 E60.7749
G1 X189.171 Y131.403 E60.7761
G1 X189.286 Y131.449 E60.7802
G1 X189.400 Y131.495 E60.7843
G1 X189.514 Y131.541 E60.7884
G1 X189.629 Y131.586 E60.7924
G1 X189.743 Y131.622 E60.7964
G1 X189.857 Y131.660 E60.8004
G1 X189.971 Y131.697 E60.8044
G1 X190.086 Y131.733 E60.8083
G1 X190.200 Y131.761 E60.8122
G1 X190.314 Y131.790 E60.8161
G1 X190.429 Y131.818 E60.8200
G1 X190.543 Y131.846 E60.8239
G1 X190.657 Y131.866 E60.8277
G1 X190.771 Y131.885 E60.8315
G1 X190.886 Y131.904 E60.8353
G1 X191.000 Y131.923 E60.8390
G1 X191.114 Y131.939 E60.8428
G1 X191.229 Y131.954 E60.8466
G1 X191.343 Y131.966 E60.8504
G1 X191.457 Y131.976 E60.8542
G1 X191.571 Y131.984 E60.8580
G1 X191.686 Y131.990 E60.8618
G1 X191.800 Y131.994 E60.8656
G1 X191.914 Y131.996 E60.8694
G1 X192.029 Y131.997 E60.8731
G1 X192.143 Y131.995 E60.8769
G1 X192.257 Y131.993 E60.8807
G1 X192.371 Y131.987 E60.8845
G1 X192.486 Y131.981 E60.8883
G1 X192.600 Y131.971 E60.8920
G1 X192.714 Y131.961 E60.8959
G1 X192.829 Y131.948 E60.8997
G1 X192.943 Y131.934 E60.9035
G1 X193.057 Y131.917 E60.9073
G1 X193.171 Y131.898 E60.9111
G1 X193.286 Y131.878 E60.9150
G1 X193.400 Y131.856 E60.9188
G1 X193.514 Y131.831 E60.9227
G1 X193.629 Y131.805 E60.9266
G1 X193.743 Y131.777 E60.9305
G1 X193.857 Y131.746 E60.9344
G1 X193.971 Y131.714 E60.9383
G1 X194.086 Y131.679 E60.9423
G1 X194.200 Y131.644 E60.9463
G1 X194.314 Y131.603 E60.9503
G1 X194.429 Y131.562 E60.9543
G1 X194.543 Y131.518 E60.9583
G1 X194.657 Y131.475 E60.9624
G1 X194.651 Y131.476 E60.9627
G1 X194.764 Y131.428 E60.9667
G1 X194.878 Y131.380 E60.9708
G1 X194.987 Y131.327 E60.9748
G1 X195.096 Y131.275 E60.9788
G1 X195.203 Y131.221 E60.9828
G1 X195.310 Y131.166 E60.9867
G1 X195.414 Y131.108 E60.9906
G1 X195.517 Y131.049 E60.9946
G1 X195.618 Y130.989 E60.9985
G1 X195.719 Y130.928 E61.0024
G1 X195.817 Y130.864 E61.0062
G1 X195.915 Y130.800 E61.0101
G1 X196.010 Y130.734 E61.0140
G1 X196.105 Y130.667 E61.0178
G1 X196.197 Y130.598 E61.0216
G1 X196.290 Y130.529 E61.0255
G1 X196.379 Y130.457 E61.0293
G1 X196.469 Y130.385 E61.0330
G1 X196.556 Y130.310 E61.0368
G1 X196.642 Y130.235 E61.0406
G1 X196.727 Y130.159 E61.0444
G1 X196.811 Y130.081 E61.0482
G1 X196.894 Y130.001 E61.0520
G1 X196.974 Y129.921 E61.0558
G1 X197.054 Y129.839 E61.0596
G1 X197.132 Y129.755 E61.0633
G1 X197.210 Y129.671 E61.0671
G1 X197.285 Y129.585 E61.0709
G1 X197.360 Y129.499 E61.0747
G1 X197.433 Y129.409 E61.0785
G1 X197.505 Y129.320 E61.0823
G1 X197.575 Y129.228 E61.0861
G1 X197.644 Y129.136 E61.0899
G1 X197.712 Y129.042 E61.0938
G1 X197.778 Y128.947 E61.0976
G1 X197.843 Y128.850 E61.1015
G1 X197.906 Y128.752 E61.1053
G1 X197.968 Y128.652 E61.1092
G1 X198.029 Y128.551 E61.1131
G1 X198.088 Y128.449 E61.1170
G1 X198.146 Y128.345 E61.1210
G1 X198.204 Y128.241 E61.1250
G1 X198.257 Y128.132 E61.1289
G1 X198.310 Y128.024 E61.1329
G1 X198.361 Y127.914 E61.1370
G1 X198.413 Y127.803 E61.1410
G1 X198.370 Y127.900 E61.1446
G1 X198.419 Y127.786 E61.1487
G1 X198.467 Y127.671 E61.1528
G1 X198.516 Y127.557 E61.1569
G1 X198.559 Y127.443 E61.1610
G1 X198.598 Y127.329 E61.1650
G1 X198.638 Y127.214 E61.1690
G1 X198.675 Y127.100 E61.1729
G1 X198.709 Y126.986 E61.1769
G1 X198.742 Y126.871 E61.1809
G1 X198.773 Y126.757 E61.1848
G1 X198.802 Y126.643 E61.1886
G1 X198.828 Y126.529 E61.1925
G1 X198.853 Y126.414 E61.1964
G1 X198.875 Y126.300 E61.2003
G1 X198.897 Y126.186 E61.2041
G1 X198.914 Y126.071 E61.2079
G1 X198.932 Y125.957 E61.2118
G1 X198.946 Y125.843 E61.2156
G1 X198.960 Y125.729 E61.2193
G1 X198.969 Y125.614 E61.2231
G1 X198.979 Y125.500 E61.2270
G1 X198.984 Y125.386 E61.2309
G1 X198.989 Y125.271 E61.2347
G1 X198.994 Y125.157 E61.2385
G1 X198.999 Y125.043 E61.2423
G1 X198.998 Y124.929 E61.2461
G1 X198.986 Y124.586 E61.2574
G1 X198.979 Y124.471 E61.2612
G0 F3000 E60.2612
G0 F1200 Z1.200
G0 X196.777 Y123.031 F5400
G0 X192.373 Y120.151
G0 X190.172 Y118.710
G0 X183.566 Y114.389
G0 X181.364 Y112.949
G0 X176.961 Y110.069
G0 F1200 Z0.200
G0 F3000 E61.2612
;segType:HShell
G1 X180.931 Y114.039 E61.4480 F2400
G0 X181.039 Y113.582 F5400
G1 X177.418 Y109.961 E61.6183 F2400
;segType:Perimeter
G0 X176.408 Y109.973 F5400
G1 X176.200 Y109.200 E61.6449 F1439
G1 X181.799 Y109.200 E61.8311
G1 X181.799 Y114.800 E62.0173
G1 X176.200 Y114.800 E62.2036
G1 X176.200 Y109.200 E62.3898
G0 X176.973 Y109.408 F5400
;segType:Loop
G0 X177.300 Y109.600
G1 X181.399 Y109.600 E62.5261 F2400
G1 X181.399 Y114.400 E62.6857
G1 X176.600 Y114.400 E62.8454
G1 X176.600 Y109.600 E63.0050
G1 X177.100 Y109.600 E63.0216
;segType:HShell
G0 X177.984 Y109.961 F5400
G1 X181.039 Y113.016 E63.1653 F2400
G0 X181.039 Y112.450 F5400
G1 X178.550 Y109.961 E63.2824 F2400
G0 X179.115 Y109.961 F5400
G1 X181.039 Y111.885 E63.3729 F2400
G0 X181.039 Y111.319 F5400
G1 X179.681 Y109.961 E63.4368 F2400
G0 X180.247 Y109.961 F5400
G1 X181.039 Y110.753 E63.4741 F2400
G0 X176.961 Y113.463 F5400
G1 X177.537 Y114.039 E63.5012 F2400
G0 X178.103 Y114.039 F5400
G1 X176.961 Y112.897 E63.5549 F2400
G0 X176.961 Y112.331 F5400
G1 X178.669 Y114.039 E63.6353 F2400
G0 X179.234 Y114.039 F5400
G1 X176.961 Y111.766 E63.7422 F2400
G0 X176.961 Y111.200 F5400
G1 X179.800 Y114.039 E63.8758 F2400
G0 X180.366 Y114.039 F5400
G1 X176.961 Y110.634 E64.0360 F2400
G0 F3000 E63.0360
G0 F1200 Z1.200
G0 X180.633 Y133.539 F5400
G0 F1200 Z0.200
G0 F3000 E64.0360
G1 X173.054 Y125.961 E64.3925 F2400
;segType:Perimeter
G0 X172.200 Y125.200 F5400
G1 X181.806 Y125.200 E64.7120 F1439
G1 X181.824 Y125.712 E64.7290
G1 X181.899 Y126.420 E64.7526
G1 X182.022 Y127.121 E64.7763
G1 X182.195 Y127.812 E64.8000
G1 X182.415 Y128.489 E64.8237
G1 X182.681 Y129.149 E64.8474
G1 X182.994 Y129.789 E64.8711
G1 X183.349 Y130.406 E64.8947
G1 X183.748 Y130.996 E64.9184
G1 X184.186 Y131.557 E64.9421
G1 X184.662 Y132.086 E64.9658
G1 X185.175 Y132.581 E64.9895
G1 X185.720 Y133.038 E65.0131
G1 X186.296 Y133.457 E65.0368
G1 X186.900 Y133.834 E65.0605
G1 X187.528 Y134.168 E65.0842
G1 X188.179 Y134.458 E65.1079
G1 X188.848 Y134.701 E65.1315
G1 X189.532 Y134.898 E65.1552
G1 X190.229 Y135.046 E65.1789
G1 X190.934 Y135.145 E65.2026
G1 X191.642 Y135.194 E65.2262
G1 X191.800 Y135.197 E65.2314
G1 X191.800 Y144.800 E65.5508
G1 X172.200 Y144.800 E66.2027
G1 X172.200 Y125.200 E66.8546
;segType:Loop
G0 X173.300 Y125.600 F5400
G1 X181.420 Y125.600 E67.1246 F2400
G1 X181.425 Y125.739 E67.1293
G1 X181.502 Y126.475 E67.1539
G1 X181.631 Y127.204 E67.1785
G1 X181.810 Y127.922 E67.2031
G1 X182.039 Y128.626 E67.2277
G1 X182.316 Y129.312 E67.2523
G1 X182.640 Y129.977 E67.2769
G1 X183.010 Y130.618 E67.3015
G1 X183.424 Y131.231 E67.3261
G1 X183.879 Y131.814 E67.3508
G1 X184.375 Y132.364 E67.3754
G1 X184.907 Y132.878 E67.4000
G1 X185.473 Y133.354 E67.4246
G1 X186.072 Y133.788 E67.4492
G1 X186.700 Y134.180 E67.4738
G1 X187.353 Y134.528 E67.4984
G1 X188.029 Y134.829 E67.5230
G1 X188.724 Y135.082 E67.5476
G1 X189.435 Y135.286 E67.5722
G1 X190.159 Y135.440 E67.5969
G1 X190.894 Y135.543 E67.6215
G1 X191.400 Y135.574 E67.6384
G1 X191.400 Y144.400 E67.9319
G1 X172.600 Y144.400 E68.5572
G1 X172.600 Y125.600 E69.1825
G1 X173.100 Y125.600 E69.1991
G0 X173.100 Y125.600 F5400
G0 X177.652 Y133.900
G0 X177.652 Y133.900
G0 X183.100 Y133.900
G0 X183.100 Y142.101
G0 X182.150 Y142.101
G0 X182.150 Y142.101
G0 X183.219 Y144.051
;segType:HShell
G0 X183.213 Y144.039
G1 X181.634 Y142.461 E69.2734 F2400
G0 X182.200 Y142.461 F5400
G1 X183.779 Y144.039 E69.3476 F2400
G0 X184.344 Y144.039 F5400
G1 X182.765 Y142.461 E69.4219 F2400
G0 X183.331 Y142.461 F5400
G1 X184.910 Y144.039 E69.4962 F2400
G0 X185.476 Y144.039 F5400
G1 X183.461 Y142.024 E69.5909 F2400
;segType:Perimeter
G0 X183.500 Y141.700 F5400
G1 X182.700 Y141.700 E69.6176 F1439
G1 X175.300 Y141.700 E69.8637
G1 X175.300 Y134.300 E70.1099
G1 X182.700 Y134.300 E70.3560
G1 X182.700 Y141.700 E70.6022
G0 X182.700 Y142.500 F5400
;segType:Loop
G0 X181.600 Y142.101
G1 X174.900 Y142.101 E70.8250 F2400
G1 X174.900 Y133.900 E71.0978
G1 X183.100 Y133.900 E71.3706
G1 X183.100 Y142.101 E71.6433
G1 X181.800 Y142.101 E71.6866
;segType:HShell
G0 X172.961 Y143.404 F5400
G1 X173.596 Y144.039 E71.7165 F2400
G0 X174.162 Y144.039 F5400
G1 X172.961 Y142.838 E71.7730 F2400
G0 X172.961 Y142.272 F5400
G1 X174.728 Y144.039 E71.8561 F2400
G0 X175.293 Y144.039 F5400
G1 X172.961 Y141.707 E71.9658 F2400
G0 X172.961 Y141.141 F5400
G1 X175.859 Y144.039 E72.1022 F2400
G0 X176.425 Y144.039 F5400
G1 X174.846 Y142.461 E72.1764 F2400
G0 X175.412 Y142.461 F5400
G1 X176.990 Y144.039 E72.2507 F2400
G0 X177.556 Y144.039 F5400
G1 X175.977 Y142.461 E72.3250 F2400
G0 X176.543 Y142.461 F5400
G1 X178.122 Y144.039 E72.3992 F2400
G0 X178.688 Y144.039 F5400
G1 X177.109 Y142.461 E72.4735 F2400
G0 X177.674 Y142.461 F5400
G1 X179.253 Y144.039 E72.5478 F2400
G0 X179.819 Y144.039 F5400
G1 X178.240 Y142.461 E72.6220 F2400
G0 X178.806 Y142.461 F5400
G1 X180.385 Y144.039 E72.6963 F2400
G0 X180.950 Y144.039 F5400
G1 X179.371 Y142.461 E72.7706 F2400
G0 X179.937 Y142.461 F5400
G1 X181.516 Y144.039 E72.8448 F2400
G0 X182.082 Y144.039 F5400
G1 X180.503 Y142.461 E72.9191 F2400
G0 X181.068 Y142.461 F5400
G1 X182.647 Y144.039 E72.9934 F2400
G0 X183.461 Y141.459 F5400
G1 X186.041 Y144.039 E73.1148 F2400
G0 X186.607 Y144.039 F5400
G1 X183.461 Y140.893 E73.2628 F2400
G0 X183.461 Y140.327 F5400
G1 X187.173 Y144.039 E73.4374 F2400
G0 X187.738 Y144.039 F5400
G1 X183.461 Y139.762 E73.6386 F2400
G0 X183.461 Y139.196 F5400
G1 X188.304 Y144.039 E73.8664 F2400
G0 X188.870 Y144.039 F5400
G1 X183.461 Y138.630 E74.1209 F2400
G0 X183.461 Y138.065 F5400
G1 X189.436 Y144.039 E74.4019 F2400
G0 X190.001 Y144.039 F5400
G1 X183.461 Y137.499 E74.7096 F2400
G0 X183.461 Y136.933 F5400
G1 X190.567 Y144.039 E75.0438 F2400
G0 X191.039 Y143.946 F5400
G1 X183.461 Y136.367 E75.4003 F2400
G0 X183.461 Y135.802 F5400
G1 X191.039 Y143.381 E75.7568 F2400
G0 X191.039 Y142.815 F5400
G1 X183.461 Y135.236 E76.1133 F2400
G0 X183.461 Y134.670 F5400
G1 X191.039 Y142.249 E76.4698 F2400
G0 X191.039 Y141.684 F5400
G1 X183.461 Y134.105 E76.8263 F2400
G0 X182.895 Y133.539 F5400
G1 X175.316 Y125.961 E77.1828 F2400
G0 X174.751 Y125.961 F5400
G1 X182.330 Y133.539 E77.5392 F2400
G0 X181.764 Y133.539 F5400
G1 X174.185 Y125.961 E77.8957 F2400
G0 X173.619 Y125.961 F5400
G1 X181.198 Y133.539 E78.2522 F2400
G0 X181.183 Y126.736 F5400
G1 X180.408 Y125.961 E78.2887 F2400
G0 X179.842 Y125.961 F5400
G1 X181.318 Y127.436 E78.3581 F2400
G0 X181.525 Y128.209 F5400
G1 X179.276 Y125.961 E78.4639 F2400
G0 X178.711 Y125.961 F5400
G1 X181.836 Y129.086 E78.6109 F2400
G0 X182.314 Y130.130 F5400
G1 X178.145 Y125.961 E78.8070 F2400
G0 X177.579 Y125.961 F5400
G1 X183.386 Y131.767 E79.0801 F2400
G0 X186.856 Y134.671 F5400
G1 X191.039 Y138.855 E79.2769 F2400
G0 X191.039 Y138.290 F5400
G1 X187.924 Y135.174 E79.4235 F2400
G0 X188.792 Y135.476 F5400
G1 X191.039 Y137.724 E79.5292 F2400
G0 X191.039 Y137.158 F5400
G1 X189.562 Y135.681 E79.5987 F2400
G0 X190.265 Y135.818 F5400
G1 X191.039 Y136.592 E79.6351 F2400
G0 X185.268 Y133.650 F5400
G1 X191.039 Y139.421 E79.9066 F2400
G0 X191.039 Y139.987 F5400
G1 X177.013 Y125.961 E80.5663 F2400
G0 X176.448 Y125.961 F5400
G1 X191.039 Y140.552 E81.2526 F2400
G0 X191.039 Y141.118 F5400
G1 X175.882 Y125.961 E81.9656 F2400
G0 X172.961 Y126.433 F5400
G1 X180.067 Y133.539 E82.2999 F2400
G0 X179.501 Y133.539 F5400
G1 X172.961 Y126.999 E82.6075 F2400
G0 X172.961 Y127.565 F5400
G1 X178.936 Y133.539 E82.8886 F2400
G0 X178.370 Y133.539 F5400
G1 X172.961 Y128.130 E83.1430 F2400
G0 X172.961 Y128.696 F5400
G1 X177.804 Y133.539 E83.3708 F2400
G0 X177.238 Y133.539 F5400
G1 X172.961 Y129.262 E83.5720 F2400
G0 X172.961 Y129.827 F5400
G1 X176.673 Y133.539 E83.7467 F2400
G0 X176.107 Y133.539 F5400
G1 X172.961 Y130.393 E83.8947 F2400
G0 X172.961 Y130.959 F5400
G1 X175.541 Y133.539 E84.0161 F2400
G0 X174.976 Y133.539 F5400
G1 X172.961 Y131.524 E84.1108 F2400
G0 X172.961 Y132.090 F5400
G1 X174.539 Y133.669 E84.1851 F2400
G0 X174.539 Y134.235 F5400
G1 X172.961 Y132.656 E84.2594 F2400
G0 X172.961 Y133.221 F5400
G1 X174.539 Y134.800 E84.3336 F2400
G0 X174.539 Y135.366 F5400
G1 X172.961 Y133.787 E84.4079 F2400
G0 X172.961 Y134.353 F5400
G1 X174.539 Y135.932 E84.4822 F2400
G0 X174.539 Y136.497 F5400
G1 X172.961 Y134.918 E84.5564 F2400
G0 X172.961 Y135.484 F5400
G1 X174.539 Y137.063 E84.6307 F2400
G0 X174.539 Y137.629 F5400
G1 X172.961 Y136.050 E84.7050 F2400
G0 X172.961 Y136.615 F5400
G1 X174.539 Y138.194 E84.7792 F2400
G0 X174.539 Y138.760 F5400
G1 X172.961 Y137.181 E84.8535 F2400
G0 X172.961 Y137.747 F5400
G1 X174.539 Y139.326 E84.9278 F2400
G0 X174.539 Y139.891 F5400
G1 X172.961 Y138.313 E85.0020 F2400
G0 X172.961 Y138.878 F5400
G1 X174.539 Y140.457 E85.0763 F2400
G0 X174.539 Y141.023 F5400
G1 X172.961 Y139.444 E85.1505 F2400
G0 X172.961 Y140.010 F5400
G1 X174.539 Y141.588 E85.2248 F2400
G0 X174.539 Y142.154 F5400
G1 X172.961 Y140.575 E85.2991 F2400
G0 F3000 E84.2991
G0 F1200 Z1.200
G0 X175.189 Y138.915 F5400
G0 X177.418 Y137.254
G0 X179.646 Y135.594
G0 X181.875 Y133.933
G0 X186.332 Y130.612
G0 X188.561 Y128.952
G0 X190.790 Y127.292
G0 F1200 Z0.200
G0 F3000 E85.2991
G1 X189.708 Y126.210 E85.3499 F2400
G0 X189.143 Y126.210 F5400
G1 X190.790 Y127.857 E85.4274 F2400
G0 X190.790 Y128.423 F5400
G1 X188.577 Y126.210 E85.5315 F2400
G0 X188.011 Y126.210 F5400
G1 X190.790 Y128.989 E85.6621 F2400
;segType:Perimeter
G0 X191.343 Y129.499 F5400
G1 X191.550 Y130.271 E85.6887 F1439
G1 X191.123 Y130.226 E85.7030
G1 X190.499 Y130.082 E85.7243
G1 X189.898 Y129.864 E85.7456
G1 X189.327 Y129.576 E85.7668
G1 X188.795 Y129.220 E85.7881
G1 X188.310 Y128.803 E85.8094
G1 X187.878 Y128.331 E85.8307
G1 X187.507 Y127.810 E85.8520
G1 X187.201 Y127.248 E85.8732
G1 X186.965 Y126.653 E85.8945
G1 X186.803 Y126.034 E85.9158
G1 X186.730 Y125.500 E85.9337
G1 X186.771 Y125.450 E85.9359
G1 X191.550 Y125.450 E86.0948
G1 X191.550 Y130.271 E86.2552
G0 X190.803 Y129.984 F5400
;segType:Loop
G0 X190.519 Y129.664
G1 X190.057 Y129.497 E86.2715 F2400
G1 X189.529 Y129.230 E86.2912
G1 X189.037 Y128.901 E86.3109
G1 X188.589 Y128.516 E86.3305
G1 X188.190 Y128.079 E86.3502
G1 X187.847 Y127.597 E86.3699
G1 X187.564 Y127.078 E86.3896
G1 X187.346 Y126.528 E86.4092
G1 X187.196 Y125.956 E86.4289
G1 X187.165 Y125.729 E86.4365
G1 X187.229 Y125.850 E86.4411
G1 X191.150 Y125.850 E86.5715
G1 X191.150 Y129.827 E86.7038
G1 X191.189 Y129.831 E86.7051
G1 X190.710 Y129.720 E86.7215
;segType:HShell
G0 X190.515 Y129.279 F5400
G1 X187.714 Y126.479 E86.8532 F2400
G0 X188.344 Y127.674 F5400
G1 X189.339 Y128.670 E86.9000 F2400
G0 X190.274 Y126.210 F5400
G1 X190.790 Y126.726 E86.9243 F2400
G0 F3000 E85.9243
G0 F1200 Z1.200
G0 X193.210 Y121.227 F5400
G0 F1200 Z0.200
G0 F3000 E86.9243
G1 X195.773 Y123.790 E87.0448 F2400
G0 X196.013 Y122.899 F5400
G1 X194.102 Y120.987 E87.1347 F2400
G0 X193.171 Y120.622 F5400
G1 X196.339 Y123.790 E87.2837 F2400
;segType:Perimeter
G0 X197.285 Y124.604 F5400
G1 X197.281 Y124.550 E87.2855 F1439
G1 X192.450 Y124.550 E87.4462
G1 X192.450 Y119.729 E87.6065
G1 X192.877 Y119.774 E87.6208
G1 X193.501 Y119.918 E87.6421
G1 X194.102 Y120.136 E87.6634
G1 X194.673 Y120.424 E87.6846
G1 X195.205 Y120.780 E87.7059
G1 X195.690 Y121.197 E87.7272
G1 X196.122 Y121.669 E87.7485
G1 X196.493 Y122.190 E87.7698
G1 X196.799 Y122.752 E87.7910
G1 X197.035 Y123.347 E87.8123
G1 X197.197 Y123.966 E87.8336
G1 X197.285 Y124.604 E87.8550
G0 X197.285 Y124.604 F5400
G0 X197.285 Y124.604
G0 X197.285 Y124.604
G0 X197.285 Y124.604
G0 X197.281 Y124.550
G0 X197.160 Y124.550
G0 X197.160 Y124.550
G0 X196.224 Y124.144
;segType:Loop
G0 X196.236 Y124.150
G1 X192.850 Y124.150 E87.9676 F2400
G1 X192.850 Y120.243 E88.0976
G1 X192.943 Y120.200 E88.1010
G1 X193.387 Y120.302 E88.1161
G1 X193.943 Y120.503 E88.1358
G1 X194.471 Y120.770 E88.1555
G1 X194.963 Y121.099 E88.1751
G1 X195.411 Y121.484 E88.1948
G1 X195.810 Y121.921 E88.2145
G1 X196.153 Y122.403 E88.2341
G1 X196.436 Y122.922 E88.2538
G1 X196.654 Y123.472 E88.2735
G1 X196.805 Y124.045 E88.2932
G1 X196.820 Y124.150 E88.2967
G1 X196.436 Y124.150 E88.3095
;segType:HShell
G0 X193.210 Y123.490 F5400
G1 X193.510 Y123.790 E88.3236 F2400
G0 X194.076 Y123.790 F5400
G1 X193.210 Y122.924 E88.3643 F2400
G0 X193.210 Y122.359 F5400
G1 X194.641 Y123.790 E88.4316 F2400
G0 X195.207 Y123.790 F5400
G1 X193.210 Y121.793 E88.5255 F2400
G0 F3000 E87.5255
G0 F1200 Z1.200
G0 X195.043 Y119.807 F5400
G0 X196.875 Y117.821
G0 X198.707 Y115.835
G0 X200.539 Y113.848
G0 F1200 Z0.200
G0 F3000 E88.5255
G1 X192.961 Y106.269 E88.8820 F2400
;segType:Perimeter
G0 X192.407 Y105.973 F5400
G1 X192.200 Y105.200 E88.9086 F1439
G1 X211.800 Y105.200 E89.5605
G1 X211.800 Y124.800 E90.2123
G1 X202.194 Y124.800 E90.5318
G1 X202.176 Y124.289 E90.5488
G1 X202.101 Y123.580 E90.5725
G1 X201.978 Y122.879 E90.5962
G1 X201.805 Y122.188 E90.6199
G1 X201.585 Y121.511 E90.6436
G1 X201.319 Y120.851 E90.6672
G1 X201.006 Y120.211 E90.6909
G1 X200.650 Y119.594 E90.7146
G1 X200.252 Y119.004 E90.7383
G1 X199.814 Y118.443 E90.7620
G1 X199.338 Y117.914 E90.7856
G1 X198.825 Y117.419 E90.8093
G1 X198.280 Y116.962 E90.8330
G1 X197.704 Y116.543 E90.8567
G1 X197.100 Y116.166 E90.8804
G1 X196.472 Y115.832 E90.9040
G1 X195.821 Y115.542 E90.9277
G1 X195.152 Y115.299 E90.9514
G1 X194.468 Y115.102 E90.9751
G1 X193.771 Y114.954 E90.9988
G1 X193.066 Y114.855 E91.0224
G1 X192.358 Y114.806 E91.0461
G1 X192.200 Y114.803 E91.0513
G1 X192.200 Y105.200 E91.3707
G0 X192.973 Y105.407 F5400
;segType:Loop
G0 X193.300 Y105.600
G1 X211.400 Y105.600 E91.9727 F2400
G1 X211.400 Y124.400 E92.5979
G1 X202.580 Y124.400 E92.8913
G1 X202.575 Y124.261 E92.8959
G1 X202.498 Y123.525 E92.9205
G1 X202.369 Y122.796 E92.9451
G1 X202.190 Y122.078 E92.9698
G1 X201.961 Y121.374 E92.9944
G1 X201.684 Y120.688 E93.0190
G1 X201.360 Y120.023 E93.0436
G1 X200.990 Y119.382 E93.0682
G1 X200.576 Y118.769 E93.0928
G1 X200.121 Y118.186 E93.1174
G1 X199.626 Y117.636 E93.1420
G1 X199.093 Y117.122 E93.1666
G1 X198.526 Y116.646 E93.1912
G1 X197.928 Y116.212 E93.2158
G1 X197.301 Y115.820 E93.2405
G1 X196.647 Y115.472 E93.2651
G1 X195.971 Y115.171 E93.2897
G1 X195.276 Y114.918 E93.3143
G1 X194.565 Y114.714 E93.3389
G1 X193.841 Y114.560 E93.3635
G1 X193.106 Y114.457 E93.3882
G1 X192.600 Y114.426 E93.4050
G1 X192.600 Y105.600 E93.6986
G1 X193.100 Y105.600 E93.7152
G0 X193.100 Y105.600 F5400
G0 X200.900 Y111.194
G0 X200.900 Y111.194
G0 X200.900 Y116.100
G0 X207.741 Y116.100
G0 X207.741 Y116.100
G0 X208.253 Y116.468
;segType:HShell
G0 X208.243 Y116.461
G1 X211.039 Y119.257 E93.8468 F2400
G0 X211.039 Y118.692 F5400
G1 X208.809 Y116.461 E93.9517 F2400
G0 X209.374 Y116.461 F5400
G1 X211.039 Y118.126 E94.0300 F2400
G0 X211.039 Y117.560 F5400
G1 X209.461 Y115.981 E94.1043 F2400
;segType:Perimeter
G0 X209.500 Y115.700 F5400
G1 X208.700 Y115.700 E94.1309 F1439
G1 X201.300 Y115.700 E94.3771
G1 X201.300 Y108.300 E94.6232
G1 X208.700 Y108.300 E94.8694
G1 X208.700 Y115.700 E95.1155
G0 X208.700 Y116.500 F5400
;segType:Loop
G0 X207.600 Y116.100
G1 X200.900 Y116.100 E95.3384 F2400
G1 X200.900 Y107.900 E95.6112
G1 X209.100 Y107.900 E95.8839
G1 X209.100 Y116.100 E96.1567
G1 X207.800 Y116.100 E96.1999
;segType:HShell
G0 X207.677 Y116.461 F5400
G1 X211.039 Y119.823 E96.3581 F2400
G0 X211.039 Y120.389 F5400
G1 X207.111 Y116.461 E96.5429 F2400
G0 X206.546 Y116.461 F5400
G1 X211.039 Y120.954 E96.7542 F2400
G0 X211.039 Y121.520 F5400
G1 X205.980 Y116.461 E96.9922 F2400
G0 X205.414 Y116.461 F5400
G1 X211.039 Y122.086 E97.2568 F2400
G0 X211.039 Y122.651 F5400
G1 X204.849 Y116.461 E97.5480 F2400
G0 X204.283 Y116.461 F5400
G1 X211.039 Y123.217 E97.8658 F2400
G0 X211.039 Y123.783 F5400
G1 X203.717 Y116.461 E98.2102 F2400
G0 X203.152 Y116.461 F5400
G1 X210.731 Y124.039 E98.5667 F2400
G0 X210.165 Y124.039 F5400
G1 X202.586 Y116.461 E98.9232 F2400
G0 X202.020 Y116.461 F5400
G1 X209.599 Y124.039 E99.2797 F2400
G0 X209.034 Y124.039 F5400
G1 X201.455 Y116.461 E99.6362 F2400
G0 X200.889 Y116.461 F5400
G1 X208.468 Y124.039 E99.9927 F2400
G0 X207.902 Y124.039 F5400
G1 X192.961 Y109.098 E100.6955 F2400
G0 X192.961 Y109.664 F5400
G1 X207.336 Y124.039 E101.3717 F2400
G0 X206.771 Y124.039 F5400
G1 X192.961 Y110.229 E102.0213 F2400
G0 X192.961 Y106.835 F5400
G1 X200.539 Y114.414 E102.3777 F2400
G0 X200.539 Y114.980 F5400
G1 X192.961 Y107.401 E102.7342 F2400
G0 X192.961 Y107.967 F5400
G1 X200.539 Y115.545 E103.0907 F2400
G0 X200.539 Y116.111 F5400
G1 X192.961 Y108.532 E103.4472 F2400
G0 X192.961 Y110.795 F5400
G1 X197.994 Y115.828 E103.6840 F2400
G0 X196.702 Y115.102 F5400
G1 X192.961 Y111.361 E103.8600 F2400
G0 X192.961 Y111.926 F5400
G1 X195.737 Y114.703 E103.9906 F2400
G0 X194.906 Y114.437 F5400
G1 X192.961 Y112.492 E104.0821 F2400
G0 X192.961 Y113.058 F5400
G1 X194.164 Y114.261 E104.1386 F2400
G0 X193.484 Y114.146 F5400
G1 X192.961 Y113.623 E104.1632 F2400
G0 X193.913 Y114.576 F5400
G0 X194.565 Y114.714
G0 X195.276 Y114.918
G0 X195.971 Y115.171
G0 X196.647 Y115.472
G0 X197.301 Y115.820
G0 X197.928 Y116.212
G0 X198.526 Y116.646
G0 X199.093 Y117.122
G0 X199.626 Y117.636
G0 X200.121 Y118.186
G0 X200.576 Y118.769
G0 X200.990 Y119.382
G0 X201.360 Y120.023
G0 X201.684 Y120.688
G0 X201.961 Y121.374
G0 X202.190 Y122.078
G0 X202.369 Y122.796
G0 X202.420 Y123.082
G0 X202.420 Y123.082
G0 X202.868 Y123.531
G0 X202.859 Y123.522
G1 X203.377 Y124.039 E104.1876 F2400
G0 X203.942 Y124.039 F5400
G1 X202.743 Y122.840 E104.2440 F2400
G0 X202.566 Y122.098 F5400
G1 X204.508 Y124.039 E104.3354 F2400
G0 X205.074 Y124.039 F5400
G1 X202.307 Y121.273 E104.4655 F2400
G0 X201.891 Y120.292 F5400
G1 X205.639 Y124.039 E104.6418 F2400
G0 X206.205 Y124.039 F5400
G1 X201.168 Y119.002 E104.8787 F2400
G0 X200.539 Y113.283 F5400
G1 X193.217 Y105.961 E105.2231 F2400
G0 X193.783 Y105.961 F5400
G1 X200.539 Y112.717 E105.5409 F2400
G0 X200.539 Y112.151 F5400
G1 X194.349 Y105.961 E105.8321 F2400
G0 X194.914 Y105.961 F5400
G1 X200.539 Y111.586 E106.0967 F2400
G0 X200.539 Y111.020 F5400
G1 X195.480 Y105.961 E106.3347 F2400
G0 X196.046 Y105.961 F5400
G1 X200.539 Y110.454 E106.5461 F2400
G0 X200.539 Y109.889 F5400
G1 X196.611 Y105.961 E106.7308 F2400
G0 X197.177 Y105.961 F5400
G1 X200.539 Y109.323 E106.8890 F2400
G0 X200.539 Y108.757 F5400
G1 X197.743 Y105.961 E107.0205 F2400
G0 X198.309 Y105.961 F5400
G1 X200.539 Y108.192 E107.1255 F2400
G0 X200.539 Y107.626 F5400
G1 X198.874 Y105.961 E107.2038 F2400
G0 X199.440 Y105.961 F5400
G1 X201.019 Y107.539 E107.2781 F2400
G0 X201.584 Y107.539 F5400
G1 X200.006 Y105.961 E107.3523 F2400
G0 X200.571 Y105.961 F5400
G1 X202.150 Y107.539 E107.4266 F2400
G0 X202.716 Y107.539 F5400
G1 X201.137 Y105.961 E107.5009 F2400
G0 X201.703 Y105.961 F5400
G1 X203.281 Y107.539 E107.5751 F2400
G0 X203.847 Y107.539 F5400
G1 X202.268 Y105.961 E107.6494 F2400
G0 X202.834 Y105.961 F5400
G1 X204.413 Y107.539 E107.7237 F2400
G0 X204.979 Y107.539 F5400
G1 X203.400 Y105.961 E107.7979 F2400
G0 X203.965 Y105.961 F5400
G1 X205.544 Y107.539 E107.8722 F2400
G0 X206.110 Y107.539 F5400
G1 X204.531 Y105.961 E107.9464 F2400
G0 X205.097 Y105.961 F5400
G1 X206.676 Y107.539 E108.0207 F2400
G0 X207.241 Y107.539 F5400
G1 X205.662 Y105.961 E108.0950 F2400
G0 X206.228 Y105.961 F5400
G1 X207.807 Y107.539 E108.1692 F2400
G0 X208.373 Y107.539 F5400
G1 X206.794 Y105.961 E108.2435 F2400
G0 X207.359 Y105.961 F5400
G1 X208.938 Y107.539 E108.3178 F2400
G0 X207.925 Y105.961 F5400
G1 X211.039 Y109.075 E108.4643 F2400
G0 X211.039 Y108.509 F5400
G1 X208.491 Y105.961 E108.5841 F2400
G0 X209.057 Y105.961 F5400
G1 X211.039 Y107.944 E108.6774 F2400
G0 X211.039 Y107.378 F5400
G1 X209.622 Y105.961 E108.7441 F2400
G0 X210.188 Y105.961 F5400
G1 X211.039 Y106.812 E108.7841 F2400
G0 X211.039 Y106.246 F5400
G1 X210.754 Y105.961 E108.7976 F2400
G0 X209.461 Y108.062 F5400
G1 X211.039 Y109.641 E108.8718 F2400
G0 X211.039 Y110.206 F5400
G1 X209.461 Y108.627 E108.9461 F2400
G0 X209.461 Y109.193 F5400
G1 X211.039 Y110.772 E109.0204 F2400
G0 X211.039 Y111.338 F5400
G1 X209.461 Y109.759 E109.0946 F2400
G0 X209.461 Y110.324 F5400
G1 X211.039 Y111.903 E109.1689 F2400
G0 X211.039 Y112.469 F5400
G1 X209.461 Y110.890 E109.2432 F2400
G0 X209.461 Y111.456 F5400
G1 X211.039 Y113.035 E109.3174 F2400
G0 X211.039 Y113.600 F5400
G1 X209.461 Y112.022 E109.3917 F2400
G0 X209.461 Y112.587 F5400
G1 X211.039 Y114.166 E109.4660 F2400
G0 X211.039 Y114.732 F5400
G1 X209.461 Y113.153 E109.5402 F2400
G0 X209.461 Y113.719 F5400
G1 X211.039 Y115.297 E109.6145 F2400
G0 X211.039 Y115.863 F5400
G1 X209.461 Y114.284 E109.6887 F2400
G0 X209.461 Y114.850 F5400
G1 X211.039 Y116.429 E109.7630 F2400
G0 X211.039 Y116.994 F5400
G1 X209.461 Y115.416 E109.8373 F2400
G0 F3000 E108.8373
G0 F1200 Z1.200
G0 X202.710 Y135.818 F5400
G0 F1200 Z0.200
G0 F3000 E109.8373
G1 X207.181 Y140.289 E110.0476 F2400
G0 X206.616 Y140.289 F5400
G1 X202.710 Y136.384 E110.2313 F2400
;segType:Perimeter
G0 X202.157 Y135.723 F5400
G1 X201.950 Y134.950 E110.2579 F1439
G1 X208.049 Y134.950 E110.4607
G1 X208.049 Y141.050 E110.6636
G1 X201.950 Y141.050 E110.8665
G1 X201.950 Y134.950 E111.0693
G0 X202.723 Y135.157 F5400
;segType:Loop
G0 X203.050 Y135.350
G1 X207.649 Y135.350 E111.2223 F2400
G1 X207.649 Y140.649 E111.3985
G1 X202.350 Y140.649 E111.5748
G1 X202.350 Y135.350 E111.7510
G1 X202.850 Y135.350 E111.7677
;segType:HShell
G0 X203.168 Y135.710 F5400
G1 X207.289 Y139.832 E111.9615 F2400
G0 X207.289 Y139.266 F5400
G1 X203.734 Y135.710 E112.1287 F2400
G0 X204.300 Y135.710 F5400
G1 X207.289 Y138.700 E112.2694 F2400
G0 X207.289 Y138.135 F5400
G1 X204.865 Y135.710 E112.3834 F2400
G0 X205.431 Y135.710 F5400
G1 X207.289 Y137.569 E112.4708 F2400
G0 X207.289 Y137.003 F5400
G1 X205.997 Y135.710 E112.5316 F2400
G0 X206.562 Y135.710 F5400
G1 X207.289 Y136.437 E112.5658 F2400
G0 X202.710 Y139.778 F5400
G1 X203.222 Y140.289 E112.5898 F2400
G0 X203.787 Y140.289 F5400
G1 X202.710 Y139.212 E112.6405 F2400
G0 X202.710 Y138.647 F5400
G1 X204.353 Y140.289 E112.7178 F2400
G0 X204.919 Y140.289 F5400
G1 X202.710 Y138.081 E112.8216 F2400
G0 X202.710 Y137.515 F5400
G1 X205.484 Y140.289 E112.9521 F2400
G0 X206.050 Y140.289 F5400
G1 X202.710 Y136.950 E113.1092 F2400
; ------------------------------------
; Layer #1
; ------------------------------------
M106 S0 T1 ;turn off fan 2
G92 E0 ;reset extr
;segType:HShell
G0 F3000 E-1.0000
G0 F1200 Z1.400
G0 X179.855 Y109.961 F7200
G0 F1200 Z0.400
G0 F3000 E0.0000
G1 X176.961 Y112.855 E0.1361 F3000
G0 X176.961 Y112.289 F7200
G1 X179.289 Y109.961 E0.2457 F3000
G0 X178.724 Y109.961 F7200
G1 X176.961 Y111.724 E0.3286 F3000
G0 X176.961 Y111.158 F7200
G1 X178.158 Y109.961 E0.3850 F3000
G0 X177.592 Y109.961 F7200
G1 X176.961 Y110.592 E0.4147 F3000
;segType:Perimeter
G0 X176.408 Y109.973 F7200
G1 X176.200 Y109.200 E0.4413 F1799
G1 X181.799 Y109.200 E0.6275
G1 X181.799 Y114.800 E0.8137
G1 X176.200 Y114.800 E0.9999
G1 X176.200 Y109.200 E1.1862
G0 X176.973 Y109.408 F7200
;segType:Loop
G0 X177.300 Y109.600
G1 X181.399 Y109.600 E1.3225 F3000
G1 X181.399 Y114.400 E1.4821
G1 X176.600 Y114.400 E1.6417
G1 X176.600 Y109.600 E1.8014
G1 X177.100 Y109.600 E1.8180
;segType:HShell
G0 X176.961 Y113.421 F7200
G1 X180.421 Y109.961 E1.9807 F3000
G0 X180.987 Y109.961 F7200
G1 X176.961 Y113.987 E2.1701 F3000
G0 X177.473 Y114.039 F7200
G1 X181.039 Y110.473 E2.3378 F3000
G0 X181.039 Y111.039 F7200
G1 X178.039 Y114.039 E2.4790 F3000
G0 X178.605 Y114.039 F7200
G1 X181.039 Y111.605 E2.5935 F3000
G0 X181.039 Y112.171 F7200
G1 X179.170 Y114.039 E2.6814 F3000
G0 X179.736 Y114.039 F7200
G1 X181.039 Y112.736 E2.7427 F3000
G0 X181.039 Y113.302 F7200
G1 X180.302 Y114.039 E2.7774 F3000
G0 E1.7774
G0 F1200 Z1.400
G0 X195.735 Y105.961 F7200
G0 F1200 Z0.400
G0 F3000 E2.7774
G1 X192.961 Y108.735 E2.9078 F3000
G0 X192.961 Y108.169 F7200
G1 X195.169 Y105.961 E3.0117 F3000
G0 X194.603 Y105.961 F7200
G1 X192.961 Y107.603 E3.0890 F3000
G0 X192.961 Y107.038 F7200
G1 X194.038 Y105.961 E3.1396 F3000
G0 X193.472 Y105.961 F7200
G1 X192.961 Y106.472 E3.1637 F3000
;segType:Perimeter
G0 X192.407 Y105.973 F7200
G1 X192.200 Y105.200 E3.1903 F1799
G1 X211.800 Y105.200 E3.8422
G1 X211.800 Y124.800 E4.4940
G1 X202.194 Y124.800 E4.8135
G1 X202.176 Y124.289 E4.8306
G1 X202.101 Y123.580 E4.8542
G1 X201.978 Y122.879 E4.8779
G1 X201.805 Y122.188 E4.9016
G1 X201.585 Y121.511 E4.9253
G1 X201.319 Y120.851 E4.9490
G1 X201.006 Y120.211 E4.9726
G1 X200.650 Y119.594 E4.9963
G1 X200.252 Y119.004 E5.0200
G1 X199.814 Y118.443 E5.0437
G1 X199.338 Y117.914 E5.0674
G1 X198.825 Y117.419 E5.0910
G1 X198.280 Y116.962 E5.1147
G1 X197.704 Y116.543 E5.1384
G1 X197.100 Y116.166 E5.1621
G1 X196.472 Y115.832 E5.1858
G1 X195.821 Y115.542 E5.2094
G1 X195.152 Y115.299 E5.2331
G1 X194.468 Y115.102 E5.2568
G1 X193.771 Y114.954 E5.2805
G1 X193.066 Y114.855 E5.3042
G1 X192.358 Y114.806 E5.3278
G1 X192.200 Y114.803 E5.3330
G1 X192.200 Y105.200 E5.6524
G0 X192.973 Y105.407 F7200
;segType:Loop
G0 X193.300 Y105.600
G1 X211.400 Y105.600 E6.2544 F3000
G1 X211.400 Y124.400 E6.8797
G1 X202.580 Y124.400 E7.1730
G1 X202.575 Y124.261 E7.1776
G1 X202.498 Y123.525 E7.2022
G1 X202.369 Y122.796 E7.2268
G1 X202.190 Y122.078 E7.2515
G1 X201.961 Y121.374 E7.2761
G1 X201.684 Y120.688 E7.3007
G1 X201.360 Y120.023 E7.3253
G1 X200.990 Y119.382 E7.3499
G1 X200.576 Y118.769 E7.3745
G1 X200.121 Y118.186 E7.3991
G1 X199.626 Y117.636 E7.4237
G1 X199.093 Y117.122 E7.4483
G1 X198.526 Y116.646 E7.4729
G1 X197.928 Y116.212 E7.4976
G1 X197.301 Y115.820 E7.5222
G1 X196.647 Y115.472 E7.5468
G1 X195.971 Y115.171 E7.5714
G1 X195.276 Y114.918 E7.5960
G1 X194.565 Y114.714 E7.6206
G1 X193.841 Y114.560 E7.6452
G1 X193.106 Y114.457 E7.6699
G1 X192.600 Y114.426 E7.6867
G1 X192.600 Y105.600 E7.9803
G1 X193.100 Y105.600 E7.9969
;segType:HShell
G0 X202.723 Y122.731 F7200
G1 X208.993 Y116.461 E8.2918 F3000
G0 X209.461 Y115.428 F7200
G1 X211.039 Y113.849 E8.3661 F3000
G0 X211.039 Y114.414 F7200
G1 X209.461 Y115.993 E8.4404 F3000
;segType:Perimeter
G0 X209.500 Y115.700 F7200
G1 X208.700 Y115.700 E8.4670 F1799
G1 X201.300 Y115.700 E8.7131
G1 X201.300 Y108.300 E8.9593
G1 X208.700 Y108.300 E9.2054
G1 X208.700 Y115.700 E9.4516
G0 X208.700 Y116.500 F7200
;segType:Loop
G0 X207.600 Y116.100
G1 X200.900 Y116.100 E9.6745 F3000
G1 X200.900 Y107.900 E9.9472
G1 X209.100 Y107.900 E10.2200
G1 X209.100 Y116.100 E10.4928
G1 X207.800 Y116.100 E10.5360
G0 X207.800 Y116.100 F7200
G0 X209.100 Y116.100
G0 X209.100 Y115.131
G0 X209.100 Y115.131
G0 X209.471 Y114.854
;segType:HShell
G0 X209.461 Y114.862
G1 X211.039 Y113.283 E10.6103 F3000
G0 X211.039 Y112.717 F7200
G1 X209.461 Y114.296 E10.6845 F3000
G0 X209.461 Y113.731 F7200
G1 X211.039 Y112.152 E10.7588 F3000
G0 X211.039 Y111.586 F7200
G1 X209.461 Y113.165 E10.8331 F3000
G0 X209.461 Y112.599 F7200
G1 X211.039 Y111.020 E10.9073 F3000
G0 X211.039 Y110.455 F7200
G1 X209.461 Y112.034 E10.9816 F3000
G0 X209.461 Y111.468 F7200
G1 X211.039 Y109.889 E11.0559 F3000
G0 X211.039 Y109.323 F7200
G1 X209.461 Y110.902 E11.1301 F3000
G0 X209.461 Y110.336 F7200
G1 X211.039 Y108.758 E11.2044 F3000
G0 X211.039 Y108.192 F7200
G1 X209.461 Y109.771 E11.2786 F3000
G0 X209.461 Y109.205 F7200
G1 X211.039 Y107.626 E11.3529 F3000
G0 X211.039 Y107.061 F7200
G1 X209.461 Y108.639 E11.4272 F3000
G0 X209.461 Y108.074 F7200
G1 X211.039 Y106.495 E11.5014 F3000
G0 X211.008 Y105.961 F7200
G1 X209.429 Y107.539 E11.5757 F3000
G0 X208.864 Y107.539 F7200
G1 X210.442 Y105.961 E11.6500 F3000
G0 X209.877 Y105.961 F7200
G1 X208.298 Y107.539 E11.7242 F3000
G0 X207.732 Y107.539 F7200
