; GCode generated by CraftWare

G28 X0 Y0
G28 Z0

M425 S1; Wiper Strip enabled
M430 Z0 F1200; Head change ZHop settings
M431 E4 F3000; Head change Exit Retract settings
M432 E0 F3000; Head change Enter Retract settings
M433 E4 F3000; Head change Enter Prime settings

M9006 S0; Selected Normal Dual Extruder Mode
M104 T0 S208 ;set head temp 1 (no wait)
M104 T1 S208 ;set head temp 2 (no wait)
M190 S60 ;set bed temp (wait)
M109 T0 S208 ;set head temp 1 (wait)
M109 T1 S208 ;set head temp 2 (wait)
; ------------------------------------
; Layer #0
; ------------------------------------
G21 ; mm
G90 ; abs
G92 E0 ;reset extr
T0 X185.569 Y132.990 Z0.200 F5400
M106 S0 T0 ;turn off fan 1
G92 E0 ;reset extr
;segType:Skirt
G1 X185.963 Y133.122 E0.0138 F2400
G1 X186.619 Y133.515 E0.0393
G1 X187.013 Y133.647 E0.0531
G1 X187.669 Y134.040 E0.0785
G1 X187.931 Y134.040 E0.0872
G1 X188.260 Y134.237 E0.1000
G1 X188.653 Y134.369 E0.1138
G1 X189.113 Y134.434 E0.1292
G1 X189.244 Y134.565 E0.1354
G1 X189.506 Y134.565 E0.1441
G1 X189.769 Y134.697 E0.1539
G1 X190.163 Y134.697 E0.1670
G1 X190.294 Y134.828 E0.1732
G1 X190.819 Y134.828 E0.1906
G1 X191.213 Y134.959 E0.2044
G1 X192.788 Y134.959 E0.2568
G1 X192.919 Y134.828 E0.2630
G1 X193.444 Y134.828 E0.2804
G1 X193.838 Y134.697 E0.2942
G1 X194.100 Y134.697 E0.3030
G1 X194.231 Y134.565 E0.3091
G1 X195.150 Y134.434 E0.3400
G1 X195.281 Y134.303 E0.3462
G1 X195.544 Y134.303 E0.3549
G1 X195.872 Y134.106 E0.3676
G1 X196.265 Y133.975 E0.3814
G1 X196.594 Y133.778 E0.3942
G1 X196.988 Y133.647 E0.4080
G1 X197.644 Y133.253 E0.4334
G1 X198.038 Y133.122 E0.4472
G1 X198.365 Y132.925 E0.4600
G1 X198.628 Y132.662 E0.4723
G1 X198.956 Y132.465 E0.4850
G1 X199.219 Y132.203 E0.4974
G1 X199.415 Y131.875 E0.5101
G1 X199.678 Y131.612 E0.5225
G1 X200.465 Y130.300 E0.5734
G1 X200.728 Y129.513 E0.6010
G1 X200.925 Y129.184 E0.6137
G1 X201.188 Y128.397 E0.6413
G1 X201.384 Y128.069 E0.6540
G1 X201.384 Y127.806 E0.6628
G1 X201.515 Y127.675 E0.6689
G1 X201.515 Y127.150 E0.6864
G1 X201.647 Y127.019 E0.6926
G1 X201.647 Y126.494 E0.7100
G1 X201.778 Y126.362 E0.7162
G1 X201.778 Y125.575 E0.7424
G1 X201.909 Y125.444 E0.7486
G1 X201.909 Y124.656 E0.7748
G1 X201.778 Y124.525 E0.7809
G1 X201.778 Y123.737 E0.8071
G1 X201.647 Y123.606 E0.8133
G1 X201.647 Y123.081 E0.8308
G1 X201.515 Y122.950 E0.8369
G1 X201.515 Y122.425 E0.8544
G1 X201.384 Y122.294 E0.8606
G1 X201.384 Y122.031 E0.8693
G1 X201.188 Y121.703 E0.8820
G1 X200.925 Y120.916 E0.9096
G1 X200.728 Y120.587 E0.9224
G1 X200.465 Y119.800 E0.9500
G1 X199.678 Y118.487 E1.0009
G1 X199.415 Y118.225 E1.0132
G1 X199.219 Y117.897 E1.0260
G1 X198.956 Y117.635 E1.0383
G1 X198.628 Y117.437 E1.0510
G1 X198.365 Y117.175 E1.0634
G1 X198.038 Y116.978 E1.0761
G1 X197.644 Y116.847 E1.0899
G1 X196.988 Y116.453 E1.1154
G1 X196.594 Y116.322 E1.1292
G1 X196.265 Y116.125 E1.1419
G1 X195.872 Y115.994 E1.1557
G1 X195.544 Y115.797 E1.1684
G1 X195.281 Y115.797 E1.1772
G1 X195.150 Y115.666 E1.1833
G1 X194.231 Y115.535 E1.2142
G1 X194.100 Y115.403 E1.2204
G1 X193.181 Y115.272 E1.2512
G1 X192.919 Y115.272 E1.2600
G1 X192.788 Y115.141 E1.2661
G1 X191.213 Y115.141 E1.3185
G1 X190.819 Y115.272 E1.3323
G1 X190.294 Y115.272 E1.3498
G1 X190.163 Y115.403 E1.3560
G1 X189.244 Y115.535 E1.3868
G1 X189.113 Y115.666 E1.3930
G1 X188.653 Y115.731 E1.4084
G1 X188.260 Y115.862 E1.4222
G1 X187.931 Y116.060 E1.4350
G1 X187.669 Y116.060 E1.4437
G1 X187.013 Y116.453 E1.4692
G1 X186.619 Y116.585 E1.4830
G1 X185.963 Y116.978 E1.5084
G1 X185.569 Y117.110 E1.5222
G1 X185.306 Y117.372 E1.5346
G1 X184.978 Y117.569 E1.5473
G1 X184.453 Y118.094 E1.5720
G1 X183.272 Y120.062 E1.6483
G1 X183.272 Y120.325 E1.6571
G1 X182.878 Y120.981 E1.6825
G1 X182.878 Y121.244 E1.6913
G1 X182.747 Y121.375 E1.6974
G1 X182.747 Y121.637 E1.7062
G1 X182.550 Y121.966 E1.7189
G1 X182.419 Y122.360 E1.7327
G1 X182.353 Y122.819 E1.7481
G1 X182.222 Y123.212 E1.7619
G1 X181.960 Y125.050 E1.8237
G1 X182.222 Y126.887 E1.8854
G1 X182.353 Y127.281 E1.8992
G1 X182.419 Y127.740 E1.9146
G1 X182.550 Y128.134 E1.9284
G1 X182.747 Y128.462 E1.9412
G1 X182.747 Y128.725 E1.9499
G1 X182.878 Y128.856 E1.9561
G1 X182.878 Y129.119 E1.9648
G1 X183.272 Y129.775 E1.9903
G1 X183.272 Y130.037 E1.9990
G1 X184.453 Y132.006 E2.0754
G1 X184.978 Y132.531 E2.1001
G1 X185.306 Y132.728 E2.1128
G1 X185.569 Y132.990 E2.1251
G0 F3000 E1.1251
G0 F1200 Z1.200
G0 X175.069 Y148.610 F5400
G0 F1200 Z0.200
G0 F3000 E2.1251
G1 X174.609 Y148.544 E2.1406 F2400
G1 X174.215 Y148.412 E2.1544
G1 X173.888 Y148.216 E2.1671
G1 X173.494 Y148.085 E2.1809
G1 X173.231 Y147.822 E2.1932
G1 X172.903 Y147.625 E2.2060
G1 X169.228 Y143.950 E2.3788
G1 X168.638 Y142.966 E2.4170
G1 X168.375 Y142.178 E2.4446
G1 X168.309 Y141.719 E2.4601
G1 X168.178 Y141.325 E2.4739
G1 X168.178 Y108.775 E3.5565
G1 X168.309 Y108.381 E3.5703
G1 X168.375 Y107.922 E3.5857
G1 X168.638 Y107.134 E3.6133
G1 X169.228 Y106.150 E3.6515
G1 X172.903 Y102.475 E3.8244
G1 X173.231 Y102.278 E3.8371
G1 X173.494 Y102.015 E3.8495
G1 X173.888 Y101.884 E3.8633
G1 X174.215 Y101.687 E3.8760
G1 X174.609 Y101.556 E3.8898
G1 X175.069 Y101.490 E3.9052
G1 X175.200 Y101.359 E3.9114
G1 X179.925 Y101.359 E4.0686
G1 X179.990 Y100.900 E4.0840
G1 X179.990 Y81.475 E4.7301
G1 X180.056 Y81.015 E4.7455
G1 X180.975 Y80.097 E4.7887
G1 X202.500 Y80.097 E5.5046
G1 X202.960 Y80.162 E5.5201
G1 X203.878 Y81.081 E5.5633
G1 X203.878 Y83.181 E5.6331
G1 X203.616 Y83.444 E5.6455
G1 X203.616 Y87.906 E5.7939
G1 X203.747 Y88.037 E5.8001
G1 X203.747 Y94.337 E6.0096
G1 X203.878 Y94.731 E6.0234
G1 X203.878 Y101.294 E6.2417
G1 X204.338 Y101.359 E6.2571
G1 X208.538 Y101.359 E6.3968
G1 X208.931 Y101.490 E6.4106
G1 X209.194 Y101.490 E6.4194
G1 X209.325 Y101.622 E6.4255
G1 X209.588 Y101.622 E6.4343
G1 X210.900 Y102.409 E6.4852
G1 X214.575 Y106.084 E6.6580
G1 X214.772 Y106.412 E6.6708
G1 X215.035 Y106.675 E6.6831
G1 X215.166 Y107.069 E6.6969
G1 X215.297 Y107.200 E6.7031
G1 X215.297 Y107.462 E6.7118
G1 X215.428 Y107.594 E6.7180
G1 X215.428 Y107.856 E6.7267
G1 X215.560 Y107.987 E6.7329
G1 X215.560 Y108.513 E6.7504
G1 X215.691 Y108.644 E6.7565
G1 X215.691 Y141.456 E7.8479
G1 X215.560 Y141.588 E7.8541
G1 X215.560 Y142.112 E7.8715
G1 X215.428 Y142.244 E7.8777
G1 X215.428 Y142.506 E7.8864
G1 X215.297 Y142.638 E7.8926
G1 X215.297 Y142.900 E7.9013
G1 X214.706 Y143.885 E7.9395
G1 X210.769 Y147.822 E8.1247
G1 X210.113 Y148.216 E8.1502
G1 X209.719 Y148.347 E8.1640
G1 X209.588 Y148.478 E8.1702
G1 X209.325 Y148.478 E8.1789
G1 X209.194 Y148.610 E8.1851
G1 X208.275 Y148.741 E8.2159
G1 X175.200 Y148.741 E9.3160
G1 X175.069 Y148.610 E9.3222
G0 F3000 E8.3222
G0 F1200 Z1.200
G0 X185.569 Y132.597 F5400
G0 F1200 Z0.200
G0 F3000 E9.3222
G1 X186.225 Y132.859 E9.3457 F2400
G1 X186.881 Y133.253 E9.3712
G1 X187.275 Y133.384 E9.3850
G1 X187.603 Y133.581 E9.3977
G1 X187.997 Y133.713 E9.4115
G1 X188.325 Y133.909 E9.4242
G1 X188.588 Y133.909 E9.4329
G1 X188.719 Y134.040 E9.4391
G1 X189.638 Y134.172 E9.4700
G1 X189.769 Y134.303 E9.4762
G1 X190.688 Y134.434 E9.5070
G1 X190.950 Y134.434 E9.5158
G1 X191.081 Y134.565 E9.5219
G1 X192.656 Y134.565 E9.5743
G1 X193.050 Y134.434 E9.5881
G1 X193.575 Y134.434 E9.6056
G1 X193.706 Y134.303 E9.6118
G1 X194.625 Y134.172 E9.6426
G1 X194.756 Y134.040 E9.6488
G1 X195.215 Y133.975 E9.6642
G1 X195.609 Y133.844 E9.6780
G1 X195.938 Y133.647 E9.6908
G1 X196.200 Y133.647 E9.6995
G1 X196.856 Y133.253 E9.7250
G1 X197.250 Y133.122 E9.7388
G1 X197.906 Y132.728 E9.7642
G1 X198.300 Y132.597 E9.7780
G1 X198.563 Y132.334 E9.7904
G1 X198.890 Y132.138 E9.8031
G1 X199.284 Y131.481 E9.8285
G1 X199.547 Y131.219 E9.8409
G1 X199.940 Y130.563 E9.8663
G1 X200.072 Y130.169 E9.8801
G1 X200.203 Y130.037 E9.8863
G1 X200.203 Y129.775 E9.8950
G1 X200.597 Y129.119 E9.9205
G1 X200.597 Y128.856 E9.9292
G1 X200.728 Y128.725 E9.9354
G1 X200.728 Y128.462 E9.9441
G1 X200.925 Y128.134 E9.9569
G1 X201.056 Y127.740 E9.9707
G1 X201.122 Y127.281 E9.9861
G1 X201.253 Y126.887 E9.9999
G1 X201.515 Y125.050 E10.0616
G1 X201.253 Y123.212 E10.1234
G1 X201.122 Y122.819 E10.1372
G1 X201.056 Y122.360 E10.1526
G1 X200.925 Y121.966 E10.1664
G1 X200.728 Y121.637 E10.1791
G1 X200.728 Y121.375 E10.1879
G1 X200.597 Y121.244 E10.1941
G1 X200.597 Y120.981 E10.2028
G1 X200.203 Y120.325 E10.2282
G1 X200.203 Y120.062 E10.2370
G1 X199.022 Y118.094 E10.3133
G1 X198.694 Y117.897 E10.3260
G1 X198.431 Y117.635 E10.3384
G1 X197.775 Y117.241 E10.3638
G1 X197.381 Y117.110 E10.3777
G1 X196.725 Y116.716 E10.4031
G1 X196.331 Y116.585 E10.4169
G1 X196.200 Y116.453 E10.4231
G1 X195.938 Y116.453 E10.4318
G1 X195.609 Y116.256 E10.4446
G1 X195.215 Y116.125 E10.4584
G1 X194.756 Y116.060 E10.4738
G1 X194.625 Y115.928 E10.4800
G1 X193.706 Y115.797 E10.5108
G1 X193.575 Y115.666 E10.5170
G1 X193.050 Y115.666 E10.5345
G1 X192.656 Y115.535 E10.5483
G1 X191.081 Y115.535 E10.6007
G1 X190.950 Y115.666 E10.6068
G1 X190.425 Y115.666 E10.6243
G1 X190.031 Y115.797 E10.6381
G1 X189.769 Y115.797 E10.6468
G1 X189.638 Y115.928 E10.6530
G1 X188.719 Y116.060 E10.6839
G1 X188.588 Y116.191 E10.6900
G1 X188.325 Y116.191 E10.6988
G1 X187.997 Y116.388 E10.7115
G1 X187.603 Y116.519 E10.7253
G1 X187.275 Y116.716 E10.7380
G1 X186.881 Y116.847 E10.7518
G1 X186.225 Y117.241 E10.7773
G1 X185.831 Y117.372 E10.7911
G1 X185.503 Y117.569 E10.8038
G1 X185.241 Y117.831 E10.8162
G1 X184.913 Y118.028 E10.8289
G1 X184.322 Y119.012 E10.8671
G1 X184.060 Y119.275 E10.8794
G1 X183.928 Y119.669 E10.8932
G1 X183.731 Y119.997 E10.9060
G1 X183.600 Y120.391 E10.9198
G1 X183.403 Y120.719 E10.9325
G1 X183.010 Y121.900 E10.9739
G1 X182.878 Y122.031 E10.9801
G1 X182.878 Y122.294 E10.9888
G1 X182.747 Y122.425 E10.9950
G1 X182.747 Y122.950 E11.0124
G1 X182.616 Y123.081 E11.0186
G1 X182.616 Y123.606 E11.0361
G1 X182.485 Y123.737 E11.0422
G1 X182.485 Y124.525 E11.0684
G1 X182.353 Y124.656 E11.0746
G1 X182.353 Y125.444 E11.1008
G1 X182.485 Y125.575 E11.1070
G1 X182.485 Y126.362 E11.1332
G1 X182.616 Y126.494 E11.1393
G1 X182.616 Y127.019 E11.1568
G1 X182.747 Y127.150 E11.1630
G1 X182.747 Y127.675 E11.1804
G1 X182.878 Y127.806 E11.1866
G1 X182.878 Y128.069 E11.1953
G1 X183.075 Y128.397 E11.2081
G1 X183.338 Y129.184 E11.2357
G1 X183.535 Y129.513 E11.2484
G1 X183.797 Y130.300 E11.2760
G1 X184.585 Y131.612 E11.3269
G1 X184.847 Y131.875 E11.3393
G1 X185.044 Y132.203 E11.3520
G1 X185.569 Y132.597 E11.3738
G0 F3000 E10.3738
G0 F1200 Z1.200
G0 X215.691 Y142.638 F5400
G0 F1200 Z0.200
G0 F3000 E11.3738
G1 X215.691 Y142.900 E11.3825 F2400
G1 X215.100 Y143.885 E11.4207
G1 X210.900 Y148.085 E11.6183
G1 X209.588 Y148.872 E11.6692
G1 X209.325 Y148.872 E11.6779
G1 X209.194 Y149.003 E11.6841
G1 X208.275 Y149.135 E11.7150
G1 X175.200 Y149.135 E12.8150
G1 X175.069 Y149.003 E12.8212
G1 X174.609 Y148.937 E12.8367
G1 X174.215 Y148.806 E12.8505
G1 X173.888 Y148.610 E12.8632
G1 X173.494 Y148.478 E12.8770
G1 X173.231 Y148.216 E12.8893
G1 X172.903 Y148.019 E12.9021
G1 X168.703 Y143.819 E13.0996
G1 X168.309 Y143.162 E13.1251
G1 X167.915 Y141.981 E13.1665
G1 X167.784 Y141.062 E13.1974
G1 X167.784 Y109.037 E14.2625
G1 X167.915 Y108.119 E14.2934
G1 X168.309 Y106.937 E14.3348
G1 X168.703 Y106.281 E14.3603
G1 X172.903 Y102.081 E14.5578
G1 X173.231 Y101.884 E14.5706
G1 X173.494 Y101.622 E14.5829
G1 X173.888 Y101.490 E14.5967
G1 X174.215 Y101.294 E14.6094
G1 X174.609 Y101.162 E14.6232
G1 X175.069 Y101.097 E14.6387
G1 X175.200 Y100.965 E14.6448
G1 X179.531 Y100.965 E14.7889
G0 X179.597 Y100.900 F5400
G1 X179.597 Y81.475 E15.4350 F2400
G1 X179.663 Y81.015 E15.4504
G1 X180.975 Y79.703 E15.5122
G1 X202.500 Y79.703 E16.2281
G1 X202.960 Y79.769 E16.2435
G1 X204.272 Y81.081 E16.3053
G1 X204.272 Y83.181 E16.3751
G1 X204.010 Y83.444 E16.3875
G1 X204.010 Y87.906 E16.5359
;segType:HShell
G0 F3000 E15.5359
G0 F1200 Z1.200
G0 X205.890 Y106.188 F5400
G0 F1200 Z0.200
G0 F3000 E16.5359
G1 X210.840 Y111.138 E16.7687 F2400
G0 X210.840 Y110.572 F5400
G1 X206.455 Y106.188 E16.9749 F2400
G0 X207.021 Y106.188 F5400
G1 X210.811 Y109.978 E17.1532 F2400
G0 X210.739 Y109.340 F5400
G1 X207.685 Y106.287 E17.2968 F2400
G0 X208.554 Y106.589 F5400
G1 X210.433 Y108.468 E17.3852 F2400
;segType:Perimeter
G0 X211.058 Y108.531 F5400
G1 X211.494 Y109.202 E17.4118 F1439
G1 X211.600 Y110.211 E17.4455
G1 X211.600 Y139.789 E18.4293
G1 X211.494 Y140.798 E18.4630
G1 X211.183 Y141.752 E18.4964
G1 X210.682 Y142.621 E18.5298
G1 X210.011 Y143.366 E18.5631
G1 X209.199 Y143.956 E18.5965
G1 X208.283 Y144.364 E18.6299
G1 X207.302 Y144.572 E18.6632
G1 X176.698 Y144.572 E19.6811
G1 X175.717 Y144.364 E19.7145
G1 X174.801 Y143.956 E19.7478
G1 X173.989 Y143.366 E19.7812
G1 X173.318 Y142.621 E19.8146
G1 X172.817 Y141.752 E19.8479
G1 X172.507 Y140.798 E19.8813
G1 X172.400 Y139.789 E19.9150
G1 X172.400 Y110.211 E20.8988
G1 X172.507 Y109.202 E20.9325
G1 X172.817 Y108.248 E20.9659
G1 X173.318 Y107.379 E20.9993
G1 X173.989 Y106.634 E21.0326
G1 X174.801 Y106.044 E21.0660
G1 X175.717 Y105.636 E21.0994
G1 X176.698 Y105.428 E21.1327
G1 X207.302 Y105.428 E22.1506
G1 X208.283 Y105.636 E22.1839
G1 X209.199 Y106.044 E22.2173
G1 X210.011 Y106.634 E22.2507
G1 X210.682 Y107.380 E22.2840
G1 X211.183 Y108.248 E22.3174
G1 X211.494 Y109.202 E22.3508
G0 X211.369 Y109.992 F5400
;segType:Loop
G0 X211.200 Y110.332
G1 X211.200 Y139.768 E23.3298 F2400
G1 X211.100 Y140.714 E23.3615
G1 X210.816 Y141.588 E23.3920
G1 X210.357 Y142.384 E23.4226
G1 X209.742 Y143.067 E23.4532
G1 X208.998 Y143.607 E23.4838
G1 X208.158 Y143.981 E23.5143
G1 X207.260 Y144.172 E23.5449
G1 X176.740 Y144.172 E24.5600
G1 X175.842 Y143.981 E24.5905
G1 X175.002 Y143.607 E24.6211
G1 X174.258 Y143.067 E24.6517
G1 X173.643 Y142.384 E24.6822
G1 X173.184 Y141.588 E24.7128
G1 X172.900 Y140.714 E24.7434
G1 X172.800 Y139.768 E24.7750
G1 X172.800 Y110.232 E25.7574
G1 X172.900 Y109.286 E25.7890
G1 X173.184 Y108.412 E25.8196
G1 X173.643 Y107.616 E25.8502
G1 X174.258 Y106.933 E25.8807
G1 X175.002 Y106.393 E25.9113
G1 X175.842 Y106.019 E25.9419
G1 X176.740 Y105.828 E25.9724
G1 X207.260 Y105.828 E26.9875
G1 X208.158 Y106.019 E27.0181
G1 X208.998 Y106.393 E27.0486
G1 X209.742 Y106.933 E27.0792
G1 X210.357 Y107.616 E27.1098
G1 X210.816 Y108.412 E27.1403
G1 X211.100 Y109.286 E27.1709
G1 X211.189 Y110.132 E27.1992
;segType:HShell
G0 X206.704 Y127.367 F5400
G1 X210.840 Y131.502 E27.3937 F2400
G0 X210.840 Y130.937 F5400
G1 X206.795 Y126.892 E27.5840 F2400
G0 X206.831 Y126.362 F5400
G1 X210.840 Y130.371 E27.7726 F2400
G0 X210.840 Y129.805 F5400
G1 X206.863 Y125.829 E27.9596 F2400
;segType:Perimeter
G0 X206.298 Y126.014 F5400
G1 X206.044 Y126.773 E27.9862 F1439
G1 X205.710 Y128.519 E28.0453
G1 X205.161 Y130.211 E28.1045
G1 X204.405 Y131.818 E28.1636
G1 X203.452 Y133.319 E28.2227
G1 X202.319 Y134.690 E28.2818
G1 X201.023 Y135.906 E28.3410
G1 X199.585 Y136.951 E28.4001
G1 X198.026 Y137.808 E28.4593
G1 X196.373 Y138.463 E28.5184
G1 X194.652 Y138.904 E28.5775
G1 X192.889 Y139.127 E28.6366
G1 X191.111 Y139.127 E28.6957
G1 X189.348 Y138.904 E28.7548
G1 X187.627 Y138.463 E28.8139
G1 X185.974 Y137.808 E28.8730
G1 X184.415 Y136.951 E28.9322
G1 X182.977 Y135.906 E28.9913
G1 X181.681 Y134.690 E29.0504
G1 X180.548 Y133.319 E29.1096
G1 X179.595 Y131.818 E29.1687
G1 X178.839 Y130.211 E29.2278
G1 X178.290 Y128.519 E29.2870
G1 X177.956 Y126.773 E29.3461
G1 X177.846 Y125.014 E29.4047
G1 X177.956 Y123.227 E29.4643
G1 X178.290 Y121.481 E29.5234
G1 X178.839 Y119.789 E29.5825
G1 X179.595 Y118.182 E29.6416
G1 X180.548 Y116.681 E29.7008
G1 X181.681 Y115.310 E29.7599
G1 X182.977 Y114.094 E29.8190
G1 X184.415 Y113.048 E29.8782
G1 X185.974 Y112.192 E29.9373
G1 X187.627 Y111.537 E29.9965
G1 X189.348 Y111.096 E30.0555
G1 X191.110 Y110.873 E30.1146
G1 X192.889 Y110.873 E30.1738
G1 X194.653 Y111.096 E30.2329
G1 X196.373 Y111.537 E30.2920
G1 X198.026 Y112.192 E30.3511
G1 X199.585 Y113.048 E30.4103
G1 X201.023 Y114.094 E30.4694
G1 X202.318 Y115.310 E30.5285
G1 X203.452 Y116.681 E30.5877
G1 X204.405 Y118.182 E30.6468
G1 X205.161 Y119.789 E30.7059
G1 X205.710 Y121.481 E30.7650
G1 X206.044 Y123.227 E30.8242
G1 X206.154 Y124.986 E30.8828
G1 X206.044 Y126.773 E30.9423
G0 X206.102 Y127.571 F5400
;segType:Loop
G0 X206.230 Y127.928
G1 X206.099 Y128.619 E30.9657 F2400
G1 X205.534 Y130.358 E31.0265
G1 X204.756 Y132.011 E31.0873
G1 X203.777 Y133.555 E31.1481
G1 X202.611 Y134.964 E31.2089
G1 X201.278 Y136.215 E31.2697
G1 X199.799 Y137.290 E31.3305
G1 X198.196 Y138.171 E31.3914
G1 X196.497 Y138.844 E31.4522
G1 X194.727 Y139.298 E31.5129
G1 X192.915 Y139.527 E31.5737
G1 X191.085 Y139.527 E31.6345
G1 X189.273 Y139.298 E31.6953
G1 X187.503 Y138.844 E31.7561
G1 X185.803 Y138.171 E31.8169
G1 X184.201 Y137.290 E31.8777
G1 X182.722 Y136.215 E31.9385
G1 X181.389 Y134.964 E31.9993
G1 X180.223 Y133.555 E32.0601
G1 X179.244 Y132.011 E32.1209
G1 X178.466 Y130.358 E32.1817
G1 X177.901 Y128.619 E32.2425
G1 X177.559 Y126.823 E32.3033
G1 X177.445 Y125.014 E32.3636
G1 X177.559 Y123.177 E32.4248
G1 X177.901 Y121.381 E32.4856
G1 X178.466 Y119.642 E32.5465
G1 X179.244 Y117.989 E32.6072
G1 X180.223 Y116.445 E32.6680
G1 X181.389 Y115.036 E32.7289
G1 X182.722 Y113.785 E32.7897
G1 X184.201 Y112.710 E32.8505
G1 X185.804 Y111.829 E32.9113
G1 X187.503 Y111.156 E32.9721
G1 X189.273 Y110.702 E33.0328
G1 X191.085 Y110.473 E33.0936
G1 X192.915 Y110.473 E33.1545
G1 X194.728 Y110.702 E33.2152
G1 X196.497 Y111.156 E33.2760
G1 X198.197 Y111.829 E33.3368
G1 X199.799 Y112.710 E33.3976
G1 X201.278 Y113.785 E33.4584
G1 X202.611 Y115.036 E33.5192
G1 X203.777 Y116.445 E33.5801
G1 X204.756 Y117.989 E33.6409
G1 X205.534 Y119.642 E33.7016
G1 X206.099 Y121.381 E33.7624
G1 X206.441 Y123.177 E33.8232
G1 X206.555 Y124.985 E33.8835
G1 X206.441 Y126.823 E33.9447
G1 X206.268 Y127.732 E33.9755
;segType:HShell
G0 X206.613 Y127.842 F5400
G1 X210.840 Y132.068 E34.1743 F2400
G0 X210.840 Y132.634 F5400
G1 X206.523 Y128.317 E34.3773 F2400
G0 X206.424 Y128.784 F5400
G1 X210.840 Y133.199 E34.5851 F2400
G0 X210.840 Y133.765 F5400
G1 X206.285 Y129.211 E34.7993 F2400
G0 X206.146 Y129.638 F5400
G1 X210.840 Y134.331 E35.0200 F2400
G0 X210.840 Y134.896 F5400
G1 X206.008 Y130.065 E35.2473 F2400
G0 X205.869 Y130.492 F5400
G1 X210.840 Y135.462 E35.4811 F2400
G0 X210.840 Y136.028 F5400
G1 X205.688 Y130.876 E35.7234 F2400
G0 X205.507 Y131.261 F5400
G1 X210.840 Y136.593 E35.9742 F2400
G0 X210.840 Y137.159 F5400
G1 X205.326 Y131.646 E36.2336 F2400
G0 X205.145 Y132.030 F5400
G1 X210.840 Y137.725 E36.5014 F2400
G0 X210.840 Y138.291 F5400
G1 X204.941 Y132.392 E36.7789 F2400
G0 X204.721 Y132.738 F5400
G1 X210.840 Y138.856 E37.0667 F2400
G0 X210.840 Y139.422 F5400
G1 X204.502 Y133.084 E37.3648 F2400
G0 X204.282 Y133.430 F5400
G1 X210.817 Y139.965 E37.6722 F2400
G0 X210.763 Y140.477 F5400
G1 X204.061 Y133.775 E37.9874 F2400
G0 X203.805 Y134.085 F5400
G1 X210.651 Y140.931 E38.3094 F2400
G0 X210.512 Y141.358 F5400
G1 X203.549 Y134.394 E38.6369 F2400
G0 X203.293 Y134.704 F5400
G1 X210.319 Y141.730 E38.9674 F2400
G0 X210.112 Y142.088 F5400
G1 X203.037 Y135.014 E39.3001 F2400
G0 X202.768 Y135.310 F5400
G1 X209.858 Y142.400 E39.6336 F2400
G0 X209.590 Y142.698 F5400
G1 X202.476 Y135.584 E39.9682 F2400
G0 X202.185 Y135.858 F5400
G1 X209.282 Y142.956 E40.3021 F2400
G0 X208.955 Y143.194 F5400
G1 X201.893 Y136.132 E40.6342 F2400
G0 X201.601 Y136.406 F5400
G1 X208.590 Y143.395 E40.9630 F2400
G0 X208.198 Y143.569 F5400
G1 X201.285 Y136.656 E41.2881 F2400
G0 X200.957 Y136.894 F5400
G1 X207.761 Y143.697 E41.6082 F2400
G0 X207.295 Y143.797 F5400
G1 X200.630 Y137.132 E41.9217 F2400
G0 X200.302 Y137.370 F5400
G1 X206.744 Y143.812 E42.2247 F2400
G0 X206.179 Y143.812 F5400
G1 X199.972 Y137.606 E42.5166 F2400
G0 X199.607 Y137.806 F5400
G1 X205.613 Y143.812 E42.7991 F2400
G0 X205.047 Y143.812 F5400
G1 X199.242 Y138.007 E43.0722 F2400
G0 X198.877 Y138.208 F5400
G1 X204.482 Y143.812 E43.3358 F2400
G0 X203.916 Y143.812 F5400
G1 X198.512 Y138.408 E43.5900 F2400
G0 X198.125 Y138.587 F5400
G1 X203.350 Y143.812 E43.8358 F2400
G0 X202.785 Y143.812 F5400
G1 X197.720 Y138.747 E44.0740 F2400
G0 X197.314 Y138.907 F5400
G1 X202.219 Y143.812 E44.3047 F2400
G0 X201.653 Y143.812 F5400
G1 X196.909 Y139.068 E44.5279 F2400
G0 X196.492 Y139.217 F5400
G1 X201.088 Y143.812 E44.7440 F2400
G0 X200.522 Y143.812 F5400
G1 X196.042 Y139.332 E44.9547 F2400
G0 X195.592 Y139.448 F5400
G1 X199.956 Y143.812 E45.1600 F2400
G0 X199.390 Y143.812 F5400
G1 X195.142 Y139.563 E45.3599 F2400
G0 X194.680 Y139.667 F5400
G1 X198.825 Y143.812 E45.5548 F2400
G0 X198.259 Y143.812 F5400
G1 X194.177 Y139.730 E45.7468 F2400
G0 X193.675 Y139.794 F5400
G1 X197.693 Y143.812 E45.9358 F2400
G0 X197.128 Y143.812 F5400
G1 X193.173 Y139.857 E46.1218 F2400
G0 X192.637 Y139.887 F5400
G1 X196.562 Y143.812 E46.3065 F2400
G0 X195.996 Y143.812 F5400
G1 X192.071 Y139.887 E46.4911 F2400
G0 X191.506 Y139.887 F5400
G1 X195.431 Y143.812 E46.6757 F2400
G0 X194.865 Y143.812 F5400
G1 X190.922 Y139.869 E46.8611 F2400
G0 X190.275 Y139.788 F5400
G1 X194.299 Y143.812 E47.0505 F2400
G0 X193.734 Y143.812 F5400
G1 X189.627 Y139.706 E47.2436 F2400
G0 X188.940 Y139.584 F5400
G1 X193.168 Y143.812 E47.4425 F2400
G0 X192.602 Y143.812 F5400
G1 X188.179 Y139.389 E47.6505 F2400
G0 X187.418 Y139.194 F5400
G1 X192.037 Y143.812 E47.8677 F2400
G0 X191.471 Y143.812 F5400
G1 X186.488 Y138.829 E48.1021 F2400
G0 X185.518 Y138.425 F5400
G1 X190.905 Y143.812 E48.3555 F2400
G0 X190.340 Y143.812 F5400
G1 X184.262 Y137.734 E48.6414 F2400
G0 X173.862 Y142.042 F5400
G1 X174.929 Y143.109 E48.6916 F2400
G0 X176.040 Y143.655 F5400
G1 X173.365 Y140.980 E48.8174 F2400
G0 X173.215 Y140.264 F5400
G1 X176.759 Y143.808 E48.9841 F2400
G0 X177.329 Y143.812 F5400
G1 X173.160 Y139.644 E49.1802 F2400
G0 X173.160 Y139.078 F5400
G1 X177.894 Y143.812 E49.4029 F2400
G0 X178.460 Y143.812 F5400
G1 X173.160 Y138.512 E49.6521 F2400
G0 X173.160 Y137.947 F5400
G1 X179.026 Y143.812 E49.9280 F2400
G0 X179.591 Y143.812 F5400
G1 X173.160 Y137.381 E50.2305 F2400
G0 X173.160 Y136.815 F5400
G1 X180.157 Y143.812 E50.5596 F2400
G0 X180.723 Y143.812 F5400
G1 X173.160 Y136.250 E50.9153 F2400
G0 X173.160 Y135.684 F5400
G1 X181.289 Y143.812 E51.2977 F2400
G0 X181.854 Y143.812 F5400
G1 X173.160 Y135.118 E51.7066 F2400
G0 X173.160 Y134.553 F5400
G1 X182.420 Y143.812 E52.1421 F2400
G0 X182.986 Y143.812 F5400
G1 X173.160 Y133.987 E52.6043 F2400
G0 X173.160 Y133.421 F5400
G1 X183.551 Y143.812 E53.0930 F2400
G0 X184.117 Y143.812 F5400
G1 X173.160 Y132.856 E53.6084 F2400
G0 X173.160 Y132.290 F5400
G1 X184.683 Y143.812 E54.1503 F2400
G0 X185.248 Y143.812 F5400
G1 X173.160 Y131.724 E54.7189 F2400
G0 X173.160 Y131.159 F5400
G1 X185.814 Y143.812 E55.3141 F2400
G0 X186.380 Y143.812 F5400
G1 X173.160 Y130.593 E55.9359 F2400
G0 X173.160 Y130.027 F5400
G1 X186.945 Y143.812 E56.5843 F2400
G0 X187.511 Y143.812 F5400
G1 X173.160 Y129.461 E57.2593 F2400
G0 X173.160 Y128.896 F5400
G1 X188.077 Y143.812 E57.9609 F2400
G0 X188.642 Y143.812 F5400
G1 X173.160 Y128.330 E58.6891 F2400
G0 X173.160 Y127.764 F5400
G1 X189.208 Y143.812 E59.4440 F2400
G0 X189.774 Y143.812 F5400
G1 X181.890 Y135.928 E59.8148 F2400
G0 X180.903 Y134.942 F5400
G1 X173.160 Y127.199 E60.1790 F2400
G0 X179.302 Y132.774 F5400
G1 X173.160 Y126.633 E60.4679 F2400
G0 X173.160 Y126.067 F5400
G1 X178.616 Y131.523 E60.7245 F2400
G0 X178.122 Y130.463 F5400
G1 X173.160 Y125.502 E60.9579 F2400
G0 X173.160 Y124.936 F5400
G1 X177.850 Y129.625 E61.1784 F2400
G0 X177.577 Y128.787 F5400
G1 X173.160 Y124.370 E61.3862 F2400
G0 X173.160 Y123.805 F5400
G1 X177.431 Y128.075 E61.5870 F2400
G0 X177.298 Y127.376 F5400
G1 X173.160 Y123.239 E61.7816 F2400
G0 X173.160 Y122.673 F5400
G1 X177.190 Y126.703 E61.9712 F2400
G0 X177.153 Y126.100 F5400
G1 X173.160 Y122.108 E62.1590 F2400
G0 X173.160 Y121.542 F5400
G1 X177.115 Y125.496 E62.3450 F2400
G0 X177.091 Y124.907 F5400
G1 X173.160 Y120.976 E62.5298 F2400
G0 X173.160 Y120.411 F5400
G1 X177.124 Y124.374 E62.7163 F2400
G0 X177.157 Y123.841 F5400
G1 X173.160 Y119.845 E62.9043 F2400
G0 X173.160 Y119.279 F5400
G1 X177.190 Y123.309 E63.0938 F2400
G0 X177.261 Y122.814 F5400
G1 X173.160 Y118.713 E63.2867 F2400
G0 X173.160 Y118.148 F5400
G1 X177.352 Y122.339 E63.4838 F2400
G0 X177.443 Y121.864 F5400
G1 X173.160 Y117.582 E63.6853 F2400
G0 X173.160 Y117.016 F5400
G1 X177.533 Y121.389 E63.8909 F2400
G0 X177.662 Y120.952 F5400
G1 X173.160 Y116.451 E64.1027 F2400
G0 X173.160 Y115.885 F5400
G1 X177.801 Y120.525 E64.3209 F2400
G0 X177.939 Y120.098 F5400
G1 X173.160 Y115.319 E64.5457 F2400
G0 X173.160 Y114.754 F5400
G1 X178.078 Y119.671 E64.7770 F2400
G0 X178.243 Y119.270 F5400
G1 X173.160 Y114.188 E65.0161 F2400
G0 X173.160 Y113.622 F5400
G1 X178.424 Y118.886 E65.2637 F2400
G0 X178.605 Y118.501 F5400
G1 X173.160 Y113.057 E65.5198 F2400
G0 X173.160 Y112.491 F5400
G1 X178.786 Y118.116 E65.7844 F2400
G0 X178.975 Y117.740 F5400
G1 X173.160 Y111.925 E66.0579 F2400
G0 X173.160 Y111.360 F5400
G1 X179.195 Y117.394 E66.3417 F2400
G0 X179.415 Y117.048 F5400
G1 X173.160 Y110.794 E66.6359 F2400
G0 X173.163 Y110.230 F5400
G1 X179.634 Y116.702 E66.9403 F2400
G0 X179.854 Y116.356 F5400
G1 X173.216 Y109.719 E67.2525 F2400
G0 X173.296 Y109.232 F5400
G1 X180.097 Y116.033 E67.5724 F2400
G0 X180.353 Y115.724 F5400
G1 X173.435 Y108.805 E67.8978 F2400
G0 X173.602 Y108.407 F5400
G1 X180.609 Y115.414 E68.2274 F2400
G0 X180.865 Y115.104 F5400
G1 X173.809 Y108.049 E68.5593 F2400
G0 X174.040 Y107.714 F5400
G1 X181.121 Y114.795 E68.8924 F2400
G0 X181.412 Y114.520 F5400
G1 X174.308 Y107.416 E69.2266 F2400
G0 X174.593 Y107.135 F5400
G1 X181.704 Y114.246 E69.5610 F2400
G0 X181.996 Y113.972 F5400
G1 X174.920 Y106.897 E69.8939 F2400
G0 X175.261 Y106.672 F5400
G1 X182.288 Y113.698 E70.2244 F2400
G0 X182.590 Y113.435 F5400
G1 X175.652 Y106.497 E70.5507 F2400
G0 X176.061 Y106.340 F5400
G1 X182.918 Y113.197 E70.8732 F2400
G0 X183.245 Y112.959 F5400
G1 X176.527 Y106.241 E71.1892 F2400
G0 X177.040 Y106.188 F5400
G1 X183.573 Y112.721 E71.4965 F2400
G0 X183.901 Y112.483 F5400
G1 X177.606 Y106.188 E71.7926 F2400
G0 X178.171 Y106.188 F5400
G1 X184.253 Y112.270 E72.0787 F2400
G0 X184.618 Y112.069 F5400
G1 X178.737 Y106.188 E72.3553 F2400
G0 X179.303 Y106.188 F5400
G1 X184.983 Y111.869 E72.6226 F2400
G0 X185.349 Y111.668 F5400
G1 X179.868 Y106.188 E72.8803 F2400
G0 X180.434 Y106.188 F5400
G1 X185.721 Y111.475 E73.1290 F2400
G0 X186.126 Y111.314 F5400
G1 X181.000 Y106.188 E73.3701 F2400
G0 X181.565 Y106.188 F5400
G1 X186.531 Y111.154 E73.6037 F2400
G0 X186.936 Y110.993 F5400
G1 X182.131 Y106.188 E73.8297 F2400
G0 X182.697 Y106.188 F5400
G1 X187.342 Y110.833 E74.0482 F2400
G0 X187.786 Y110.712 F5400
G1 X183.262 Y106.188 E74.2610 F2400
G0 X183.828 Y106.188 F5400
G1 X188.236 Y110.596 E74.4683 F2400
G0 X188.687 Y110.481 F5400
G1 X184.394 Y106.188 E74.6703 F2400
G0 X184.959 Y106.188 F5400
G1 X189.137 Y110.365 E74.8668 F2400
G0 X189.631 Y110.294 F5400
G1 X185.525 Y106.188 E75.0599 F2400
G0 X186.091 Y106.188 F5400
G1 X190.133 Y110.230 E75.2500 F2400
G0 X190.635 Y110.167 F5400
G1 X186.657 Y106.188 E75.4372 F2400
G0 X187.222 Y106.188 F5400
G1 X191.147 Y110.113 E75.6218 F2400
G0 X191.713 Y110.113 F5400
G1 X187.788 Y106.188 E75.8064 F2400
G0 X188.354 Y106.188 F5400
G1 X192.278 Y110.113 E75.9910 F2400
G0 X192.844 Y110.113 F5400
G1 X188.919 Y106.188 E76.1756 F2400
G0 X189.485 Y106.188 F5400
G1 X193.478 Y110.181 E76.3635 F2400
G0 X194.126 Y110.263 F5400
G1 X190.051 Y106.188 E76.5552 F2400
G0 X190.616 Y106.188 F5400
G1 X194.773 Y110.345 E76.7507 F2400
G0 X195.531 Y110.536 F5400
G1 X191.182 Y106.188 E76.9552 F2400
G0 X191.748 Y106.188 F5400
G1 X196.292 Y110.732 E77.1690 F2400
G0 X197.155 Y111.029 F5400
G1 X192.313 Y106.188 E77.3967 F2400
G0 X192.879 Y106.188 F5400
G1 X198.091 Y111.400 E77.6419 F2400
G0 X193.445 Y106.188 F5400
G1 X199.259 Y112.002 E77.9153 F2400
G0 X200.853 Y113.031 F5400
G1 X194.010 Y106.188 E78.2372 F2400
G0 X194.576 Y106.188 F5400
G1 X210.840 Y122.451 E79.0022 F2400
G0 X210.840 Y121.886 F5400
G1 X195.142 Y106.188 E79.7405 F2400
G0 X195.707 Y106.188 F5400
G1 X210.840 Y121.320 E80.4523 F2400
G0 X210.840 Y120.754 F5400
G1 X196.273 Y106.188 E81.1375 F2400
G0 X196.839 Y106.188 F5400
G1 X210.840 Y120.189 E81.7960 F2400
G0 X210.840 Y119.623 F5400
G1 X197.405 Y106.188 E82.4279 F2400
G0 X197.970 Y106.188 F5400
G1 X210.840 Y119.057 E83.0333 F2400
G0 X210.840 Y118.492 F5400
G1 X198.536 Y106.188 E83.6120 F2400
G0 X199.102 Y106.188 F5400
G1 X210.840 Y117.926 E84.1641 F2400
G0 X210.840 Y117.360 F5400
G1 X199.667 Y106.188 E84.6896 F2400
G0 X200.233 Y106.188 F5400
G1 X210.840 Y116.794 E85.1885 F2400
G0 X210.840 Y116.229 F5400
G1 X200.799 Y106.188 E85.6608 F2400
G0 X201.364 Y106.188 F5400
G1 X210.840 Y115.663 E86.1065 F2400
G0 X210.840 Y115.097 F5400
G1 X201.930 Y106.188 E86.5256 F2400
G0 X202.496 Y106.188 F5400
G1 X210.840 Y114.532 E86.9180 F2400
G0 X210.840 Y113.966 F5400
G1 X203.061 Y106.188 E87.2839 F2400
G0 X203.627 Y106.188 F5400
G1 X210.840 Y113.400 E87.6231 F2400
G0 X210.840 Y112.835 F5400
G1 X204.193 Y106.188 E87.9358 F2400
G0 X204.758 Y106.188 F5400
G1 X210.840 Y112.269 E88.2218 F2400
G0 X210.840 Y111.703 F5400
G1 X205.324 Y106.188 E88.4813 F2400
G0 X204.091 Y116.268 F5400
G1 X210.840 Y123.017 E88.7987 F2400
G0 X210.840 Y123.583 F5400
G1 X205.073 Y117.816 E89.0700 F2400
G0 X205.575 Y118.884 F5400
G1 X210.840 Y124.148 E89.3176 F2400
G0 X210.840 Y124.714 F5400
G1 X205.982 Y119.857 E89.5460 F2400
G0 X206.254 Y120.695 F5400
G1 X210.840 Y125.280 E89.7617 F2400
G0 X210.840 Y125.845 F5400
G1 X206.486 Y121.492 E89.9665 F2400
G0 X206.620 Y122.191 F5400
G1 X210.840 Y126.411 E90.1650 F2400
G0 X210.840 Y126.977 F5400
G1 X206.753 Y122.890 E90.3572 F2400
G0 X206.824 Y123.527 F5400
G1 X210.840 Y127.543 E90.5460 F2400
G0 X210.840 Y128.108 F5400
G1 X206.862 Y124.131 E90.7331 F2400
G0 X206.900 Y124.734 F5400
G1 X210.840 Y128.674 E90.9184 F2400
G0 X210.840 Y129.240 F5400
G1 X206.896 Y125.296 E91.1039 F2400
;segType:Pillar
G0 F3000 E90.1039
G0 F1200 Z1.200
G0 X202.000 Y82.027 F5400
G0 F1200 Z0.200
G0 F3000 E91.1039
G1 X182.000 Y82.027 E91.8356 F2400
G1 X182.000 Y102.027 E92.5673
G1 X202.000 Y102.027 E93.2991
G1 X201.600 Y82.427 E94.0163
G1 X182.400 Y82.427 E94.7188
G1 X182.400 Y101.627 E95.4212
G1 X201.600 Y101.627 E96.1237
G1 X201.200 Y82.827 E96.8116
G1 X182.800 Y82.827 E97.4848
G1 X182.800 Y101.227 E98.1580
G1 X201.200 Y101.227 E98.8312
G1 X200.800 Y83.227 E99.4899
G1 X183.200 Y83.227 E100.1338
G1 X183.200 Y100.827 E100.7777
G1 X200.800 Y100.827 E101.4217
G1 X200.400 Y83.627 E102.0511
G1 X183.600 Y83.627 E102.6658
G1 X183.600 Y100.427 E103.2804
G1 X200.400 Y100.427 E103.8951
G1 X200.000 Y84.027 E104.4952
G1 X184.000 Y84.027 E105.0806
G1 X184.000 Y100.027 E105.6660
G1 X200.000 Y100.027 E106.2514
G1 X199.600 Y84.427 E106.8223
G1 X184.400 Y84.427 E107.3784
G1 X184.400 Y99.627 E107.9345
G1 X199.600 Y99.627 E108.4906
G1 X199.200 Y84.827 E109.0323
G1 X184.800 Y84.827 E109.5591
G1 X184.800 Y99.227 E110.0860
G1 X199.200 Y99.227 E110.6128
G1 X198.800 Y85.227 E111.1252
G1 X185.200 Y85.227 E111.6228
G1 X185.200 Y98.827 E112.1204
G1 X198.800 Y98.827 E112.6180
G1 X198.400 Y85.627 E113.1011
G1 X185.600 Y85.627 E113.5694
G1 X185.600 Y98.427 E114.0377
G1 X198.400 Y98.427 E114.5060
G1 X198.000 Y86.027 E114.9599
G1 X186.000 Y86.027 E115.3990
G1 X186.000 Y98.027 E115.8380
G1 X198.000 Y98.027 E116.2770
G1 X197.600 Y86.427 E116.7017
G1 X186.400 Y86.427 E117.1114
G1 X186.400 Y97.627 E117.5212
G1 X197.600 Y97.627 E117.9310
G1 X197.200 Y86.827 E118.3264
G1 X186.800 Y86.827 E118.7069
G1 X186.800 Y97.227 E119.0874
G1 X197.200 Y97.227 E119.4679
G1 X196.800 Y87.227 E119.8340
G1 X187.200 Y87.227 E120.1852
G1 X187.200 Y96.827 E120.5365
G1 X196.800 Y96.827 E120.8877
G1 X196.400 Y87.627 E121.2246
G1 X187.600 Y87.627 E121.5466
G1 X187.600 Y96.427 E121.8685
G1 X196.400 Y96.427 E122.1905
G1 X196.000 Y88.027 E122.4982
G1 X188.000 Y88.027 E122.7909
G1 X188.000 Y96.027 E123.0835
G1 X196.000 Y96.027 E123.3762
G1 X195.600 Y88.427 E123.6547
G1 X188.400 Y88.427 E123.9181
G1 X188.400 Y95.627 E124.1815
G1 X195.600 Y95.627 E124.4449
G1 X195.200 Y88.827 E124.6941
G1 X188.800 Y88.827 E124.9283
G1 X188.800 Y95.227 E125.1625
G1 X195.200 Y95.227 E125.3966
G1 X194.800 Y89.227 E125.6166
G1 X189.200 Y89.227 E125.8215
G1 X189.200 Y94.827 E126.0264
G1 X194.800 Y94.827 E126.2312
G1 X194.400 Y89.627 E126.4221
G1 X189.600 Y89.627 E126.5977
G1 X189.600 Y94.427 E126.7733
G1 X194.400 Y94.427 E126.9489
G1 X194.000 Y90.027 E127.1105
G1 X190.000 Y90.027 E127.2569
G1 X190.000 Y94.027 E127.4032
G1 X194.000 Y94.027 E127.5496
G1 X193.600 Y90.427 E127.6821
G1 X190.400 Y90.427 E127.7992
G1 X190.400 Y93.627 E127.9163
G1 X193.600 Y93.627 E128.0333
G1 X193.200 Y90.827 E128.1368
G1 X190.800 Y90.827 E128.2246
G1 X190.800 Y93.227 E128.3124
G1 X193.200 Y93.227 E128.4002
G1 X192.800 Y91.227 E128.4748
G1 X191.200 Y91.227 E128.5334
G1 X191.200 Y92.827 E128.5919
G1 X192.800 Y92.827 E128.6504
G1 X192.400 Y91.627 E128.6967
G1 X191.600 Y91.627 E128.7260
G1 X191.600 Y92.427 E128.7552
G1 X192.400 Y92.427 E128.7845
; ------------------------------------
; Layer #1
; ------------------------------------
M106 S0 T0 ;turn off fan 1
G92 E0 ;reset extr
;segType:HShell
G0 F3000 E-1.0000
G0 F1200 Z1.400
G0 X210.631 Y108.600 F7200
G0 F1200 Z0.400
G0 F3000 E0.0000
G1 X203.551 Y115.680 E0.3330 F3000
G0 X203.295 Y115.370 F7200
G1 X210.447 Y108.219 E0.6694 F3000
;segType:Perimeter
G0 X211.158 Y108.431 F7200
G1 X211.594 Y109.102 E0.6960 F1799
G1 X211.700 Y110.111 E0.7297
G1 X211.700 Y139.890 E1.7202
G1 X211.594 Y140.898 E1.7539
G1 X211.284 Y141.852 E1.7873
G1 X210.782 Y142.721 E1.8206
G1 X210.111 Y143.466 E1.8540
G1 X209.299 Y144.056 E1.8874
G1 X208.383 Y144.464 E1.9207
G1 X207.402 Y144.672 E1.9541
G1 X176.598 Y144.672 E2.9786
G1 X175.617 Y144.464 E3.0120
G1 X174.701 Y144.056 E3.0453
G1 X173.889 Y143.466 E3.0787
G1 X173.218 Y142.721 E3.1121
G1 X172.716 Y141.852 E3.1454
G1 X172.406 Y140.898 E3.1788
G1 X172.300 Y139.889 E3.2125
G1 X172.300 Y110.111 E4.2030
G1 X172.406 Y109.102 E4.2367
G1 X172.716 Y108.148 E4.2701
G1 X173.218 Y107.279 E4.3034
G1 X173.889 Y106.534 E4.3368
G1 X174.701 Y105.944 E4.3702
G1 X175.617 Y105.536 E4.4035
G1 X176.598 Y105.328 E4.4369
G1 X207.402 Y105.328 E5.4614
G1 X208.383 Y105.536 E5.4948
G1 X209.299 Y105.944 E5.5281
G1 X210.111 Y106.534 E5.5615
G1 X210.782 Y107.279 E5.5949
G1 X211.284 Y108.148 E5.6282
G1 X211.594 Y109.102 E5.6616
G0 X211.468 Y109.892 F7200
;segType:Loop
G0 X211.300 Y110.232
G1 X211.300 Y139.869 E6.6473 F3000
G1 X211.200 Y140.814 E6.6790
G1 X210.916 Y141.688 E6.7095
G1 X210.457 Y142.484 E6.7401
G1 X209.842 Y143.167 E6.7706
G1 X209.098 Y143.707 E6.8012
G1 X208.259 Y144.081 E6.8318
G1 X207.360 Y144.272 E6.8624
G1 X176.640 Y144.272 E7.8841
G1 X175.741 Y144.081 E7.9147
G1 X174.902 Y143.707 E7.9452
G1 X174.158 Y143.167 E7.9758
G1 X173.543 Y142.484 E8.0064
G1 X173.084 Y141.688 E8.0369
G1 X172.800 Y140.814 E8.0675
G1 X172.700 Y139.869 E8.0991
G1 X172.700 Y110.132 E9.0882
G1 X172.800 Y109.186 E9.1198
G1 X173.084 Y108.312 E9.1504
G1 X173.543 Y107.516 E9.1809
G1 X174.158 Y106.833 E9.2115
G1 X174.902 Y106.293 E9.2421
G1 X175.741 Y105.919 E9.2726
G1 X176.640 Y105.728 E9.3032
G1 X207.360 Y105.728 E10.3249
G1 X208.259 Y105.919 E10.3555
G1 X209.098 Y106.293 E10.3861
G1 X209.842 Y106.833 E10.4166
G1 X210.457 Y107.516 E10.4472
G1 X210.916 Y108.312 E10.4778
G1 X211.200 Y109.186 E10.5083
G1 X211.289 Y110.032 E10.5366
;segType:HShell
G0 X206.544 Y127.961 F7200
G1 X210.940 Y123.565 E10.7434 F3000
G0 X210.940 Y123.000 F7200
G1 X206.677 Y127.262 E10.9439 F3000
G0 X206.770 Y126.604 F7200
G1 X210.940 Y122.434 E11.1400 F3000
G0 X210.940 Y121.868 F7200
G1 X206.808 Y126.000 E11.3343 F3000
;segType:Perimeter
G0 X206.253 Y126.008 F7200
G1 X205.998 Y126.766 E11.3609 F1799
G1 X205.666 Y128.506 E11.4198
G1 X205.118 Y130.194 E11.4789
G1 X204.365 Y131.795 E11.5377
G1 X203.416 Y133.291 E11.5966
G1 X202.285 Y134.659 E11.6557
G1 X200.994 Y135.871 E11.7146
G1 X199.560 Y136.913 E11.7735
G1 X198.005 Y137.767 E11.8325
G1 X196.358 Y138.419 E11.8915
G1 X194.644 Y138.859 E11.9503
G1 X192.886 Y139.081 E12.0092
G1 X191.114 Y139.081 E12.0682
G1 X189.356 Y138.859 E12.1271
G1 X187.642 Y138.419 E12.1860
G1 X185.995 Y137.767 E12.2449
G1 X184.440 Y136.913 E12.3039
G1 X183.007 Y135.871 E12.3628
G1 X181.715 Y134.658 E12.4218
G1 X180.584 Y133.291 E12.4808
G1 X179.635 Y131.795 E12.5397
G1 X178.882 Y130.194 E12.5986
G1 X178.334 Y128.506 E12.6576
G1 X178.002 Y126.766 E12.7165
G1 X177.891 Y125.000 E12.7754
G1 X178.002 Y123.234 E12.8342
G1 X178.334 Y121.494 E12.8931
G1 X178.882 Y119.806 E12.9522
G1 X179.635 Y118.205 E13.0110
G1 X180.584 Y116.709 E13.0699
G1 X181.715 Y115.342 E13.1289
G1 X183.007 Y114.129 E13.1879
G1 X184.440 Y113.087 E13.2468
G1 X185.995 Y112.233 E13.3058
G1 X187.643 Y111.581 E13.3648
G1 X189.356 Y111.141 E13.4236
G1 X191.114 Y110.919 E13.4825
G1 X192.886 Y110.919 E13.5415
G1 X194.644 Y111.141 E13.6004
G1 X196.358 Y111.581 E13.6593
G1 X198.005 Y112.233 E13.7182
G1 X199.560 Y113.087 E13.7772
G1 X200.994 Y114.129 E13.8361
G1 X202.285 Y115.341 E13.8951
G1 X203.416 Y116.709 E13.9541
G1 X204.365 Y118.205 E14.0130
G1 X205.119 Y119.806 E14.0719
G1 X205.666 Y121.494 E14.1309
G1 X205.998 Y123.234 E14.1898
G1 X206.109 Y125.000 E14.2486
G1 X205.998 Y126.766 E14.3075
G0 X206.057 Y127.564 F7200
;segType:Loop
G0 X206.185 Y127.921
G1 X206.055 Y128.606 E14.3307 F3000
G1 X205.491 Y130.341 E14.3914
G1 X204.716 Y131.988 E14.4519
G1 X203.740 Y133.527 E14.5125
G1 X202.577 Y134.933 E14.5732
G1 X201.249 Y136.180 E14.6338
G1 X199.775 Y137.251 E14.6944
G1 X198.176 Y138.130 E14.7551
G1 X196.481 Y138.800 E14.8157
G1 X194.719 Y139.253 E14.8762
G1 X192.911 Y139.481 E14.9368
G1 X191.089 Y139.481 E14.9974
G1 X189.281 Y139.253 E15.0580
G1 X187.519 Y138.800 E15.1186
G1 X185.824 Y138.130 E15.1792
G1 X184.225 Y137.251 E15.2399
G1 X182.751 Y136.180 E15.3005
G1 X181.423 Y134.933 E15.3611
G1 X180.260 Y133.527 E15.4218
G1 X179.284 Y131.988 E15.4824
G1 X178.509 Y130.341 E15.5429
G1 X177.945 Y128.606 E15.6036
G1 X177.604 Y126.816 E15.6642
G1 X177.490 Y125.000 E15.7247
G1 X177.604 Y123.184 E15.7852
G1 X177.945 Y121.394 E15.8458
G1 X178.509 Y119.659 E15.9065
G1 X179.284 Y118.012 E15.9670
G1 X180.260 Y116.473 E16.0276
G1 X181.423 Y115.067 E16.0883
G1 X182.751 Y113.820 E16.1489
G1 X184.225 Y112.749 E16.2095
G1 X185.824 Y111.870 E16.2702
G1 X187.519 Y111.200 E16.3308
G1 X189.281 Y110.747 E16.3914
G1 X191.089 Y110.519 E16.4520
G1 X192.911 Y110.519 E16.5126
G1 X194.719 Y110.747 E16.5732
G1 X196.481 Y111.200 E16.6337
G1 X198.175 Y111.870 E16.6943
G1 X199.775 Y112.749 E16.7550
G1 X201.249 Y113.820 E16.8156
G1 X202.577 Y115.067 E16.8762
G1 X203.740 Y116.473 E16.9369
G1 X204.716 Y118.012 E16.9975
G1 X205.491 Y119.659 E17.0580
G1 X206.055 Y121.394 E17.1187
G1 X206.396 Y123.184 E17.1793
G1 X206.510 Y125.000 E17.2398
G1 X206.396 Y126.816 E17.3004
G1 X206.223 Y127.725 E17.3311
;segType:HShell
G0 X206.411 Y128.660 F7200
G1 X210.940 Y124.131 E17.5441 F3000
G0 X210.940 Y124.697 F7200
G1 X206.146 Y129.490 E17.7696 F3000
G0 X205.874 Y130.328 F7200
G1 X210.940 Y125.262 E18.0079 F3000
G0 X210.940 Y125.828 F7200
G1 X205.412 Y131.356 E18.2679 F3000
G0 X204.791 Y132.542 F7200
G1 X210.940 Y126.394 E18.5571 F3000
G0 X206.846 Y125.396 F7200
G1 X210.940 Y121.303 E18.7496 F3000
G0 X210.940 Y120.737 F7200
G1 X206.859 Y124.817 E18.9415 F3000
G0 X206.826 Y124.285 F7200
G1 X210.940 Y120.171 E19.1350 F3000
G0 X210.940 Y119.606 F7200
G1 X206.792 Y123.753 E19.3301 F3000
G0 X206.759 Y123.220 F7200
G1 X210.939 Y119.040 E19.5267 F3000
G0 X210.940 Y118.474 F7200
G1 X206.677 Y122.737 E19.7272 F3000
G0 X206.587 Y122.262 F7200
G1 X210.939 Y117.909 E19.9320 F3000
G0 X210.939 Y117.343 F7200
G1 X206.496 Y121.786 E20.1410 F3000
G0 X206.405 Y121.311 F7200
G1 X210.939 Y116.777 E20.3543 F3000
G0 X210.939 Y116.211 F7200
G1 X206.267 Y120.884 E20.5740 F3000
G0 X206.129 Y120.457 F7200
G1 X210.939 Y115.646 E20.8003 F3000
G0 X210.939 Y115.080 F7200
G1 X205.990 Y120.029 E21.0331 F3000
G0 X205.852 Y119.602 F7200
G1 X210.939 Y114.514 E21.2724 F3000
G0 X210.939 Y113.949 F7200
G1 X205.678 Y119.210 E21.5199 F3000
G0 X205.497 Y118.826 F7200
G1 X210.939 Y113.383 E21.7759 F3000
G0 X210.939 Y112.817 F7200
G1 X205.316 Y118.441 E22.0404 F3000
G0 X205.135 Y118.056 F7200
G1 X210.939 Y112.252 E22.3135 F3000
G0 X210.939 Y111.686 F7200
G1 X204.937 Y117.688 E22.5958 F3000
G0 X204.718 Y117.342 F7200
G1 X210.939 Y111.120 E22.8884 F3000
G0 X210.939 Y110.555 F7200
G1 X204.498 Y116.996 E23.1914 F3000
G0 X204.279 Y116.650 F7200
G1 X210.924 Y110.004 E23.5040 F3000
G0 X210.870 Y109.492 F7200
G1 X204.059 Y116.304 E23.8244 F3000
G0 X203.807 Y115.990 F7200
G1 X210.770 Y109.027 E24.1519 F3000
G0 X210.240 Y107.860 F7200
G1 X203.039 Y115.061 E24.4906 F3000
G0 X202.775 Y114.759 F7200
G1 X209.994 Y107.540 E24.8301 F3000
G0 X209.726 Y107.243 F7200
G1 X202.484 Y114.485 E25.1708 F3000
G0 X202.192 Y114.211 F7200
G1 X209.427 Y106.976 E25.5111 F3000
G0 X209.099 Y106.738 F7200
G1 X201.900 Y113.937 E25.8497 F3000
G0 X201.608 Y113.663 F7200
G1 X208.743 Y106.529 E26.1853 F3000
G0 X208.351 Y106.354 F7200
G1 X201.297 Y113.409 E26.5171 F3000
G0 X200.969 Y113.171 F7200
G1 X207.924 Y106.216 E26.8443 F3000
G0 X207.458 Y106.117 F7200
G1 X200.641 Y112.933 E27.1649 F3000
G0 X200.314 Y112.695 F7200
G1 X206.921 Y106.088 E27.4757 F3000
G0 X206.355 Y106.088 F7200
G1 X199.986 Y112.457 E27.7753 F3000
G0 X199.623 Y112.254 F7200
G1 X205.789 Y106.088 E28.0653 F3000
G0 X205.224 Y106.088 F7200
G1 X199.258 Y112.054 E28.3459 F3000
G0 X198.893 Y111.853 F7200
G1 X204.658 Y106.088 E28.6171 F3000
G0 X204.092 Y106.088 F7200
G1 X198.528 Y111.653 E28.8788 F3000
G0 X198.144 Y111.470 F7200
G1 X203.527 Y106.088 E29.1320 F3000
G0 X202.961 Y106.088 F7200
G1 X197.739 Y111.310 E29.3776 F3000
G0 X197.334 Y111.150 F7200
G1 X202.395 Y106.088 E29.6157 F3000
G0 X201.830 Y106.088 F7200
G1 X196.929 Y110.989 E29.8462 F3000
G0 X196.516 Y110.836 F7200
G1 X201.264 Y106.088 E30.0696 F3000
G0 X200.698 Y106.088 F7200
G1 X196.065 Y110.721 E30.2875 F3000
G0 X195.615 Y110.605 F7200
G1 X200.133 Y106.088 E30.5000 F3000
G0 X199.567 Y106.088 F7200
G1 X195.165 Y110.490 E30.7070 F3000
G0 X194.707 Y110.383 F7200
G1 X199.001 Y106.088 E30.9090 F3000
G0 X198.436 Y106.088 F7200
G1 X194.204 Y110.319 E31.1080 F3000
G0 X193.702 Y110.256 F7200
G1 X197.870 Y106.088 E31.3041 F3000
G0 X197.304 Y106.088 F7200
G1 X193.200 Y110.192 E31.4971 F3000
G0 X192.668 Y110.159 F7200
G1 X196.739 Y106.088 E31.6886 F3000
G0 X196.173 Y106.088 F7200
G1 X192.102 Y110.159 E31.8801 F3000
G0 X191.537 Y110.159 F7200
G1 X195.607 Y106.088 E32.0715 F3000
G0 X195.041 Y106.088 F7200
G1 X190.957 Y110.172 E32.2636 F3000
G0 X190.310 Y110.254 F7200
G1 X194.476 Y106.088 E32.4596 F3000
G0 X193.910 Y106.088 F7200
G1 X189.662 Y110.336 E32.6594 F3000
G0 X188.980 Y110.453 F7200
G1 X193.344 Y106.088 E32.8647 F3000
G0 X192.779 Y106.088 F7200
G1 X188.219 Y110.648 E33.0792 F3000
G0 X187.458 Y110.843 F7200
G1 X192.213 Y106.088 E33.3029 F3000
G0 X191.647 Y106.088 F7200
G1 X186.533 Y111.202 E33.5434 F3000
G0 X185.572 Y111.598 F7200
G1 X191.082 Y106.088 E33.8026 F3000
G0 X190.516 Y106.088 F7200
G1 X184.316 Y112.288 E34.0942 F3000
G0 X182.118 Y113.920 F7200
G1 X189.950 Y106.088 E34.4626 F3000
G0 X175.456 Y106.440 F7200
G1 X173.404 Y108.492 E34.5591 F3000
G0 X173.148 Y109.313 F7200
G1 X176.292 Y106.170 E34.7070 F3000
G0 X176.940 Y106.088 F7200
G1 X173.082 Y109.945 E34.8884 F3000
G0 X173.061 Y110.533 F7200
G1 X177.505 Y106.088 E35.0975 F3000
G0 X178.071 Y106.088 F7200
G1 X173.061 Y111.098 E35.3332 F3000
G0 X173.061 Y111.664 F7200
G1 X178.637 Y106.088 E35.5955 F3000
G0 X179.202 Y106.088 F7200
G1 X173.061 Y112.230 E35.8844 F3000
G0 X173.061 Y112.795 F7200
G1 X179.768 Y106.088 E36.1998 F3000
G0 X180.334 Y106.088 F7200
G1 X173.061 Y113.361 E36.5420 F3000
G0 X173.061 Y113.927 F7200
G1 X180.899 Y106.088 E36.9107 F3000
G0 X181.465 Y106.088 F7200
G1 X173.061 Y114.492 E37.3060 F3000
G0 X173.061 Y115.058 F7200
G1 X182.031 Y106.088 E37.7279 F3000
G0 X182.596 Y106.088 F7200
G1 X173.061 Y115.624 E38.1765 F3000
G0 X173.061 Y116.190 F7200
G1 X183.162 Y106.088 E38.6516 F3000
G0 X183.728 Y106.088 F7200
G1 X173.061 Y116.755 E39.1534 F3000
G0 X173.061 Y117.321 F7200
G1 X184.293 Y106.088 E39.6817 F3000
G0 X184.859 Y106.088 F7200
G1 X173.061 Y117.887 E40.2367 F3000
G0 X173.061 Y118.452 F7200
G1 X185.425 Y106.088 E40.8183 F3000
G0 X185.991 Y106.088 F7200
G1 X173.061 Y119.018 E41.4265 F3000
G0 X173.061 Y119.584 F7200
G1 X186.556 Y106.088 E42.0613 F3000
G0 X187.122 Y106.088 F7200
G1 X173.061 Y120.149 E42.7227 F3000
G0 X173.061 Y120.715 F7200
G1 X187.688 Y106.088 E43.4107 F3000
G0 X188.253 Y106.088 F7200
G1 X173.061 Y121.281 E44.1253 F3000
G0 X173.061 Y121.846 F7200
G1 X188.819 Y106.088 E44.8665 F3000
G0 X189.385 Y106.088 F7200
G1 X173.061 Y122.412 E45.6343 F3000
G0 X173.061 Y122.978 F7200
G1 X180.880 Y115.158 E46.0022 F3000
G0 X179.318 Y117.286 F7200
G1 X173.061 Y123.543 E46.2965 F3000
G0 X173.061 Y124.109 F7200
G1 X178.644 Y118.526 E46.5591 F3000
G0 X178.156 Y119.579 F7200
G1 X173.061 Y124.675 E46.7988 F3000
G0 X173.061 Y125.240 F7200
G1 X177.884 Y120.417 E47.0257 F3000
G0 X177.612 Y121.255 F7200
G1 X173.061 Y125.806 E47.2398 F3000
G0 X173.061 Y126.372 F7200
G1 X177.471 Y121.962 E47.4472 F3000
G0 X177.337 Y122.661 F7200
G1 X173.061 Y126.938 E47.6484 F3000
G0 X173.061 Y127.503 F7200
G1 X177.234 Y123.330 E47.8447 F3000
G0 X177.196 Y123.933 F7200
G1 X173.061 Y128.069 E48.0392 F3000
G0 X173.061 Y128.635 F7200
G1 X177.158 Y124.537 E48.2320 F3000
G0 X177.137 Y125.124 F7200
G1 X173.061 Y129.200 E48.4237 F3000
G0 X173.061 Y129.766 F7200
G1 X177.170 Y125.656 E48.6170 F3000
G0 X177.204 Y126.188 F7200
G1 X173.061 Y130.332 E48.8119 F3000
G0 X173.061 Y130.897 F7200
G1 X177.237 Y126.720 E49.0084 F3000
G0 X177.313 Y127.211 F7200
G1 X173.061 Y131.463 E49.2084 F3000
G0 X173.061 Y132.029 F7200
G1 X177.403 Y127.686 E49.4127 F3000
G0 X177.494 Y128.161 F7200
G1 X173.061 Y132.594 E49.6212 F3000
G0 X173.061 Y133.160 F7200
G1 X177.585 Y128.636 E49.8340 F3000
G0 X177.717 Y129.069 F7200
G1 X173.061 Y133.726 E50.0531 F3000
G0 X173.061 Y134.291 F7200
G1 X177.856 Y129.496 E50.2786 F3000
G0 X177.994 Y129.923 F7200
G1 X173.061 Y134.857 E50.5107 F3000
G0 X173.061 Y135.423 F7200
G1 X178.133 Y130.350 E50.7493 F3000
G0 X178.302 Y130.747 F7200
G1 X173.061 Y135.989 E50.9958 F3000
G0 X173.061 Y136.554 F7200
G1 X178.483 Y131.132 E51.2509 F3000
G0 X178.664 Y131.517 F7200
G1 X173.061 Y137.120 E51.5145 F3000
G0 X173.061 Y137.686 F7200
G1 X178.845 Y131.901 E51.7865 F3000
G0 X179.038 Y132.273 F7200
G1 X173.061 Y138.251 E52.0677 F3000
G0 X173.061 Y138.817 F7200
G1 X179.258 Y132.620 E52.3592 F3000
G0 X179.478 Y132.966 F7200
G1 X173.061 Y139.383 E52.6611 F3000
G0 X173.070 Y139.939 F7200
G1 X179.697 Y133.312 E52.9728 F3000
G0 X179.917 Y133.658 F7200
G1 X173.124 Y140.451 E53.2923 F3000
G0 X173.215 Y140.926 F7200
G1 X180.164 Y133.976 E53.6192 F3000
G0 X180.420 Y134.286 F7200
G1 X173.353 Y141.353 E53.9516 F3000
G0 X173.530 Y141.741 F7200
G1 X180.676 Y134.595 E54.2877 F3000
G0 X180.932 Y134.905 F7200
G1 X173.737 Y142.100 E54.6261 F3000
G0 X173.976 Y142.427 F7200
G1 X181.192 Y135.211 E54.9656 F3000
G0 X181.484 Y135.485 F7200
G1 X174.244 Y142.724 E55.3061 F3000
G0 X174.537 Y142.997 F7200
G1 X181.776 Y135.758 E55.6466 F3000
G0 X182.068 Y136.032 F7200
G1 X174.865 Y143.235 E55.9854 F3000
G0 X175.214 Y143.452 F7200
G1 X182.359 Y136.306 E56.3215 F3000
G0 X182.667 Y136.564 F7200
G1 X175.605 Y143.626 E56.6537 F3000
G0 X176.024 Y143.773 F7200
G1 X182.995 Y136.802 E56.9816 F3000
G0 X183.322 Y137.040 F7200
G1 X176.491 Y143.872 E57.3029 F3000
G0 X177.016 Y143.912 F7200
G1 X183.650 Y137.278 E57.6149 F3000
G0 X183.978 Y137.517 F7200
G1 X177.582 Y143.912 E57.9158 F3000
G0 X178.148 Y143.912 F7200
G1 X184.336 Y137.723 E58.2069 F3000
G0 X184.702 Y137.924 F7200
G1 X178.713 Y143.912 E58.4885 F3000
G0 X179.279 Y143.912 F7200
G1 X185.067 Y138.125 E58.7607 F3000
G0 X185.432 Y138.325 F7200
G1 X179.845 Y143.912 E59.0235 F3000
G0 X180.410 Y143.912 F7200
G1 X185.811 Y138.512 E59.2775 F3000
G0 X186.216 Y138.672 F7200
G1 X180.976 Y143.912 E59.5240 F3000
G0 X181.542 Y143.912 F7200
G1 X186.621 Y138.833 E59.7629 F3000
G0 X187.027 Y138.993 F7200
G1 X182.108 Y143.912 E59.9943 F3000
G0 X182.673 Y143.912 F7200
G1 X187.435 Y139.151 E60.2182 F3000
G0 X187.885 Y139.266 F7200
G1 X183.239 Y143.912 E60.4368 F3000
G0 X183.805 Y143.912 F7200
G1 X188.335 Y139.382 E60.6499 F3000
G0 X188.785 Y139.497 F7200
G1 X184.370 Y143.912 E60.8575 F3000
G0 X184.936 Y143.912 F7200
G1 X189.238 Y139.610 E61.0598 F3000
G0 X189.740 Y139.674 F7200
G1 X185.502 Y143.912 E61.2592 F3000
G0 X186.067 Y143.912 F7200
G1 X190.242 Y139.737 E61.4556 F3000
G0 X190.744 Y139.801 F7200
G1 X186.633 Y143.912 E61.6489 F3000
G0 X187.199 Y143.912 F7200
G1 X191.269 Y139.842 E61.8404 F3000
G0 X191.835 Y139.842 F7200
G1 X187.764 Y143.912 E62.0319 F3000
G0 X188.330 Y143.912 F7200
G1 X192.401 Y139.842 E62.2233 F3000
G0 X192.971 Y139.837 F7200
G1 X188.896 Y143.912 E62.4150 F3000
G0 X189.461 Y143.912 F7200
G1 X193.618 Y139.755 E62.6106 F3000
G0 X194.266 Y139.673 F7200
G1 X190.027 Y143.912 E62.8099 F3000
G0 X190.593 Y143.912 F7200
G1 X194.936 Y139.569 E63.0142 F3000
G0 X195.697 Y139.374 F7200
G1 X191.159 Y143.912 E63.2277 F3000
G0 X191.724 Y143.912 F7200
G1 X196.458 Y139.178 E63.4503 F3000
G0 X197.363 Y138.839 F7200
G1 X192.290 Y143.912 E63.6890 F3000
G0 X192.856 Y143.912 F7200
G1 X198.299 Y138.468 E63.9450 F3000
G0 X199.545 Y137.789 F7200
G1 X193.421 Y143.912 E64.2330 F3000
G0 X193.987 Y143.912 F7200
G1 X201.339 Y136.560 E64.5789 F3000
G0 X203.420 Y134.479 F7200
G1 X210.940 Y126.959 E64.9326 F3000
G0 X210.940 Y127.525 F7200
G1 X194.553 Y143.912 E65.7034 F3000
G0 X195.118 Y143.912 F7200
G1 X210.940 Y128.091 E66.4475 F3000
G0 X210.940 Y128.657 F7200
G1 X195.684 Y143.912 E67.1651 F3000
G0 X196.250 Y143.912 F7200
G1 X210.940 Y129.222 E67.8561 F3000
G0 X210.940 Y129.788 F7200
G1 X196.815 Y143.912 E68.5204 F3000
G0 X197.381 Y143.912 F7200
G1 X210.940 Y130.354 E69.1582 F3000
G0 X210.940 Y130.919 F7200
G1 X197.947 Y143.912 E69.7693 F3000
G0 X198.512 Y143.912 F7200
G1 X210.940 Y131.485 E70.3539 F3000
G0 X210.940 Y132.051 F7200
G1 X199.078 Y143.912 E70.9118 F3000
G0 X199.644 Y143.912 F7200
G1 X210.940 Y132.616 E71.4431 F3000
G0 X210.940 Y133.182 F7200
G1 X200.209 Y143.912 E71.9478 F3000
G0 X200.775 Y143.912 F7200
G1 X210.940 Y133.748 E72.4259 F3000
G0 X210.940 Y134.313 F7200
G1 X201.341 Y143.912 E72.8774 F3000
G0 X201.907 Y143.912 F7200
G1 X210.940 Y134.879 E73.3023 F3000
G0 X210.940 Y135.445 F7200
G1 X202.472 Y143.912 E73.7006 F3000
G0 X203.038 Y143.912 F7200
G1 X210.940 Y136.010 E74.0722 F3000
G0 X210.940 Y136.576 F7200
G1 X203.604 Y143.912 E74.4173 F3000
G0 X204.169 Y143.912 F7200
G1 X210.940 Y137.142 E74.7357 F3000
G0 X210.940 Y137.707 F7200
G1 X204.735 Y143.912 E75.0276 F3000
G0 X205.301 Y143.912 F7200
G1 X210.940 Y138.273 E75.2928 F3000
G0 X210.940 Y138.839 F7200
G1 X205.866 Y143.912 E75.5315 F3000
G0 X206.432 Y143.912 F7200
G1 X210.940 Y139.405 E75.7435 F3000
G0 X210.925 Y139.984 F7200
G1 X206.998 Y143.912 E75.9282 F3000
G0 X207.629 Y143.847 F7200
G1 X210.859 Y140.617 E76.0802 F3000
G0 X210.627 Y141.415 F7200
G1 X208.431 Y143.610 E76.1834 F3000
;segType:Pillar
G0 E75.1834
G0 F1200 Z1.400
G0 X202.000 Y82.027 F7200
G0 F1200 Z0.400
G0 F3000 E76.1834
G1 X182.000 Y82.027 E76.9152 F3000
G1 X182.000 Y102.027 E77.6469
G1 X202.000 Y102.027 E78.3786
G1 X201.600 Y82.427 E79.0958
G1 X182.400 Y82.427 E79.7983
G1 X182.400 Y101.627 E80.5007
G1 X201.600 Y101.627 E81.2032
G1 X201.200 Y82.827 E81.8912
G1 X182.800 Y82.827 E82.5644
G1 X182.800 Y101.227 E83.2375
G1 X201.200 Y101.227 E83.9107
G1 X200.800 Y83.227 E84.5694
G1 X183.200 Y83.227 E85.2134
G1 X183.200 Y100.827 E85.8573
G1 X200.800 Y100.827 E86.5012
G1 X200.400 Y83.627 E87.1306
G1 X183.600 Y83.627 E87.7453
G1 X183.600 Y100.427 E88.3599
G1 X200.400 Y100.427 E88.9746
G1 X200.000 Y84.027 E89.5748
G1 X184.000 Y84.027 E90.1602
G1 X184.000 Y100.027 E90.7455
G1 X200.000 Y100.027 E91.3309
G1 X199.600 Y84.427 E91.9018
G1 X184.400 Y84.427 E92.4579
G1 X184.400 Y99.627 E93.0141
G1 X199.600 Y99.627 E93.5702
G1 X199.200 Y84.827 E94.1118
G1 X184.800 Y84.827 E94.6387
G1 X184.800 Y99.227 E95.1655
G1 X199.200 Y99.227 E95.6924
G1 X198.800 Y85.227 E96.2048
G1 X185.200 Y85.227 E96.7023
G1 X185.200 Y98.827 E97.1999
G1 X198.800 Y98.827 E97.6975
G1 X198.400 Y85.627 E98.1807
G1 X185.600 Y85.627 E98.6490
G1 X185.600 Y98.427 E99.1173
G1 X198.400 Y98.427 E99.5856
G1 X198.000 Y86.027 E100.0395
G1 X186.000 Y86.027 E100.4785
G1 X186.000 Y98.027 E100.9175
G1 X198.000 Y98.027 E101.3566
G1 X197.600 Y86.427 E101.7812
G1 X186.400 Y86.427 E102.1910
G1 X186.400 Y97.627 E102.6007
G1 X197.600 Y97.627 E103.0105
G1 X197.200 Y86.827 E103.4059
G1 X186.800 Y86.827 E103.7864
G1 X186.800 Y97.227 E104.1669
G1 X197.200 Y97.227 E104.5474
G1 X196.800 Y87.227 E104.9135
G1 X187.200 Y87.227 E105.2648
G1 X187.200 Y96.827 E105.6160
G1 X196.800 Y96.827 E105.9672
G1 X196.400 Y87.627 E106.3041
G1 X187.600 Y87.627 E106.6261
G1 X187.600 Y96.427 E106.9481
G1 X196.400 Y96.427 E107.2700
G1 X196.000 Y88.027 E107.5777
G1 X188.000 Y88.027 E107.8704
G1 X188.000 Y96.027 E108.1631
G1 X196.000 Y96.027 E108.4558
G1 X195.600 Y88.427 E108.7342
G1 X188.400 Y88.427 E108.9976
G1 X188.400 Y95.627 E109.2610
G1 X195.600 Y95.627 E109.5245
G1 X195.200 Y88.827 E109.7737
G1 X188.800 Y88.827 E110.0078
G1 X188.800 Y95.227 E110.2420
G1 X195.200 Y95.227 E110.4761
G1 X194.800 Y89.227 E110.6961
G1 X189.200 Y89.227 E110.9010
G1 X189.200 Y94.827 E111.1059
G1 X194.800 Y94.827 E111.3108
G1 X194.400 Y89.627 E111.5016
G1 X189.600 Y89.627 E111.6772
G1 X189.600 Y94.427 E111.8528
G1 X194.400 Y94.427 E112.0284
G1 X194.000 Y90.027 E112.1901
G1 X190.000 Y90.027 E112.3364
G1 X190.000 Y94.027 E112.4828
G1 X194.000 Y94.027 E112.6291
G1 X193.600 Y90.427 E112.7616
G1 X190.400 Y90.427 E112.8787
G1 X190.400 Y93.627 E112.9958
G1 X193.600 Y93.627 E113.1129
G1 X193.200 Y90.827 E113.2163
G1 X190.800 Y90.827 E113.3041
G1 X190.800 Y93.227 E113.3920
G1 X193.200 Y93.227 E113.4798
G1 X192.800 Y91.227 E113.5544
G1 X191.200 Y91.227 E113.6129
G1 X191.200 Y92.827 E113.6715
G1 X192.800 Y92.827 E113.7300
G1 X192.400 Y91.627 E113.7763
G1 X191.600 Y91.627 E113.8055
G1 X191.600 Y92.427 E113.8348
G1 X192.400 Y92.427 E113.8641
; ------------------------------------
; Layer #2
; ------------------------------------
M106 S0 T0 ;turn off fan 1
G92 E0 ;reset extr
;segType:HShell
G0 F3000 E-1.0000
G0 F1200 Z1.600
G0 X206.256 Y105.988 F7200
G0 F1200 Z0.600
G0 F3000 E0.0000
G1 X211.039 Y110.772 E0.2250 F3000
G0 X211.039 Y110.206 F7200
G1 X206.821 Y105.988 E0.4234 F3000
G0 X207.387 Y105.988 F7200
G1 X210.991 Y109.592 E0.5930 F3000
G0 X210.407 Y107.876 F7200
G1 X209.088 Y106.558 E0.6550 F3000
G0 X208.096 Y106.131 F7200
G1 X210.860 Y108.895 E0.7850 F3000
;segType:Perimeter
G0 X211.258 Y108.331 F7200
G1 X211.694 Y109.002 E0.8116 F1799
G1 X211.800 Y110.011 E0.8453
G1 X211.800 Y139.989 E1.8424
G1 X211.694 Y140.998 E1.8762
G1 X211.384 Y141.952 E1.9095
G1 X210.882 Y142.821 E1.9429
G1 X210.211 Y143.566 E1.9763
G1 X209.399 Y144.156 E2.0096
G1 X208.483 Y144.564 E2.0430
G1 X207.502 Y144.772 E2.0763
G1 X176.498 Y144.772 E3.1075
G1 X175.517 Y144.564 E3.1409
G1 X174.601 Y144.156 E3.1743
G1 X173.789 Y143.566 E3.2076
G1 X173.118 Y142.821 E3.2410
G1 X172.616 Y141.952 E3.2743
G1 X172.306 Y140.998 E3.3077
G1 X172.200 Y139.989 E3.3414
G1 X172.200 Y110.011 E4.3385
G1 X172.306 Y109.002 E4.3723
G1 X172.616 Y108.048 E4.4056
G1 X173.118 Y107.180 E4.4390
G1 X173.789 Y106.434 E4.4723
G1 X174.601 Y105.844 E4.5057
G1 X175.517 Y105.436 E4.5391
G1 X176.499 Y105.228 E4.5724
G1 X207.502 Y105.228 E5.6036
G1 X208.483 Y105.436 E5.6370
G1 X209.399 Y105.844 E5.6703
G1 X210.211 Y106.434 E5.7037
G1 X210.882 Y107.180 E5.7371
G1 X211.384 Y108.048 E5.7704
G1 X211.694 Y109.002 E5.8038
G0 X211.568 Y109.792 F7200
;segType:Loop
G0 X211.400 Y110.132
G1 X211.400 Y139.969 E6.7962 F3000
G1 X211.300 Y140.914 E6.8278
G1 X211.016 Y141.788 E6.8584
G1 X210.557 Y142.584 E6.8889
G1 X209.942 Y143.267 E6.9195
G1 X209.198 Y143.807 E6.9501
G1 X208.359 Y144.181 E6.9806
G1 X207.460 Y144.372 E7.0112
G1 X176.541 Y144.372 E8.0396
G1 X175.641 Y144.181 E8.0702
G1 X174.802 Y143.807 E8.1007
G1 X174.058 Y143.267 E8.1313
G1 X173.443 Y142.584 E8.1619
G1 X172.984 Y141.788 E8.1924
G1 X172.700 Y140.914 E8.2230
G1 X172.600 Y139.968 E8.2546
G1 X172.600 Y110.032 E9.2503
G1 X172.700 Y109.086 E9.2820
G1 X172.984 Y108.212 E9.3125
G1 X173.443 Y107.416 E9.3431
G1 X174.058 Y106.733 E9.3737
G1 X174.802 Y106.193 E9.4042
G1 X175.641 Y105.819 E9.4348
G1 X176.541 Y105.628 E9.4654
G1 X207.460 Y105.628 E10.4937
G1 X208.359 Y105.819 E10.5243
G1 X209.198 Y106.193 E10.5549
G1 X209.942 Y106.733 E10.5855
G1 X210.557 Y107.416 E10.6160
G1 X211.016 Y108.212 E10.6466
G1 X211.300 Y109.086 E10.6772
G1 X211.389 Y109.932 E10.7055
;segType:HShell
G0 X206.535 Y127.764 F7200
G1 X211.039 Y132.268 E10.9173 F3000
G0 X211.039 Y131.702 F7200
G1 X206.626 Y127.289 E11.1249 F3000
G0 X206.711 Y126.808 F7200
G1 X211.039 Y131.137 E11.3285 F3000
G0 X211.039 Y130.571 F7200
G1 X206.745 Y126.276 E11.5305 F3000
;segType:Perimeter
G0 X206.208 Y126.004 F7200
G1 X205.953 Y126.762 E11.5571 F1799
G1 X205.622 Y128.494 E11.6158
G1 X205.076 Y130.177 E11.6746
G1 X204.324 Y131.775 E11.7333
G1 X203.378 Y133.266 E11.7921
G1 X202.252 Y134.627 E11.8508
G1 X200.964 Y135.836 E11.9096
G1 X199.535 Y136.874 E11.9683
G1 X197.984 Y137.726 E12.0272
G1 X196.342 Y138.376 E12.0859
G1 X194.635 Y138.814 E12.1445
G1 X192.883 Y139.035 E12.2033
G1 X191.117 Y139.035 E12.2620
G1 X189.365 Y138.814 E12.3208
G1 X187.658 Y138.376 E12.3794
G1 X186.016 Y137.726 E12.4381
G1 X184.465 Y136.874 E12.4970
G1 X183.036 Y135.836 E12.5557
G1 X181.748 Y134.627 E12.6145
G1 X180.622 Y133.266 E12.6732
G1 X179.676 Y131.775 E12.7319
G1 X178.924 Y130.177 E12.7907
G1 X178.378 Y128.494 E12.8496
G1 X178.047 Y126.763 E12.9082
G1 X177.937 Y125.000 E12.9669
G1 X178.047 Y123.238 E13.0256
G1 X178.378 Y121.503 E13.0844
G1 X178.924 Y119.823 E13.1431
G1 X179.676 Y118.225 E13.2019
G1 X180.622 Y116.734 E13.2606
G1 X181.748 Y115.373 E13.3193
G1 X183.036 Y114.164 E13.3781
G1 X184.464 Y113.126 E13.4368
G1 X186.016 Y112.274 E13.4957
G1 X187.658 Y111.624 E13.5544
G1 X189.365 Y111.186 E13.6131
G1 X191.117 Y110.965 E13.6718
G1 X192.883 Y110.965 E13.7305
G1 X194.635 Y111.186 E13.7893
G1 X196.342 Y111.624 E13.8479
G1 X197.984 Y112.274 E13.9066
G1 X199.535 Y113.126 E13.9655
G1 X200.964 Y114.164 E14.0242
G1 X202.252 Y115.373 E14.0830
G1 X203.378 Y116.734 E14.1417
G1 X204.324 Y118.225 E14.2004
G1 X205.076 Y119.823 E14.2592
G1 X205.622 Y121.506 E14.3181
G1 X205.953 Y123.237 E14.3767
G1 X206.063 Y125.000 E14.4354
G1 X205.953 Y126.762 E14.4941
G0 X206.011 Y127.560 F7200
;segType:Loop
G0 X206.139 Y127.917
G1 X206.010 Y128.593 E14.5170 F3000
G1 X205.449 Y130.324 E14.5775
G1 X204.675 Y131.968 E14.6380
G1 X203.702 Y133.501 E14.6984
G1 X202.544 Y134.901 E14.7588
G1 X201.220 Y136.145 E14.8192
G1 X199.750 Y137.213 E14.8796
G1 X198.155 Y138.089 E14.9402
G1 X196.466 Y138.757 E15.0006
G1 X194.710 Y139.208 E15.0609
G1 X192.908 Y139.435 E15.1213
G1 X191.092 Y139.435 E15.1817
G1 X189.290 Y139.208 E15.2421
G1 X187.534 Y138.757 E15.3024
G1 X185.845 Y138.089 E15.3628
G1 X184.250 Y137.213 E15.4233
G1 X182.780 Y136.145 E15.4838
G1 X181.456 Y134.901 E15.5442
G1 X180.298 Y133.501 E15.6046
G1 X179.325 Y131.968 E15.6650
G1 X178.551 Y130.325 E15.7254
G1 X177.990 Y128.593 E15.7860
G1 X177.650 Y126.813 E15.8462
G1 X177.536 Y125.000 E15.9067
G1 X177.650 Y123.188 E15.9671
G1 X177.990 Y121.404 E16.0275
G1 X178.552 Y119.675 E16.0879
G1 X179.325 Y118.032 E16.1483
G1 X180.298 Y116.499 E16.2087
G1 X181.456 Y115.099 E16.2691
G1 X182.780 Y113.855 E16.3296
G1 X184.250 Y112.787 E16.3900
G1 X185.845 Y111.911 E16.4505
G1 X187.534 Y111.243 E16.5109
G1 X189.290 Y110.792 E16.5712
G1 X191.092 Y110.565 E16.6316
G1 X192.908 Y110.565 E16.6921
G1 X194.710 Y110.792 E16.7525
G1 X196.466 Y111.243 E16.8127
G1 X198.155 Y111.911 E16.8732
G1 X199.750 Y112.787 E16.9337
G1 X201.220 Y113.855 E16.9941
G1 X202.544 Y115.099 E17.0545
G1 X203.702 Y116.499 E17.1150
G1 X204.675 Y118.032 E17.1754
G1 X205.449 Y119.676 E17.2358
G1 X206.010 Y121.407 E17.2963
G1 X206.350 Y123.187 E17.3566
G1 X206.464 Y125.000 E17.4170
G1 X206.350 Y126.812 E17.4774
G1 X206.177 Y127.721 E17.5082
;segType:HShell
G0 X206.445 Y128.239 F7200
G1 X211.039 Y132.834 E17.7243 F3000
G0 X211.039 Y133.399 F7200
G1 X206.351 Y128.711 E17.9448 F3000
G0 X206.212 Y129.138 F7200
G1 X211.039 Y133.965 E18.1719 F3000
G0 X211.039 Y134.531 F7200
G1 X206.074 Y129.565 E18.4055 F3000
G0 X205.935 Y129.992 F7200
G1 X211.039 Y135.096 E18.6456 F3000
G0 X211.039 Y135.662 F7200
G1 X205.796 Y130.419 E18.8922 F3000
G0 X205.619 Y130.808 F7200
G1 X211.039 Y136.228 E19.1471 F3000
G0 X211.039 Y136.793 F7200
G1 X205.438 Y131.192 E19.4106 F3000
G0 X205.257 Y131.577 F7200
G1 X211.039 Y137.359 E19.6826 F3000
G0 X211.039 Y137.925 F7200
G1 X205.076 Y131.962 E19.9631 F3000
G0 X204.875 Y132.326 F7200
G1 X211.039 Y138.491 E20.2530 F3000
G0 X211.039 Y139.056 F7200
G1 X204.655 Y132.672 E20.5534 F3000
G0 X204.435 Y133.018 F7200
G1 X211.039 Y139.622 E20.8640 F3000
G0 X211.017 Y140.165 F7200
G1 X204.216 Y133.364 E21.1839 F3000
G0 X203.996 Y133.710 F7200
G1 X210.963 Y140.677 E21.5116 F3000
G0 X210.851 Y141.131 F7200
G1 X203.740 Y134.020 E21.8461 F3000
G0 X203.484 Y134.329 F7200
G1 X210.713 Y141.558 E22.1861 F3000
G0 X210.519 Y141.930 F7200
G1 X203.228 Y134.639 E22.5290 F3000
G0 X202.972 Y134.949 F7200
G1 X210.312 Y142.288 E22.8742 F3000
G0 X210.058 Y142.600 F7200
G1 X202.703 Y135.246 E23.2201 F3000
G0 X202.412 Y135.520 F7200
G1 X209.790 Y142.898 E23.5672 F3000
G0 X209.482 Y143.156 F7200
G1 X202.120 Y135.794 E23.9135 F3000
G0 X201.828 Y136.067 F7200
G1 X209.155 Y143.394 E24.2581 F3000
G0 X208.790 Y143.595 F7200
G1 X201.536 Y136.341 E24.5993 F3000
G0 X201.219 Y136.590 F7200
G1 X208.398 Y143.769 E24.9370 F3000
G0 X207.961 Y143.897 F7200
G1 X200.892 Y136.828 E25.2695 F3000
G0 X200.564 Y137.066 F7200
G1 X207.495 Y143.997 E25.5955 F3000
G0 X206.944 Y144.012 F7200
G1 X200.237 Y137.304 E25.9110 F3000
G0 X199.905 Y137.538 F7200
G1 X206.379 Y144.012 E26.2155 F3000
G0 X205.813 Y144.012 F7200
G1 X199.540 Y137.739 E26.5105 F3000
G0 X199.175 Y137.940 F7200
G1 X205.247 Y144.012 E26.7962 F3000
G0 X204.682 Y144.012 F7200
G1 X198.810 Y138.140 E27.0724 F3000
G0 X198.445 Y138.341 F7200
G1 X204.116 Y144.012 E27.3391 F3000
G0 X203.550 Y144.012 F7200
G1 X198.054 Y138.516 E27.5976 F3000
G0 X197.649 Y138.676 F7200
G1 X202.985 Y144.012 E27.8486 F3000
G0 X202.419 Y144.012 F7200
G1 X197.244 Y138.837 E28.0920 F3000
G0 X196.838 Y138.997 F7200
G1 X201.853 Y144.012 E28.3279 F3000
G0 X201.287 Y144.012 F7200
G1 X196.417 Y139.142 E28.5570 F3000
G0 X195.967 Y139.257 F7200
G1 X200.722 Y144.012 E28.7807 F3000
G0 X200.156 Y144.012 F7200
G1 X195.517 Y139.373 E28.9989 F3000
G0 X195.067 Y139.488 F7200
G1 X199.590 Y144.012 E29.2117 F3000
G0 X199.025 Y144.012 F7200
G1 X194.598 Y139.585 E29.4199 F3000
G0 X194.096 Y139.649 F7200
G1 X198.459 Y144.012 E29.6251 F3000
G0 X197.893 Y144.012 F7200
G1 X193.593 Y139.712 E29.8274 F3000
G0 X193.091 Y139.775 F7200
G1 X197.328 Y144.012 E30.0267 F3000
G0 X196.762 Y144.012 F7200
G1 X192.546 Y139.796 E30.2250 F3000
G0 X191.980 Y139.796 F7200
G1 X196.196 Y144.012 E30.4233 F3000
G0 X195.631 Y144.012 F7200
G1 X191.414 Y139.796 E30.6217 F3000
G0 X190.817 Y139.764 F7200
G1 X195.065 Y144.012 E30.8215 F3000
G0 X194.499 Y144.012 F7200
G1 X190.169 Y139.682 E31.0252 F3000
G0 X189.522 Y139.600 F7200
G1 X193.934 Y144.012 E31.2327 F3000
G0 X193.368 Y144.012 F7200
G1 X188.813 Y139.457 E31.4469 F3000
G0 X188.052 Y139.262 F7200
G1 X192.802 Y144.012 E31.6703 F3000
G0 X192.237 Y144.012 F7200
G1 X187.261 Y139.036 E31.9044 F3000
G0 X186.325 Y138.666 F7200
G1 X191.671 Y144.012 E32.1558 F3000
G0 X191.105 Y144.012 F7200
G1 X185.286 Y138.193 E32.4296 F3000
G0 X184.013 Y137.486 F7200
G1 X190.539 Y144.012 E32.7365 F3000
G0 X189.974 Y144.012 F7200
G1 X172.961 Y126.999 E33.5368 F3000
G0 X172.961 Y127.564 F7200
G1 X189.408 Y144.012 E34.3104 F3000
G0 X188.842 Y144.012 F7200
G1 X172.961 Y128.130 E35.0575 F3000
G0 X172.961 Y128.696 F7200
G1 X188.277 Y144.012 E35.7779 F3000
G0 X187.711 Y144.012 F7200
G1 X172.961 Y129.262 E36.4717 F3000
G0 X172.961 Y129.827 F7200
G1 X187.145 Y144.012 E37.1389 F3000
G0 X186.580 Y144.012 F7200
G1 X172.961 Y130.393 E37.7795 F3000
G0 X172.961 Y130.959 F7200
G1 X186.014 Y144.012 E38.3935 F3000
G0 X185.448 Y144.012 F7200
G1 X172.961 Y131.524 E38.9809 F3000
G0 X172.961 Y132.090 F7200
G1 X184.883 Y144.012 E39.5417 F3000
G0 X184.317 Y144.012 F7200
G1 X172.961 Y132.656 E40.0758 F3000
G0 X172.961 Y133.221 F7200
G1 X183.751 Y144.012 E40.5834 F3000
G0 X183.186 Y144.012 F7200
G1 X172.961 Y133.787 E41.0644 F3000
G0 X172.961 Y134.353 F7200
G1 X182.620 Y144.012 E41.5187 F3000
G0 X182.054 Y144.012 F7200
G1 X172.961 Y134.918 E41.9464 F3000
G0 X172.961 Y135.484 F7200
G1 X181.488 Y144.012 E42.3476 F3000
G0 X180.923 Y144.012 F7200
G1 X172.961 Y136.050 E42.7221 F3000
G0 X172.961 Y136.615 F7200
G1 X180.357 Y144.012 E43.0700 F3000
G0 X179.791 Y144.012 F7200
G1 X172.961 Y137.181 E43.3913 F3000
G0 X172.961 Y137.747 F7200
G1 X179.226 Y144.012 E43.6860 F3000
G0 X178.660 Y144.012 F7200
G1 X172.961 Y138.313 E43.9541 F3000
G0 X172.961 Y138.878 F7200
G1 X178.094 Y144.012 E44.1956 F3000
G0 X177.529 Y144.012 F7200
G1 X172.961 Y139.444 E44.4104 F3000
G0 X172.968 Y140.017 F7200
G1 X176.963 Y144.012 E44.5984 F3000
G0 X176.348 Y143.963 F7200
G1 X173.034 Y140.649 E44.7543 F3000
G0 X173.244 Y141.425 F7200
G1 X175.578 Y143.759 E44.8641 F3000
G0 X179.598 Y133.071 F7200
G1 X172.961 Y126.433 E45.1763 F3000
G0 X172.961 Y125.867 F7200
G1 X178.808 Y131.715 E45.4513 F3000
G0 X178.305 Y130.646 F7200
G1 X172.961 Y125.302 E45.7027 F3000
G0 X172.961 Y124.736 F7200
G1 X177.992 Y129.768 E45.9393 F3000
G0 X177.720 Y128.930 F7200
G1 X172.961 Y124.170 E46.1632 F3000
G0 X172.961 Y123.605 F7200
G1 X177.546 Y128.190 E46.3789 F3000
G0 X177.413 Y127.491 F7200
G1 X172.961 Y123.039 E46.5883 F3000
G0 X172.961 Y122.473 F7200
G1 X177.288 Y126.801 E46.7919 F3000
G0 X177.250 Y126.197 F7200
G1 X172.961 Y121.908 E46.9937 F3000
G0 X172.961 Y121.342 F7200
G1 X177.212 Y125.594 E47.1937 F3000
G0 X177.176 Y124.991 F7200
G1 X172.961 Y120.776 E47.3919 F3000
G0 X172.961 Y120.211 F7200
G1 X177.209 Y124.459 E47.5918 F3000
G0 X177.243 Y123.927 F7200
G1 X172.961 Y119.645 E47.7932 F3000
G0 X172.961 Y119.079 F7200
G1 X177.276 Y123.395 E47.9962 F3000
G0 X177.340 Y122.893 F7200
G1 X172.961 Y118.514 E48.2021 F3000
G0 X172.961 Y117.948 F7200
G1 X177.430 Y122.417 E48.4124 F3000
G0 X177.521 Y121.942 F7200
G1 X172.961 Y117.382 E48.6269 F3000
G0 X172.961 Y116.816 F7200
G1 X177.611 Y121.467 E48.8456 F3000
G0 X177.734 Y121.025 F7200
G1 X172.961 Y116.251 E49.0702 F3000
G0 X172.961 Y115.685 F7200
G1 X177.873 Y120.598 E49.3012 F3000
G0 X178.012 Y120.171 F7200
G1 X172.961 Y115.119 E49.5389 F3000
G0 X172.961 Y114.554 F7200
G1 X178.151 Y119.744 E49.7830 F3000
G0 X178.312 Y119.339 F7200
G1 X172.961 Y113.988 E50.0347 F3000
G0 X172.961 Y113.422 F7200
G1 X178.493 Y118.955 E50.2949 F3000
G0 X178.674 Y118.570 F7200
G1 X172.961 Y112.857 E50.5636 F3000
G0 X172.961 Y112.291 F7200
G1 X178.855 Y118.185 E50.8409 F3000
G0 X179.042 Y117.806 F7200
G1 X172.961 Y111.725 E51.1269 F3000
G0 X172.961 Y111.160 F7200
G1 X179.261 Y117.460 E51.4233 F3000
G0 X179.481 Y117.114 F7200
G1 X172.961 Y110.594 E51.7300 F3000
G0 X172.963 Y110.030 F7200
G1 X179.701 Y116.768 E52.0469 F3000
G0 X179.920 Y116.422 F7200
G1 X173.016 Y109.518 E52.3716 F3000
G0 X173.096 Y109.032 F7200
G1 X180.162 Y116.098 E52.7040 F3000
G0 X180.418 Y115.789 F7200
G1 X173.235 Y108.605 E53.0419 F3000
G0 X173.402 Y108.207 F7200
G1 X180.674 Y115.479 E53.3839 F3000
G0 X180.930 Y115.169 F7200
G1 X173.609 Y107.849 E53.7283 F3000
G0 X173.840 Y107.514 F7200
G1 X181.186 Y114.860 E54.0738 F3000
G0 X181.477 Y114.585 F7200
G1 X174.108 Y107.216 E54.4204 F3000
G0 X174.393 Y106.935 F7200
G1 X181.769 Y114.311 E54.7674 F3000
G0 X182.061 Y114.037 F7200
G1 X174.720 Y106.697 E55.1126 F3000
G0 X175.061 Y106.472 F7200
G1 X182.352 Y113.763 E55.4556 F3000
G0 X182.656 Y113.501 F7200
G1 X175.452 Y106.297 E55.7944 F3000
G0 X175.861 Y106.140 F7200
G1 X182.983 Y113.263 E56.1295 F3000
G0 X183.311 Y113.025 F7200
G1 X176.327 Y106.041 E56.4579 F3000
G0 X176.840 Y105.988 F7200
G1 X183.638 Y112.787 E56.7777 F3000
G0 X183.966 Y112.548 F7200
G1 X177.406 Y105.988 E57.0863 F3000
G0 X177.971 Y105.988 F7200
G1 X184.321 Y112.338 E57.3850 F3000
G0 X184.686 Y112.137 F7200
G1 X178.537 Y105.988 E57.6742 F3000
G0 X179.103 Y105.988 F7200
G1 X185.051 Y111.936 E57.9540 F3000
G0 X185.416 Y111.736 F7200
G1 X179.668 Y105.988 E58.2243 F3000
G0 X180.234 Y105.988 F7200
G1 X185.791 Y111.545 E58.4857 F3000
G0 X186.196 Y111.385 F7200
G1 X180.800 Y105.988 E58.7396 F3000
G0 X181.365 Y105.988 F7200
G1 X186.602 Y111.224 E58.9859 F3000
G0 X187.007 Y111.064 F7200
G1 X181.931 Y105.988 E59.2246 F3000
G0 X182.497 Y105.988 F7200
G1 X187.412 Y110.904 E59.4559 F3000
G0 X187.861 Y110.787 F7200
G1 X183.062 Y105.988 E59.6816 F3000
G0 X183.628 Y105.988 F7200
G1 X188.312 Y110.671 E59.9019 F3000
G0 X188.762 Y110.556 F7200
G1 X184.194 Y105.988 E60.1168 F3000
G0 X184.759 Y105.988 F7200
G1 X189.212 Y110.440 E60.3262 F3000
G0 X189.713 Y110.376 F7200
G1 X185.325 Y105.988 E60.5326 F3000
G0 X185.891 Y105.988 F7200
G1 X190.215 Y110.312 E60.7360 F3000
G0 X190.717 Y110.249 F7200
G1 X186.457 Y105.988 E60.9364 F3000
G0 X187.022 Y105.988 F7200
G1 X191.239 Y110.204 E61.1347 F3000
G0 X191.804 Y110.204 F7200
G1 X187.588 Y105.988 E61.3330 F3000
G0 X188.154 Y105.988 F7200
G1 X192.370 Y110.204 E61.5314 F3000
G0 X192.936 Y110.205 F7200
G1 X188.719 Y105.988 E61.7297 F3000
G0 X189.285 Y105.988 F7200
G1 X193.584 Y110.287 E61.9319 F3000
G0 X194.231 Y110.369 F7200
G1 X189.851 Y105.988 E62.1380 F3000
G0 X190.416 Y105.988 F7200
G1 X194.896 Y110.468 E62.3487 F3000
G0 X195.658 Y110.663 F7200
G1 X190.982 Y105.988 E62.5686 F3000
G0 X191.548 Y105.988 F7200
G1 X196.419 Y110.859 E62.7977 F3000
G0 X197.318 Y111.193 F7200
G1 X192.113 Y105.988 E63.0426 F3000
G0 X192.679 Y105.988 F7200
G1 X198.254 Y111.563 E63.3048 F3000
G0 X199.491 Y112.234 F7200
G1 X193.245 Y105.988 E63.5986 F3000
G0 X193.810 Y105.988 F7200
G1 X201.267 Y113.444 E63.9493 F3000
G0 X205.690 Y105.988 F7200
G1 X211.039 Y111.338 E64.2009 F3000
G0 X211.039 Y111.903 F7200
G1 X205.124 Y105.988 E64.4792 F3000
G0 X204.558 Y105.988 F7200
G1 X211.039 Y112.469 E64.7840 F3000
G0 X211.039 Y113.035 F7200
G1 X203.993 Y105.988 E65.1155 F3000
G0 X203.427 Y105.988 F7200
G1 X211.039 Y113.600 E65.4735 F3000
G0 X211.039 Y114.166 F7200
G1 X202.861 Y105.988 E65.8582 F3000
G0 X202.296 Y105.988 F7200
G1 X211.039 Y114.732 E66.2695 F3000
G0 X211.039 Y115.297 F7200
G1 X201.730 Y105.988 E66.7074 F3000
G0 X201.164 Y105.988 F7200
G1 X211.039 Y115.863 E67.1718 F3000
G0 X211.039 Y116.429 F7200
G1 X200.599 Y105.988 E67.6630 F3000
G0 X200.033 Y105.988 F7200
G1 X211.039 Y116.994 E68.1807 F3000
G0 X211.039 Y117.560 F7200
G1 X199.467 Y105.988 E68.7250 F3000
G0 X198.902 Y105.988 F7200
G1 X211.039 Y118.126 E69.2959 F3000
G0 X211.039 Y118.692 F7200
G1 X198.336 Y105.988 E69.8934 F3000
G0 X197.770 Y105.988 F7200
G1 X211.039 Y119.257 E70.5176 F3000
G0 X211.039 Y119.823 F7200
G1 X197.205 Y105.988 E71.1683 F3000
G0 X196.639 Y105.988 F7200
G1 X211.039 Y120.389 E71.8457 F3000
G0 X211.039 Y120.954 F7200
G1 X196.073 Y105.988 E72.5497 F3000
G0 X195.508 Y105.988 F7200
G1 X211.039 Y121.520 E73.2802 F3000
G0 X211.039 Y122.086 F7200
G1 X194.942 Y105.988 E74.0374 F3000
G0 X194.376 Y105.988 F7200
G1 X211.039 Y122.651 E74.8212 F3000
G0 X211.039 Y123.217 F7200
G1 X203.443 Y115.620 E75.1785 F3000
G0 X204.777 Y117.520 F7200
G1 X211.039 Y123.783 E75.4731 F3000
G0 X211.039 Y124.348 F7200
G1 X205.384 Y118.693 E75.7391 F3000
G0 X205.840 Y119.714 F7200
G1 X211.039 Y124.914 E75.9837 F3000
G0 X211.039 Y125.480 F7200
G1 X206.112 Y120.552 E76.2155 F3000
G0 X206.372 Y121.377 F7200
G1 X211.039 Y126.045 E76.4351 F3000
G0 X211.039 Y126.611 F7200
G1 X206.505 Y122.077 E76.6484 F3000
G0 X206.638 Y122.776 F7200
G1 X211.039 Y127.177 E76.8554 F3000
G0 X211.039 Y127.742 F7200
G1 X206.726 Y123.429 E77.0583 F3000
G0 X206.764 Y124.033 F7200
G1 X211.039 Y128.308 E77.2593 F3000
G0 X211.039 Y128.874 F7200
G1 X206.802 Y124.636 E77.4587 F3000
G0 X206.812 Y125.212 F7200
G1 X211.039 Y129.440 E77.6575 F3000
G0 X211.039 Y130.005 F7200
G1 X206.778 Y125.744 E77.8580 F3000
;segType:Pillar
G0 E76.8580
G0 F1200 Z1.600
G0 X202.000 Y82.027 F7200
G0 F1200 Z0.600
G0 F3000 E77.8580
G1 X182.000 Y82.027 E78.5897 F3000
G1 X182.000 Y102.027 E79.3214
G1 X202.000 Y102.027 E80.0531
G1 X201.600 Y82.427 E80.7704
G1 X182.400 Y82.427 E81.4728
G1 X182.400 Y101.627 E82.1753
G1 X201.600 Y101.627 E82.8777
G1 X201.200 Y82.827 E83.5657
G1 X182.800 Y82.827 E84.2389
G1 X182.800 Y101.227 E84.9121
G1 X201.200 Y101.227 E85.5853
G1 X200.800 Y83.227 E86.2440
G1 X183.200 Y83.227 E86.8879
G1 X183.200 Y100.827 E87.5318
G1 X200.800 Y100.827 E88.1757
G1 X200.400 Y83.627 E88.8052
G1 X183.600 Y83.627 E89.4198
G1 X183.600 Y100.427 E90.0345
G1 X200.400 Y100.427 E90.6491
G1 X200.000 Y84.027 E91.2493
G1 X184.000 Y84.027 E91.8347
G1 X184.000 Y100.027 E92.4201
G1 X200.000 Y100.027 E93.0054
G1 X199.600 Y84.427 E93.5764
G1 X184.400 Y84.427 E94.1325
G1 X184.400 Y99.627 E94.6886
G1 X199.600 Y99.627 E95.2447
G1 X199.200 Y84.827 E95.7864
G1 X184.800 Y84.827 E96.3132
G1 X184.800 Y99.227 E96.8400
G1 X199.200 Y99.227 E97.3669
G1 X198.800 Y85.227 E97.8793
G1 X185.200 Y85.227 E98.3769
G1 X185.200 Y98.827 E98.8744
G1 X198.800 Y98.827 E99.3720
G1 X198.400 Y85.627 E99.8552
G1 X185.600 Y85.627 E100.3235
G1 X185.600 Y98.427 E100.7918
G1 X198.400 Y98.427 E101.2601
G1 X198.000 Y86.027 E101.7140
G1 X186.000 Y86.027 E102.1530
G1 X186.000 Y98.027 E102.5921
G1 X198.000 Y98.027 E103.0311
G1 X197.600 Y86.427 E103.4557
G1 X186.400 Y86.427 E103.8655
G1 X186.400 Y97.627 E104.2753
G1 X197.600 Y97.627 E104.6850
G1 X197.200 Y86.827 E105.0804
G1 X186.800 Y86.827 E105.4609
G1 X186.800 Y97.227 E105.8414
G1 X197.200 Y97.227 E106.2219
G1 X196.800 Y87.227 E106.5881
G1 X187.200 Y87.227 E106.9393
G1 X187.200 Y96.827 E107.2905
G1 X196.800 Y96.827 E107.6418
G1 X196.400 Y87.627 E107.9787
G1 X187.600 Y87.627 E108.3006
G1 X187.600 Y96.427 E108.6226
G1 X196.400 Y96.427 E108.9446
G1 X196.000 Y88.027 E109.2522
G1 X188.000 Y88.027 E109.5449
G1 X188.000 Y96.027 E109.8376
G1 X196.000 Y96.027 E110.1303
G1 X195.600 Y88.427 E110.4087
G1 X188.400 Y88.427 E110.6721
G1 X188.400 Y95.627 E110.9356
G1 X195.600 Y95.627 E111.1990
G1 X195.200 Y88.827 E111.4482
G1 X188.800 Y88.827 E111.6824
G1 X188.800 Y95.227 E111.9165
G1 X195.200 Y95.227 E112.1507
G1 X194.800 Y89.227 E112.3707
G1 X189.200 Y89.227 E112.5755
G1 X189.200 Y94.827 E112.7804
G1 X194.800 Y94.827 E112.9853
G1 X194.400 Y89.627 E113.1761
G1 X189.600 Y89.627 E113.3517
G1 X189.600 Y94.427 E113.5273
G1 X194.400 Y94.427 E113.7030
G1 X194.000 Y90.027 E113.8646
G1 X190.000 Y90.027 E114.0109
G1 X190.000 Y94.027 E114.1573
G1 X194.000 Y94.027 E114.3036
G1 X193.600 Y90.427 E114.4362
G1 X190.400 Y90.427 E114.5532
G1 X190.400 Y93.627 E114.6703
G1 X193.600 Y93.627 E114.7874
G1 X193.200 Y90.827 E114.8909
G1 X190.800 Y90.827 E114.9787
G1 X190.800 Y93.227 E115.0665
G1 X193.200 Y93.227 E115.1543
G1 X192.800 Y91.227 E115.2289
G1 X191.200 Y91.227 E115.2875
G1 X191.200 Y92.827 E115.3460
G1 X192.800 Y92.827 E115.4045
G1 X192.400 Y91.627 E115.4508
G1 X191.600 Y91.627 E115.4801
G1 X191.600 Y92.427 E115.5093
G1 X192.400 Y92.427 E115.5386
; ------------------------------------
; Layer #3
; ------------------------------------
M106 S255 T0 ;set fan 1 speed
G92 E0 ;reset extr
;segType:HShell
G0 F3000 E-1.0000
G0 F1200 Z1.800
G0 X210.731 Y108.500 F7200
G0 F1200 Z0.800
G0 F3000 E0.0000
G1 X203.487 Y115.745 E0.3408 F3000
G0 X203.230 Y115.435 F7200
G1 X210.547 Y108.119 E0.6849 F3000
;segType:Perimeter
G0 X211.258 Y108.331 F7200
G1 X211.694 Y109.002 E0.7115 F1799
G1 X211.800 Y110.011 E0.7452
G1 X211.800 Y139.989 E1.7423
G1 X211.694 Y140.998 E1.7761
G1 X211.384 Y141.952 E1.8094
G1 X210.882 Y142.821 E1.8428
G1 X210.211 Y143.566 E1.8762
G1 X209.399 Y144.156 E1.9095
G1 X208.483 Y144.564 E1.9429
G1 X207.502 Y144.772 E1.9763
G1 X176.498 Y144.772 E3.0074
G1 X175.517 Y144.564 E3.0408
G1 X174.601 Y144.156 E3.0742
G1 X173.789 Y143.566 E3.1075
G1 X173.118 Y142.821 E3.1409
G1 X172.616 Y141.952 E3.1742
G1 X172.306 Y140.998 E3.2076
G1 X172.200 Y139.989 E3.2413
G1 X172.200 Y110.011 E4.2384
G1 X172.306 Y109.002 E4.2722
G1 X172.616 Y108.048 E4.3055
G1 X173.118 Y107.180 E4.3389
G1 X173.789 Y106.434 E4.3722
G1 X174.601 Y105.844 E4.4056
G1 X175.517 Y105.436 E4.4390
G1 X176.499 Y105.228 E4.4723
G1 X207.502 Y105.228 E5.5035
G1 X208.483 Y105.436 E5.5369
G1 X209.399 Y105.844 E5.5702
G1 X210.211 Y106.434 E5.6036
G1 X210.882 Y107.180 E5.6370
G1 X211.384 Y108.048 E5.6703
G1 X211.694 Y109.002 E5.7037
G0 X211.568 Y109.792 F7200
;segType:Loop
G0 X211.400 Y110.132
G1 X211.400 Y139.969 E6.6961 F3000
G1 X211.300 Y140.914 E6.7277
G1 X211.016 Y141.788 E6.7583
G1 X210.557 Y142.584 E6.7888
G1 X209.942 Y143.267 E6.8194
G1 X209.198 Y143.807 E6.8500
G1 X208.359 Y144.181 E6.8805
G1 X207.460 Y144.372 E6.9111
G1 X176.541 Y144.372 E7.9395
G1 X175.641 Y144.181 E7.9701
G1 X174.802 Y143.807 E8.0006
G1 X174.058 Y143.267 E8.0312
G1 X173.443 Y142.584 E8.0618
G1 X172.984 Y141.788 E8.0923
G1 X172.700 Y140.914 E8.1229
G1 X172.600 Y139.968 E8.1545
G1 X172.600 Y110.032 E9.1502
G1 X172.700 Y109.086 E9.1819
G1 X172.984 Y108.212 E9.2124
G1 X173.443 Y107.416 E9.2430
G1 X174.058 Y106.733 E9.2736
G1 X174.802 Y106.193 E9.3041
G1 X175.641 Y105.819 E9.3347
G1 X176.541 Y105.628 E9.3653
G1 X207.460 Y105.628 E10.3936
G1 X208.359 Y105.819 E10.4242
G1 X209.198 Y106.193 E10.4548
G1 X209.942 Y106.733 E10.4854
G1 X210.557 Y107.416 E10.5159
G1 X211.016 Y108.212 E10.5465
G1 X211.300 Y109.086 E10.5771
G1 X211.389 Y109.932 E10.6054
;segType:HShell
G0 X206.429 Y128.076 F7200
G1 X211.039 Y123.465 E10.8222 F3000
G0 X211.039 Y122.900 F7200
G1 X206.562 Y127.377 E11.0328 F3000
G0 X206.672 Y126.701 F7200
G1 X211.039 Y122.334 E11.2382 F3000
G0 X211.039 Y121.768 F7200
G1 X206.710 Y126.098 E11.4419 F3000
;segType:Perimeter
G0 X206.162 Y125.994 F7200
G1 X205.907 Y126.752 E11.4685 F1799
G1 X205.577 Y128.485 E11.5272
G1 X205.033 Y130.160 E11.5857
G1 X204.284 Y131.753 E11.6443
G1 X203.340 Y133.239 E11.7028
G1 X202.218 Y134.596 E11.7614
G1 X200.935 Y135.801 E11.8199
G1 X199.511 Y136.835 E11.8785
G1 X197.964 Y137.685 E11.9372
G1 X196.332 Y138.331 E11.9956
G1 X194.627 Y138.769 E12.0541
G1 X192.880 Y138.990 E12.1127
G1 X191.120 Y138.990 E12.1712
G1 X189.373 Y138.769 E12.2298
G1 X187.669 Y138.332 E12.2883
G1 X186.036 Y137.685 E12.3467
G1 X184.489 Y136.835 E12.4054
G1 X183.065 Y135.801 E12.4640
G1 X181.782 Y134.596 E12.5225
G1 X180.663 Y133.243 E12.5809
G1 X179.716 Y131.753 E12.6396
G1 X178.967 Y130.160 E12.6982
G1 X178.422 Y128.481 E12.7569
G1 X178.093 Y126.752 E12.8154
G1 X177.983 Y125.000 E12.8738
G1 X178.093 Y123.248 E12.9322
G1 X178.423 Y121.515 E12.9909
G1 X178.967 Y119.840 E13.0494
G1 X179.714 Y118.252 E13.1078
G1 X180.659 Y116.761 E13.1665
G1 X181.782 Y115.404 E13.2251
G1 X183.065 Y114.199 E13.2836
G1 X184.489 Y113.165 E13.3422
G1 X186.036 Y112.315 E13.4009
G1 X187.668 Y111.669 E13.4593
G1 X189.373 Y111.231 E13.5178
G1 X191.120 Y111.010 E13.5764
G1 X192.880 Y111.010 E13.6349
G1 X194.627 Y111.231 E13.6935
G1 X196.331 Y111.668 E13.7520
G1 X197.964 Y112.315 E13.8104
G1 X199.511 Y113.165 E13.8691
G1 X200.935 Y114.199 E13.9277
G1 X202.218 Y115.404 E13.9862
G1 X203.337 Y116.757 E14.0446
G1 X204.286 Y118.252 E14.1035
G1 X205.033 Y119.840 E14.1619
G1 X205.578 Y121.519 E14.2206
G1 X205.907 Y123.243 E14.2790
G1 X206.017 Y125.000 E14.3375
G1 X205.907 Y126.752 E14.3959
G0 X205.966 Y127.550 F7200
;segType:Loop
G0 X206.095 Y127.907
G1 X205.966 Y128.585 E14.4188 F3000
G1 X205.406 Y130.308 E14.4791
G1 X204.635 Y131.946 E14.5393
G1 X203.665 Y133.475 E14.5995
G1 X202.510 Y134.870 E14.6598
G1 X201.191 Y136.109 E14.7200
G1 X199.726 Y137.174 E14.7802
G1 X198.134 Y138.048 E14.8406
G1 X196.456 Y138.713 E14.9006
G1 X194.702 Y139.163 E14.9609
G1 X192.905 Y139.390 E15.0211
G1 X191.095 Y139.390 E15.0813
G1 X189.298 Y139.163 E15.1415
G1 X187.545 Y138.713 E15.2017
G1 X185.866 Y138.048 E15.2618
G1 X184.274 Y137.174 E15.3222
G1 X182.809 Y136.109 E15.3824
G1 X181.490 Y134.870 E15.4427
G1 X180.339 Y133.479 E15.5027
G1 X179.365 Y131.946 E15.5631
G1 X178.594 Y130.308 E15.6233
G1 X178.034 Y128.581 E15.6837
G1 X177.695 Y126.802 E15.7439
G1 X177.582 Y125.000 E15.8040
G1 X177.695 Y123.198 E15.8640
G1 X178.034 Y121.415 E15.9244
G1 X178.594 Y119.692 E15.9847
G1 X179.363 Y118.059 E16.0447
G1 X180.335 Y116.525 E16.1051
G1 X181.490 Y115.130 E16.1653
G1 X182.809 Y113.891 E16.2256
G1 X184.274 Y112.826 E16.2858
G1 X185.866 Y111.952 E16.3462
G1 X187.544 Y111.288 E16.4062
G1 X189.298 Y110.837 E16.4664
G1 X191.095 Y110.610 E16.5267
G1 X192.905 Y110.610 E16.5869
G1 X194.702 Y110.837 E16.6471
G1 X196.455 Y111.287 E16.7073
G1 X198.134 Y111.952 E16.7674
G1 X199.726 Y112.826 E16.8278
G1 X201.190 Y113.890 E16.8880
G1 X202.510 Y115.130 E16.9482
G1 X203.661 Y116.521 E17.0083
G1 X204.637 Y118.058 E17.0688
G1 X205.406 Y119.692 E17.1289
G1 X205.966 Y121.419 E17.1893
G1 X206.305 Y123.193 E17.2493
G1 X206.418 Y125.000 E17.3096
G1 X206.305 Y126.802 E17.3696
G1 X206.132 Y127.711 E17.4004
;segType:HShell
G0 X206.276 Y128.794 F7200
G1 X211.039 Y124.031 E17.6244 F3000
G0 X211.039 Y124.597 F7200
G1 X206.004 Y129.632 E17.8613 F3000
G0 X205.724 Y130.478 F7200
G1 X211.039 Y125.162 E18.1113 F3000
G0 X211.039 Y125.728 F7200
G1 X205.221 Y131.547 E18.3850 F3000
G0 X204.496 Y132.838 F7200
G1 X211.039 Y126.294 E18.6928 F3000
G0 X211.039 Y126.860 F7200
G1 X193.887 Y144.012 E19.4996 F3000
G0 X194.453 Y144.012 F7200
G1 X211.039 Y127.425 E20.2798 F3000
G0 X211.039 Y127.991 F7200
G1 X195.018 Y144.012 E21.0334 F3000
G0 X195.584 Y144.012 F7200
G1 X211.039 Y128.557 E21.7604 F3000
G0 X211.039 Y129.122 F7200
G1 X196.150 Y144.012 E22.4607 F3000
G0 X196.715 Y144.012 F7200
G1 X211.039 Y129.688 E23.1345 F3000
G0 X211.039 Y130.254 F7200
G1 X197.281 Y144.012 E23.7817 F3000
G0 X197.847 Y144.012 F7200
G1 X211.039 Y130.819 E24.4022 F3000
G0 X211.039 Y131.385 F7200
G1 X198.412 Y144.012 E24.9961 F3000
G0 X198.978 Y144.012 F7200
G1 X211.039 Y131.951 E25.5635 F3000
G0 X211.039 Y132.516 F7200
G1 X199.544 Y144.012 E26.1042 F3000
G0 X200.109 Y144.012 F7200
G1 X211.039 Y133.082 E26.6183 F3000
G0 X211.039 Y133.648 F7200
G1 X200.675 Y144.012 E27.1058 F3000
G0 X201.241 Y144.012 F7200
G1 X211.039 Y134.213 E27.5667 F3000
G0 X211.039 Y134.779 F7200
G1 X201.807 Y144.012 E28.0010 F3000
G0 X202.372 Y144.012 F7200
G1 X211.039 Y135.345 E28.4087 F3000
G0 X211.039 Y135.910 F7200
G1 X202.938 Y144.012 E28.7897 F3000
G0 X203.504 Y144.012 F7200
G1 X211.039 Y136.476 E29.1442 F3000
G0 X211.039 Y137.042 F7200
G1 X204.069 Y144.012 E29.4721 F3000
G0 X204.635 Y144.012 F7200
G1 X211.039 Y137.608 E29.7733 F3000
G0 X211.039 Y138.173 F7200
G1 X205.201 Y144.012 E30.0479 F3000
G0 X205.766 Y144.012 F7200
G1 X211.039 Y138.739 E30.2960 F3000
G0 X211.039 Y139.305 F7200
G1 X206.332 Y144.012 E30.5174 F3000
G0 X206.898 Y144.012 F7200
G1 X211.039 Y139.870 E30.7122 F3000
G0 X210.982 Y140.493 F7200
G1 X207.475 Y144.001 E30.8772 F3000
G0 X208.193 Y143.848 F7200
G1 X210.823 Y141.218 E31.0009 F3000
G0 X210.302 Y142.305 F7200
G1 X209.368 Y143.239 E31.0448 F3000
G0 X199.777 Y137.557 F7200
G1 X193.321 Y144.012 E31.3485 F3000
G0 X192.756 Y144.012 F7200
G1 X198.521 Y138.246 E31.6197 F3000
G0 X197.526 Y138.676 F7200
G1 X192.190 Y144.012 E31.8707 F3000
G0 X191.624 Y144.012 F7200
G1 X196.589 Y139.047 E32.1042 F3000
G0 X195.824 Y139.247 F7200
G1 X191.059 Y144.012 E32.3284 F3000
G0 X190.493 Y144.012 F7200
G1 X195.063 Y139.442 E32.5433 F3000
G0 X194.371 Y139.568 F7200
G1 X189.927 Y144.012 E32.7524 F3000
G0 X189.361 Y144.012 F7200
G1 X193.724 Y139.649 E32.9576 F3000
G0 X193.077 Y139.731 F7200
G1 X188.796 Y144.012 E33.1589 F3000
G0 X188.230 Y144.012 F7200
G1 X192.492 Y139.750 E33.3594 F3000
G0 X191.926 Y139.750 F7200
G1 X187.664 Y144.012 E33.5599 F3000
G0 X187.099 Y144.012 F7200
G1 X191.361 Y139.750 E33.7603 F3000
G0 X190.826 Y139.719 F7200
G1 X186.533 Y144.012 E33.9623 F3000
G0 X185.967 Y144.012 F7200
G1 X190.324 Y139.656 E34.1672 F3000
G0 X189.822 Y139.592 F7200
G1 X185.402 Y144.012 E34.3751 F3000
G0 X184.836 Y144.012 F7200
G1 X189.319 Y139.529 E34.5860 F3000
G0 X188.860 Y139.422 F7200
G1 X184.270 Y144.012 E34.8019 F3000
G0 X183.705 Y144.012 F7200
G1 X188.410 Y139.307 E35.0232 F3000
G0 X187.960 Y139.191 F7200
G1 X183.139 Y144.012 E35.2500 F3000
G0 X182.573 Y144.012 F7200
G1 X187.510 Y139.076 E35.4822 F3000
G0 X187.097 Y138.923 F7200
G1 X182.008 Y144.012 E35.7215 F3000
G0 X181.442 Y144.012 F7200
G1 X186.692 Y138.762 E35.9685 F3000
G0 X186.286 Y138.602 F7200
G1 X180.876 Y144.012 E36.2230 F3000
G0 X180.311 Y144.012 F7200
G1 X185.881 Y138.441 E36.4850 F3000
G0 X185.499 Y138.258 F7200
G1 X179.745 Y144.012 E36.7556 F3000
G0 X179.179 Y144.012 F7200
G1 X185.134 Y138.057 E37.0358 F3000
G0 X184.769 Y137.856 F7200
G1 X178.613 Y144.012 E37.3253 F3000
G0 X178.048 Y144.012 F7200
G1 X184.404 Y137.656 E37.6243 F3000
G0 X184.043 Y137.451 F7200
G1 X177.482 Y144.012 E37.9329 F3000
G0 X176.916 Y144.012 F7200
G1 X183.716 Y137.213 E38.2527 F3000
G0 X183.388 Y136.975 F7200
G1 X176.391 Y143.972 E38.5818 F3000
G0 X175.924 Y143.873 F7200
G1 X183.060 Y136.737 E38.9175 F3000
G0 X182.733 Y136.499 F7200
G1 X175.505 Y143.726 E39.2574 F3000
G0 X175.114 Y143.552 F7200
G1 X182.424 Y136.242 E39.6013 F3000
G0 X182.132 Y135.968 F7200
G1 X174.765 Y143.335 E39.9478 F3000
G0 X174.437 Y143.097 F7200
G1 X181.841 Y135.694 E40.2961 F3000
G0 X181.549 Y135.420 F7200
G1 X174.144 Y142.824 E40.6444 F3000
G0 X173.876 Y142.527 F7200
G1 X181.257 Y135.146 E40.9916 F3000
G0 X180.997 Y134.840 F7200
G1 X173.637 Y142.200 E41.3377 F3000
G0 X173.430 Y141.841 F7200
G1 X180.741 Y134.530 E41.6816 F3000
G0 X180.485 Y134.221 F7200
G1 X173.253 Y141.453 E42.0218 F3000
G0 X173.115 Y141.026 F7200
G1 X180.229 Y133.911 E42.3564 F3000
G0 X179.983 Y133.591 F7200
G1 X173.024 Y140.551 E42.6838 F3000
G0 X172.970 Y140.039 F7200
G1 X179.764 Y133.245 E43.0033 F3000
G0 X179.544 Y132.899 F7200
G1 X172.961 Y139.483 E43.3130 F3000
G0 X172.961 Y138.917 F7200
G1 X179.324 Y132.553 E43.6123 F3000
G0 X179.104 Y132.207 F7200
G1 X172.961 Y138.351 E43.9013 F3000
G0 X172.961 Y137.786 F7200
G1 X178.914 Y131.832 E44.1813 F3000
G0 X178.733 Y131.448 F7200
G1 X172.961 Y137.220 E44.4528 F3000
G0 X172.961 Y136.654 F7200
G1 X178.552 Y131.063 E44.7158 F3000
G0 X178.371 Y130.678 F7200
G1 X172.961 Y136.088 E44.9703 F3000
G0 X172.961 Y135.523 F7200
G1 X178.206 Y130.278 E45.2170 F3000
G0 X178.067 Y129.851 F7200
G1 X172.961 Y134.957 E45.4572 F3000
G0 X172.961 Y134.391 F7200
G1 X177.929 Y129.423 E45.6909 F3000
G0 X177.790 Y128.996 F7200
G1 X172.961 Y133.826 E45.9180 F3000
G0 X172.961 Y133.260 F7200
G1 X177.663 Y128.558 E46.1392 F3000
G0 X177.572 Y128.083 F7200
G1 X172.961 Y132.694 E46.3561 F3000
G0 X172.961 Y132.129 F7200
G1 X177.482 Y127.608 E46.5688 F3000
G0 X177.391 Y127.132 F7200
G1 X172.961 Y131.563 E46.7772 F3000
G0 X172.961 Y130.997 F7200
G1 X177.324 Y126.634 E46.9824 F3000
G0 X177.290 Y126.102 F7200
G1 X172.961 Y130.432 E47.1861 F3000
G0 X172.961 Y129.866 F7200
G1 X177.257 Y125.570 E47.3882 F3000
G0 X177.223 Y125.037 F7200
G1 X172.961 Y129.300 E47.5887 F3000
G0 X172.961 Y128.735 F7200
G1 X177.256 Y124.439 E47.7907 F3000
G0 X177.294 Y123.835 F7200
G1 X172.961 Y128.169 E47.9946 F3000
G0 X172.961 Y127.603 F7200
G1 X177.332 Y123.232 E48.2002 F3000
G0 X177.453 Y122.545 F7200
G1 X172.961 Y127.038 E48.4115 F3000
G0 X172.961 Y126.472 F7200
G1 X177.586 Y121.847 E48.6290 F3000
G0 X177.754 Y121.113 F7200
G1 X172.961 Y125.906 E48.8545 F3000
G0 X172.961 Y125.340 F7200
G1 X178.026 Y120.275 E49.0928 F3000
G0 X178.332 Y119.403 F7200
G1 X172.961 Y124.775 E49.3454 F3000
G0 X172.961 Y124.209 F7200
G1 X178.835 Y118.335 E49.6217 F3000
G0 X179.614 Y116.990 F7200
G1 X172.961 Y123.643 E49.9347 F3000
G0 X172.961 Y123.078 F7200
G1 X190.050 Y105.988 E50.7385 F3000
G0 X189.485 Y105.988 F7200
G1 X172.961 Y122.512 E51.5158 F3000
G0 X172.961 Y121.946 F7200
G1 X188.919 Y105.988 E52.2664 F3000
G0 X188.353 Y105.988 F7200
G1 X172.961 Y121.381 E52.9904 F3000
G0 X172.961 Y120.815 F7200
G1 X187.788 Y105.988 E53.6879 F3000
G0 X187.222 Y105.988 F7200
G1 X172.961 Y120.249 E54.3587 F3000
G0 X172.961 Y119.684 F7200
G1 X186.656 Y105.988 E55.0029 F3000
G0 X186.091 Y105.988 F7200
G1 X172.961 Y119.118 E55.6205 F3000
G0 X172.961 Y118.552 F7200
G1 X185.525 Y105.988 E56.2115 F3000
G0 X184.959 Y105.988 F7200
G1 X172.961 Y117.987 E56.7758 F3000
G0 X172.961 Y117.421 F7200
G1 X184.393 Y105.988 E57.3136 F3000
G0 X183.828 Y105.988 F7200
G1 X172.961 Y116.855 E57.8248 F3000
G0 X172.961 Y116.289 F7200
G1 X183.262 Y105.988 E58.3093 F3000
G0 X182.696 Y105.988 F7200
G1 X172.961 Y115.724 E58.7673 F3000
G0 X172.961 Y115.158 F7200
G1 X182.131 Y105.988 E59.1986 F3000
G0 X181.565 Y105.988 F7200
G1 X172.961 Y114.592 E59.6033 F3000
G0 X172.961 Y114.027 F7200
G1 X180.999 Y105.988 E59.9814 F3000
G0 X180.434 Y105.988 F7200
G1 X172.961 Y113.461 E60.3330 F3000
G0 X172.961 Y112.895 F7200
G1 X179.868 Y105.988 E60.6579 F3000
G0 X179.302 Y105.988 F7200
G1 X172.961 Y112.330 E60.9562 F3000
G0 X172.961 Y111.764 F7200
G1 X178.737 Y105.988 E61.2278 F3000
G0 X178.171 Y105.988 F7200
G1 X172.961 Y111.198 E61.4729 F3000
G0 X172.961 Y110.633 F7200
G1 X177.605 Y105.988 E61.6914 F3000
G0 X177.040 Y105.988 F7200
G1 X172.961 Y110.067 E61.8833 F3000
G0 X173.025 Y109.437 F7200
G1 X176.446 Y106.016 E62.0442 F3000
G0 X175.717 Y106.179 F7200
G1 X173.207 Y108.689 E62.1622 F3000
G0 X174.402 Y106.928 F7200
G1 X174.049 Y107.282 E62.1788 F3000
G0 X184.084 Y112.520 F7200
G1 X190.616 Y105.988 E62.4861 F3000
G0 X191.182 Y105.988 F7200
G1 X185.339 Y111.830 E62.7609 F3000
G0 X186.370 Y111.365 F7200
G1 X191.747 Y105.988 E63.0138 F3000
G0 X192.313 Y105.988 F7200
G1 X187.307 Y110.994 E63.2493 F3000
G0 X188.092 Y110.775 F7200
G1 X192.879 Y105.988 E63.4744 F3000
G0 X193.444 Y105.988 F7200
G1 X188.853 Y110.580 E63.6904 F3000
G0 X189.557 Y110.441 F7200
G1 X194.010 Y105.988 E63.8999 F3000
G0 X194.576 Y105.988 F7200
G1 X190.204 Y110.360 E64.1055 F3000
G0 X190.852 Y110.278 F7200
G1 X195.141 Y105.988 E64.3073 F3000
G0 X195.707 Y105.988 F7200
G1 X191.445 Y110.250 E64.5078 F3000
G0 X192.011 Y110.250 F7200
G1 X196.273 Y105.988 E64.7083 F3000
G0 X196.839 Y105.988 F7200
G1 X192.576 Y110.250 E64.9087 F3000
G0 X193.118 Y110.274 F7200
G1 X197.404 Y105.988 E65.1103 F3000
G0 X197.970 Y105.988 F7200
G1 X193.620 Y110.337 E65.3149 F3000
G0 X194.123 Y110.401 F7200
G1 X198.536 Y105.988 E65.5225 F3000
G0 X199.101 Y105.988 F7200
G1 X194.625 Y110.464 E65.7331 F3000
G0 X195.090 Y110.565 F7200
G1 X199.667 Y105.988 E65.9483 F3000
G0 X200.233 Y105.988 F7200
G1 X195.540 Y110.680 E66.1691 F3000
G0 X195.990 Y110.796 F7200
G1 X200.798 Y105.988 E66.3952 F3000
G0 X201.364 Y105.988 F7200
G1 X196.440 Y110.912 E66.6268 F3000
G0 X196.858 Y111.060 F7200
G1 X201.930 Y105.988 E66.8654 F3000
G0 X202.495 Y105.988 F7200
G1 X197.263 Y111.220 E67.1115 F3000
G0 X197.669 Y111.380 F7200
G1 X203.061 Y105.988 E67.3651 F3000
G0 X203.627 Y105.988 F7200
G1 X198.074 Y111.541 E67.6263 F3000
G0 X198.460 Y111.720 F7200
G1 X204.192 Y105.988 E67.8959 F3000
G0 X204.758 Y105.988 F7200
G1 X198.825 Y111.921 E68.1750 F3000
G0 X199.190 Y112.121 F7200
G1 X205.324 Y105.988 E68.4635 F3000
G0 X205.889 Y105.988 F7200
G1 X199.556 Y112.322 E68.7614 F3000
G0 X199.921 Y112.523 F7200
G1 X206.455 Y105.988 E69.0688 F3000
G0 X207.021 Y105.988 F7200
G1 X200.248 Y112.761 E69.3873 F3000
G0 X200.576 Y112.999 F7200
G1 X207.558 Y106.017 E69.7157 F3000
G0 X208.024 Y106.116 F7200
G1 X200.903 Y113.237 E70.0507 F3000
G0 X201.231 Y113.475 F7200
G1 X208.452 Y106.254 E70.3903 F3000
G0 X208.843 Y106.429 F7200
G1 X201.544 Y113.728 E70.7336 F3000
G0 X201.835 Y114.002 F7200
G1 X209.199 Y106.638 E71.0800 F3000
G0 X209.527 Y106.876 F7200
G1 X202.127 Y114.276 E71.4281 F3000
G0 X202.419 Y114.550 F7200
G1 X209.826 Y107.143 E71.7765 F3000
G0 X210.094 Y107.440 F7200
G1 X202.710 Y114.824 E72.1238 F3000
G0 X202.974 Y115.126 F7200
G1 X210.340 Y107.760 E72.4702 F3000
G0 X210.870 Y108.927 F7200
G1 X203.743 Y116.054 E72.8055 F3000
G0 X203.992 Y116.370 F7200
G1 X210.970 Y109.392 E73.1337 F3000
G0 X211.024 Y109.904 F7200
G1 X204.212 Y116.717 E73.4541 F3000
G0 X204.432 Y117.063 F7200
G1 X211.039 Y110.455 E73.7649 F3000
G0 X211.039 Y111.020 F7200
G1 X204.651 Y117.409 E74.0654 F3000
G0 X204.871 Y117.755 F7200
G1 X211.039 Y111.586 E74.3556 F3000
G0 X211.039 Y112.152 F7200
G1 X205.066 Y118.125 E74.6365 F3000
G0 X205.247 Y118.510 F7200
G1 X211.039 Y112.717 E74.9090 F3000
G0 X211.039 Y113.283 F7200
G1 X205.428 Y118.894 E75.1729 F3000
G0 X205.609 Y119.279 F7200
G1 X211.039 Y113.849 E75.4283 F3000
G0 X211.039 Y114.414 F7200
G1 X205.779 Y119.675 E75.6757 F3000
G0 X205.918 Y120.102 F7200
G1 X211.039 Y114.980 E75.9167 F3000
G0 X211.039 Y115.546 F7200
G1 X206.056 Y120.529 E76.1510 F3000
G0 X206.195 Y120.956 F7200
G1 X211.039 Y116.112 E76.3789 F3000
G0 X211.039 Y116.677 F7200
G1 X206.327 Y121.389 E76.6006 F3000
G0 X206.418 Y121.864 F7200
G1 X211.039 Y117.243 E76.8180 F3000
G0 X211.039 Y117.809 F7200
G1 X206.509 Y122.339 E77.0311 F3000
G0 X206.599 Y122.815 F7200
G1 X211.039 Y118.374 E77.2399 F3000
G0 X211.039 Y118.940 F7200
G1 X206.673 Y123.307 E77.4453 F3000
G0 X206.706 Y123.839 F7200
G1 X211.039 Y119.506 E77.6492 F3000
G0 X211.039 Y120.071 F7200
G1 X206.740 Y124.371 E77.8514 F3000
G0 X206.773 Y124.903 F7200
G1 X211.039 Y120.637 E78.0521 F3000
G0 X211.039 Y121.203 F7200
G1 X206.748 Y125.494 E78.2539 F3000
;segType:Pillar
G0 E77.2539
G0 F1200 Z1.800
G0 X202.000 Y82.027 F7200
G0 F1200 Z0.800
G0 F3000 E78.2539
G1 X182.000 Y82.027 E78.9857 F3000
G1 X182.000 Y102.027 E79.7174
G1 X202.000 Y102.027 E80.4491
G1 X201.600 Y82.427 E81.1663
G1 X182.400 Y82.427 E81.8688
G1 X182.400 Y101.627 E82.5712
G1 X201.600 Y101.627 E83.2737
G1 X201.200 Y82.827 E83.9617
G1 X182.800 Y82.827 E84.6349
G1 X182.800 Y101.227 E85.3080
G1 X201.200 Y101.227 E85.9812
G1 X200.800 Y83.227 E86.6399
G1 X183.200 Y83.227 E87.2839
G1 X183.200 Y100.827 E87.9278
G1 X200.800 Y100.827 E88.5717
G1 X200.400 Y83.627 E89.2011
; ------------------------------------
; Layer #4
; ------------------------------------
M106 S255 T0 ;set fan 1 speed
G92 E0 ;reset extr
;segType:HShell
G0 F3000 E-1.0000
G0 F1200 Z2.000
G0 X210.860 Y108.895 F7200
G0 F1200 Z1.000
G0 F3000 E0.0000
G1 X210.433 Y108.468 E0.0201 F3000
G0 X210.407 Y107.876 F7200
G1 X209.088 Y106.558 E0.0821 F3000
G0 X208.719 Y106.471 F7200
G1 X207.536 Y106.137 E0.1093 F3000
;segType:Infill
G0 X207.021 Y106.188 F7200
G1 X210.811 Y109.978 E0.3232 F3750
;segType:Loop
G0 X211.400 Y110.132 F7200
G1 X211.400 Y139.969 E1.3156 F3000
G1 X211.300 Y140.914 E1.3473
G1 X211.016 Y141.788 E1.3778
G1 X210.557 Y142.584 E1.4084
G1 X209.942 Y143.267 E1.4390
G1 X209.198 Y143.807 E1.4695
G1 X208.359 Y144.181 E1.5001
G1 X207.460 Y144.372 E1.5307
G1 X176.541 Y144.372 E2.5590
G1 X175.641 Y144.181 E2.5896
G1 X174.802 Y143.807 E2.6202
G1 X174.058 Y143.267 E2.6507
G1 X173.443 Y142.584 E2.6813
G1 X172.984 Y141.788 E2.7119
G1 X172.700 Y140.914 E2.7424
G1 X172.600 Y139.968 E2.7741
G1 X172.600 Y110.032 E3.7698
G1 X172.700 Y109.086 E3.8014
G1 X172.984 Y108.212 E3.8320
G1 X173.443 Y107.416 E3.8625
G1 X174.058 Y106.733 E3.8931
G1 X174.802 Y106.193 E3.9237
G1 X175.641 Y105.819 E3.9542
G1 X176.541 Y105.628 E3.9848
G1 X207.460 Y105.628 E5.0132
G1 X208.359 Y105.819 E5.0438
G1 X209.198 Y106.193 E5.0743
G1 X209.942 Y106.733 E5.1049
G1 X210.557 Y107.416 E5.1355
G1 X211.016 Y108.212 E5.1660
G1 X211.300 Y109.086 E5.1966
G1 X211.389 Y109.932 E5.2249
;segType:Perimeter
G0 X211.258 Y108.331 F7200
G1 X211.694 Y109.002 E5.2515 F1799
G1 X211.800 Y110.011 E5.2852
G1 X211.800 Y139.989 E6.2823
G1 X211.694 Y140.998 E6.3161
G1 X211.384 Y141.952 E6.3494
G1 X210.882 Y142.821 E6.3828
G1 X210.211 Y143.566 E6.4161
G1 X209.399 Y144.156 E6.4495
G1 X208.483 Y144.564 E6.4829
G1 X207.502 Y144.772 E6.5162
G1 X176.498 Y144.772 E7.5474
G1 X175.517 Y144.564 E7.5808
G1 X174.601 Y144.156 E7.6141
G1 X173.789 Y143.566 E7.6475
G1 X173.118 Y142.821 E7.6809
G1 X172.616 Y141.952 E7.7142
G1 X172.306 Y140.998 E7.7476
G1 X172.200 Y139.989 E7.7813
G1 X172.200 Y110.011 E8.7784
G1 X172.306 Y109.002 E8.8121
G1 X172.616 Y108.048 E8.8455
G1 X173.118 Y107.180 E8.8789
G1 X173.789 Y106.434 E8.9122
G1 X174.601 Y105.844 E8.9456
G1 X175.517 Y105.436 E8.9790
G1 X176.499 Y105.228 E9.0123
G1 X207.502 Y105.228 E10.0435
G1 X208.483 Y105.436 E10.0769
G1 X209.399 Y105.844 E10.1102
G1 X210.211 Y106.434 E10.1436
G1 X210.882 Y107.180 E10.1770
G1 X211.384 Y108.048 E10.2103
G1 X211.694 Y109.002 E10.2437
G0 X211.568 Y109.792 F7200
;segType:Infill
G0 X210.840 Y128.108
G1 X206.862 Y124.131 E10.4682 F3750
;segType:Loop
G0 X206.048 Y127.906 F7200
G1 X205.922 Y128.568 E10.4906 F3000
G1 X205.363 Y130.291 E10.5509
G1 X204.595 Y131.924 E10.6109
G1 X203.628 Y133.448 E10.6709
G1 X202.477 Y134.839 E10.7310
G1 X201.161 Y136.074 E10.7910
G1 X199.701 Y137.135 E10.8510
G1 X198.113 Y138.007 E10.9113
G1 X196.435 Y138.671 E10.9713
G1 X194.693 Y139.118 E11.0311
G1 X192.902 Y139.344 E11.0911
G1 X191.098 Y139.344 E11.1512
G1 X189.307 Y139.118 E11.2112
G1 X187.559 Y138.669 E11.2712
G1 X185.886 Y138.007 E11.3311
G1 X184.299 Y137.135 E11.3913
G1 X182.839 Y136.074 E11.4513
G1 X181.523 Y134.839 E11.5114
G1 X180.369 Y133.442 E11.5716
G1 X179.405 Y131.924 E11.6314
G1 X178.637 Y130.291 E11.6915
G1 X178.078 Y128.568 E11.7517
G1 X177.741 Y126.801 E11.8115
G1 X177.627 Y125.000 E11.8715
G1 X177.741 Y123.199 E11.9316
G1 X178.078 Y121.432 E11.9914
G1 X178.637 Y119.709 E12.0516
G1 X179.405 Y118.076 E12.1117
G1 X180.372 Y116.552 E12.1717
G1 X181.523 Y115.161 E12.2317
G1 X182.839 Y113.926 E12.2918
G1 X184.299 Y112.865 E12.3518
G1 X185.886 Y111.993 E12.4120
G1 X187.559 Y111.331 E12.4719
G1 X189.307 Y110.882 E12.5319
G1 X191.097 Y110.656 E12.5919
G1 X192.902 Y110.656 E12.6520
G1 X194.693 Y110.882 E12.7120
G1 X196.441 Y111.331 E12.7720
G1 X198.114 Y111.993 E12.8318
G1 X199.701 Y112.865 E12.8921
G1 X201.161 Y113.926 E12.9521
G1 X202.477 Y115.161 E13.0121
G1 X203.631 Y116.558 E13.0724
G1 X204.595 Y118.076 E13.1322
G1 X205.363 Y119.709 E13.1922
G1 X205.922 Y121.432 E13.2525
G1 X206.259 Y123.198 E13.3123
G1 X206.373 Y125.000 E13.3723
G1 X206.259 Y126.801 E13.4324
G1 X206.086 Y127.710 E13.4631
;segType:Perimeter
G0 X206.117 Y125.993 F7200
G1 X205.862 Y126.751 E13.4897 F1799
G1 X205.534 Y128.468 E13.5479
G1 X204.991 Y130.143 E13.6064
G1 X204.244 Y131.731 E13.6648
G1 X203.303 Y133.212 E13.7232
G1 X202.185 Y134.564 E13.7815
G1 X200.906 Y135.765 E13.8399
G1 X199.486 Y136.797 E13.8982
G1 X197.943 Y137.644 E13.9568
G1 X196.312 Y138.290 E14.0152
G1 X194.618 Y138.724 E14.0733
G1 X192.877 Y138.944 E14.1317
G1 X191.123 Y138.944 E14.1900
G1 X189.382 Y138.724 E14.2484
G1 X187.683 Y138.288 E14.3067
G1 X186.057 Y137.644 E14.3649
G1 X184.514 Y136.797 E14.4235
G1 X183.094 Y135.765 E14.4818
G1 X181.815 Y134.564 E14.5402
G1 X180.693 Y133.207 E14.5987
G1 X179.756 Y131.731 E14.6569
G1 X179.009 Y130.143 E14.7152
G1 X178.466 Y128.469 E14.7738
G1 X178.138 Y126.751 E14.8320
G1 X178.028 Y125.000 E14.8903
G1 X178.138 Y123.249 E14.9487
G1 X178.466 Y121.531 E15.0068
G1 X179.009 Y119.857 E15.0654
G1 X179.756 Y118.269 E15.1237
G1 X180.697 Y116.788 E15.1821
G1 X181.815 Y115.436 E15.2405
G1 X183.094 Y114.235 E15.2988
G1 X184.514 Y113.203 E15.3572
G1 X186.057 Y112.356 E15.4157
G1 X187.683 Y111.712 E15.4739
G1 X189.382 Y111.276 E15.5323
G1 X191.123 Y111.056 E15.5906
G1 X192.877 Y111.056 E15.6490
G1 X194.618 Y111.276 E15.7073
G1 X196.317 Y111.712 E15.7657
G1 X197.943 Y112.356 E15.8238
G1 X199.486 Y113.203 E15.8824
G1 X200.906 Y114.235 E15.9407
G1 X202.185 Y115.436 E15.9991
G1 X203.307 Y116.793 E16.0577
G1 X204.244 Y118.269 E16.1158
G1 X204.991 Y119.857 E16.1742
G1 X205.534 Y121.532 E16.2327
G1 X205.862 Y123.249 E16.2909
G1 X205.972 Y125.000 E16.3492
G1 X205.862 Y126.751 E16.4076
G0 X205.920 Y127.549 F7200
;segType:Infill
G0 X206.523 Y128.317
G1 X210.840 Y132.634 E16.6513 F3750
G0 X205.326 Y131.646 F7200
G1 X210.840 Y137.159 E16.9625 F3750
G0 X210.512 Y141.358 F7200
G1 X203.549 Y134.394 E17.3555 F3750
G0 X201.285 Y136.656 F7200
G1 X208.198 Y143.569 E17.7457 F3750
G0 X198.512 Y138.408 F7200
G1 X203.916 Y143.812 E18.0507 F3750
G0 X199.390 Y143.812 F7200
G1 X195.142 Y139.563 E18.2905 F3750
G0 X194.865 Y143.812 F7200
G1 X190.922 Y139.869 E18.5131 F3750
G0 X190.340 Y143.812 F7200
G1 X184.262 Y137.734 E18.8561 F3750
G0 X176.759 Y143.808 F7200
G1 X173.215 Y140.264 E19.0562 F3750
G0 X173.160 Y135.684 F7200
G1 X181.289 Y143.812 E19.5150 F3750
G0 X185.814 Y143.812 F7200
G1 X173.160 Y131.159 E20.2292 F3750
G0 X179.302 Y132.774 F7200
