; GCode generated by CraftWare

G28 X0 Y0
G28 Z0

M425 S1; Wiper Strip enabled
M430 Z0 F1200; Head change ZHop settings
M431 E4 F3000; Head change Exit Retract settings
M432 E0 F3000; Head change Enter Retract settings
M433 E4 F3000; Head change Enter Prime settings

M9006 S0; Selected Normal Dual Extruder Mode
M104 T0 S208 ;set head temp 1 (no wait)
M104 T1 S208 ;set head temp 2 (no wait)
M190 S60 ;set bed temp (wait)
M109 T0 S208 ;set head temp 1 (wait)
M109 T1 S208 ;set head temp 2 (wait)
; ------------------------------------
; Layer #0
; ------------------------------------
G21 ; mm
G90 ; abs
G92 E0 ;reset extr
T0 X185.569 Y132.990 Z0.200 F5400
M106 S0 T0 ;turn off fan 1
G92 E0 ;reset extr
;segType:Skirt
G1 X185.963 Y133.122 E0.0138 F2400
G1 X186.947 Y133.713 E0.0520
G1 X187.735 Y133.975 E0.0796
G1 X188.063 Y134.172 E0.0923
G1 X188.325 Y134.172 E0.1011
G1 X188.653 Y134.369 E0.1138
G1 X189.113 Y134.434 E0.1292
G1 X189.244 Y134.565 E0.1354
G1 X189.506 Y134.565 E0.1441
G1 X189.769 Y134.697 E0.1539
G1 X191.475 Y134.959 E0.2113
G1 X192.788 Y134.959 E0.2550
G1 X192.919 Y134.828 E0.2611
G1 X193.706 Y134.828 E0.2873
G1 X193.838 Y134.697 E0.2935
G1 X194.100 Y134.697 E0.3022
G1 X194.231 Y134.565 E0.3084
G1 X195.150 Y134.434 E0.3393
G1 X195.478 Y134.237 E0.3520
G1 X195.872 Y134.106 E0.3658
G1 X196.200 Y133.909 E0.3785
G1 X196.463 Y133.909 E0.3873
G1 X196.594 Y133.778 E0.3934
G1 X196.856 Y133.778 E0.4022
G1 X197.119 Y133.515 E0.4145
G1 X197.513 Y133.384 E0.4283
G1 X198.825 Y132.597 E0.4792
G1 X199.350 Y132.072 E0.5039
G1 X199.940 Y131.088 E0.5421
G1 X200.203 Y130.825 E0.5544
G1 X200.334 Y130.431 E0.5682
G1 X200.728 Y129.775 E0.5937
G1 X200.728 Y129.513 E0.6024
G1 X200.925 Y129.184 E0.6152
G1 X201.188 Y128.397 E0.6428
G1 X201.384 Y128.069 E0.6555
G1 X201.384 Y127.806 E0.6642
G1 X201.515 Y127.675 E0.6704
G1 X201.515 Y127.150 E0.6879
G1 X201.647 Y127.019 E0.6940
G1 X201.647 Y126.494 E0.7115
G1 X201.778 Y126.362 E0.7177
G1 X201.778 Y125.575 E0.7439
G1 X201.909 Y125.444 E0.7500
G1 X201.909 Y124.656 E0.7762
G1 X201.778 Y124.525 E0.7824
G1 X201.778 Y123.737 E0.8086
G1 X201.647 Y123.606 E0.8148
G1 X201.647 Y123.081 E0.8322
G1 X201.515 Y122.950 E0.8384
G1 X201.515 Y122.425 E0.8559
G1 X201.384 Y122.294 E0.8620
G1 X201.384 Y122.031 E0.8708
G1 X201.188 Y121.703 E0.8835
G1 X200.925 Y120.916 E0.9111
G1 X200.728 Y120.587 E0.9238
G1 X200.728 Y120.325 E0.9326
G1 X200.334 Y119.669 E0.9580
G1 X200.203 Y119.275 E0.9718
G1 X199.940 Y119.012 E0.9842
G1 X199.350 Y118.028 E1.0223
G1 X198.825 Y117.503 E1.0470
G1 X197.513 Y116.716 E1.0979
G1 X197.119 Y116.585 E1.1117
G1 X196.856 Y116.322 E1.1241
G1 X196.594 Y116.322 E1.1328
G1 X196.265 Y116.125 E1.1456
G1 X195.872 Y115.994 E1.1594
G1 X195.544 Y115.797 E1.1721
G1 X195.281 Y115.797 E1.1808
G1 X195.150 Y115.666 E1.1870
G1 X194.231 Y115.535 E1.2178
G1 X194.100 Y115.403 E1.2240
G1 X193.838 Y115.403 E1.2328
G1 X193.706 Y115.272 E1.2389
G1 X192.919 Y115.272 E1.2651
G1 X192.788 Y115.141 E1.2713
G1 X191.213 Y115.141 E1.3237
G1 X190.819 Y115.272 E1.3375
G1 X190.294 Y115.272 E1.3549
G1 X190.163 Y115.403 E1.3611
G1 X189.244 Y115.535 E1.3920
G1 X189.113 Y115.666 E1.3982
G1 X188.653 Y115.731 E1.4136
G1 X188.325 Y115.928 E1.4263
G1 X188.063 Y115.928 E1.4351
G1 X187.735 Y116.125 E1.4478
G1 X187.341 Y116.256 E1.4616
G1 X187.013 Y116.453 E1.4743
G1 X186.619 Y116.585 E1.4881
G1 X185.963 Y116.978 E1.5136
G1 X185.569 Y117.110 E1.5274
G1 X185.306 Y117.372 E1.5397
G1 X184.650 Y117.766 E1.5652
G1 X183.272 Y120.062 E1.6543
G1 X183.272 Y120.325 E1.6630
G1 X182.878 Y120.981 E1.6884
G1 X182.878 Y121.244 E1.6972
G1 X182.747 Y121.375 E1.7033
G1 X182.747 Y121.637 E1.7121
G1 X182.550 Y121.966 E1.7248
G1 X182.419 Y122.360 E1.7386
G1 X182.353 Y122.819 E1.7540
G1 X182.222 Y123.212 E1.7678
G1 X181.960 Y125.050 E1.8296
G1 X182.222 Y126.887 E1.8913
G1 X182.353 Y127.281 E1.9051
G1 X182.353 Y127.544 E1.9139
G1 X182.485 Y127.675 E1.9200
G1 X182.485 Y127.937 E1.9288
G1 X182.616 Y128.069 E1.9349
G1 X182.616 Y128.331 E1.9437
G1 X182.747 Y128.462 E1.9498
G1 X182.747 Y128.725 E1.9586
G1 X182.878 Y128.856 E1.9647
G1 X182.878 Y129.119 E1.9735
G1 X183.272 Y129.775 E1.9989
G1 X183.272 Y130.037 E2.0077
G1 X184.453 Y132.006 E2.0840
G1 X184.978 Y132.531 E2.1087
G1 X185.306 Y132.728 E2.1214
G1 X185.569 Y132.990 E2.1338
G0 F3000 E1.1338
G0 F1200 Z1.200
G0 X175.069 Y148.610 F5400
G0 F1200 Z0.200
G0 F3000 E2.1338
G1 X174.609 Y148.544 E2.1492 F2400
G1 X174.215 Y148.412 E2.1630
G1 X173.888 Y148.216 E2.1757
G1 X173.494 Y148.085 E2.1895
G1 X173.231 Y147.822 E2.2019
G1 X172.903 Y147.625 E2.2146
G1 X169.228 Y143.950 E2.3875
G1 X168.638 Y142.966 E2.4257
G1 X168.375 Y142.178 E2.4533
G1 X168.309 Y141.719 E2.4687
G1 X168.178 Y141.325 E2.4825
G1 X168.178 Y108.775 E3.5651
G1 X168.309 Y108.381 E3.5789
G1 X168.375 Y107.922 E3.5944
G1 X168.638 Y107.134 E3.6220
G1 X169.228 Y106.150 E3.6602
G1 X172.903 Y102.475 E3.8330
G1 X173.231 Y102.278 E3.8458
G1 X173.494 Y102.015 E3.8581
G1 X173.888 Y101.884 E3.8719
G1 X174.215 Y101.687 E3.8846
G1 X174.609 Y101.556 E3.8984
G1 X175.069 Y101.490 E3.9139
G1 X175.200 Y101.359 E3.9201
G1 X179.925 Y101.359 E4.0772
G1 X179.990 Y100.900 E4.0926
G1 X179.990 Y81.475 E4.7387
G1 X180.056 Y81.015 E4.7542
G1 X180.975 Y80.097 E4.7974
G1 X202.500 Y80.097 E5.5133
G1 X202.960 Y80.162 E5.5287
G1 X203.878 Y81.081 E5.5720
G1 X203.878 Y83.181 E5.6418
G1 X203.616 Y83.444 E5.6541
G1 X203.616 Y87.906 E5.8026
G1 X203.747 Y88.037 E5.8087
G1 X203.747 Y94.337 E6.0183
G1 X203.878 Y94.731 E6.0321
G1 X203.878 Y101.294 E6.2504
G1 X204.338 Y101.359 E6.2658
G1 X208.538 Y101.359 E6.4055
G1 X208.931 Y101.490 E6.4193
G1 X209.194 Y101.490 E6.4280
G1 X209.325 Y101.622 E6.4342
G1 X209.588 Y101.622 E6.4429
G1 X210.900 Y102.409 E6.4938
G1 X214.575 Y106.084 E6.6667
G1 X214.772 Y106.412 E6.6794
G1 X215.035 Y106.675 E6.6918
G1 X215.166 Y107.069 E6.7056
G1 X215.297 Y107.200 E6.7117
G1 X215.297 Y107.462 E6.7205
G1 X215.428 Y107.594 E6.7267
G1 X215.428 Y107.856 E6.7354
G1 X215.560 Y107.987 E6.7416
G1 X215.560 Y108.513 E6.7590
G1 X215.691 Y108.644 E6.7652
G1 X215.691 Y141.456 E7.8565
G1 X215.560 Y141.588 E7.8627
G1 X215.560 Y142.112 E7.8802
G1 X215.428 Y142.244 E7.8863
G1 X215.428 Y142.506 E7.8951
G1 X215.297 Y142.638 E7.9013
G1 X215.297 Y142.900 E7.9100
G1 X214.706 Y143.885 E7.9482
G1 X210.769 Y147.822 E8.1334
G1 X210.113 Y148.216 E8.1588
G1 X209.719 Y148.347 E8.1726
G1 X209.588 Y148.478 E8.1788
G1 X209.325 Y148.478 E8.1875
G1 X209.194 Y148.610 E8.1937
G1 X208.275 Y148.741 E8.2246
G1 X175.200 Y148.741 E9.3247
G1 X175.069 Y148.610 E9.3308
G0 F3000 E8.3308
G0 F1200 Z1.200
G0 X185.569 Y132.597 F5400
G0 F1200 Z0.200
G0 F3000 E9.3308
G1 X186.225 Y132.859 E9.3544 F2400
G1 X186.881 Y133.253 E9.3798
G1 X187.013 Y133.384 E9.3860
G1 X187.275 Y133.384 E9.3947
G1 X187.406 Y133.515 E9.4009
G1 X187.669 Y133.515 E9.4096
G1 X187.997 Y133.713 E9.4224
G1 X188.391 Y133.844 E9.4362
G1 X188.719 Y134.040 E9.4489
G1 X189.638 Y134.172 E9.4797
G1 X189.769 Y134.303 E9.4859
G1 X190.031 Y134.303 E9.4946
G1 X190.163 Y134.434 E9.5008
G1 X190.950 Y134.434 E9.5270
G1 X191.081 Y134.565 E9.5332
G1 X192.656 Y134.565 E9.5856
G1 X193.050 Y134.434 E9.5994
G1 X193.575 Y134.434 E9.6168
G1 X194.363 Y134.172 E9.6444
G1 X194.625 Y134.172 E9.6532
G1 X194.756 Y134.040 E9.6593
G1 X195.215 Y133.975 E9.6748
G1 X195.544 Y133.778 E9.6875
G1 X195.806 Y133.778 E9.6962
G1 X196.134 Y133.581 E9.7090
G1 X196.922 Y133.319 E9.7366
G1 X197.906 Y132.728 E9.7748
G1 X198.300 Y132.597 E9.7886
G1 X198.563 Y132.334 E9.8009
G1 X198.890 Y132.138 E9.8136
G1 X199.284 Y131.481 E9.8391
G1 X199.547 Y131.219 E9.8514
G1 X199.940 Y130.563 E9.8769
G1 X200.072 Y130.169 E9.8907
G1 X200.269 Y129.840 E9.9034
G1 X200.400 Y129.447 E9.9172
G1 X200.597 Y129.119 E9.9299
G1 X200.597 Y128.856 E9.9387
G1 X200.728 Y128.725 E9.9449
G1 X200.728 Y128.462 E9.9536
G1 X200.925 Y128.134 E9.9663
G1 X201.056 Y127.740 E9.9801
G1 X201.122 Y127.281 E9.9955
G1 X201.253 Y126.887 E10.0094
G1 X201.515 Y125.050 E10.0711
G1 X201.253 Y123.212 E10.1328
G1 X201.122 Y122.819 E10.1466
G1 X201.056 Y122.360 E10.1621
G1 X200.925 Y121.966 E10.1759
G1 X200.728 Y121.637 E10.1886
G1 X200.728 Y121.375 E10.1973
G1 X200.597 Y121.244 E10.2035
G1 X200.597 Y120.981 E10.2122
G1 X200.400 Y120.653 E10.2250
G1 X200.269 Y120.260 E10.2388
G1 X200.072 Y119.931 E10.2515
G1 X199.940 Y119.537 E10.2653
G1 X199.547 Y118.881 E10.2908
G1 X199.284 Y118.619 E10.3031
G1 X199.153 Y118.225 E10.3169
G1 X198.890 Y117.962 E10.3293
G1 X198.563 Y117.766 E10.3420
G1 X198.300 Y117.503 E10.3543
G1 X197.906 Y117.372 E10.3681
G1 X196.922 Y116.781 E10.4063
G1 X196.528 Y116.650 E10.4201
G1 X196.200 Y116.453 E10.4328
G1 X195.938 Y116.453 E10.4416
G1 X195.609 Y116.256 E10.4543
G1 X195.215 Y116.125 E10.4681
G1 X194.756 Y116.060 E10.4835
G1 X194.625 Y115.928 E10.4897
G1 X194.165 Y115.862 E10.5051
G1 X193.772 Y115.731 E10.5190
G1 X192.394 Y115.535 E10.5652
G1 X191.081 Y115.535 E10.6089
G1 X190.950 Y115.666 E10.6151
G1 X190.425 Y115.666 E10.6325
G1 X190.031 Y115.797 E10.6463
G1 X189.769 Y115.797 E10.6551
G1 X189.638 Y115.928 E10.6612
G1 X188.719 Y116.060 E10.6921
G1 X188.391 Y116.256 E10.7048
G1 X187.997 Y116.388 E10.7186
G1 X187.669 Y116.585 E10.7314
G1 X187.406 Y116.585 E10.7401
G1 X186.750 Y116.978 E10.7656
G1 X186.356 Y117.110 E10.7794
G1 X185.044 Y117.897 E10.8303
G1 X184.847 Y118.225 E10.8430
G1 X184.585 Y118.487 E10.8553
G1 X183.797 Y119.800 E10.9062
G1 X183.535 Y120.587 E10.9338
G1 X183.338 Y120.916 E10.9466
G1 X183.075 Y121.703 E10.9742
G1 X182.878 Y122.031 E10.9869
G1 X182.878 Y122.294 E10.9956
G1 X182.747 Y122.425 E11.0018
G1 X182.747 Y122.950 E11.0193
G1 X182.616 Y123.081 E11.0255
G1 X182.616 Y123.606 E11.0429
G1 X182.485 Y123.737 E11.0491
G1 X182.485 Y124.525 E11.0753
G1 X182.353 Y124.656 E11.0815
G1 X182.353 Y125.444 E11.1076
G1 X182.485 Y125.575 E11.1138
G1 X182.485 Y126.362 E11.1400
G1 X182.616 Y126.494 E11.1462
G1 X182.616 Y127.019 E11.1636
G1 X182.747 Y127.150 E11.1698
G1 X182.813 Y127.609 E11.1852
G1 X183.338 Y129.184 E11.2405
G1 X183.535 Y129.513 E11.2532
G1 X183.797 Y130.300 E11.2808
G1 X184.585 Y131.612 E11.3317
G1 X184.847 Y131.875 E11.3441
G1 X185.044 Y132.203 E11.3568
G1 X185.569 Y132.597 E11.3786
G0 F3000 E10.3786
G0 F1200 Z1.200
G0 X216.085 Y134.369 F5400
G0 F1200 Z0.200
G0 F3000 E11.3786
G1 X216.085 Y141.456 E11.6143 F2400
G1 X215.953 Y141.588 E11.6205
G1 X215.953 Y142.112 E11.6380
G1 X215.822 Y142.244 E11.6442
G1 X215.822 Y142.506 E11.6529
G1 X215.691 Y142.638 E11.6591
G1 X215.691 Y142.900 E11.6678
G1 X215.100 Y143.885 E11.7060
G1 X210.900 Y148.085 E11.9035
G1 X209.588 Y148.872 E11.9544
G1 X209.325 Y148.872 E11.9632
G1 X209.194 Y149.003 E11.9694
G1 X208.275 Y149.135 E12.0002
G1 X175.200 Y149.135 E13.1003
G1 X175.069 Y149.003 E13.1065
G1 X174.609 Y148.937 E13.1219
G1 X174.215 Y148.806 E13.1357
G1 X173.888 Y148.610 E13.1484
G1 X173.494 Y148.478 E13.1622
G1 X173.231 Y148.216 E13.1746
G1 X172.903 Y148.019 E13.1873
G1 X168.703 Y143.819 E13.3849
G1 X168.309 Y143.162 E13.4103
G1 X167.915 Y141.981 E13.4517
G1 X167.784 Y141.062 E13.4826
G1 X167.784 Y109.037 E14.5478
G1 X167.915 Y108.119 E14.5786
G1 X168.309 Y106.937 E14.6201
G1 X168.703 Y106.281 E14.6455
G1 X172.903 Y102.081 E14.8431
G1 X173.231 Y101.884 E14.8558
G1 X173.494 Y101.622 E14.8682
G1 X173.888 Y101.490 E14.8820
G1 X174.215 Y101.294 E14.8947
G1 X174.609 Y101.162 E14.9085
G1 X175.069 Y101.097 E14.9239
G1 X175.200 Y100.965 E14.9301
G1 X179.531 Y100.965 E15.0741
G0 X179.597 Y100.900 F5400
G1 X179.597 Y81.475 E15.7202 F2400
G1 X179.663 Y81.015 E15.7357
G1 X180.975 Y79.703 E15.7974
G1 X202.500 Y79.703 E16.5133
;segType:HShell
G0 F3000 E15.5133
G0 F1200 Z1.200
G0 X207.021 Y106.188 F5400
G0 F1200 Z0.200
G0 F3000 E16.5133
G1 X210.811 Y109.978 E16.6916 F2400
G0 X210.739 Y109.340 F5400
G1 X207.685 Y106.287 E16.8352 F2400
G0 X208.554 Y106.589 F5400
G1 X210.433 Y108.468 E16.9236 F2400
;segType:Perimeter
G0 X211.058 Y108.531 F5400
G1 X211.494 Y109.202 E16.9502 F1439
G1 X211.600 Y110.211 E16.9840
G1 X211.600 Y139.789 E17.9678
G1 X211.494 Y140.798 E18.0015
G1 X211.183 Y141.752 E18.0348
G1 X210.682 Y142.621 E18.0682
G1 X210.011 Y143.366 E18.1016
G1 X209.199 Y143.956 E18.1349
G1 X208.283 Y144.364 E18.1683
G1 X207.302 Y144.572 E18.2017
G1 X176.698 Y144.572 E19.2195
G1 X175.717 Y144.364 E19.2529
G1 X174.801 Y143.956 E19.2863
G1 X173.989 Y143.366 E19.3196
G1 X173.318 Y142.621 E19.3530
G1 X172.817 Y141.752 E19.3864
G1 X172.507 Y140.798 E19.4197
G1 X172.400 Y139.789 E19.4534
G1 X172.400 Y110.211 E20.4372
G1 X172.507 Y109.202 E20.4710
G1 X172.817 Y108.248 E20.5043
G1 X173.318 Y107.379 E20.5377
G1 X173.989 Y106.634 E20.5710
G1 X174.801 Y106.044 E20.6044
G1 X175.717 Y105.636 E20.6378
G1 X176.698 Y105.428 E20.6711
G1 X207.302 Y105.428 E21.6890
G1 X208.283 Y105.636 E21.7224
G1 X209.199 Y106.044 E21.7557
G1 X210.011 Y106.634 E21.7891
G1 X210.682 Y107.380 E21.8225
G1 X211.183 Y108.248 E21.8558
G1 X211.494 Y109.202 E21.8892
G0 X211.369 Y109.992 F5400
;segType:Loop
G0 X211.200 Y110.332
G1 X211.200 Y139.768 E22.8683 F2400
G1 X211.100 Y140.714 E22.8999
G1 X210.816 Y141.588 E22.9305
G1 X210.357 Y142.384 E22.9610
G1 X209.742 Y143.067 E22.9916
G1 X208.998 Y143.607 E23.0222
G1 X208.158 Y143.981 E23.0527
G1 X207.260 Y144.172 E23.0833
G1 X176.740 Y144.172 E24.0984
G1 X175.842 Y143.981 E24.1289
G1 X175.002 Y143.607 E24.1595
G1 X174.258 Y143.067 E24.1901
G1 X173.643 Y142.384 E24.2207
G1 X173.184 Y141.588 E24.2512
G1 X172.900 Y140.714 E24.2818
G1 X172.800 Y139.768 E24.3134
G1 X172.800 Y110.232 E25.2958
G1 X172.900 Y109.286 E25.3274
G1 X173.184 Y108.412 E25.3580
G1 X173.643 Y107.616 E25.3886
G1 X174.258 Y106.933 E25.4191
G1 X175.002 Y106.393 E25.4497
G1 X175.842 Y106.019 E25.4803
G1 X176.740 Y105.828 E25.5109
G1 X207.260 Y105.828 E26.5259
G1 X208.158 Y106.019 E26.5565
G1 X208.998 Y106.393 E26.5871
G1 X209.742 Y106.933 E26.6176
G1 X210.357 Y107.616 E26.6482
G1 X210.816 Y108.412 E26.6788
G1 X211.100 Y109.286 E26.7093
G1 X211.189 Y110.132 E26.7376
;segType:HShell
G0 X190.133 Y110.231 F5400
G1 X186.091 Y106.188 E26.9278 F2400
G0 X185.525 Y106.188 F5400
G1 X189.631 Y110.294 E27.1209 F2400
;segType:Perimeter
G0 X190.318 Y110.765 F5400
G1 X191.111 Y110.873 E27.1475 F1439
G1 X192.889 Y110.873 E27.2067
G1 X194.651 Y111.096 E27.2658
G1 X196.374 Y111.538 E27.3249
G1 X198.027 Y112.192 E27.3840
G1 X199.585 Y113.048 E27.4432
G1 X201.023 Y114.094 E27.5023
G1 X202.319 Y115.310 E27.5614
G1 X203.451 Y116.679 E27.6205
G1 X204.404 Y118.181 E27.6797
G1 X205.161 Y119.789 E27.7388
G1 X205.710 Y121.480 E27.7979
G1 X206.043 Y123.226 E27.8570
G1 X206.155 Y125.000 E27.9162
G1 X206.044 Y126.773 E27.9752
G1 X205.710 Y128.521 E28.0344
G1 X205.161 Y130.211 E28.0935
G1 X204.404 Y131.819 E28.1526
G1 X203.452 Y133.320 E28.2117
G1 X202.318 Y134.690 E28.2709
G1 X201.023 Y135.906 E28.3300
G1 X199.586 Y136.951 E28.3891
G1 X198.026 Y137.808 E28.4483
G1 X196.373 Y138.463 E28.5074
G1 X194.652 Y138.904 E28.5665
G1 X192.890 Y139.127 E28.6256
G1 X191.111 Y139.127 E28.6848
G1 X189.348 Y138.904 E28.7439
G1 X187.626 Y138.462 E28.8030
G1 X185.973 Y137.808 E28.8621
G1 X184.417 Y136.952 E28.9212
G1 X182.977 Y135.906 E28.9804
G1 X181.682 Y134.690 E29.0395
G1 X180.549 Y133.321 E29.0986
G1 X179.597 Y131.820 E29.1577
G1 X178.840 Y130.212 E29.2168
G1 X178.290 Y128.521 E29.2760
G1 X177.957 Y126.775 E29.3351
G1 X177.845 Y125.000 E29.3942
G1 X177.956 Y123.227 E29.4533
G1 X178.290 Y121.481 E29.5124
G1 X178.839 Y119.789 E29.5716
G1 X179.596 Y118.181 E29.6307
G1 X180.548 Y116.680 E29.6898
G1 X181.683 Y115.309 E29.7490
G1 X182.976 Y114.095 E29.8080
G1 X184.414 Y113.050 E29.8671
G1 X185.973 Y112.192 E29.9263
G1 X187.623 Y111.539 E29.9854
G1 X189.344 Y111.097 E30.0445
G1 X191.111 Y110.873 E30.1037
G0 X191.883 Y110.666 F5400
;segType:Loop
G0 X192.211 Y110.473
G1 X192.914 Y110.473 E30.1271 F2400
G1 X194.726 Y110.702 E30.1878
G1 X196.497 Y111.157 E30.2487
G1 X198.197 Y111.829 E30.3095
G1 X199.799 Y112.710 E30.3703
G1 X201.279 Y113.785 E30.4311
G1 X202.611 Y115.036 E30.4919
G1 X203.775 Y116.443 E30.5526
G1 X204.755 Y117.988 E30.6134
G1 X205.534 Y119.642 E30.6742
G1 X206.098 Y121.380 E30.7350
G1 X206.441 Y123.176 E30.7958
G1 X206.556 Y125.000 E30.8566
G1 X206.441 Y126.824 E30.9174
G1 X206.098 Y128.620 E30.9783
G1 X205.534 Y130.358 E31.0390
G1 X204.755 Y132.012 E31.0998
G1 X203.776 Y133.555 E31.1606
G1 X202.611 Y134.964 E31.2214
G1 X201.278 Y136.215 E31.2822
G1 X199.800 Y137.289 E31.3430
G1 X198.197 Y138.171 E31.4038
G1 X196.497 Y138.844 E31.4647
G1 X194.727 Y139.298 E31.5254
G1 X192.915 Y139.527 E31.5862
G1 X191.086 Y139.527 E31.6470
G1 X189.272 Y139.298 E31.7078
G1 X187.503 Y138.844 E31.7686
G1 X185.802 Y138.170 E31.8294
G1 X184.202 Y137.290 E31.8901
G1 X182.722 Y136.215 E31.9510
G1 X181.389 Y134.964 E32.0118
G1 X180.225 Y133.557 E32.0725
G1 X179.246 Y132.014 E32.1333
G1 X178.467 Y130.360 E32.1941
G1 X177.902 Y128.620 E32.2550
G1 X177.559 Y126.825 E32.3158
G1 X177.444 Y125.000 E32.3766
G1 X177.559 Y123.176 E32.4373
G1 X177.901 Y121.381 E32.4981
G1 X178.466 Y119.642 E32.5590
G1 X179.245 Y117.988 E32.6198
G1 X180.224 Y116.445 E32.6805
G1 X181.390 Y115.035 E32.7414
G1 X182.720 Y113.786 E32.8021
G1 X184.199 Y112.711 E32.8629
G1 X185.802 Y111.830 E32.9237
G1 X187.499 Y111.158 E32.9844
G1 X189.269 Y110.703 E33.0452
G1 X191.085 Y110.473 E33.1061
G1 X192.011 Y110.473 E33.1369
;segType:HShell
G0 X193.445 Y106.188 F5400
G1 X199.259 Y112.002 E33.4103 F2400
G0 X200.853 Y113.030 F5400
G1 X194.010 Y106.188 E33.7322 F2400
G0 X194.576 Y106.188 F5400
G1 X210.840 Y122.451 E34.4972 F2400
G0 X210.840 Y121.886 F5400
G1 X195.142 Y106.188 E35.2355 F2400
G0 X195.707 Y106.188 F5400
G1 X210.840 Y121.320 E35.9473 F2400
G0 X210.840 Y120.754 F5400
G1 X196.273 Y106.188 E36.6325 F2400
G0 X196.839 Y106.188 F5400
G1 X210.840 Y120.189 E37.2910 F2400
G0 X210.840 Y119.623 F5400
G1 X197.405 Y106.188 E37.9229 F2400
G0 X197.970 Y106.188 F5400
G1 X210.840 Y119.057 E38.5283 F2400
G0 X210.840 Y118.492 F5400
G1 X198.536 Y106.188 E39.1070 F2400
G0 X199.102 Y106.188 F5400
G1 X210.840 Y117.926 E39.6591 F2400
G0 X210.840 Y117.360 F5400
G1 X199.667 Y106.188 E40.1846 F2400
G0 X200.233 Y106.188 F5400
G1 X210.840 Y116.794 E40.6835 F2400
G0 X210.840 Y116.229 F5400
G1 X200.799 Y106.188 E41.1558 F2400
G0 X201.364 Y106.188 F5400
G1 X210.840 Y115.663 E41.6015 F2400
G0 X210.840 Y115.097 F5400
G1 X201.930 Y106.188 E42.0206 F2400
G0 X202.496 Y106.188 F5400
G1 X210.840 Y114.532 E42.4130 F2400
G0 X210.840 Y113.966 F5400
G1 X203.061 Y106.188 E42.7789 F2400
G0 X203.627 Y106.188 F5400
G1 X210.840 Y113.400 E43.1182 F2400
G0 X210.840 Y112.835 F5400
G1 X204.193 Y106.188 E43.4308 F2400
G0 X204.758 Y106.188 F5400
G1 X210.840 Y112.269 E43.7168 F2400
G0 X210.840 Y111.703 F5400
G1 X205.324 Y106.188 E43.9763 F2400
G0 X205.890 Y106.188 F5400
G1 X210.840 Y111.138 E44.2091 F2400
G0 X210.840 Y110.572 F5400
G1 X206.455 Y106.188 E44.4153 F2400
G0 X204.090 Y116.267 F5400
G1 X210.840 Y123.017 E44.7328 F2400
G0 X210.840 Y123.583 F5400
G1 X205.072 Y117.815 E45.0040 F2400
G0 X205.575 Y118.884 F5400
G1 X210.840 Y124.148 E45.2517 F2400
G0 X210.840 Y124.714 F5400
G1 X205.982 Y119.857 E45.4801 F2400
G0 X206.254 Y120.695 F5400
G1 X210.840 Y125.280 E45.6958 F2400
G0 X210.840 Y125.845 F5400
G1 X206.486 Y121.492 E45.9006 F2400
G0 X206.620 Y122.191 F5400
G1 X210.840 Y126.411 E46.0991 F2400
G0 X210.840 Y126.977 F5400
G1 X206.753 Y122.890 E46.2913 F2400
G0 X206.824 Y123.527 F5400
G1 X210.840 Y127.543 E46.4802 F2400
G0 X210.840 Y128.108 F5400
G1 X206.862 Y124.131 E46.6672 F2400
G0 X206.900 Y124.734 F5400
G1 X210.840 Y128.674 E46.8526 F2400
G0 X210.840 Y129.240 F5400
G1 X206.898 Y125.298 E47.0380 F2400
G0 X206.864 Y125.830 F5400
G1 X210.840 Y129.805 E47.2249 F2400
G0 X210.840 Y130.371 F5400
G1 X206.831 Y126.362 E47.4135 F2400
G0 X206.795 Y126.892 F5400
G1 X210.840 Y130.937 E47.6037 F2400
G0 X210.840 Y131.502 F5400
G1 X206.704 Y127.367 E47.7982 F2400
G0 X206.614 Y127.842 F5400
G1 X210.840 Y132.068 E47.9970 F2400
G0 X210.840 Y132.634 F5400
G1 X206.523 Y128.317 E48.2001 F2400
G0 X206.424 Y128.784 F5400
G1 X210.840 Y133.199 E48.4078 F2400
G0 X210.840 Y133.765 F5400
G1 X206.285 Y129.211 E48.6220 F2400
G0 X206.146 Y129.638 F5400
G1 X210.840 Y134.331 E48.8427 F2400
G0 X210.840 Y134.896 F5400
G1 X206.008 Y130.065 E49.0700 F2400
G0 X205.869 Y130.492 F5400
G1 X210.840 Y135.462 E49.3038 F2400
G0 X210.840 Y136.028 F5400
G1 X205.688 Y130.876 E49.5461 F2400
G0 X205.507 Y131.261 F5400
G1 X210.840 Y136.593 E49.7969 F2400
G0 X210.840 Y137.159 F5400
G1 X205.326 Y131.646 E50.0563 F2400
G0 X205.145 Y132.030 F5400
G1 X210.840 Y137.725 E50.3241 F2400
G0 X210.840 Y138.291 F5400
G1 X204.941 Y132.392 E50.6016 F2400
G0 X204.721 Y132.738 F5400
G1 X210.840 Y138.856 E50.8894 F2400
G0 X210.840 Y139.422 F5400
G1 X204.502 Y133.084 E51.1875 F2400
G0 X204.282 Y133.430 F5400
G1 X210.817 Y139.965 E51.4949 F2400
G0 X210.763 Y140.477 F5400
G1 X204.062 Y133.775 E51.8101 F2400
G0 X203.805 Y134.085 F5400
G1 X210.651 Y140.931 E52.1321 F2400
G0 X210.512 Y141.358 F5400
G1 X203.549 Y134.394 E52.4596 F2400
G0 X203.293 Y134.704 F5400
G1 X210.319 Y141.730 E52.7901 F2400
G0 X210.112 Y142.088 F5400
G1 X203.037 Y135.014 E53.1228 F2400
G0 X202.768 Y135.310 F5400
G1 X209.858 Y142.400 E53.4563 F2400
G0 X209.590 Y142.698 F5400
G1 X202.476 Y135.584 E53.7909 F2400
G0 X202.185 Y135.858 F5400
G1 X209.282 Y142.956 E54.1248 F2400
G0 X208.955 Y143.194 F5400
G1 X201.893 Y136.132 E54.4569 F2400
G0 X201.601 Y136.406 F5400
G1 X208.590 Y143.395 E54.7857 F2400
G0 X208.198 Y143.569 F5400
G1 X201.285 Y136.656 E55.1108 F2400
G0 X200.957 Y136.894 F5400
G1 X207.761 Y143.697 E55.4309 F2400
G0 X207.295 Y143.797 F5400
G1 X200.630 Y137.132 E55.7444 F2400
G0 X200.302 Y137.370 F5400
G1 X206.744 Y143.812 E56.0474 F2400
G0 X206.179 Y143.812 F5400
G1 X199.972 Y137.606 E56.3393 F2400
G0 X199.607 Y137.806 F5400
G1 X205.613 Y143.812 E56.6218 F2400
G0 X205.047 Y143.812 F5400
G1 X199.242 Y138.007 E56.8949 F2400
G0 X198.877 Y138.208 F5400
G1 X204.482 Y143.812 E57.1585 F2400
G0 X203.916 Y143.812 F5400
G1 X198.512 Y138.408 E57.4127 F2400
G0 X198.125 Y138.587 F5400
G1 X203.350 Y143.812 E57.6585 F2400
G0 X202.785 Y143.812 F5400
G1 X197.720 Y138.747 E57.8967 F2400
G0 X197.314 Y138.907 F5400
G1 X202.219 Y143.812 E58.1274 F2400
G0 X201.653 Y143.812 F5400
G1 X196.909 Y139.068 E58.3505 F2400
G0 X196.492 Y139.217 F5400
G1 X201.088 Y143.812 E58.5667 F2400
G0 X200.522 Y143.812 F5400
G1 X196.042 Y139.332 E58.7774 F2400
G0 X195.592 Y139.448 F5400
G1 X199.956 Y143.812 E58.9827 F2400
G0 X199.390 Y143.812 F5400
G1 X195.142 Y139.563 E59.1825 F2400
G0 X194.680 Y139.667 F5400
G1 X198.825 Y143.812 E59.3775 F2400
G0 X198.259 Y143.812 F5400
G1 X194.177 Y139.730 E59.5695 F2400
G0 X193.675 Y139.794 F5400
G1 X197.693 Y143.812 E59.7585 F2400
G0 X197.128 Y143.812 F5400
G1 X193.173 Y139.857 E59.9446 F2400
G0 X192.637 Y139.887 F5400
G1 X196.562 Y143.812 E60.1292 F2400
G0 X195.996 Y143.812 F5400
G1 X192.071 Y139.887 E60.3138 F2400
G0 X191.506 Y139.887 F5400
G1 X195.431 Y143.812 E60.4984 F2400
G0 X194.865 Y143.812 F5400
G1 X190.922 Y139.869 E60.6839 F2400
G0 X190.275 Y139.787 F5400
G1 X194.299 Y143.812 E60.8732 F2400
G0 X193.734 Y143.812 F5400
G1 X189.627 Y139.706 E61.0663 F2400
G0 X188.940 Y139.584 F5400
G1 X193.168 Y143.812 E61.2652 F2400
G0 X192.602 Y143.812 F5400
G1 X188.179 Y139.389 E61.4733 F2400
G0 X187.418 Y139.194 F5400
G1 X192.037 Y143.812 E61.6905 F2400
G0 X191.471 Y143.812 F5400
G1 X186.488 Y138.829 E61.9249 F2400
G0 X185.518 Y138.425 F5400
G1 X190.905 Y143.812 E62.1782 F2400
G0 X190.340 Y143.812 F5400
G1 X184.262 Y137.734 E62.4641 F2400
G0 X181.890 Y135.928 F5400
G1 X189.774 Y143.812 E62.8350 F2400
G0 X189.208 Y143.812 F5400
G1 X173.160 Y127.764 E63.5898 F2400
G0 X173.160 Y128.330 F5400
G1 X188.642 Y143.812 E64.3180 F2400
G0 X188.077 Y143.812 F5400
G1 X173.160 Y128.896 E65.0196 F2400
G0 X173.160 Y129.461 F5400
G1 X187.511 Y143.812 E65.6947 F2400
G0 X186.945 Y143.812 F5400
G1 X173.160 Y130.027 E66.3431 F2400
G0 X173.160 Y130.593 F5400
G1 X186.380 Y143.812 E66.9648 F2400
G0 X185.814 Y143.812 F5400
G1 X173.160 Y131.159 E67.5600 F2400
G0 X173.160 Y131.724 F5400
G1 X185.248 Y143.812 E68.1286 F2400
G0 X184.683 Y143.812 F5400
G1 X173.160 Y132.290 E68.6706 F2400
G0 X173.160 Y132.856 F5400
G1 X184.117 Y143.812 E69.1859 F2400
G0 X183.551 Y143.812 F5400
G1 X173.160 Y133.421 E69.6747 F2400
G0 X173.160 Y133.987 F5400
G1 X182.986 Y143.812 E70.1368 F2400
G0 X182.420 Y143.812 F5400
G1 X173.160 Y134.553 E70.5724 F2400
G0 X173.160 Y135.118 F5400
G1 X181.854 Y143.812 E70.9813 F2400
G0 X181.289 Y143.812 F5400
G1 X173.160 Y135.684 E71.3636 F2400
G0 X173.160 Y136.250 F5400
G1 X180.723 Y143.812 E71.7193 F2400
G0 X180.157 Y143.812 F5400
G1 X173.160 Y136.815 E72.0484 F2400
G0 X173.160 Y137.381 F5400
G1 X179.591 Y143.812 E72.3509 F2400
G0 X179.026 Y143.812 F5400
G1 X173.160 Y137.947 E72.6268 F2400
G0 X173.160 Y138.512 F5400
G1 X178.460 Y143.812 E72.8761 F2400
G0 X177.894 Y143.812 F5400
G1 X173.160 Y139.078 E73.0987 F2400
G0 X173.160 Y139.644 F5400
G1 X177.329 Y143.812 E73.2948 F2400
G0 X176.759 Y143.808 F5400
G1 X173.215 Y140.264 E73.4615 F2400
G0 X173.365 Y140.980 F5400
G1 X176.040 Y143.655 E73.5874 F2400
G0 X174.929 Y143.109 F5400
G1 X173.862 Y142.042 E73.6375 F2400
G0 X173.160 Y127.199 F5400
G1 X180.903 Y134.942 E74.0017 F2400
G0 X179.302 Y132.775 F5400
G1 X173.160 Y126.633 E74.2906 F2400
G0 X173.160 Y126.067 F5400
G1 X178.617 Y131.524 E74.5473 F2400
G0 X178.122 Y130.463 F5400
G1 X173.160 Y125.502 E74.7807 F2400
G0 X173.160 Y124.936 F5400
G1 X177.850 Y129.625 E75.0012 F2400
G0 X177.577 Y128.787 F5400
G1 X173.160 Y124.370 E75.2090 F2400
G0 X173.160 Y123.805 F5400
G1 X177.431 Y128.075 E75.4098 F2400
G0 X177.298 Y127.376 F5400
G1 X173.160 Y123.239 E75.6044 F2400
G0 X173.160 Y122.673 F5400
G1 X177.191 Y126.703 E75.7940 F2400
G0 X177.153 Y126.100 F5400
G1 X173.160 Y122.108 E75.9818 F2400
G0 X173.160 Y121.542 F5400
G1 X177.115 Y125.496 E76.1678 F2400
G0 X177.089 Y124.905 F5400
G1 X173.160 Y120.976 E76.3526 F2400
G0 X173.160 Y120.411 F5400
G1 X177.123 Y124.373 E76.5389 F2400
G0 X177.156 Y123.841 F5400
G1 X173.160 Y119.845 E76.7269 F2400
G0 X173.160 Y119.279 F5400
G1 X177.190 Y123.308 E76.9164 F2400
G0 X177.261 Y122.814 F5400
G1 X173.160 Y118.713 E77.1093 F2400
G0 X173.160 Y118.148 F5400
G1 X177.352 Y122.339 E77.3065 F2400
G0 X177.443 Y121.864 F5400
G1 X173.160 Y117.582 E77.5079 F2400
G0 X173.160 Y117.016 F5400
G1 X177.533 Y121.389 E77.7135 F2400
G0 X177.662 Y120.952 F5400
G1 X173.160 Y116.451 E77.9253 F2400
G0 X173.160 Y115.885 F5400
G1 X177.801 Y120.525 E78.1436 F2400
G0 X177.939 Y120.098 F5400
G1 X173.160 Y115.319 E78.3683 F2400
G0 X173.160 Y114.754 F5400
G1 X178.078 Y119.671 E78.5996 F2400
G0 X178.243 Y119.271 F5400
G1 X173.160 Y114.188 E78.8387 F2400
G0 X173.160 Y113.622 F5400
G1 X178.424 Y118.886 E79.0863 F2400
G0 X178.605 Y118.501 F5400
G1 X173.160 Y113.057 E79.3424 F2400
G0 X173.160 Y112.491 F5400
G1 X178.786 Y118.117 E79.6070 F2400
G0 X178.975 Y117.740 F5400
G1 X173.160 Y111.925 E79.8805 F2400
G0 X173.160 Y111.360 F5400
G1 X179.195 Y117.394 E80.1644 F2400
G0 X179.415 Y117.048 F5400
G1 X173.160 Y110.794 E80.4585 F2400
G0 X173.163 Y110.230 F5400
G1 X179.634 Y116.702 E80.7629 F2400
G0 X179.854 Y116.356 F5400
G1 X173.216 Y109.719 E81.0751 F2400
G0 X173.296 Y109.232 F5400
G1 X180.097 Y116.033 E81.3950 F2400
G0 X180.353 Y115.724 F5400
G1 X173.435 Y108.805 E81.7204 F2400
G0 X173.602 Y108.407 F5400
G1 X180.609 Y115.414 E82.0500 F2400
G0 X180.865 Y115.105 F5400
G1 X173.809 Y108.049 E82.3819 F2400
G0 X174.040 Y107.714 F5400
G1 X181.121 Y114.795 E82.7150 F2400
G0 X181.412 Y114.520 F5400
G1 X174.308 Y107.416 E83.0492 F2400
G0 X174.593 Y107.135 F5400
G1 X181.704 Y114.246 E83.3837 F2400
G0 X181.996 Y113.972 F5400
G1 X174.920 Y106.897 E83.7165 F2400
G0 X175.261 Y106.672 F5400
G1 X182.288 Y113.698 E84.0470 F2400
G0 X182.590 Y113.435 F5400
G1 X175.652 Y106.497 E84.3733 F2400
G0 X176.061 Y106.340 F5400
G1 X182.918 Y113.197 E84.6958 F2400
G0 X183.245 Y112.959 F5400
G1 X176.527 Y106.241 E85.0118 F2400
G0 X177.040 Y106.188 F5400
G1 X183.573 Y112.721 E85.3191 F2400
G0 X183.901 Y112.483 F5400
G1 X177.606 Y106.188 E85.6152 F2400
G0 X178.171 Y106.188 F5400
G1 X184.254 Y112.270 E85.9013 F2400
G0 X184.619 Y112.070 F5400
G1 X178.737 Y106.188 E86.1780 F2400
G0 X179.303 Y106.188 F5400
G1 X184.984 Y111.869 E86.4452 F2400
G0 X185.349 Y111.668 F5400
G1 X179.868 Y106.188 E86.7030 F2400
G0 X180.434 Y106.188 F5400
G1 X185.721 Y111.475 E86.9516 F2400
G0 X186.126 Y111.314 F5400
G1 X181.000 Y106.188 E87.1928 F2400
G0 X181.565 Y106.188 F5400
G1 X186.531 Y111.154 E87.4263 F2400
G0 X186.936 Y110.993 F5400
G1 X182.131 Y106.188 E87.6524 F2400
G0 X182.697 Y106.188 F5400
G1 X187.341 Y110.833 E87.8708 F2400
G0 X187.786 Y110.712 F5400
G1 X183.262 Y106.188 E88.0836 F2400
G0 X183.828 Y106.188 F5400
G1 X188.236 Y110.596 E88.2910 F2400
G0 X188.687 Y110.481 F5400
G1 X184.394 Y106.188 E88.4929 F2400
G0 X184.959 Y106.188 F5400
G1 X189.137 Y110.365 E88.6894 F2400
G0 X190.636 Y110.167 F5400
G1 X186.657 Y106.188 E88.8766 F2400
G0 X187.222 Y106.188 F5400
G1 X191.147 Y110.113 E89.0612 F2400
G0 X191.713 Y110.113 F5400
G1 X187.788 Y106.188 E89.2458 F2400
G0 X188.354 Y106.188 F5400
G1 X192.278 Y110.113 E89.4304 F2400
G0 X192.844 Y110.113 F5400
G1 X188.919 Y106.188 E89.6150 F2400
G0 X189.485 Y106.188 F5400
G1 X193.478 Y110.181 E89.8029 F2400
G0 X194.126 Y110.263 F5400
G1 X190.051 Y106.188 E89.9945 F2400
G0 X190.616 Y106.188 F5400
G1 X194.773 Y110.345 E90.1901 F2400
G0 X195.531 Y110.537 F5400
G1 X191.182 Y106.188 E90.3946 F2400
G0 X191.748 Y106.188 F5400
G1 X196.292 Y110.732 E90.6083 F2400
G0 X197.155 Y111.029 F5400
G1 X192.313 Y106.188 E90.8361 F2400
G0 X192.879 Y106.188 F5400
G1 X198.091 Y111.400 E91.0812 F2400
;segType:Pillar
G0 F3000 E90.0812
G0 F1200 Z1.200
G0 X202.000 Y82.027 F5400
G0 F1200 Z0.200
G0 F3000 E91.0812
G1 X182.000 Y82.027 E91.8129 F2400
G1 X182.000 Y102.027 E92.5447
G1 X202.000 Y102.027 E93.2764
G1 X201.600 Y82.427 E93.9936
G1 X182.400 Y82.427 E94.6961
G1 X182.400 Y101.627 E95.3985
G1 X201.600 Y101.627 E96.1010
G1 X201.200 Y82.827 E96.7890
G1 X182.800 Y82.827 E97.4621
G1 X182.800 Y101.227 E98.1353
G1 X201.200 Y101.227 E98.8085
G1 X200.800 Y83.227 E99.4672
G1 X183.200 Y83.227 E100.1111
G1 X183.200 Y100.827 E100.7551
G1 X200.800 Y100.827 E101.3990
G1 X200.400 Y83.627 E102.0284
G1 X183.600 Y83.627 E102.6431
G1 X183.600 Y100.427 E103.2577
G1 X200.400 Y100.427 E103.8724
G1 X200.000 Y84.027 E104.4726
G1 X184.000 Y84.027 E105.0579
G1 X184.000 Y100.027 E105.6433
G1 X200.000 Y100.027 E106.2287
G1 X199.600 Y84.427 E106.7996
G1 X184.400 Y84.427 E107.3557
G1 X184.400 Y99.627 E107.9118
G1 X199.600 Y99.627 E108.4680
G1 X199.200 Y84.827 E109.0096
G1 X184.800 Y84.827 E109.5365
G1 X184.800 Y99.227 E110.0633
G1 X199.200 Y99.227 E110.5901
G1 X198.800 Y85.227 E111.1026
G1 X185.200 Y85.227 E111.6001
G1 X185.200 Y98.827 E112.0977
G1 X198.800 Y98.827 E112.5953
G1 X198.400 Y85.627 E113.0784
G1 X185.600 Y85.627 E113.5467
G1 X185.600 Y98.427 E114.0150
G1 X198.400 Y98.427 E114.4833
G1 X198.000 Y86.027 E114.9372
G1 X186.000 Y86.027 E115.3763
G1 X186.000 Y98.027 E115.8153
G1 X198.000 Y98.027 E116.2543
G1 X197.600 Y86.427 E116.6790
G1 X186.400 Y86.427 E117.0888
G1 X186.400 Y97.627 E117.4985
G1 X197.600 Y97.627 E117.9083
G1 X197.200 Y86.827 E118.3037
G1 X186.800 Y86.827 E118.6842
G1 X186.800 Y97.227 E119.0647
G1 X197.200 Y97.227 E119.4452
G1 X196.800 Y87.227 E119.8113
G1 X187.200 Y87.227 E120.1626
G1 X187.200 Y96.827 E120.5138
G1 X196.800 Y96.827 E120.8650
G1 X196.400 Y87.627 E121.2019
G1 X187.600 Y87.627 E121.5239
G1 X187.600 Y96.427 E121.8459
G1 X196.400 Y96.427 E122.1678
G1 X196.000 Y88.027 E122.4755
G1 X188.000 Y88.027 E122.7682
G1 X188.000 Y96.027 E123.0609
G1 X196.000 Y96.027 E123.3535
G1 X195.600 Y88.427 E123.6320
G1 X188.400 Y88.427 E123.8954
G1 X188.400 Y95.627 E124.1588
G1 X195.600 Y95.627 E124.4222
G1 X195.200 Y88.827 E124.6715
G1 X188.800 Y88.827 E124.9056
G1 X188.800 Y95.227 E125.1398
G1 X195.200 Y95.227 E125.3739
G1 X194.800 Y89.227 E125.5939
G1 X189.200 Y89.227 E125.7988
G1 X189.200 Y94.827 E126.0037
G1 X194.800 Y94.827 E126.2086
G1 X194.400 Y89.627 E126.3994
G1 X189.600 Y89.627 E126.5750
G1 X189.600 Y94.427 E126.7506
G1 X194.400 Y94.427 E126.9262
G1 X194.000 Y90.027 E127.0879
G1 X190.000 Y90.027 E127.2342
G1 X190.000 Y94.027 E127.3806
G1 X194.000 Y94.027 E127.5269
G1 X193.600 Y90.427 E127.6594
G1 X190.400 Y90.427 E127.7765
G1 X190.400 Y93.627 E127.8936
G1 X193.600 Y93.627 E128.0106
G1 X193.200 Y90.827 E128.1141
G1 X190.800 Y90.827 E128.2019
G1 X190.800 Y93.227 E128.2897
G1 X193.200 Y93.227 E128.3775
G1 X192.800 Y91.227 E128.4521
G1 X191.200 Y91.227 E128.5107
G1 X191.200 Y92.827 E128.5692
G1 X192.800 Y92.827 E128.6277
G1 X192.400 Y91.627 E128.6740
G1 X191.600 Y91.627 E128.7033
G1 X191.600 Y92.427 E128.7326
G1 X192.400 Y92.427 E128.7618
; ------------------------------------
; Layer #1
; ------------------------------------
M106 S0 T0 ;turn off fan 1
G92 E0 ;reset extr
;segType:HShell
G0 F3000 E-1.0000
G0 F1200 Z1.400
G0 X203.552 Y115.680 F7200
G0 F1200 Z0.400
G0 F3000 E0.0000
G1 X210.631 Y108.600 E0.3330 F3000
;segType:Perimeter
G0 X211.158 Y108.431 F7200
G1 X211.594 Y109.102 E0.3596 F1799
G1 X211.700 Y110.111 E0.3933
G1 X211.700 Y139.890 E1.3838
G1 X211.594 Y140.898 E1.4175
G1 X211.284 Y141.852 E1.4509
G1 X210.782 Y142.721 E1.4842
G1 X210.111 Y143.466 E1.5176
G1 X209.299 Y144.056 E1.5510
G1 X208.383 Y144.464 E1.5843
G1 X207.402 Y144.672 E1.6177
G1 X176.598 Y144.672 E2.6422
G1 X175.617 Y144.464 E2.6756
G1 X174.701 Y144.056 E2.7090
G1 X173.889 Y143.466 E2.7423
G1 X173.218 Y142.721 E2.7757
G1 X172.716 Y141.852 E2.8090
G1 X172.406 Y140.898 E2.8424
G1 X172.300 Y139.889 E2.8761
G1 X172.300 Y110.111 E3.8666
G1 X172.406 Y109.102 E3.9003
G1 X172.716 Y108.148 E3.9337
G1 X173.218 Y107.279 E3.9670
G1 X173.889 Y106.534 E4.0004
G1 X174.701 Y105.944 E4.0338
G1 X175.617 Y105.536 E4.0671
G1 X176.598 Y105.328 E4.1005
G1 X207.402 Y105.328 E5.1250
G1 X208.383 Y105.536 E5.1584
G1 X209.299 Y105.944 E5.1917
G1 X210.111 Y106.534 E5.2251
G1 X210.782 Y107.279 E5.2585
G1 X211.284 Y108.148 E5.2918
G1 X211.594 Y109.102 E5.3252
G0 X211.468 Y109.892 F7200
;segType:Loop
G0 X211.300 Y110.232
G1 X211.300 Y139.869 E6.3109 F3000
G1 X211.200 Y140.814 E6.3426
G1 X210.916 Y141.688 E6.3731
G1 X210.457 Y142.484 E6.4037
G1 X209.842 Y143.167 E6.4343
G1 X209.098 Y143.707 E6.4648
G1 X208.259 Y144.081 E6.4954
G1 X207.360 Y144.272 E6.5260
G1 X176.640 Y144.272 E7.5477
G1 X175.741 Y144.081 E7.5783
G1 X174.902 Y143.707 E7.6088
G1 X174.158 Y143.167 E7.6394
G1 X173.543 Y142.484 E7.6700
G1 X173.084 Y141.688 E7.7005
G1 X172.800 Y140.814 E7.7311
G1 X172.700 Y139.869 E7.7627
G1 X172.700 Y110.132 E8.7518
G1 X172.800 Y109.186 E8.7834
G1 X173.084 Y108.312 E8.8140
G1 X173.543 Y107.516 E8.8445
G1 X174.158 Y106.833 E8.8751
G1 X174.902 Y106.293 E8.9057
G1 X175.741 Y105.919 E8.9362
G1 X176.640 Y105.728 E8.9668
G1 X207.360 Y105.728 E9.9885
G1 X208.259 Y105.919 E10.0191
G1 X209.098 Y106.293 E10.0497
G1 X209.842 Y106.833 E10.0802
G1 X210.457 Y107.516 E10.1108
G1 X210.916 Y108.312 E10.1414
G1 X211.200 Y109.186 E10.1719
G1 X211.289 Y110.032 E10.2003
;segType:HShell
G0 X189.662 Y110.336 F7200
G1 X193.910 Y106.088 E10.4001 F3000
G0 X194.476 Y106.088 F7200
G1 X190.310 Y110.254 E10.5960 F3000
;segType:Perimeter
G0 X190.321 Y110.810 F7200
G1 X191.114 Y110.919 E10.6226 F1799
G1 X192.886 Y110.919 E10.6816
G1 X194.640 Y111.140 E10.7404
G1 X196.358 Y111.581 E10.7994
G1 X198.006 Y112.233 E10.8583
G1 X199.560 Y113.087 E10.9173
G1 X200.995 Y114.130 E10.9763
G1 X202.285 Y115.341 E11.0352
G1 X203.413 Y116.705 E11.0940
G1 X204.364 Y118.203 E11.1530
G1 X205.119 Y119.806 E11.2120
G1 X205.665 Y121.490 E11.2709
G1 X205.998 Y123.232 E11.3298
G1 X206.109 Y125.000 E11.3888
G1 X205.998 Y126.767 E11.4476
G1 X205.666 Y128.510 E11.5066
G1 X205.118 Y130.194 E11.5656
G1 X204.364 Y131.797 E11.6245
G1 X203.415 Y133.293 E11.6834
G1 X202.285 Y134.659 E11.7424
G1 X200.994 Y135.871 E11.8013
G1 X199.562 Y136.911 E11.8601
G1 X198.006 Y137.767 E11.9192
G1 X196.358 Y138.419 E11.9782
G1 X194.644 Y138.859 E12.0370
G1 X192.888 Y139.081 E12.0959
G1 X191.114 Y139.081 E12.1549
G1 X189.356 Y138.859 E12.2138
G1 X187.641 Y138.419 E12.2727
G1 X185.992 Y137.766 E12.3317
G1 X184.444 Y136.915 E12.3905
G1 X183.007 Y135.871 E12.4495
G1 X181.715 Y134.658 E12.5085
G1 X180.589 Y133.297 E12.5672
G1 X179.636 Y131.797 E12.6263
G1 X178.883 Y130.197 E12.6851
G1 X178.334 Y128.510 E12.7441
G1 X178.002 Y126.770 E12.8031
G1 X177.891 Y125.000 E12.8620
G1 X178.002 Y123.233 E12.9209
G1 X178.334 Y121.491 E12.9799
G1 X178.882 Y119.806 E13.0388
G1 X179.636 Y118.203 E13.0978
G1 X180.584 Y116.708 E13.1566
G1 X181.718 Y115.339 E13.2158
G1 X183.006 Y114.129 E13.2746
G1 X184.436 Y113.090 E13.3333
G1 X185.992 Y112.234 E13.3924
G1 X187.642 Y111.581 E13.4514
G1 X189.356 Y111.141 E13.5103
G1 X191.114 Y110.919 E13.5692
G0 X191.886 Y110.712 F7200
;segType:Loop
G0 X192.214 Y110.519
G1 X192.912 Y110.519 E13.5924 F3000
G1 X194.715 Y110.746 E13.6529
G1 X196.482 Y111.200 E13.7136
G1 X198.176 Y111.870 E13.7742
G1 X199.775 Y112.749 E13.8348
G1 X201.251 Y113.821 E13.8955
G1 X202.577 Y115.067 E13.9560
G1 X203.737 Y116.469 E14.0166
G1 X204.715 Y118.010 E14.0773
G1 X205.491 Y119.659 E14.1379
G1 X206.054 Y121.390 E14.1984
G1 X206.396 Y123.181 E14.2591
G1 X206.510 Y125.000 E14.3197
G1 X206.396 Y126.817 E14.3802
G1 X206.054 Y128.609 E14.4409
G1 X205.491 Y130.342 E14.5015
G1 X204.715 Y131.990 E14.5621
G1 X203.739 Y133.528 E14.6227
G1 X202.577 Y134.933 E14.6833
G1 X201.249 Y136.180 E14.7439
G1 X199.777 Y137.250 E14.8044
G1 X198.176 Y138.130 E14.8652
G1 X196.481 Y138.800 E14.9258
G1 X194.719 Y139.253 E14.9863
G1 X192.914 Y139.481 E15.0469
G1 X191.089 Y139.481 E15.1075
G1 X189.281 Y139.253 E15.1682
G1 X187.517 Y138.800 E15.2287
G1 X185.821 Y138.128 E15.2894
G1 X184.229 Y137.253 E15.3498
G1 X182.751 Y136.180 E15.4106
G1 X181.422 Y134.933 E15.4712
G1 X180.265 Y133.532 E15.5316
G1 X179.285 Y131.990 E15.5924
G1 X178.511 Y130.345 E15.6529
G1 X177.946 Y128.610 E15.7136
G1 X177.605 Y126.820 E15.7742
G1 X177.490 Y125.000 E15.8348
G1 X177.604 Y123.183 E15.8954
G1 X177.946 Y121.392 E15.9560
G1 X178.509 Y119.659 E16.0166
G1 X179.285 Y118.010 E16.0772
G1 X180.260 Y116.473 E16.1378
G1 X181.426 Y115.064 E16.1986
G1 X182.751 Y113.820 E16.2590
G1 X184.221 Y112.752 E16.3195
G1 X185.822 Y111.871 E16.3802
G1 X187.519 Y111.200 E16.4409
G1 X189.281 Y110.747 E16.5015
G1 X191.089 Y110.519 E16.5621
G1 X192.014 Y110.519 E16.5928
;segType:HShell
G0 X190.957 Y110.173 F7200
G1 X195.041 Y106.088 E16.7850 F3000
G0 X195.607 Y106.088 F7200
G1 X191.536 Y110.159 E16.9764 F3000
G0 X192.102 Y110.159 F7200
G1 X196.173 Y106.088 E17.1679 F3000
G0 X196.739 Y106.088 F7200
G1 X192.668 Y110.159 E17.3594 F3000
G0 X193.200 Y110.192 F7200
G1 X197.304 Y106.088 E17.5524 F3000
G0 X197.870 Y106.088 F7200
G1 X193.702 Y110.256 E17.7485 F3000
G0 X194.205 Y110.319 F7200
G1 X198.436 Y106.088 E17.9475 F3000
G0 X199.001 Y106.088 F7200
G1 X194.707 Y110.382 E18.1495 F3000
G0 X195.165 Y110.490 F7200
G1 X199.567 Y106.088 E18.3565 F3000
G0 X200.133 Y106.088 F7200
G1 X195.615 Y110.606 E18.5690 F3000
G0 X196.065 Y110.721 F7200
G1 X200.698 Y106.088 E18.7870 F3000
G0 X201.264 Y106.088 F7200
G1 X196.515 Y110.837 E19.0103 F3000
G0 X196.928 Y110.989 F7200
G1 X201.830 Y106.088 E19.2409 F3000
G0 X202.395 Y106.088 F7200
G1 X197.334 Y111.150 E19.4789 F3000
G0 X197.739 Y111.310 F7200
G1 X202.961 Y106.088 E19.7246 F3000
G0 X203.527 Y106.088 F7200
G1 X198.144 Y111.470 E19.9777 F3000
G0 X198.528 Y111.653 F7200
G1 X204.092 Y106.088 E20.2395 F3000
G0 X204.658 Y106.088 F7200
G1 X198.893 Y111.853 E20.5107 F3000
G0 X199.258 Y112.054 F7200
G1 X205.224 Y106.088 E20.7913 F3000
G0 X205.789 Y106.088 F7200
G1 X199.623 Y112.254 E21.0813 F3000
G0 X199.986 Y112.457 F7200
G1 X206.355 Y106.088 E21.3809 F3000
G0 X206.921 Y106.088 F7200
G1 X200.314 Y112.695 E21.6917 F3000
G0 X200.641 Y112.933 F7200
G1 X207.458 Y106.117 E22.0123 F3000
G0 X207.924 Y106.216 F7200
G1 X200.969 Y113.171 E22.3395 F3000
G0 X201.296 Y113.409 F7200
G1 X208.351 Y106.354 E22.6713 F3000
G0 X208.743 Y106.529 F7200
G1 X201.608 Y113.663 E23.0069 F3000
G0 X201.900 Y113.937 F7200
G1 X209.099 Y106.738 E23.3455 F3000
G0 X209.427 Y106.976 F7200
G1 X202.192 Y114.211 E23.6858 F3000
G0 X202.484 Y114.485 F7200
G1 X209.726 Y107.243 E24.0265 F3000
G0 X209.994 Y107.540 F7200
G1 X202.775 Y114.759 E24.3660 F3000
G0 X203.039 Y115.061 F7200
G1 X210.240 Y107.860 E24.7047 F3000
G0 X210.447 Y108.219 F7200
G1 X203.295 Y115.370 E25.0411 F3000
G0 X210.770 Y109.027 F7200
G1 X203.808 Y115.989 E25.3686 F3000
G0 X204.059 Y116.304 F7200
G1 X210.870 Y109.492 E25.6890 F3000
G0 X210.924 Y110.004 F7200
G1 X204.278 Y116.650 E26.0016 F3000
G0 X204.498 Y116.996 F7200
G1 X210.939 Y110.555 E26.3045 F3000
G0 X210.939 Y111.120 F7200
G1 X204.718 Y117.342 E26.5972 F3000
G0 X204.938 Y117.688 F7200
G1 X210.939 Y111.686 E26.8795 F3000
G0 X210.939 Y112.252 F7200
G1 X205.135 Y118.056 E27.1525 F3000
G0 X205.316 Y118.441 F7200
G1 X210.939 Y112.817 E27.4170 F3000
G0 X210.939 Y113.383 F7200
G1 X205.497 Y118.825 E27.6730 F3000
G0 X205.678 Y119.210 F7200
G1 X210.939 Y113.949 E27.9205 F3000
G0 X210.939 Y114.514 F7200
G1 X205.851 Y119.602 E28.1598 F3000
G0 X205.990 Y120.029 F7200
G1 X210.939 Y115.080 E28.3926 F3000
G0 X210.939 Y115.646 F7200
G1 X206.129 Y120.456 E28.6189 F3000
G0 X206.268 Y120.883 F7200
G1 X210.939 Y116.211 E28.8387 F3000
G0 X210.939 Y116.777 F7200
G1 X206.405 Y121.312 E29.0520 F3000
G0 X206.496 Y121.787 F7200
G1 X210.939 Y117.343 E29.2610 F3000
G0 X210.939 Y117.909 F7200
G1 X206.587 Y122.262 E29.4657 F3000
G0 X206.677 Y122.736 F7200
G1 X210.940 Y118.474 E29.6662 F3000
G0 X210.939 Y119.040 F7200
G1 X206.759 Y123.221 E29.8629 F3000
G0 X206.792 Y123.753 F7200
G1 X210.940 Y119.606 E30.0579 F3000
G0 X210.940 Y120.171 F7200
G1 X206.826 Y124.285 E30.2514 F3000
G0 X206.859 Y124.817 F7200
G1 X210.940 Y120.737 E30.4433 F3000
G0 X210.940 Y121.303 F7200
G1 X206.846 Y125.396 E30.6359 F3000
G0 X206.808 Y126.000 F7200
G1 X210.940 Y121.868 E30.8302 F3000
G0 X210.940 Y122.434 F7200
G1 X206.770 Y126.603 E31.0263 F3000
G0 X206.678 Y127.262 F7200
G1 X210.940 Y123.000 E31.2268 F3000
G0 X210.940 Y123.565 F7200
G1 X206.544 Y127.961 E31.4335 F3000
G0 X206.411 Y128.660 F7200
G1 X210.940 Y124.131 E31.6466 F3000
G0 X210.940 Y124.697 F7200
G1 X206.147 Y129.490 E31.8720 F3000
G0 X205.874 Y130.328 F7200
G1 X210.940 Y125.262 E32.1103 F3000
G0 X210.940 Y125.828 F7200
G1 X205.412 Y131.356 E32.3703 F3000
G0 X210.940 Y126.394 F7200
G1 X204.792 Y132.541 E32.6594 F3000
G0 X203.421 Y134.478 F7200
G1 X210.940 Y126.959 E33.0131 F3000
G0 X210.940 Y127.525 F7200
G1 X194.553 Y143.912 E33.7839 F3000
G0 X195.118 Y143.912 F7200
G1 X210.940 Y128.091 E34.5281 F3000
G0 X210.940 Y128.657 F7200
G1 X195.684 Y143.912 E35.2456 F3000
G0 X196.250 Y143.912 F7200
G1 X210.940 Y129.222 E35.9366 F3000
G0 X210.940 Y129.788 F7200
G1 X196.815 Y143.912 E36.6010 F3000
G0 X197.381 Y143.912 F7200
G1 X210.940 Y130.354 E37.2387 F3000
G0 X210.940 Y130.919 F7200
G1 X197.947 Y143.912 E37.8498 F3000
G0 X198.512 Y143.912 F7200
G1 X210.940 Y131.485 E38.4344 F3000
G0 X210.940 Y132.051 F7200
G1 X199.078 Y143.912 E38.9923 F3000
G0 X199.644 Y143.912 F7200
G1 X210.940 Y132.616 E39.5236 F3000
G0 X210.940 Y133.182 F7200
G1 X200.209 Y143.912 E40.0283 F3000
G0 X200.775 Y143.912 F7200
G1 X210.940 Y133.748 E40.5064 F3000
G0 X210.940 Y134.313 F7200
G1 X201.341 Y143.912 E40.9579 F3000
G0 X201.907 Y143.912 F7200
G1 X210.940 Y134.879 E41.3828 F3000
G0 X210.940 Y135.445 F7200
G1 X202.472 Y143.912 E41.7811 F3000
G0 X203.038 Y143.912 F7200
G1 X210.940 Y136.010 E42.1528 F3000
G0 X210.940 Y136.576 F7200
G1 X203.604 Y143.912 E42.4978 F3000
G0 X204.169 Y143.912 F7200
G1 X210.940 Y137.142 E42.8163 F3000
G0 X210.940 Y137.707 F7200
G1 X204.735 Y143.912 E43.1081 F3000
G0 X205.301 Y143.912 F7200
G1 X210.940 Y138.273 E43.3733 F3000
G0 X210.940 Y138.839 F7200
G1 X205.866 Y143.912 E43.6120 F3000
G0 X206.432 Y143.912 F7200
G1 X210.940 Y139.405 E43.8240 F3000
G0 X210.925 Y139.984 F7200
G1 X206.998 Y143.912 E44.0087 F3000
G0 X207.629 Y143.847 F7200
G1 X210.859 Y140.617 E44.1607 F3000
G0 X210.627 Y141.415 F7200
G1 X208.431 Y143.610 E44.2640 F3000
G0 X201.339 Y136.560 F7200
G1 X193.987 Y143.912 E44.6098 F3000
G0 X193.421 Y143.912 F7200
G1 X199.545 Y137.788 E44.8978 F3000
G0 X198.299 Y138.468 F7200
G1 X192.856 Y143.912 E45.1539 F3000
G0 X192.290 Y143.912 F7200
G1 X197.363 Y138.839 E45.3925 F3000
G0 X196.458 Y139.178 F7200
G1 X191.724 Y143.912 E45.6152 F3000
G0 X191.159 Y143.912 F7200
G1 X195.697 Y139.374 E45.8286 F3000
G0 X194.936 Y139.569 F7200
G1 X190.593 Y143.912 E46.0329 F3000
G0 X190.027 Y143.912 F7200
G1 X194.266 Y139.673 E46.2323 F3000
G0 X193.619 Y139.755 F7200
G1 X189.461 Y143.912 E46.4279 F3000
G0 X188.896 Y143.912 F7200
G1 X192.971 Y139.837 E46.6196 F3000
G0 X192.401 Y139.841 F7200
G1 X188.330 Y143.912 E46.8110 F3000
G0 X187.764 Y143.912 F7200
G1 X191.835 Y139.841 E47.0025 F3000
G0 X191.269 Y139.841 F7200
G1 X187.199 Y143.912 E47.1940 F3000
G0 X186.633 Y143.912 F7200
G1 X190.744 Y139.801 E47.3874 F3000
G0 X190.242 Y139.737 F7200
G1 X186.067 Y143.912 E47.5837 F3000
G0 X185.502 Y143.912 F7200
G1 X189.740 Y139.674 E47.7831 F3000
G0 X189.238 Y139.610 F7200
G1 X184.936 Y143.912 E47.9854 F3000
G0 X184.370 Y143.912 F7200
G1 X188.785 Y139.497 E48.1931 F3000
G0 X188.335 Y139.382 F7200
G1 X183.805 Y143.912 E48.4061 F3000
G0 X183.239 Y143.912 F7200
G1 X187.885 Y139.266 E48.6247 F3000
G0 X187.435 Y139.151 F7200
G1 X182.673 Y143.912 E48.8486 F3000
G0 X182.108 Y143.912 F7200
G1 X187.026 Y138.993 E49.0800 F3000
G0 X186.621 Y138.833 F7200
G1 X181.542 Y143.912 E49.3189 F3000
G0 X180.976 Y143.912 F7200
G1 X186.216 Y138.672 E49.5654 F3000
G0 X185.811 Y138.512 F7200
G1 X180.410 Y143.912 E49.8194 F3000
G0 X179.845 Y143.912 F7200
G1 X185.432 Y138.325 E50.0822 F3000
G0 X185.067 Y138.125 F7200
G1 X179.279 Y143.912 E50.3544 F3000
G0 X178.713 Y143.912 F7200
G1 X184.702 Y137.924 E50.6361 F3000
G0 X184.336 Y137.723 F7200
G1 X178.148 Y143.912 E50.9272 F3000
G0 X177.582 Y143.912 F7200
G1 X183.978 Y137.516 E51.2280 F3000
G0 X183.650 Y137.278 F7200
G1 X177.016 Y143.912 E51.5401 F3000
G0 X176.491 Y143.872 F7200
G1 X183.323 Y137.040 E51.8614 F3000
G0 X182.995 Y136.802 F7200
G1 X176.024 Y143.773 E52.1893 F3000
G0 X175.605 Y143.626 F7200
G1 X182.667 Y136.564 E52.5215 F3000
G0 X182.359 Y136.306 F7200
G1 X175.214 Y143.452 E52.8576 F3000
G0 X174.865 Y143.235 F7200
G1 X182.068 Y136.032 E53.1964 F3000
G0 X181.776 Y135.758 F7200
G1 X174.537 Y142.997 E53.5369 F3000
G0 X174.244 Y142.724 F7200
G1 X181.484 Y135.485 E53.8774 F3000
G0 X181.192 Y135.211 F7200
G1 X173.976 Y142.427 E54.2168 F3000
G0 X173.737 Y142.100 F7200
G1 X180.932 Y134.905 E54.5553 F3000
G0 X180.676 Y134.595 F7200
G1 X173.530 Y141.741 E54.8914 F3000
G0 X173.353 Y141.353 F7200
G1 X180.420 Y134.286 E55.2238 F3000
G0 X180.164 Y133.976 F7200
G1 X173.215 Y140.926 E55.5507 F3000
G0 X173.124 Y140.451 F7200
G1 X179.917 Y133.657 E55.8702 F3000
G0 X179.697 Y133.311 F7200
G1 X173.070 Y139.939 E56.1820 F3000
G0 X173.061 Y139.383 F7200
G1 X179.478 Y132.965 E56.4838 F3000
G0 X179.258 Y132.620 F7200
G1 X173.061 Y138.817 E56.7753 F3000
G0 X173.061 Y138.251 F7200
G1 X179.038 Y132.274 E57.0565 F3000
G0 X178.845 Y131.901 F7200
G1 X173.061 Y137.686 E57.3286 F3000
G0 X173.061 Y137.120 F7200
G1 X178.664 Y131.517 E57.5922 F3000
G0 X178.483 Y131.132 F7200
G1 X173.061 Y136.554 E57.8472 F3000
G0 X173.061 Y135.989 F7200
G1 X178.302 Y130.747 E58.0937 F3000
G0 X178.133 Y130.350 F7200
G1 X173.061 Y135.423 E58.3324 F3000
G0 X173.061 Y134.857 F7200
G1 X177.995 Y129.923 E58.5644 F3000
G0 X177.856 Y129.496 F7200
G1 X173.061 Y134.291 E58.7900 F3000
G0 X173.061 Y133.726 F7200
G1 X177.717 Y129.069 E59.0090 F3000
G0 X177.585 Y128.636 F7200
G1 X173.061 Y133.160 E59.2218 F3000
G0 X173.061 Y132.594 F7200
G1 X177.494 Y128.161 E59.4304 F3000
G0 X177.403 Y127.686 F7200
G1 X173.061 Y132.029 E59.6346 F3000
G0 X173.061 Y131.463 F7200
G1 X177.313 Y127.211 E59.8347 F3000
G0 X177.238 Y126.720 F7200
G1 X173.061 Y130.897 E60.0311 F3000
G0 X173.061 Y130.332 F7200
G1 X177.204 Y126.188 E60.2260 F3000
G0 X177.171 Y125.656 F7200
G1 X173.061 Y129.766 E60.4194 F3000
G0 X173.061 Y129.200 F7200
G1 X177.137 Y125.124 E60.6111 F3000
G0 X177.158 Y124.537 F7200
G1 X173.061 Y128.635 E60.8038 F3000
G0 X173.061 Y128.069 F7200
G1 X177.196 Y123.933 E60.9984 F3000
G0 X177.234 Y123.330 F7200
G1 X173.061 Y127.503 E61.1947 F3000
G0 X173.061 Y126.938 F7200
G1 X177.337 Y122.661 E61.3959 F3000
G0 X177.471 Y121.962 F7200
G1 X173.061 Y126.372 E61.6033 F3000
G0 X173.061 Y125.806 F7200
G1 X177.612 Y121.255 E61.8174 F3000
G0 X177.884 Y120.417 F7200
G1 X173.061 Y125.240 E62.0442 F3000
G0 X173.061 Y124.675 F7200
G1 X178.156 Y119.579 E62.2839 F3000
G0 X178.644 Y118.526 F7200
G1 X173.061 Y124.109 E62.5465 F3000
G0 X173.061 Y123.543 F7200
G1 X179.317 Y117.287 E62.8408 F3000
G0 X180.883 Y115.155 F7200
G1 X173.061 Y122.978 E63.2088 F3000
G0 X173.061 Y122.412 F7200
G1 X189.385 Y106.088 E63.9766 F3000
G0 X188.819 Y106.088 F7200
G1 X173.061 Y121.846 E64.7178 F3000
G0 X173.061 Y121.281 F7200
G1 X188.253 Y106.088 E65.4325 F3000
G0 X187.688 Y106.088 F7200
G1 X173.061 Y120.715 E66.1205 F3000
G0 X173.061 Y120.149 F7200
G1 X187.122 Y106.088 E66.7819 F3000
G0 X186.556 Y106.088 F7200
G1 X173.061 Y119.584 E67.4167 F3000
G0 X173.061 Y119.018 F7200
G1 X185.991 Y106.088 E68.0249 F3000
G0 X185.425 Y106.088 F7200
G1 X173.061 Y118.452 E68.6064 F3000
G0 X173.061 Y117.887 F7200
G1 X184.859 Y106.088 E69.1614 F3000
G0 X184.293 Y106.088 F7200
G1 X173.061 Y117.321 E69.6898 F3000
G0 X173.061 Y116.755 F7200
G1 X183.728 Y106.088 E70.1915 F3000
G0 X183.162 Y106.088 F7200
G1 X173.061 Y116.190 E70.6667 F3000
G0 X173.061 Y115.624 F7200
G1 X182.596 Y106.088 E71.1152 F3000
G0 X182.031 Y106.088 F7200
G1 X173.061 Y115.058 E71.5371 F3000
G0 X173.061 Y114.492 F7200
G1 X181.465 Y106.088 E71.9325 F3000
G0 X180.899 Y106.088 F7200
G1 X173.061 Y113.927 E72.3012 F3000
G0 X173.061 Y113.361 F7200
G1 X180.334 Y106.088 E72.6433 F3000
G0 X179.768 Y106.088 F7200
G1 X173.061 Y112.795 E72.9588 F3000
G0 X173.061 Y112.230 F7200
G1 X179.202 Y106.088 E73.2477 F3000
G0 X178.637 Y106.088 F7200
G1 X173.061 Y111.664 E73.5099 F3000
G0 X173.061 Y111.098 F7200
G1 X178.071 Y106.088 E73.7456 F3000
G0 X177.505 Y106.088 F7200
G1 X173.061 Y110.533 E73.9547 F3000
G0 X173.082 Y109.945 F7200
G1 X176.940 Y106.088 E74.1361 F3000
G0 X176.292 Y106.170 F7200
G1 X173.148 Y109.313 E74.2840 F3000
G0 X173.404 Y108.492 F7200
G1 X175.456 Y106.440 E74.3805 F3000
G0 X182.118 Y113.920 F7200
G1 X189.950 Y106.088 E74.7489 F3000
G0 X190.516 Y106.088 F7200
G1 X184.315 Y112.289 E75.0406 F3000
G0 X188.980 Y110.453 F7200
G1 X193.344 Y106.088 E75.2459 F3000
G0 X192.779 Y106.088 F7200
G1 X188.219 Y110.648 E75.4604 F3000
G0 X187.458 Y110.843 F7200
G1 X192.213 Y106.088 E75.6841 F3000
G0 X191.647 Y106.088 F7200
G1 X186.533 Y111.202 E75.9246 F3000
G0 X185.572 Y111.597 F7200
G1 X191.082 Y106.088 E76.1838 F3000
;segType:Pillar
G0 E75.1838
G0 F1200 Z1.400
G0 X202.000 Y82.027 F7200
G0 F1200 Z0.400
G0 F3000 E76.1838
G1 X182.000 Y82.027 E76.9155 F3000
G1 X182.000 Y102.027 E77.6472
G1 X202.000 Y102.027 E78.3789
G1 X201.600 Y82.427 E79.0962
G1 X182.400 Y82.427 E79.7986
G1 X182.400 Y101.627 E80.5011
G1 X201.600 Y101.627 E81.2035
G1 X201.200 Y82.827 E81.8915
G1 X182.800 Y82.827 E82.5647
G1 X182.800 Y101.227 E83.2379
G1 X201.200 Y101.227 E83.9111
G1 X200.800 Y83.227 E84.5698
G1 X183.200 Y83.227 E85.2137
G1 X183.200 Y100.827 E85.8576
G1 X200.800 Y100.827 E86.5015
G1 X200.400 Y83.627 E87.1310
G1 X183.600 Y83.627 E87.7456
G1 X183.600 Y100.427 E88.3603
G1 X200.400 Y100.427 E88.9749
G1 X200.000 Y84.027 E89.5751
G1 X184.000 Y84.027 E90.1605
G1 X184.000 Y100.027 E90.7459
G1 X200.000 Y100.027 E91.3312
G1 X199.600 Y84.427 E91.9022
G1 X184.400 Y84.427 E92.4583
G1 X184.400 Y99.627 E93.0144
G1 X199.600 Y99.627 E93.5705
G1 X199.200 Y84.827 E94.1122
G1 X184.800 Y84.827 E94.6390
G1 X184.800 Y99.227 E95.1659
G1 X199.200 Y99.227 E95.6927
G1 X198.800 Y85.227 E96.2051
G1 X185.200 Y85.227 E96.7027
G1 X185.200 Y98.827 E97.2003
G1 X198.800 Y98.827 E97.6978
G1 X198.400 Y85.627 E98.1810
G1 X185.600 Y85.627 E98.6493
G1 X185.600 Y98.427 E99.1176
G1 X198.400 Y98.427 E99.5859
G1 X198.000 Y86.027 E100.0398
G1 X186.000 Y86.027 E100.4788
G1 X186.000 Y98.027 E100.9179
G1 X198.000 Y98.027 E101.3569
G1 X197.600 Y86.427 E101.7815
G1 X186.400 Y86.427 E102.1913
G1 X186.400 Y97.627 E102.6011
G1 X197.600 Y97.627 E103.0108
G1 X197.200 Y86.827 E103.4062
G1 X186.800 Y86.827 E103.7867
G1 X186.800 Y97.227 E104.1672
G1 X197.200 Y97.227 E104.5477
G1 X196.800 Y87.227 E104.9139
G1 X187.200 Y87.227 E105.2651
G1 X187.200 Y96.827 E105.6163
G1 X196.800 Y96.827 E105.9676
G1 X196.400 Y87.627 E106.3045
G1 X187.600 Y87.627 E106.6264
G1 X187.600 Y96.427 E106.9484
G1 X196.400 Y96.427 E107.2704
G1 X196.000 Y88.027 E107.5780
G1 X188.000 Y88.027 E107.8707
G1 X188.000 Y96.027 E108.1634
G1 X196.000 Y96.027 E108.4561
G1 X195.600 Y88.427 E108.7345
G1 X188.400 Y88.427 E108.9980
G1 X188.400 Y95.627 E109.2614
G1 X195.600 Y95.627 E109.5248
G1 X195.200 Y88.827 E109.7740
G1 X188.800 Y88.827 E110.0082
G1 X188.800 Y95.227 E110.2423
G1 X195.200 Y95.227 E110.4765
G1 X194.800 Y89.227 E110.6965
G1 X189.200 Y89.227 E110.9014
G1 X189.200 Y94.827 E111.1062
G1 X194.800 Y94.827 E111.3111
G1 X194.400 Y89.627 E111.5019
G1 X189.600 Y89.627 E111.6775
G1 X189.600 Y94.427 E111.8531
G1 X194.400 Y94.427 E112.0288
G1 X194.000 Y90.027 E112.1904
G1 X190.000 Y90.027 E112.3368
G1 X190.000 Y94.027 E112.4831
G1 X194.000 Y94.027 E112.6294
G1 X193.600 Y90.427 E112.7620
G1 X190.400 Y90.427 E112.8790
G1 X190.400 Y93.627 E112.9961
G1 X193.600 Y93.627 E113.1132
G1 X193.200 Y90.827 E113.2167
G1 X190.800 Y90.827 E113.3045
G1 X190.800 Y93.227 E113.3923
G1 X193.200 Y93.227 E113.4801
G1 X192.800 Y91.227 E113.5547
G1 X191.200 Y91.227 E113.6133
G1 X191.200 Y92.827 E113.6718
G1 X192.800 Y92.827 E113.7303
G1 X192.400 Y91.627 E113.7766
G1 X191.600 Y91.627 E113.8059
G1 X191.600 Y92.427 E113.8352
G1 X192.400 Y92.427 E113.8644
; ------------------------------------
; Layer #2
; ------------------------------------
M106 S0 T0 ;turn off fan 1
G92 E0 ;reset extr
;segType:HShell
G0 F3000 E-1.0000
G0 F1200 Z1.600
G0 X207.387 Y105.988 F7200
G0 F1200 Z0.600
G0 F3000 E0.0000
G1 X210.991 Y109.592 E0.1695 F3000
G0 X210.407 Y107.876 F7200
G1 X209.088 Y106.558 E0.2316 F3000
G0 X208.096 Y106.131 F7200
G1 X210.860 Y108.895 E0.3616 F3000
;segType:Perimeter
G0 X211.258 Y108.331 F7200
G1 X211.694 Y109.002 E0.3882 F1799
G1 X211.800 Y110.011 E0.4219
G1 X211.800 Y139.989 E1.4190
G1 X211.694 Y140.998 E1.4527
G1 X211.384 Y141.952 E1.4861
G1 X210.882 Y142.821 E1.5195
G1 X210.211 Y143.566 E1.5528
G1 X209.399 Y144.156 E1.5862
G1 X208.483 Y144.564 E1.6195
G1 X207.502 Y144.772 E1.6529
G1 X176.498 Y144.772 E2.6841
G1 X175.517 Y144.564 E2.7175
G1 X174.601 Y144.156 E2.7508
G1 X173.789 Y143.566 E2.7842
G1 X173.118 Y142.821 E2.8175
G1 X172.616 Y141.952 E2.8509
G1 X172.306 Y140.998 E2.8843
G1 X172.200 Y139.989 E2.9180
G1 X172.200 Y110.011 E3.9151
G1 X172.306 Y109.002 E3.9488
G1 X172.616 Y108.048 E3.9822
G1 X173.118 Y107.180 E4.0155
G1 X173.789 Y106.434 E4.0489
G1 X174.601 Y105.844 E4.0823
G1 X175.517 Y105.436 E4.1156
G1 X176.499 Y105.228 E4.1490
G1 X207.502 Y105.228 E5.1802
G1 X208.483 Y105.436 E5.2135
G1 X209.399 Y105.844 E5.2469
G1 X210.211 Y106.434 E5.2803
G1 X210.882 Y107.180 E5.3136
G1 X211.384 Y108.048 E5.3470
G1 X211.694 Y109.002 E5.3804
G0 X211.568 Y109.792 F7200
;segType:Loop
G0 X211.400 Y110.132
G1 X211.400 Y139.969 E6.3727 F3000
G1 X211.300 Y140.914 E6.4044
G1 X211.016 Y141.788 E6.4349
G1 X210.557 Y142.584 E6.4655
G1 X209.942 Y143.267 E6.4961
G1 X209.198 Y143.807 E6.5266
G1 X208.359 Y144.181 E6.5572
G1 X207.460 Y144.372 E6.5878
G1 X176.541 Y144.372 E7.6162
G1 X175.641 Y144.181 E7.6467
G1 X174.802 Y143.807 E7.6773
G1 X174.058 Y143.267 E7.7079
G1 X173.443 Y142.584 E7.7384
G1 X172.984 Y141.788 E7.7690
G1 X172.700 Y140.914 E7.7996
G1 X172.600 Y139.968 E7.8312
G1 X172.600 Y110.032 E8.8269
G1 X172.700 Y109.086 E8.8585
G1 X172.984 Y108.212 E8.8891
G1 X173.443 Y107.416 E8.9197
G1 X174.058 Y106.733 E8.9502
G1 X174.802 Y106.193 E8.9808
G1 X175.641 Y105.819 E9.0114
G1 X176.541 Y105.628 E9.0419
G1 X207.460 Y105.628 E10.0703
G1 X208.359 Y105.819 E10.1009
G1 X209.198 Y106.193 E10.1314
G1 X209.942 Y106.733 E10.1620
G1 X210.557 Y107.416 E10.1926
G1 X211.016 Y108.212 E10.2231
G1 X211.300 Y109.086 E10.2537
G1 X211.389 Y109.932 E10.2820
;segType:HShell
G0 X190.215 Y110.312 F7200
G1 X185.891 Y105.988 E10.4854 F3000
G0 X185.325 Y105.988 F7200
G1 X189.713 Y110.376 E10.6918 F3000
;segType:Perimeter
G0 X190.324 Y110.856 F7200
G1 X191.116 Y110.965 E10.7184 F1799
G1 X192.884 Y110.965 E10.7772
G1 X194.629 Y111.185 E10.8357
G1 X196.343 Y111.624 E10.8945
G1 X197.985 Y112.274 E10.9533
G1 X199.535 Y113.126 E11.0121
G1 X200.967 Y114.166 E11.0710
G1 X202.252 Y115.373 E11.1296
G1 X203.375 Y116.731 E11.1882
G1 X204.324 Y118.225 E11.2471
G1 X205.076 Y119.823 E11.3058
G1 X205.621 Y121.500 E11.3645
G1 X205.953 Y123.237 E11.4233
G1 X206.063 Y125.000 E11.4821
G1 X205.953 Y126.759 E11.5407
G1 X205.621 Y128.498 E11.5995
G1 X205.076 Y130.177 E11.6583
G1 X204.324 Y131.775 E11.7170
G1 X203.378 Y133.266 E11.7757
G1 X202.252 Y134.627 E11.8345
G1 X200.964 Y135.836 E11.8932
G1 X199.539 Y136.872 E11.9518
G1 X197.985 Y137.726 E12.0108
G1 X196.342 Y138.376 E12.0696
G1 X194.635 Y138.814 E12.1282
G1 X192.887 Y139.035 E12.1868
G1 X191.117 Y139.035 E12.2457
G1 X189.365 Y138.814 E12.3044
G1 X187.655 Y138.375 E12.3631
G1 X186.010 Y137.723 E12.4220
G1 X184.465 Y136.874 E12.4806
G1 X183.036 Y135.836 E12.5394
G1 X181.748 Y134.627 E12.5981
G1 X180.628 Y133.273 E12.6566
G1 X179.680 Y131.782 E12.7153
G1 X178.927 Y130.183 E12.7741
G1 X178.379 Y128.499 E12.8330
G1 X178.048 Y126.765 E12.8917
G1 X177.937 Y125.000 E12.9505
G1 X178.047 Y123.241 E13.0092
G1 X178.377 Y121.507 E13.0679
G1 X178.924 Y119.823 E13.1268
G1 X179.676 Y118.225 E13.1855
G1 X180.621 Y116.736 E13.2441
G1 X181.753 Y115.368 E13.3032
G1 X183.036 Y114.164 E13.3617
G1 X184.458 Y113.131 E13.4202
G1 X186.012 Y112.276 E13.4792
G1 X187.658 Y111.624 E13.5381
G1 X189.365 Y111.186 E13.5967
G1 X191.116 Y110.965 E13.6554
G0 X191.889 Y110.757 F7200
;segType:Loop
G0 X192.216 Y110.565
G1 X192.909 Y110.565 E13.6784 F3000
G1 X194.704 Y110.791 E13.7386
G1 X196.467 Y111.243 E13.7991
G1 X198.156 Y111.912 E13.8596
G1 X199.750 Y112.787 E13.9201
G1 X201.222 Y113.857 E13.9806
G1 X202.544 Y115.099 E14.0409
G1 X203.699 Y116.495 E14.1012
G1 X204.675 Y118.032 E14.1617
G1 X205.449 Y119.676 E14.2221
G1 X206.009 Y121.400 E14.2825
G1 X206.350 Y123.187 E14.3430
G1 X206.464 Y125.000 E14.4034
G1 X206.350 Y126.810 E14.4637
G1 X206.010 Y128.598 E14.5242
G1 X205.448 Y130.325 E14.5846
G1 X204.675 Y131.968 E14.6450
G1 X203.702 Y133.501 E14.7054
G1 X202.544 Y134.901 E14.7659
G1 X201.220 Y136.145 E14.8263
G1 X199.753 Y137.210 E14.8866
G1 X198.155 Y138.089 E14.9472
G1 X196.466 Y138.757 E15.0076
G1 X194.710 Y139.208 E15.0679
G1 X192.912 Y139.435 E15.1282
G1 X191.092 Y139.436 E15.1888
G1 X189.290 Y139.208 E15.2492
G1 X187.531 Y138.756 E15.3096
G1 X185.839 Y138.086 E15.3701
G1 X184.250 Y137.213 E15.4304
G1 X182.780 Y136.145 E15.4908
G1 X181.456 Y134.901 E15.5513
G1 X180.304 Y133.508 E15.6114
G1 X179.329 Y131.975 E15.6718
G1 X178.554 Y130.330 E15.7323
G1 X177.991 Y128.599 E15.7928
G1 X177.650 Y126.815 E15.8532
G1 X177.536 Y125.000 E15.9137
G1 X177.650 Y123.191 E15.9740
G1 X177.989 Y121.408 E16.0344
G1 X178.551 Y119.675 E16.0950
G1 X179.325 Y118.032 E16.1554
G1 X180.297 Y116.501 E16.2157
G1 X181.461 Y115.094 E16.2764
G1 X182.780 Y113.855 E16.3366
G1 X184.243 Y112.792 E16.3968
G1 X185.841 Y111.913 E16.4574
G1 X187.534 Y111.243 E16.5180
G1 X189.290 Y110.792 E16.5783
G1 X191.091 Y110.565 E16.6387
G1 X192.016 Y110.565 E16.6694
;segType:HShell
G0 X190.717 Y110.249 F7200
G1 X186.457 Y105.988 E16.8699 F3000
G0 X187.022 Y105.988 F7200
G1 X191.239 Y110.204 E17.0682 F3000
G0 X191.804 Y110.204 F7200
G1 X187.588 Y105.988 E17.2665 F3000
G0 X188.154 Y105.988 F7200
G1 X192.370 Y110.204 E17.4648 F3000
G0 X192.936 Y110.205 F7200
G1 X188.719 Y105.988 E17.6632 F3000
G0 X189.285 Y105.988 F7200
G1 X193.584 Y110.287 E17.8654 F3000
G0 X194.231 Y110.369 F7200
G1 X189.851 Y105.988 E18.0715 F3000
G0 X190.416 Y105.988 F7200
G1 X194.897 Y110.469 E18.2822 F3000
G0 X195.658 Y110.664 F7200
G1 X190.982 Y105.988 E18.5022 F3000
G0 X191.548 Y105.988 F7200
G1 X196.419 Y110.859 E18.7313 F3000
G0 X197.318 Y111.193 F7200
G1 X192.113 Y105.988 E18.9761 F3000
G0 X192.679 Y105.988 F7200
G1 X198.254 Y111.563 E19.2383 F3000
G0 X199.491 Y112.234 F7200
G1 X193.245 Y105.988 E19.5321 F3000
G0 X193.810 Y105.988 F7200
G1 X201.268 Y113.445 E19.8829 F3000
G0 X203.443 Y115.621 F7200
G1 X211.039 Y123.217 E20.2402 F3000
G0 X211.039 Y122.651 F7200
G1 X194.376 Y105.988 E21.0240 F3000
G0 X194.942 Y105.988 F7200
G1 X211.039 Y122.086 E21.7812 F3000
G0 X211.039 Y121.520 F7200
G1 X195.508 Y105.988 E22.5117 F3000
G0 X196.073 Y105.988 F7200
G1 X211.039 Y120.954 E23.2157 F3000
G0 X211.039 Y120.389 F7200
G1 X196.639 Y105.988 E23.8931 F3000
G0 X197.205 Y105.988 F7200
G1 X211.039 Y119.823 E24.5438 F3000
G0 X211.039 Y119.257 F7200
G1 X197.770 Y105.988 E25.1680 F3000
G0 X198.336 Y105.988 F7200
G1 X211.039 Y118.692 E25.7655 F3000
G0 X211.039 Y118.126 F7200
G1 X198.902 Y105.988 E26.3364 F3000
G0 X199.467 Y105.988 F7200
G1 X211.039 Y117.560 E26.8807 F3000
G0 X211.039 Y116.994 F7200
G1 X200.033 Y105.988 E27.3985 F3000
G0 X200.599 Y105.988 F7200
G1 X211.039 Y116.429 E27.8896 F3000
G0 X211.039 Y115.863 F7200
G1 X201.164 Y105.988 E28.3541 F3000
G0 X201.730 Y105.988 F7200
G1 X211.039 Y115.297 E28.7919 F3000
G0 X211.039 Y114.732 F7200
G1 X202.296 Y105.988 E29.2032 F3000
G0 X202.861 Y105.988 F7200
G1 X211.039 Y114.166 E29.5879 F3000
G0 X211.039 Y113.600 F7200
G1 X203.427 Y105.988 E29.9460 F3000
G0 X203.993 Y105.988 F7200
G1 X211.039 Y113.035 E30.2774 F3000
G0 X211.039 Y112.469 F7200
G1 X204.558 Y105.988 E30.5823 F3000
G0 X205.124 Y105.988 F7200
G1 X211.039 Y111.903 E30.8605 F3000
G0 X211.039 Y111.338 F7200
G1 X205.690 Y105.988 E31.1121 F3000
G0 X206.256 Y105.988 F7200
G1 X211.039 Y110.772 E31.3371 F3000
G0 X211.039 Y110.206 F7200
G1 X206.821 Y105.988 E31.5356 F3000
G0 X204.776 Y117.519 F7200
G1 X211.039 Y123.783 E31.8302 F3000
G0 X211.039 Y124.348 F7200
G1 X205.384 Y118.693 E32.0962 F3000
G0 X205.840 Y119.714 F7200
G1 X211.039 Y124.914 E32.3407 F3000
G0 X211.039 Y125.480 F7200
G1 X206.112 Y120.552 E32.5725 F3000
G0 X206.371 Y121.377 F7200
G1 X211.039 Y126.045 E32.7921 F3000
G0 X211.039 Y126.611 F7200
G1 X206.505 Y122.076 E33.0054 F3000
G0 X206.638 Y122.776 F7200
G1 X211.039 Y127.177 E33.2124 F3000
G0 X211.039 Y127.742 F7200
G1 X206.726 Y123.429 E33.4153 F3000
G0 X206.764 Y124.033 F7200
G1 X211.039 Y128.308 E33.6164 F3000
G0 X211.039 Y128.874 F7200
G1 X206.802 Y124.636 E33.8157 F3000
G0 X206.812 Y125.212 F7200
G1 X211.039 Y129.440 E34.0146 F3000
G0 X211.039 Y130.005 F7200
G1 X206.778 Y125.744 E34.2150 F3000
G0 X206.745 Y126.276 F7200
G1 X211.039 Y130.571 E34.4170 F3000
G0 X211.039 Y131.137 F7200
G1 X206.711 Y126.808 E34.6206 F3000
G0 X206.626 Y127.289 F7200
G1 X211.039 Y131.702 E34.8282 F3000
G0 X211.039 Y132.268 F7200
G1 X206.535 Y127.764 E35.0401 F3000
G0 X206.445 Y128.239 F7200
G1 X211.039 Y132.834 E35.2562 F3000
G0 X211.039 Y133.399 F7200
G1 X206.351 Y128.711 E35.4767 F3000
G0 X206.213 Y129.138 F7200
G1 X211.039 Y133.965 E35.7038 F3000
G0 X211.039 Y134.531 F7200
G1 X206.074 Y129.565 E35.9373 F3000
G0 X205.935 Y129.992 F7200
G1 X211.039 Y135.096 E36.1774 F3000
G0 X211.039 Y135.662 F7200
G1 X205.796 Y130.419 E36.4240 F3000
G0 X205.619 Y130.808 F7200
G1 X211.039 Y136.228 E36.6790 F3000
G0 X211.039 Y136.793 F7200
G1 X205.438 Y131.192 E36.9424 F3000
G0 X205.257 Y131.577 F7200
G1 X211.039 Y137.359 E37.2144 F3000
G0 X211.039 Y137.925 F7200
G1 X205.076 Y131.962 E37.4949 F3000
G0 X204.875 Y132.326 F7200
G1 X211.039 Y138.491 E37.7849 F3000
G0 X211.039 Y139.056 F7200
G1 X204.655 Y132.672 E38.0852 F3000
G0 X204.435 Y133.018 F7200
G1 X211.039 Y139.622 E38.3958 F3000
G0 X211.017 Y140.165 F7200
G1 X204.216 Y133.364 E38.7157 F3000
G0 X203.996 Y133.710 F7200
G1 X210.963 Y140.677 E39.0434 F3000
G0 X210.851 Y141.131 F7200
G1 X203.740 Y134.020 E39.3779 F3000
G0 X203.484 Y134.329 F7200
G1 X210.713 Y141.558 E39.7179 F3000
G0 X210.519 Y141.930 F7200
G1 X203.228 Y134.639 E40.0608 F3000
G0 X202.972 Y134.949 F7200
G1 X210.312 Y142.288 E40.4061 F3000
G0 X210.058 Y142.600 F7200
G1 X202.703 Y135.246 E40.7520 F3000
G0 X202.412 Y135.520 F7200
G1 X209.790 Y142.898 E41.0990 F3000
G0 X209.482 Y143.156 F7200
G1 X202.120 Y135.794 E41.4453 F3000
G0 X201.828 Y136.067 F7200
G1 X209.155 Y143.394 E41.7899 F3000
G0 X208.790 Y143.595 F7200
G1 X201.536 Y136.341 E42.1311 F3000
G0 X201.219 Y136.590 F7200
G1 X208.398 Y143.769 E42.4688 F3000
G0 X207.961 Y143.897 F7200
G1 X200.892 Y136.828 E42.8013 F3000
G0 X200.564 Y137.066 F7200
G1 X207.495 Y143.997 E43.1273 F3000
G0 X206.944 Y144.012 F7200
G1 X200.237 Y137.304 E43.4428 F3000
G0 X199.905 Y137.538 F7200
G1 X206.379 Y144.012 E43.7473 F3000
G0 X205.813 Y144.012 F7200
G1 X199.540 Y137.739 E44.0424 F3000
G0 X199.175 Y137.939 F7200
G1 X205.247 Y144.012 E44.3280 F3000
G0 X204.682 Y144.012 F7200
G1 X198.810 Y138.140 E44.6042 F3000
G0 X198.445 Y138.341 F7200
G1 X204.116 Y144.012 E44.8710 F3000
G0 X203.550 Y144.012 F7200
G1 X198.054 Y138.516 E45.1295 F3000
G0 X197.649 Y138.676 F7200
G1 X202.985 Y144.012 E45.3805 F3000
G0 X202.419 Y144.012 F7200
G1 X197.244 Y138.837 E45.6239 F3000
G0 X196.838 Y138.997 F7200
G1 X201.853 Y144.012 E45.8598 F3000
G0 X201.287 Y144.012 F7200
G1 X196.417 Y139.142 E46.0889 F3000
G0 X195.967 Y139.257 F7200
G1 X200.722 Y144.012 E46.3126 F3000
G0 X200.156 Y144.012 F7200
G1 X195.517 Y139.373 E46.5308 F3000
G0 X195.067 Y139.488 F7200
G1 X199.590 Y144.012 E46.7436 F3000
G0 X199.025 Y144.012 F7200
G1 X194.598 Y139.585 E46.9518 F3000
G0 X194.096 Y139.649 F7200
G1 X198.459 Y144.012 E47.1570 F3000
G0 X197.893 Y144.012 F7200
G1 X193.593 Y139.712 E47.3593 F3000
G0 X193.091 Y139.775 F7200
G1 X197.328 Y144.012 E47.5586 F3000
G0 X196.762 Y144.012 F7200
G1 X192.545 Y139.795 E47.7569 F3000
G0 X191.980 Y139.795 F7200
G1 X196.196 Y144.012 E47.9553 F3000
G0 X195.631 Y144.012 F7200
G1 X191.414 Y139.796 E48.1536 F3000
G0 X190.817 Y139.764 F7200
G1 X195.065 Y144.012 E48.3534 F3000
G0 X194.499 Y144.012 F7200
G1 X190.169 Y139.682 E48.5571 F3000
G0 X189.522 Y139.600 F7200
G1 X193.934 Y144.012 E48.7646 F3000
G0 X193.368 Y144.012 F7200
G1 X188.813 Y139.457 E48.9788 F3000
G0 X188.052 Y139.262 F7200
G1 X192.802 Y144.012 E49.2023 F3000
G0 X192.237 Y144.012 F7200
G1 X187.262 Y139.037 E49.4363 F3000
G0 X186.325 Y138.666 F7200
G1 X191.671 Y144.012 E49.6878 F3000
G0 X191.105 Y144.012 F7200
G1 X185.286 Y138.193 E49.9615 F3000
G0 X184.013 Y137.486 F7200
G1 X190.539 Y144.012 E50.2684 F3000
G0 X189.974 Y144.012 F7200
G1 X172.961 Y126.999 E51.0687 F3000
G0 X172.961 Y127.564 F7200
G1 X189.408 Y144.012 E51.8423 F3000
G0 X188.842 Y144.012 F7200
G1 X172.961 Y128.130 E52.5893 F3000
G0 X172.961 Y128.696 F7200
G1 X188.277 Y144.012 E53.3098 F3000
G0 X187.711 Y144.012 F7200
G1 X172.961 Y129.262 E54.0036 F3000
G0 X172.961 Y129.827 F7200
G1 X187.145 Y144.012 E54.6708 F3000
G0 X186.580 Y144.012 F7200
G1 X172.961 Y130.393 E55.3114 F3000
G0 X172.961 Y130.959 F7200
G1 X186.014 Y144.012 E55.9254 F3000
G0 X185.448 Y144.012 F7200
G1 X172.961 Y131.524 E56.5128 F3000
G0 X172.961 Y132.090 F7200
G1 X184.883 Y144.012 E57.0736 F3000
G0 X184.317 Y144.012 F7200
G1 X172.961 Y132.656 E57.6077 F3000
G0 X172.961 Y133.221 F7200
G1 X183.751 Y144.012 E58.1153 F3000
G0 X183.186 Y144.012 F7200
G1 X172.961 Y133.787 E58.5962 F3000
G0 X172.961 Y134.353 F7200
G1 X182.620 Y144.012 E59.0506 F3000
G0 X182.054 Y144.012 F7200
G1 X172.961 Y134.918 E59.4783 F3000
G0 X172.961 Y135.484 F7200
G1 X181.488 Y144.012 E59.8794 F3000
G0 X180.923 Y144.012 F7200
G1 X172.961 Y136.050 E60.2540 F3000
G0 X172.961 Y136.615 F7200
G1 X180.357 Y144.012 E60.6019 F3000
G0 X179.791 Y144.012 F7200
G1 X172.961 Y137.181 E60.9232 F3000
G0 X172.961 Y137.747 F7200
G1 X179.226 Y144.012 E61.2179 F3000
G0 X178.660 Y144.012 F7200
G1 X172.961 Y138.313 E61.4860 F3000
G0 X172.961 Y138.878 F7200
G1 X178.094 Y144.012 E61.7274 F3000
G0 X177.529 Y144.012 F7200
G1 X172.961 Y139.444 E61.9423 F3000
G0 X172.968 Y140.017 F7200
G1 X176.963 Y144.012 E62.1302 F3000
G0 X176.348 Y143.963 F7200
G1 X173.034 Y140.649 E62.2861 F3000
G0 X173.244 Y141.425 F7200
G1 X175.578 Y143.759 E62.3959 F3000
G0 X179.600 Y133.073 F7200
G1 X172.961 Y126.433 E62.7083 F3000
G0 X172.961 Y125.867 F7200
G1 X178.809 Y131.716 E62.9834 F3000
G0 X178.305 Y130.646 F7200
G1 X172.961 Y125.302 E63.2347 F3000
G0 X172.961 Y124.736 F7200
G1 X177.993 Y129.768 E63.4714 F3000
G0 X177.720 Y128.930 F7200
G1 X172.961 Y124.170 E63.6953 F3000
G0 X172.961 Y123.605 F7200
G1 X177.546 Y128.190 E63.9110 F3000
G0 X177.413 Y127.491 F7200
G1 X172.961 Y123.039 E64.1204 F3000
G0 X172.961 Y122.473 F7200
G1 X177.289 Y126.801 E64.3240 F3000
G0 X177.251 Y126.198 F7200
G1 X172.961 Y121.908 E64.5258 F3000
G0 X172.961 Y121.342 F7200
G1 X177.213 Y125.594 E64.7258 F3000
G0 X177.176 Y124.991 F7200
G1 X172.961 Y120.776 E64.9240 F3000
G0 X172.961 Y120.211 F7200
G1 X177.209 Y124.459 E65.1239 F3000
G0 X177.242 Y123.927 F7200
G1 X172.961 Y119.645 E65.3253 F3000
G0 X172.961 Y119.079 F7200
G1 X177.276 Y123.395 E65.5283 F3000
G0 X177.340 Y122.893 F7200
G1 X172.961 Y118.514 E65.7342 F3000
G0 X172.961 Y117.948 F7200
G1 X177.430 Y122.418 E65.9445 F3000
G0 X177.521 Y121.942 F7200
G1 X172.961 Y117.382 E66.1590 F3000
G0 X172.961 Y116.816 F7200
G1 X177.611 Y121.467 E66.3777 F3000
G0 X177.735 Y121.025 F7200
G1 X172.961 Y116.251 E66.6023 F3000
G0 X172.961 Y115.685 F7200
G1 X177.873 Y120.598 E66.8334 F3000
G0 X178.012 Y120.171 F7200
G1 X172.961 Y115.119 E67.0710 F3000
G0 X172.961 Y114.554 F7200
G1 X178.151 Y119.744 E67.3151 F3000
G0 X178.312 Y119.339 F7200
G1 X172.961 Y113.988 E67.5668 F3000
G0 X172.961 Y113.422 F7200
G1 X178.493 Y118.955 E67.8271 F3000
G0 X178.674 Y118.570 F7200
G1 X172.961 Y112.857 E68.0958 F3000
G0 X172.961 Y112.291 F7200
G1 X178.855 Y118.185 E68.3730 F3000
G0 X179.042 Y117.806 F7200
G1 X172.961 Y111.725 E68.6591 F3000
G0 X172.961 Y111.160 F7200
G1 X179.261 Y117.460 E68.9554 F3000
G0 X179.481 Y117.114 F7200
G1 X172.961 Y110.594 E69.2621 F3000
G0 X172.963 Y110.030 F7200
G1 X179.700 Y116.768 E69.5790 F3000
G0 X179.920 Y116.422 F7200
G1 X173.016 Y109.518 E69.9038 F3000
G0 X173.096 Y109.032 F7200
G1 X180.162 Y116.098 E70.2362 F3000
G0 X180.418 Y115.789 F7200
G1 X173.235 Y108.605 E70.5741 F3000
G0 X173.402 Y108.207 F7200
G1 X180.675 Y115.479 E70.9161 F3000
G0 X180.931 Y115.170 F7200
G1 X173.609 Y107.849 E71.2605 F3000
G0 X173.840 Y107.514 F7200
G1 X181.187 Y114.860 E71.6061 F3000
G0 X181.477 Y114.585 F7200
G1 X174.108 Y107.216 E71.9527 F3000
G0 X174.393 Y106.935 F7200
G1 X181.769 Y114.311 E72.2996 F3000
G0 X182.061 Y114.037 F7200
G1 X174.720 Y106.697 E72.6449 F3000
G0 X175.061 Y106.472 F7200
G1 X182.352 Y113.763 E72.9879 F3000
G0 X182.656 Y113.501 F7200
G1 X175.452 Y106.297 E73.3267 F3000
G0 X175.861 Y106.140 F7200
G1 X182.983 Y113.263 E73.6617 F3000
G0 X183.311 Y113.025 F7200
G1 X176.327 Y106.041 E73.9902 F3000
G0 X176.840 Y105.988 F7200
G1 X183.638 Y112.787 E74.3100 F3000
G0 X183.966 Y112.548 F7200
G1 X177.406 Y105.988 E74.6185 F3000
G0 X177.971 Y105.988 F7200
G1 X184.321 Y112.338 E74.9172 F3000
G0 X184.686 Y112.137 F7200
G1 X178.537 Y105.988 E75.2065 F3000
G0 X179.103 Y105.988 F7200
G1 X185.051 Y111.936 E75.4863 F3000
G0 X185.416 Y111.736 F7200
G1 X179.668 Y105.988 E75.7566 F3000
G0 X180.234 Y105.988 F7200
G1 X185.791 Y111.545 E76.0180 F3000
G0 X186.197 Y111.385 F7200
G1 X180.800 Y105.988 E76.2719 F3000
G0 X181.365 Y105.988 F7200
G1 X186.602 Y111.224 E76.5182 F3000
G0 X187.007 Y111.064 F7200
G1 X181.931 Y105.988 E76.7570 F3000
G0 X182.497 Y105.988 F7200
G1 X187.412 Y110.904 E76.9882 F3000
G0 X187.861 Y110.787 F7200
G1 X183.062 Y105.988 E77.2139 F3000
G0 X183.628 Y105.988 F7200
G1 X188.312 Y110.671 E77.4342 F3000
G0 X188.762 Y110.556 F7200
G1 X184.194 Y105.988 E77.6491 F3000
G0 X184.759 Y105.988 F7200
G1 X189.212 Y110.440 E77.8585 F3000
;segType:Pillar
G0 E76.8585
G0 F1200 Z1.600
G0 X202.000 Y82.027 F7200
G0 F1200 Z0.600
G0 F3000 E77.8585
G1 X182.000 Y82.027 E78.5902 F3000
G1 X182.000 Y102.027 E79.3219
G1 X202.000 Y102.027 E80.0537
G1 X201.600 Y82.427 E80.7709
G1 X182.400 Y82.427 E81.4733
G1 X182.400 Y101.627 E82.1758
G1 X201.600 Y101.627 E82.8783
G1 X201.200 Y82.827 E83.5662
G1 X182.800 Y82.827 E84.2394
G1 X182.800 Y101.227 E84.9126
G1 X201.200 Y101.227 E85.5858
G1 X200.800 Y83.227 E86.2445
G1 X183.200 Y83.227 E86.8884
G1 X183.200 Y100.827 E87.5323
G1 X200.800 Y100.827 E88.1762
G1 X200.400 Y83.627 E88.8057
G1 X183.600 Y83.627 E89.4203
G1 X183.600 Y100.427 E90.0350
G1 X200.400 Y100.427 E90.6496
G1 X200.000 Y84.027 E91.2498
G1 X184.000 Y84.027 E91.8352
G1 X184.000 Y100.027 E92.4206
G1 X200.000 Y100.027 E93.0060
G1 X199.600 Y84.427 E93.5769
G1 X184.400 Y84.427 E94.1330
G1 X184.400 Y99.627 E94.6891
G1 X199.600 Y99.627 E95.2452
G1 X199.200 Y84.827 E95.7869
G1 X184.800 Y84.827 E96.3137
G1 X184.800 Y99.227 E96.8406
G1 X199.200 Y99.227 E97.3674
G1 X198.800 Y85.227 E97.8798
G1 X185.200 Y85.227 E98.3774
G1 X185.200 Y98.827 E98.8750
G1 X198.800 Y98.827 E99.3725
G1 X198.400 Y85.627 E99.8557
G1 X185.600 Y85.627 E100.3240
G1 X185.600 Y98.427 E100.7923
G1 X198.400 Y98.427 E101.2606
G1 X198.000 Y86.027 E101.7145
G1 X186.000 Y86.027 E102.1535
G1 X186.000 Y98.027 E102.5926
G1 X198.000 Y98.027 E103.0316
G1 X197.600 Y86.427 E103.4563
G1 X186.400 Y86.427 E103.8660
G1 X186.400 Y97.627 E104.2758
G1 X197.600 Y97.627 E104.6856
G1 X197.200 Y86.827 E105.0810
G1 X186.800 Y86.827 E105.4615
G1 X186.800 Y97.227 E105.8420
G1 X197.200 Y97.227 E106.2224
G1 X196.800 Y87.227 E106.5886
G1 X187.200 Y87.227 E106.9398
G1 X187.200 Y96.827 E107.2911
G1 X196.800 Y96.827 E107.6423
G1 X196.400 Y87.627 E107.9792
G1 X187.600 Y87.627 E108.3012
G1 X187.600 Y96.427 E108.6231
G1 X196.400 Y96.427 E108.9451
G1 X196.000 Y88.027 E109.2528
G1 X188.000 Y88.027 E109.5454
G1 X188.000 Y96.027 E109.8381
G1 X196.000 Y96.027 E110.1308
G1 X195.600 Y88.427 E110.4093
G1 X188.400 Y88.427 E110.6727
G1 X188.400 Y95.627 E110.9361
G1 X195.600 Y95.627 E111.1995
G1 X195.200 Y88.827 E111.4487
G1 X188.800 Y88.827 E111.6829
G1 X188.800 Y95.227 E111.9170
G1 X195.200 Y95.227 E112.1512
G1 X194.800 Y89.227 E112.3712
G1 X189.200 Y89.227 E112.5761
G1 X189.200 Y94.827 E112.7810
G1 X194.800 Y94.827 E112.9858
G1 X194.400 Y89.627 E113.1766
G1 X189.600 Y89.627 E113.3523
G1 X189.600 Y94.427 E113.5279
G1 X194.400 Y94.427 E113.7035
G1 X194.000 Y90.027 E113.8651
G1 X190.000 Y90.027 E114.0115
G1 X190.000 Y94.027 E114.1578
G1 X194.000 Y94.027 E114.3042
G1 X193.600 Y90.427 E114.4367
G1 X190.400 Y90.427 E114.5538
G1 X190.400 Y93.627 E114.6708
G1 X193.600 Y93.627 E114.7879
G1 X193.200 Y90.827 E114.8914
G1 X190.800 Y90.827 E114.9792
G1 X190.800 Y93.227 E115.0670
G1 X193.200 Y93.227 E115.1548
G1 X192.800 Y91.227 E115.2294
G1 X191.200 Y91.227 E115.2880
G1 X191.200 Y92.827 E115.3465
G1 X192.800 Y92.827 E115.4051
G1 X192.400 Y91.627 E115.4513
G1 X191.600 Y91.627 E115.4806
G1 X191.600 Y92.427 E115.5099
G1 X192.400 Y92.427 E115.5391
; ------------------------------------
; Layer #3
; ------------------------------------
M106 S255 T0 ;set fan 1 speed
G92 E0 ;reset extr
;segType:HShell
G0 F3000 E-1.0000
G0 F1200 Z1.800
G0 X203.487 Y115.745 F7200
G0 F1200 Z0.800
G0 F3000 E0.0000
G1 X210.731 Y108.500 E0.3408 F3000
;segType:Perimeter
G0 X211.258 Y108.331 F7200
G1 X211.694 Y109.002 E0.3674 F1799
G1 X211.800 Y110.011 E0.4011
G1 X211.800 Y139.989 E1.3982
G1 X211.694 Y140.998 E1.4319
G1 X211.384 Y141.952 E1.4653
G1 X210.882 Y142.821 E1.4987
G1 X210.211 Y143.566 E1.5320
G1 X209.399 Y144.156 E1.5654
G1 X208.483 Y144.564 E1.5987
G1 X207.502 Y144.772 E1.6321
G1 X176.498 Y144.772 E2.6633
G1 X175.517 Y144.564 E2.6967
G1 X174.601 Y144.156 E2.7300
G1 X173.789 Y143.566 E2.7634
G1 X173.118 Y142.821 E2.7967
G1 X172.616 Y141.952 E2.8301
G1 X172.306 Y140.998 E2.8635
G1 X172.200 Y139.989 E2.8972
G1 X172.200 Y110.011 E3.8943
G1 X172.306 Y109.002 E3.9280
G1 X172.616 Y108.048 E3.9614
G1 X173.118 Y107.180 E3.9947
G1 X173.789 Y106.434 E4.0281
G1 X174.601 Y105.844 E4.0615
G1 X175.517 Y105.436 E4.0948
G1 X176.499 Y105.228 E4.1282
G1 X207.502 Y105.228 E5.1594
G1 X208.483 Y105.436 E5.1927
G1 X209.399 Y105.844 E5.2261
G1 X210.211 Y106.434 E5.2595
G1 X210.882 Y107.180 E5.2928
G1 X211.384 Y108.048 E5.3262
G1 X211.694 Y109.002 E5.3596
G0 X211.568 Y109.792 F7200
;segType:Loop
G0 X211.400 Y110.132
G1 X211.400 Y139.969 E6.3519 F3000
G1 X211.300 Y140.914 E6.3836
G1 X211.016 Y141.788 E6.4141
G1 X210.557 Y142.584 E6.4447
G1 X209.942 Y143.267 E6.4753
G1 X209.198 Y143.807 E6.5058
G1 X208.359 Y144.181 E6.5364
G1 X207.460 Y144.372 E6.5670
G1 X176.541 Y144.372 E7.5954
G1 X175.641 Y144.181 E7.6259
G1 X174.802 Y143.807 E7.6565
G1 X174.058 Y143.267 E7.6871
G1 X173.443 Y142.584 E7.7176
G1 X172.984 Y141.788 E7.7482
G1 X172.700 Y140.914 E7.7788
G1 X172.600 Y139.968 E7.8104
G1 X172.600 Y110.032 E8.8061
G1 X172.700 Y109.086 E8.8377
G1 X172.984 Y108.212 E8.8683
G1 X173.443 Y107.416 E8.8989
G1 X174.058 Y106.733 E8.9294
G1 X174.802 Y106.193 E8.9600
G1 X175.641 Y105.819 E8.9906
G1 X176.541 Y105.628 E9.0211
G1 X207.460 Y105.628 E10.0495
G1 X208.359 Y105.819 E10.0801
G1 X209.198 Y106.193 E10.1106
G1 X209.942 Y106.733 E10.1412
G1 X210.557 Y107.416 E10.1718
G1 X211.016 Y108.212 E10.2023
G1 X211.300 Y109.086 E10.2329
G1 X211.389 Y109.932 E10.2612
;segType:HShell
G0 X189.557 Y110.441 F7200
G1 X194.010 Y105.988 E10.4707 F3000
G0 X194.576 Y105.988 F7200
G1 X190.204 Y110.360 E10.6763 F3000
;segType:Perimeter
G0 X190.327 Y110.902 F7200
G1 X191.119 Y111.010 E10.7029 F1799
G1 X192.881 Y111.010 E10.7615
G1 X194.618 Y111.230 E10.8198
G1 X196.327 Y111.667 E10.8784
G1 X197.965 Y112.315 E10.9370
G1 X199.511 Y113.165 E10.9957
G1 X200.938 Y114.202 E11.0544
G1 X202.218 Y115.404 E11.1128
G1 X203.337 Y116.757 E11.1712
G1 X204.283 Y118.247 E11.2299
G1 X205.033 Y119.840 E11.2884
G1 X205.576 Y121.510 E11.3468
G1 X205.907 Y123.243 E11.4055
G1 X206.017 Y125.000 E11.4641
G1 X205.907 Y126.752 E11.5225
G1 X205.577 Y128.486 E11.5812
G1 X205.033 Y130.160 E11.6397
G1 X204.284 Y131.753 E11.6983
G1 X203.341 Y133.239 E11.7568
G1 X202.218 Y134.596 E11.8154
G1 X200.935 Y135.801 E11.8739
G1 X199.515 Y136.832 E11.9323
G1 X197.964 Y137.685 E11.9912
G1 X196.327 Y138.333 E12.0497
G1 X194.627 Y138.769 E12.1081
G1 X192.885 Y138.989 E12.1665
G1 X191.120 Y138.990 E12.2252
G1 X189.373 Y138.769 E12.2838
G1 X187.669 Y138.332 E12.3423
G1 X186.028 Y137.681 E12.4010
G1 X184.489 Y136.835 E12.4594
G1 X183.065 Y135.801 E12.5180
G1 X181.781 Y134.595 E12.5765
G1 X180.659 Y133.239 E12.6351
G1 X179.716 Y131.753 E12.6936
G1 X178.967 Y130.160 E12.7521
G1 X178.423 Y128.486 E12.8107
G1 X178.094 Y126.760 E12.8691
G1 X177.983 Y125.000 E12.9278
G1 X178.093 Y123.248 E12.9862
G1 X178.423 Y121.514 E13.0449
G1 X178.967 Y119.840 E13.1034
G1 X179.716 Y118.247 E13.1620
G1 X180.657 Y116.764 E13.2204
G1 X181.789 Y115.398 E13.2794
G1 X183.065 Y114.199 E13.3376
G1 X184.480 Y113.171 E13.3958
G1 X186.031 Y112.317 E13.4547
G1 X187.673 Y111.667 E13.5134
G1 X189.373 Y111.231 E13.5718
G1 X191.119 Y111.010 E13.6304
G0 X191.892 Y110.803 F7200
;segType:Loop
G0 X192.219 Y110.610
G1 X192.906 Y110.610 E13.6532 F3000
G1 X194.693 Y110.836 E13.7131
G1 X196.451 Y111.286 E13.7735
G1 X198.135 Y111.953 E13.8337
G1 X199.726 Y112.826 E13.8941
G1 X201.194 Y113.894 E13.9544
G1 X202.510 Y115.130 E14.0145
G1 X203.661 Y116.521 E14.0745
G1 X204.635 Y118.054 E14.1349
G1 X205.406 Y119.692 E14.1952
G1 X205.964 Y121.410 E14.2553
G1 X206.305 Y123.193 E14.3156
G1 X206.418 Y125.000 E14.3758
G1 X206.305 Y126.802 E14.4359
G1 X205.965 Y128.586 E14.4963
G1 X205.406 Y130.308 E14.5565
G1 X204.635 Y131.946 E14.6167
G1 X203.665 Y133.474 E14.6769
G1 X202.510 Y134.870 E14.7372
G1 X201.191 Y136.109 E14.7974
G1 X199.730 Y137.171 E14.8574
G1 X198.135 Y138.048 E14.9180
G1 X196.451 Y138.714 E14.9782
G1 X194.702 Y139.163 E15.0383
G1 X192.910 Y139.389 E15.0983
G1 X191.095 Y139.390 E15.1587
G1 X189.298 Y139.163 E15.2190
G1 X187.545 Y138.713 E15.2792
G1 X185.858 Y138.044 E15.3395
G1 X184.274 Y137.174 E15.3996
G1 X182.809 Y136.109 E15.4598
G1 X181.489 Y134.869 E15.5201
G1 X180.335 Y133.474 E15.5803
G1 X179.365 Y131.946 E15.6405
G1 X178.594 Y130.308 E15.7007
G1 X178.035 Y128.586 E15.7610
G1 X177.696 Y126.810 E15.8211
G1 X177.582 Y125.000 E15.8814
G1 X177.695 Y123.197 E15.9415
G1 X178.035 Y121.414 E16.0018
G1 X178.594 Y119.692 E16.0621
G1 X179.365 Y118.054 E16.1223
G1 X180.333 Y116.529 E16.1824
G1 X181.497 Y115.123 E16.2431
G1 X182.809 Y113.891 E16.3030
G1 X184.265 Y112.833 E16.3628
G1 X185.860 Y111.954 E16.4234
G1 X187.549 Y111.286 E16.4838
G1 X189.298 Y110.837 E16.5439
G1 X191.094 Y110.610 E16.6041
G1 X192.019 Y110.610 E16.6348
;segType:HShell
G0 X190.852 Y110.278 F7200
G1 X195.141 Y105.988 E16.8366 F3000
G0 X195.707 Y105.988 F7200
G1 X191.445 Y110.250 E17.0371 F3000
G0 X192.011 Y110.250 F7200
G1 X196.273 Y105.988 E17.2376 F3000
G0 X196.839 Y105.988 F7200
G1 X192.576 Y110.250 E17.4380 F3000
G0 X193.118 Y110.274 F7200
G1 X197.404 Y105.988 E17.6396 F3000
G0 X197.970 Y105.988 F7200
G1 X193.620 Y110.337 E17.8442 F3000
G0 X194.123 Y110.401 F7200
G1 X198.536 Y105.988 E18.0518 F3000
G0 X199.101 Y105.988 F7200
G1 X194.625 Y110.464 E18.2623 F3000
G0 X195.089 Y110.566 F7200
G1 X199.667 Y105.988 E18.4777 F3000
G0 X200.233 Y105.988 F7200
G1 X195.540 Y110.681 E18.6984 F3000
G0 X195.990 Y110.796 F7200
G1 X200.798 Y105.988 E18.9246 F3000
G0 X201.364 Y105.988 F7200
G1 X196.440 Y110.912 E19.1562 F3000
G0 X196.858 Y111.060 F7200
G1 X201.930 Y105.988 E19.3947 F3000
G0 X202.495 Y105.988 F7200
G1 X197.263 Y111.220 E19.6408 F3000
G0 X197.668 Y111.381 F7200
G1 X203.061 Y105.988 E19.8945 F3000
G0 X203.627 Y105.988 F7200
G1 X198.074 Y111.541 E20.1557 F3000
G0 X198.460 Y111.720 F7200
G1 X204.192 Y105.988 E20.4253 F3000
G0 X204.758 Y105.988 F7200
G1 X198.825 Y111.921 E20.7044 F3000
G0 X199.190 Y112.121 F7200
G1 X205.324 Y105.988 E20.9929 F3000
G0 X205.889 Y105.988 F7200
G1 X199.556 Y112.322 E21.2908 F3000
G0 X199.921 Y112.523 F7200
G1 X206.455 Y105.988 E21.5982 F3000
G0 X207.021 Y105.988 F7200
G1 X200.248 Y112.761 E21.9167 F3000
G0 X200.576 Y112.999 F7200
G1 X207.558 Y106.017 E22.2451 F3000
G0 X208.024 Y106.116 F7200
G1 X200.903 Y113.237 E22.5801 F3000
G0 X201.231 Y113.475 F7200
G1 X208.452 Y106.254 E22.9197 F3000
G0 X208.843 Y106.429 F7200
G1 X201.544 Y113.728 E23.2631 F3000
G0 X201.835 Y114.002 F7200
G1 X209.199 Y106.638 E23.6095 F3000
G0 X209.527 Y106.876 F7200
G1 X202.127 Y114.276 E23.9575 F3000
G0 X202.419 Y114.550 F7200
G1 X209.826 Y107.143 E24.3059 F3000
G0 X210.094 Y107.440 F7200
G1 X202.710 Y114.824 E24.6532 F3000
G0 X202.974 Y115.126 F7200
G1 X210.340 Y107.760 E24.9997 F3000
G0 X210.547 Y108.119 F7200
G1 X203.230 Y115.435 E25.3438 F3000
G0 X210.870 Y108.927 F7200
G1 X203.743 Y116.054 E25.6791 F3000
G0 X203.992 Y116.370 F7200
G1 X210.970 Y109.392 E26.0073 F3000
G0 X211.024 Y109.904 F7200
G1 X204.212 Y116.716 E26.3277 F3000
G0 X204.432 Y117.062 F7200
G1 X211.039 Y110.455 E26.6385 F3000
G0 X211.039 Y111.020 F7200
G1 X204.651 Y117.408 E26.9390 F3000
G0 X204.871 Y117.754 F7200
G1 X211.039 Y111.586 E27.2291 F3000
G0 X211.039 Y112.152 F7200
G1 X205.066 Y118.125 E27.5101 F3000
G0 X205.247 Y118.510 F7200
G1 X211.039 Y112.717 E27.7825 F3000
G0 X211.039 Y113.283 F7200
G1 X205.428 Y118.894 E28.0464 F3000
G0 X205.609 Y119.279 F7200
G1 X211.039 Y113.849 E28.3019 F3000
G0 X211.039 Y114.414 F7200
G1 X205.779 Y119.675 E28.5493 F3000
G0 X205.918 Y120.102 F7200
G1 X211.039 Y114.980 E28.7902 F3000
G0 X211.039 Y115.546 F7200
G1 X206.056 Y120.529 E29.0246 F3000
G0 X206.195 Y120.956 F7200
G1 X211.039 Y116.112 E29.2525 F3000
G0 X211.039 Y116.677 F7200
G1 X206.327 Y121.390 E29.4741 F3000
G0 X206.418 Y121.865 F7200
G1 X211.039 Y117.243 E29.6915 F3000
G0 X211.039 Y117.809 F7200
G1 X206.508 Y122.340 E29.9047 F3000
G0 X206.599 Y122.815 F7200
G1 X211.039 Y118.374 E30.1135 F3000
G0 X211.039 Y118.940 F7200
G1 X206.673 Y123.307 E30.3189 F3000
G0 X206.706 Y123.839 F7200
G1 X211.039 Y119.506 E30.5227 F3000
G0 X211.039 Y120.071 F7200
G1 X206.740 Y124.371 E30.7250 F3000
G0 X206.773 Y124.903 F7200
G1 X211.039 Y120.637 E30.9257 F3000
G0 X211.039 Y121.203 F7200
G1 X206.748 Y125.494 E31.1275 F3000
G0 X206.710 Y126.098 F7200
G1 X211.039 Y121.768 E31.3312 F3000
G0 X211.039 Y122.334 F7200
G1 X206.672 Y126.701 E31.5366 F3000
G0 X206.562 Y127.377 F7200
G1 X211.039 Y122.900 E31.7472 F3000
G0 X211.039 Y123.465 F7200
G1 X206.429 Y128.076 E31.9640 F3000
G0 X206.276 Y128.794 F7200
G1 X211.039 Y124.031 E32.1881 F3000
G0 X211.039 Y124.597 F7200
G1 X206.004 Y129.632 E32.4249 F3000
G0 X205.724 Y130.478 F7200
G1 X211.039 Y125.162 E32.6749 F3000
G0 X211.039 Y125.728 F7200
G1 X205.221 Y131.547 E32.9486 F3000
G0 X204.495 Y132.838 F7200
G1 X211.039 Y126.294 E33.2564 F3000
G0 X211.039 Y126.860 F7200
G1 X193.887 Y144.012 E34.0632 F3000
G0 X194.453 Y144.012 F7200
G1 X211.039 Y127.425 E34.8434 F3000
G0 X211.039 Y127.991 F7200
G1 X195.018 Y144.012 E35.5970 F3000
G0 X195.584 Y144.012 F7200
G1 X211.039 Y128.557 E36.3240 F3000
G0 X211.039 Y129.122 F7200
G1 X196.150 Y144.012 E37.0244 F3000
G0 X196.715 Y144.012 F7200
G1 X211.039 Y129.688 E37.6981 F3000
G0 X211.039 Y130.254 F7200
G1 X197.281 Y144.012 E38.3453 F3000
G0 X197.847 Y144.012 F7200
G1 X211.039 Y130.819 E38.9658 F3000
G0 X211.039 Y131.385 F7200
G1 X198.412 Y144.012 E39.5598 F3000
G0 X198.978 Y144.012 F7200
G1 X211.039 Y131.951 E40.1271 F3000
G0 X211.039 Y132.516 F7200
G1 X199.544 Y144.012 E40.6678 F3000
G0 X200.109 Y144.012 F7200
G1 X211.039 Y133.082 E41.1819 F3000
G0 X211.039 Y133.648 F7200
G1 X200.675 Y144.012 E41.6694 F3000
G0 X201.241 Y144.012 F7200
G1 X211.039 Y134.213 E42.1303 F3000
G0 X211.039 Y134.779 F7200
G1 X201.807 Y144.012 E42.5646 F3000
G0 X202.372 Y144.012 F7200
G1 X211.039 Y135.345 E42.9723 F3000
G0 X211.039 Y135.910 F7200
G1 X202.938 Y144.012 E43.3534 F3000
G0 X203.504 Y144.012 F7200
G1 X211.039 Y136.476 E43.7078 F3000
G0 X211.039 Y137.042 F7200
G1 X204.069 Y144.012 E44.0357 F3000
G0 X204.635 Y144.012 F7200
G1 X211.039 Y137.608 E44.3369 F3000
G0 X211.039 Y138.173 F7200
G1 X205.201 Y144.012 E44.6116 F3000
G0 X205.766 Y144.012 F7200
G1 X211.039 Y138.739 E44.8596 F3000
G0 X211.039 Y139.305 F7200
G1 X206.332 Y144.012 E45.0810 F3000
G0 X206.898 Y144.012 F7200
G1 X211.039 Y139.870 E45.2758 F3000
G0 X210.982 Y140.493 F7200
G1 X207.475 Y144.001 E45.4408 F3000
G0 X208.193 Y143.848 F7200
G1 X210.823 Y141.218 E45.5645 F3000
G0 X210.302 Y142.305 F7200
G1 X209.368 Y143.239 E45.6085 F3000
G0 X199.778 Y137.555 F7200
G1 X193.321 Y144.012 E45.9122 F3000
G0 X192.756 Y144.012 F7200
G1 X198.521 Y138.246 E46.1834 F3000
G0 X197.526 Y138.676 F7200
G1 X192.190 Y144.012 E46.4344 F3000
G0 X191.624 Y144.012 F7200
G1 X196.590 Y139.046 E46.6680 F3000
G0 X195.824 Y139.247 F7200
G1 X191.059 Y144.012 E46.8922 F3000
G0 X190.493 Y144.012 F7200
G1 X195.063 Y139.442 E47.1071 F3000
G0 X194.372 Y139.568 F7200
G1 X189.927 Y144.012 E47.3162 F3000
G0 X189.361 Y144.012 F7200
G1 X193.724 Y139.649 E47.5214 F3000
G0 X193.077 Y139.731 F7200
G1 X188.796 Y144.012 E47.7227 F3000
G0 X188.230 Y144.012 F7200
G1 X192.493 Y139.749 E47.9232 F3000
G0 X191.927 Y139.750 F7200
G1 X187.664 Y144.012 E48.1237 F3000
G0 X187.099 Y144.012 F7200
G1 X191.361 Y139.750 E48.3242 F3000
G0 X190.826 Y139.719 F7200
G1 X186.533 Y144.012 E48.5261 F3000
G0 X185.967 Y144.012 F7200
G1 X190.324 Y139.656 E48.7310 F3000
G0 X189.822 Y139.592 F7200
G1 X185.402 Y144.012 E48.9389 F3000
G0 X184.836 Y144.012 F7200
G1 X189.319 Y139.529 E49.1498 F3000
G0 X188.860 Y139.422 F7200
G1 X184.270 Y144.012 E49.3657 F3000
G0 X183.705 Y144.012 F7200
G1 X188.410 Y139.307 E49.5870 F3000
G0 X187.960 Y139.191 F7200
G1 X183.139 Y144.012 E49.8138 F3000
G0 X182.573 Y144.012 F7200
G1 X187.510 Y139.076 E50.0460 F3000
G0 X187.097 Y138.923 F7200
G1 X182.008 Y144.012 E50.2854 F3000
G0 X181.442 Y144.012 F7200
G1 X186.692 Y138.762 E50.5323 F3000
G0 X186.287 Y138.602 F7200
G1 X180.876 Y144.012 E50.7868 F3000
G0 X180.311 Y144.012 F7200
G1 X185.882 Y138.441 E51.0489 F3000
G0 X185.499 Y138.258 F7200
G1 X179.745 Y144.012 E51.3195 F3000
G0 X179.179 Y144.012 F7200
G1 X185.134 Y138.057 E51.5996 F3000
G0 X184.769 Y137.857 F7200
G1 X178.613 Y144.012 E51.8892 F3000
G0 X178.048 Y144.012 F7200
G1 X184.404 Y137.656 E52.1881 F3000
G0 X184.043 Y137.451 F7200
G1 X177.482 Y144.012 E52.4967 F3000
G0 X176.916 Y144.012 F7200
G1 X183.716 Y137.213 E52.8165 F3000
G0 X183.388 Y136.975 F7200
G1 X176.391 Y143.972 E53.1457 F3000
G0 X175.924 Y143.873 F7200
G1 X183.060 Y136.737 E53.4813 F3000
G0 X182.733 Y136.499 F7200
G1 X175.505 Y143.726 E53.8213 F3000
G0 X175.114 Y143.552 F7200
G1 X182.424 Y136.242 E54.1651 F3000
G0 X182.132 Y135.968 F7200
G1 X174.765 Y143.335 E54.5117 F3000
G0 X174.437 Y143.097 F7200
G1 X181.841 Y135.694 E54.8599 F3000
G0 X181.549 Y135.420 F7200
G1 X174.144 Y142.824 E55.2082 F3000
G0 X173.876 Y142.527 F7200
G1 X181.257 Y135.146 E55.5554 F3000
G0 X180.997 Y134.840 F7200
G1 X173.637 Y142.200 E55.9016 F3000
G0 X173.430 Y141.841 F7200
G1 X180.741 Y134.530 E56.2455 F3000
G0 X180.485 Y134.221 F7200
G1 X173.253 Y141.453 E56.5856 F3000
G0 X173.115 Y141.026 F7200
G1 X180.229 Y133.911 E56.9203 F3000
G0 X179.983 Y133.592 F7200
G1 X173.024 Y140.551 E57.2476 F3000
G0 X172.970 Y140.039 F7200
G1 X179.763 Y133.246 E57.5671 F3000
G0 X179.544 Y132.899 F7200
G1 X172.961 Y139.483 E57.8768 F3000
G0 X172.961 Y138.917 F7200
G1 X179.324 Y132.553 E58.1761 F3000
G0 X179.104 Y132.207 F7200
G1 X172.961 Y138.351 E58.4651 F3000
G0 X172.961 Y137.786 F7200
G1 X178.914 Y131.832 E58.7451 F3000
G0 X178.733 Y131.448 F7200
G1 X172.961 Y137.220 E59.0166 F3000
G0 X172.961 Y136.654 F7200
G1 X178.552 Y131.063 E59.2796 F3000
G0 X178.371 Y130.678 F7200
G1 X172.961 Y136.088 E59.5341 F3000
G0 X172.961 Y135.523 F7200
G1 X178.206 Y130.278 E59.7808 F3000
G0 X178.067 Y129.851 F7200
G1 X172.961 Y134.957 E60.0210 F3000
G0 X172.961 Y134.391 F7200
G1 X177.928 Y129.424 E60.2547 F3000
G0 X177.790 Y128.997 F7200
G1 X172.961 Y133.826 E60.4818 F3000
G0 X172.961 Y133.260 F7200
G1 X177.663 Y128.558 E60.7030 F3000
G0 X177.572 Y128.083 F7200
G1 X172.961 Y132.694 E60.9199 F3000
G0 X172.961 Y132.129 F7200
G1 X177.482 Y127.608 E61.1325 F3000
G0 X177.391 Y127.133 F7200
G1 X172.961 Y131.563 E61.3409 F3000
G0 X172.961 Y130.997 F7200
G1 X177.324 Y126.634 E61.5462 F3000
G0 X177.290 Y126.102 F7200
G1 X172.961 Y130.432 E61.7498 F3000
G0 X172.961 Y129.866 F7200
G1 X177.257 Y125.570 E61.9519 F3000
G0 X177.223 Y125.037 F7200
G1 X172.961 Y129.300 E62.1524 F3000
G0 X172.961 Y128.735 F7200
G1 X177.256 Y124.439 E62.3545 F3000
G0 X177.294 Y123.835 F7200
G1 X172.961 Y128.169 E62.5583 F3000
G0 X172.961 Y127.603 F7200
G1 X177.332 Y123.232 E62.7639 F3000
G0 X177.453 Y122.546 F7200
G1 X172.961 Y127.038 E62.9752 F3000
G0 X172.961 Y126.472 F7200
G1 X177.586 Y121.847 E63.1928 F3000
G0 X177.754 Y121.113 F7200
G1 X172.961 Y125.906 E63.4183 F3000
G0 X172.961 Y125.340 F7200
G1 X178.026 Y120.275 E63.6565 F3000
G0 X178.332 Y119.403 F7200
G1 X172.961 Y124.775 E63.9092 F3000
G0 X172.961 Y124.209 F7200
G1 X178.835 Y118.334 E64.1855 F3000
G0 X179.614 Y116.990 F7200
G1 X172.961 Y123.643 E64.4985 F3000
G0 X172.961 Y123.078 F7200
G1 X190.050 Y105.988 E65.3023 F3000
G0 X189.485 Y105.988 F7200
G1 X172.961 Y122.512 E66.0796 F3000
G0 X172.961 Y121.946 F7200
G1 X188.919 Y105.988 E66.8302 F3000
G0 X188.353 Y105.988 F7200
G1 X172.961 Y121.381 E67.5542 F3000
G0 X172.961 Y120.815 F7200
G1 X187.788 Y105.988 E68.2516 F3000
G0 X187.222 Y105.988 F7200
G1 X172.961 Y120.249 E68.9224 F3000
G0 X172.961 Y119.684 F7200
G1 X186.656 Y105.988 E69.5666 F3000
G0 X186.091 Y105.988 F7200
G1 X172.961 Y119.118 E70.1842 F3000
G0 X172.961 Y118.552 F7200
G1 X185.525 Y105.988 E70.7752 F3000
G0 X184.959 Y105.988 F7200
G1 X172.961 Y117.987 E71.3396 F3000
G0 X172.961 Y117.421 F7200
G1 X184.393 Y105.988 E71.8774 F3000
G0 X183.828 Y105.988 F7200
G1 X172.961 Y116.855 E72.3885 F3000
G0 X172.961 Y116.289 F7200
G1 X183.262 Y105.988 E72.8731 F3000
G0 X182.696 Y105.988 F7200
G1 X172.961 Y115.724 E73.3310 F3000
G0 X172.961 Y115.158 F7200
G1 X182.131 Y105.988 E73.7624 F3000
G0 X181.565 Y105.988 F7200
G1 X172.961 Y114.592 E74.1671 F3000
G0 X172.961 Y114.027 F7200
G1 X180.999 Y105.988 E74.5452 F3000
G0 X180.434 Y105.988 F7200
G1 X172.961 Y113.461 E74.8967 F3000
G0 X172.961 Y112.895 F7200
G1 X179.868 Y105.988 E75.2216 F3000
G0 X179.302 Y105.988 F7200
G1 X172.961 Y112.330 E75.5199 F3000
G0 X172.961 Y111.764 F7200
G1 X178.737 Y105.988 E75.7916 F3000
G0 X178.171 Y105.988 F7200
G1 X172.961 Y111.198 E76.0367 F3000
G0 X172.961 Y110.633 F7200
G1 X177.605 Y105.988 E76.2552 F3000
G0 X177.040 Y105.988 F7200
G1 X172.961 Y110.067 E76.4470 F3000
G0 X173.025 Y109.437 F7200
G1 X176.446 Y106.016 E76.6079 F3000
G0 X175.717 Y106.179 F7200
G1 X173.207 Y108.689 E76.7259 F3000
G0 X174.049 Y107.282 F7200
G1 X174.402 Y106.928 E76.7426 F3000
G0 X184.081 Y112.523 F7200
G1 X190.616 Y105.988 E77.0500 F3000
G0 X191.182 Y105.988 F7200
G1 X185.340 Y111.830 E77.3248 F3000
G0 X186.370 Y111.365 F7200
G1 X191.747 Y105.988 E77.5777 F3000
G0 X192.313 Y105.988 F7200
G1 X187.306 Y110.995 E77.8132 F3000
G0 X188.092 Y110.775 F7200
G1 X192.879 Y105.988 E78.0384 F3000
G0 X193.444 Y105.988 F7200
G1 X188.853 Y110.580 E78.2544 F3000
;segType:Pillar
G0 E77.2544
G0 F1200 Z1.800
G0 X202.000 Y82.027 F7200
G0 F1200 Z0.800
G0 F3000 E78.2544
G1 X182.000 Y82.027 E78.9861 F3000
G1 X182.000 Y102.027 E79.7178
G1 X202.000 Y102.027 E80.4495
G1 X201.600 Y82.427 E81.1668
G1 X182.400 Y82.427 E81.8692
G1 X182.400 Y101.627 E82.5717
G1 X201.600 Y101.627 E83.2741
G1 X201.200 Y82.827 E83.9621
G1 X182.800 Y82.827 E84.6353
G1 X182.800 Y101.227 E85.3085
G1 X201.200 Y101.227 E85.9817
G1 X200.800 Y83.227 E86.6404
G1 X183.200 Y83.227 E87.2843
G1 X183.200 Y100.827 E87.9282
G1 X200.800 Y100.827 E88.5721
G1 X200.400 Y83.627 E89.2016
; ------------------------------------
; Layer #4
; ------------------------------------
M106 S255 T0 ;set fan 1 speed
G92 E0 ;reset extr
;segType:HShell
G0 F3000 E-1.0000
G0 F1200 Z2.000
G0 X210.407 Y107.876 F7200
G0 F1200 Z1.000
G0 F3000 E0.0000
G1 X209.088 Y106.558 E0.0620 F3000
G0 X208.719 Y106.471 F7200
G1 X207.536 Y106.137 E0.0893 F3000
;segType:Infill
G0 X207.021 Y106.188 F7200
G1 X210.811 Y109.978 E0.3032 F3750
;segType:Perimeter
G0 X211.258 Y108.331 F7200
G1 X211.694 Y109.002 E0.3298 F1799
G1 X211.800 Y110.011 E0.3635
G1 X211.800 Y139.989 E1.3606
G1 X211.694 Y140.998 E1.3943
G1 X211.384 Y141.952 E1.4277
G1 X210.882 Y142.821 E1.4611
G1 X210.211 Y143.566 E1.4944
G1 X209.399 Y144.156 E1.5278
G1 X208.483 Y144.564 E1.5612
G1 X207.502 Y144.772 E1.5945
G1 X176.498 Y144.772 E2.6257
G1 X175.517 Y144.564 E2.6591
G1 X174.601 Y144.156 E2.6924
G1 X173.789 Y143.566 E2.7258
G1 X173.118 Y142.821 E2.7592
G1 X172.616 Y141.952 E2.7925
G1 X172.306 Y140.998 E2.8259
G1 X172.200 Y139.989 E2.8596
G1 X172.200 Y110.011 E3.8567
G1 X172.306 Y109.002 E3.8904
G1 X172.616 Y108.048 E3.9238
G1 X173.118 Y107.180 E3.9572
G1 X173.789 Y106.434 E3.9905
G1 X174.601 Y105.844 E4.0239
G1 X175.517 Y105.436 E4.0573
G1 X176.499 Y105.228 E4.0906
G1 X207.502 Y105.228 E5.1218
G1 X208.483 Y105.436 E5.1552
G1 X209.399 Y105.844 E5.1885
G1 X210.211 Y106.434 E5.2219
G1 X210.882 Y107.180 E5.2553
G1 X211.384 Y108.048 E5.2886
G1 X211.694 Y109.002 E5.3220
G0 X211.568 Y109.792 F7200
;segType:Loop
G0 X211.400 Y110.132
G1 X211.400 Y139.969 E6.3144 F3000
G1 X211.300 Y140.914 E6.3460
G1 X211.016 Y141.788 E6.3766
G1 X210.557 Y142.584 E6.4071
G1 X209.942 Y143.267 E6.4377
G1 X209.198 Y143.807 E6.4683
G1 X208.359 Y144.181 E6.4988
G1 X207.460 Y144.372 E6.5294
G1 X176.541 Y144.372 E7.5578
G1 X175.641 Y144.181 E7.5883
G1 X174.802 Y143.807 E7.6189
G1 X174.058 Y143.267 E7.6495
G1 X173.443 Y142.584 E7.6800
G1 X172.984 Y141.788 E7.7106
G1 X172.700 Y140.914 E7.7412
G1 X172.600 Y139.968 E7.7728
G1 X172.600 Y110.032 E8.7685
G1 X172.700 Y109.086 E8.8001
G1 X172.984 Y108.212 E8.8307
G1 X173.443 Y107.416 E8.8613
G1 X174.058 Y106.733 E8.8918
G1 X174.802 Y106.193 E8.9224
G1 X175.641 Y105.819 E8.9530
G1 X176.541 Y105.628 E8.9835
G1 X207.460 Y105.628 E10.0119
G1 X208.359 Y105.819 E10.0425
G1 X209.198 Y106.193 E10.0731
G1 X209.942 Y106.733 E10.1036
G1 X210.557 Y107.416 E10.1342
G1 X211.016 Y108.212 E10.1648
G1 X211.300 Y109.086 E10.1953
G1 X211.389 Y109.932 E10.2236
;segType:Infill
G0 X184.394 Y106.188 F7200
G1 X188.687 Y110.481 E10.4659 F3750
;segType:Loop
G0 X192.222 Y110.656 F7200
G1 X192.903 Y110.656 E10.4886 F3000
G1 X194.682 Y110.881 E10.5482
G1 X196.436 Y111.329 E10.6084
G1 X198.115 Y111.994 E10.6685
G1 X199.701 Y112.865 E10.7287
G1 X201.166 Y113.930 E10.7889
G1 X202.477 Y115.161 E10.8487
G1 X203.624 Y116.547 E10.9086
G1 X204.595 Y118.076 E10.9688
G1 X205.363 Y119.709 E11.0288
G1 X205.919 Y121.420 E11.0887
G1 X206.259 Y123.198 E11.1489
G1 X206.373 Y125.000 E11.2089
G1 X206.260 Y126.795 E11.2688
G1 X205.921 Y128.575 E11.3290
G1 X205.363 Y130.291 E11.3890
G1 X204.595 Y131.924 E11.4491
G1 X203.628 Y133.448 E11.5091
G1 X202.477 Y134.839 E11.5691
G1 X201.161 Y136.074 E11.6292
G1 X199.706 Y137.132 E11.6890
G1 X198.114 Y138.007 E11.7494
G1 X196.435 Y138.671 E11.8094
G1 X194.693 Y139.118 E11.8693
G1 X192.909 Y139.343 E11.9291
G1 X191.098 Y139.344 E11.9893
G1 X189.307 Y139.118 E12.0494
G1 X187.559 Y138.669 E12.1094
G1 X185.876 Y138.002 E12.1696
G1 X184.299 Y137.135 E12.2294
G1 X182.839 Y136.074 E12.2895
G1 X181.522 Y134.838 E12.3495
G1 X180.372 Y133.448 E12.4096
G1 X179.405 Y131.924 E12.4696
G1 X178.637 Y130.291 E12.5296
G1 X178.080 Y128.577 E12.5895
G1 X177.742 Y126.805 E12.6495
G1 X177.627 Y125.000 E12.7097
G1 X177.740 Y123.204 E12.7695
G1 X178.079 Y121.426 E12.8298
G1 X178.637 Y119.709 E12.8898
G1 X179.405 Y118.076 E12.9498
G1 X180.369 Y116.557 E13.0097
G1 X181.532 Y115.153 E13.0703
G1 X182.839 Y113.926 E13.1299
G1 X184.287 Y112.873 E13.1895
G1 X185.880 Y111.996 E13.2500
G1 X187.565 Y111.329 E13.3102
G1 X189.307 Y110.882 E13.3700
G1 X191.097 Y110.656 E13.4301
G1 X192.022 Y110.656 E13.4608
;segType:Perimeter
G0 X190.330 Y110.947 F7200
G1 X191.122 Y111.056 E13.4874 F1799
G1 X192.878 Y111.056 E13.5458
G1 X194.607 Y111.275 E13.6038
G1 X196.312 Y111.711 E13.6623
G1 X197.944 Y112.356 E13.7207
G1 X199.486 Y113.203 E13.7792
G1 X200.910 Y114.239 E13.8378
G1 X202.185 Y115.436 E13.8959
G1 X203.299 Y116.783 E13.9541
G1 X204.244 Y118.269 E14.0127
G1 X204.990 Y119.857 E14.0710
G1 X205.531 Y121.520 E14.1292
G1 X205.862 Y123.249 E14.1877
G1 X205.972 Y125.000 E14.2461
G1 X205.862 Y126.745 E14.3042
G1 X205.533 Y128.475 E14.3628
G1 X204.990 Y130.143 E14.4212
G1 X204.244 Y131.731 E14.4795
G1 X203.304 Y133.212 E14.5379
G1 X202.185 Y134.564 E14.5962
G1 X200.906 Y135.765 E14.6546
G1 X199.491 Y136.793 E14.7127
G1 X197.944 Y137.644 E14.7715
G1 X196.312 Y138.290 E14.8299
G1 X194.618 Y138.724 E14.8880
G1 X192.883 Y138.943 E14.9462
G1 X191.123 Y138.944 E15.0047
G1 X189.382 Y138.724 E15.0631
G1 X187.683 Y138.288 E15.1214
G1 X186.046 Y137.639 E15.1800
G1 X184.514 Y136.797 E15.2382
G1 X183.094 Y135.765 E15.2965
G1 X181.815 Y134.564 E15.3549
G1 X180.696 Y133.212 E15.4133
G1 X179.756 Y131.731 E15.4716
G1 X179.010 Y130.143 E15.5300
G1 X178.468 Y128.478 E15.5882
G1 X178.139 Y126.755 E15.6465
G1 X178.028 Y125.000 E15.7050
G1 X178.138 Y123.255 E15.7632
G1 X178.467 Y121.525 E15.8217
G1 X179.010 Y119.857 E15.8801
G1 X179.756 Y118.269 E15.9385
G1 X180.694 Y116.792 E15.9966
G1 X181.824 Y115.427 E16.0556
G1 X183.094 Y114.235 E16.1135
G1 X184.502 Y113.212 E16.1714
G1 X186.050 Y112.358 E16.2302
G1 X187.689 Y111.710 E16.2888
G1 X189.382 Y111.276 E16.3469
G1 X191.122 Y111.056 E16.4053
G0 X191.895 Y110.849 F7200
;segType:Infill
G0 X192.844 Y110.113
G1 X188.919 Y106.188 E16.6268 F3750
G0 X193.445 Y106.188 F7200
G1 X199.259 Y112.002 E16.9550 F3750
G0 X210.840 Y114.532 F7200
G1 X202.496 Y106.188 E17.4260 F3750
G0 X197.970 Y106.188 F7200
G1 X210.840 Y119.057 E18.1524 F3750
G0 X205.072 Y117.815 F7200
G1 X210.840 Y123.583 E18.4779 F3750
G0 X206.862 Y124.131 F7200
G1 X210.840 Y128.108 E18.7024 F3750
G0 X210.840 Y132.634 F7200
G1 X206.523 Y128.317 E18.9461 F3750
G0 X205.326 Y131.646 F7200
G1 X210.840 Y137.159 E19.2573 F3750
G0 X203.549 Y134.394 F7200
G1 X210.512 Y141.358 E19.6503 F3750
G0 X208.198 Y143.569 F7200
G1 X201.285 Y136.656 E20.0405 F3750
G0 X198.512 Y138.408 F7200
G1 X203.916 Y143.812 E20.3455 F3750
G0 X199.390 Y143.812 F7200
G1 X195.142 Y139.563 E20.5853 F3750
G0 X194.865 Y143.812 F7200
G1 X190.922 Y139.869 E20.8079 F3750
G0 X190.340 Y143.812 F7200
G1 X184.262 Y137.734 E21.1510 F3750
G0 X185.814 Y143.812 F7200
