; GCode generated by CraftWare
M190 S60 ;set and wait bed temperature
M109 S210 ;set and wait head temperature

G28 X0 Y0
G28 Z0

; ------------------------------------
; Layer #0
; ------------------------------------
G21 ; mm
G90 ; abs
G92 E0 ; reset extr
M107
;segType:Skirt
G0 F2400 E-4.500
G0 F600 Z0.300
G0 F5400 X84.409 Y125.371
G0 F2400 E0.000
G1 F750 X86.138 Y127.095 E0.244
G1 X88.720 Y128.511 E0.537
G1 X89.107 Y128.897 E0.592
G1 X92.142 Y130.763 E0.948
G1 X93.755 Y131.342 E1.119
G1 X94.530 Y131.729 E1.205
G1 X97.758 Y132.501 E1.536
G1 X99.436 Y132.758 E1.706
G1 X102.147 Y133.145 E1.979
G1 X102.922 Y133.273 E2.057
G1 X104.342 Y133.402 E2.199
G1 X108.861 Y133.402 E2.650
G1 X113.122 Y132.372 E3.088
G1 X114.800 Y132.115 E3.257
G1 X116.608 Y131.471 E3.449
G1 X117.641 Y130.956 E3.564
G1 X118.544 Y130.313 E3.674
G1 X119.900 Y128.961 E3.865
G1 X122.030 Y125.936 E4.235
G1 X124.484 Y124.907 E4.500
G1 X125.129 Y124.520 E4.575
G1 X131.197 Y122.461 E5.215
G1 X132.359 Y121.817 E5.347
G1 X136.943 Y117.119 E6.002
G1 X137.782 Y116.283 E6.120
G1 X142.301 Y114.738 E6.597
G1 X144.754 Y113.451 E6.873
G1 X147.207 Y111.906 E7.162
G1 X148.756 Y110.876 E7.348
G1 X150.048 Y109.847 E7.513
G1 X152.113 Y108.688 E7.749
G1 X152.759 Y108.173 E7.832
G1 X155.987 Y106.629 E8.189
G1 X158.569 Y104.955 E8.496
G1 X161.280 Y102.896 E8.835
G1 X162.830 Y102.252 E9.003
G1 X164.250 Y101.480 E9.164
G1 X166.315 Y101.351 E9.371
G1 X167.219 Y100.836 E9.474
G1 X168.898 Y99.549 E9.685
G1 X170.646 Y97.806 E9.932
;segType:Support
G0 F2400 E5.432
G0 F5400 X170.235 Y98.216
G0 F5400 X152.000 Y89.200
G0 F2400 E9.932
G1 F1125 X150.200 Y89.200 E10.022
G1 X150.200 Y87.400 E10.111
G1 X152.000 Y87.400 E10.201
G0 F2400 E5.701
G0 F5400 X151.418 Y87.400
G0 F5400 X150.200 Y85.600
G0 F2400 E10.201
G1 F1125 X155.600 Y85.600 E10.471
G1 X155.600 Y83.800 E10.560
G1 X150.200 Y83.800 E10.830
G1 X150.200 Y82.000 E10.920
G1 X155.600 Y82.000 E11.189
G1 X155.600 Y80.200 E11.279
G1 X150.200 Y80.200 E11.548
G1 X150.200 Y78.400 E11.638
G1 X155.600 Y78.400 E11.907
G1 X155.600 Y76.600 E11.997
G1 X150.200 Y76.600 E12.267
G1 X150.200 Y74.800 E12.356
G1 X155.600 Y74.800 E12.626
G1 X155.600 Y73.000 E12.716
G1 X150.200 Y73.000 E12.985
;segType:Loop
G0 F2400 E8.485
G0 F5400 X150.781 Y73.000
G0 F5400 X147.391 Y73.079
G0 F2400 E12.985
G1 F750 X147.255 Y71.811 E13.049
G1 X147.099 Y71.039 E13.088
G1 X146.824 Y70.524 E13.117
G1 X146.303 Y70.009 E13.154
G1 X145.400 Y69.399 E13.208
G1 X143.897 Y68.722 E13.290
G1 X143.205 Y68.548 E13.326
G1 X141.784 Y68.543 E13.397
G1 X141.139 Y68.708 E13.430
G1 X140.493 Y68.965 E13.465
G1 X140.106 Y69.228 E13.488
G1 X138.815 Y70.364 E13.574
G1 X136.878 Y72.426 E13.715
G1 X134.947 Y74.128 E13.843
G1 X133.134 Y75.780 E13.966
G1 X131.068 Y77.856 E14.112
G1 X129.261 Y79.497 E14.234
G1 X127.711 Y80.767 E14.334
G1 X126.033 Y81.945 E14.436
G1 X125.129 Y82.473 E14.488
G1 X124.225 Y82.794 E14.536
G1 X123.580 Y82.902 E14.569
G1 X122.934 Y82.890 E14.601
G1 X122.160 Y82.700 E14.641
G1 X121.514 Y82.311 E14.678
G1 X120.673 Y81.465 E14.738
G1 X120.042 Y80.435 E14.798
G1 X119.595 Y79.405 E14.854
G1 X119.061 Y78.255 E14.917
G1 X118.571 Y77.474 E14.963
G1 X118.157 Y77.162 E14.989
G1 X117.641 Y77.077 E15.015
G1 X117.124 Y77.200 E15.042
G1 X115.833 Y77.850 E15.114
G1 X115.116 Y78.504 E15.162
G1 X114.542 Y79.362 E15.214
G1 X113.833 Y80.821 E15.295
G1 X113.324 Y81.722 E15.346
G1 X112.636 Y82.494 E15.398
G1 X111.314 Y83.637 E15.485
G1 X110.604 Y84.425 E15.538
G1 X109.636 Y85.300 E15.603
G1 X107.828 Y86.703 E15.717
G1 X106.150 Y87.835 E15.818
G1 X104.342 Y88.874 E15.922
G1 X103.309 Y89.371 E15.980
G1 X101.631 Y90.012 E16.069
G1 X100.469 Y90.379 E16.130
G1 X99.307 Y90.652 E16.190
G1 X97.887 Y90.810 E16.261
G1 X96.208 Y91.013 E16.345
G1 X94.401 Y91.204 E16.436
G1 X93.755 Y91.352 E16.469
G1 X92.981 Y91.755 E16.512
G1 X92.077 Y92.369 E16.567
G1 X91.179 Y92.921 E16.620
G1 X89.525 Y93.950 E16.717
G1 X88.333 Y94.845 E16.791
G1 X86.299 Y96.782 E16.931
G1 X84.976 Y98.298 E17.032
G1 X84.201 Y99.341 E17.096
G1 X83.555 Y100.343 E17.156
G1 X83.103 Y101.416 E17.214
G1 X82.264 Y103.207 E17.313
G1 X81.494 Y105.149 E17.417
G1 X81.117 Y106.436 E17.484
G1 X80.928 Y107.466 E17.536
G1 X80.894 Y108.882 E17.607
G1 X81.063 Y110.426 E17.684
G1 X81.401 Y111.971 E17.763
G1 X81.588 Y113.515 E17.841
G1 X82.115 Y115.446 E17.941
G1 X82.387 Y116.347 E17.988
G1 X82.888 Y117.377 E18.045
G1 X84.058 Y119.308 E18.157
G1 X84.944 Y120.724 E18.241
G1 X87.133 Y123.941 E18.435
G1 X87.669 Y124.456 E18.472
G1 X89.753 Y125.664 E18.592
G1 X92.194 Y127.288 E18.738
G1 X93.626 Y128.059 E18.819
G1 X95.541 Y128.833 E18.922
G1 X97.628 Y129.359 E19.030
G1 X98.274 Y129.503 E19.063
G1 X99.773 Y129.734 E19.139
G1 X101.502 Y129.923 E19.225
G1 X103.438 Y130.276 E19.324
G1 X104.471 Y130.398 E19.375
G1 X106.150 Y130.532 E19.459
G1 X107.441 Y130.520 E19.524
G1 X108.990 Y130.284 E19.602
G1 X110.152 Y130.025 E19.661
G1 X111.443 Y129.693 E19.728
G1 X112.476 Y129.511 E19.780
G1 X113.638 Y129.239 E19.840
G1 X114.800 Y128.864 E19.901
G1 X115.816 Y128.447 E19.956
G1 X116.473 Y128.060 E19.994
G1 X117.253 Y127.446 E20.043
G1 X118.028 Y126.524 E20.103
G1 X118.996 Y125.100 E20.189
G1 X119.706 Y124.203 E20.246
G1 X120.610 Y123.359 E20.308
G1 X121.514 Y122.867 E20.359
G1 X124.096 Y121.711 E20.500
G1 X125.516 Y121.258 E20.575
G1 X127.582 Y120.547 E20.684
G1 X130.035 Y119.591 E20.815
G1 X130.798 Y119.179 E20.858
G1 X131.317 Y118.793 E20.891
G1 X132.359 Y117.778 E20.963
G1 X133.780 Y116.348 E21.064
G1 X135.694 Y114.159 E21.209
G1 X136.491 Y113.556 E21.259
G1 X137.266 Y113.216 E21.301
G1 X139.590 Y112.491 E21.422
G1 X141.250 Y111.842 E21.511
G1 X142.038 Y111.456 E21.555
G1 X143.850 Y110.440 E21.659
G1 X144.883 Y109.710 E21.722
G1 X145.658 Y109.272 E21.766
G1 X146.659 Y108.624 E21.826
G1 X148.369 Y107.380 E21.931
G1 X151.726 Y105.322 E22.128
G1 X153.131 Y104.634 E22.206
G1 X155.083 Y103.617 E22.315
G1 X156.116 Y102.884 E22.379
G1 X157.377 Y102.059 E22.454
G1 X158.182 Y101.307 E22.509
G1 X158.827 Y100.851 E22.548
G1 X160.506 Y99.931 E22.644
G1 X162.700 Y98.886 E22.765
G1 X163.475 Y98.654 E22.805
G1 X164.508 Y98.603 E22.857
G1 X165.154 Y98.477 E22.890
G1 X165.670 Y98.215 E22.919
G1 X167.090 Y97.184 E23.006
G1 X168.123 Y96.188 E23.078
G1 X168.480 Y95.495 E23.117
G1 X168.634 Y94.851 E23.150
G1 X168.706 Y94.079 E23.188
G1 X168.658 Y92.921 E23.246
G1 X168.399 Y92.277 E23.281
G1 X167.736 Y91.541 E23.330
G1 X166.574 Y90.732 E23.401
G1 X165.938 Y90.346 E23.438
G1 X165.154 Y90.059 E23.480
G1 X164.250 Y89.911 E23.525
G1 X162.442 Y89.913 E23.616
G1 X161.538 Y90.078 E23.661
G1 X159.473 Y91.029 E23.775
G1 X157.923 Y91.554 E23.856
G1 X156.761 Y91.854 E23.916
G1 X155.341 Y92.316 E23.991
G1 X153.534 Y92.772 E24.084
G1 X152.242 Y93.174 E24.151
G1 X149.660 Y94.116 E24.288
G1 X148.111 Y94.504 E24.368
G1 X147.336 Y94.622 E24.407
G1 X146.303 Y94.645 E24.459
G1 X145.270 Y94.518 E24.511
G1 X144.625 Y94.299 E24.545
G1 X143.721 Y93.779 E24.597
G1 X142.854 Y93.049 E24.653
G1 X142.331 Y92.406 E24.695
G1 X141.812 Y91.505 E24.747
G1 X141.216 Y90.217 E24.817
G1 X140.703 Y88.673 E24.898
G1 X140.639 Y87.901 E24.937
G1 X140.720 Y86.227 E25.021
G1 X140.945 Y85.326 E25.067
G1 X141.268 Y84.691 E25.103
G1 X141.644 Y83.910 E25.146
G1 X142.105 Y82.623 E25.214
G1 X142.526 Y81.722 E25.264
G1 X143.062 Y81.079 E25.305
G1 X143.436 Y80.306 E25.348
G1 X143.810 Y79.663 E25.385
G1 X144.367 Y79.019 E25.428
G1 X144.946 Y77.732 E25.498
G1 X145.977 Y76.187 E25.591
G1 X146.562 Y75.599 E25.632
G1 X146.914 Y75.158 E25.661
G1 X147.375 Y73.742 E25.735
G1 X147.393 Y73.117 E25.766
G0 X147.779 Y73.079 F5400
G1 F750 X147.645 Y71.811 E25.830
G1 X147.480 Y70.910 E25.875
G1 X147.233 Y70.395 E25.904
G1 X146.691 Y69.798 E25.944
G1 X145.733 Y69.108 E26.003
G1 X144.012 Y68.335 E26.097
G1 X143.076 Y68.151 E26.145
G1 X141.526 Y68.182 E26.222
G1 X140.364 Y68.573 E26.283
G1 X139.919 Y68.850 E26.309
G1 X138.582 Y70.009 E26.398
G1 X136.519 Y72.197 E26.548
G1 X132.925 Y75.415 E26.788
G1 X130.810 Y77.539 E26.938
G1 X128.115 Y79.920 E27.117
G1 X126.291 Y81.278 E27.231
G1 X124.871 Y82.155 E27.314
G1 X124.096 Y82.428 E27.355
G1 X123.192 Y82.544 E27.400
G1 X122.547 Y82.428 E27.433
G1 X122.030 Y82.182 E27.462
G1 X121.514 Y81.755 E27.495
G1 X120.806 Y80.950 E27.549
G1 X120.300 Y80.049 E27.600
G1 X119.865 Y79.019 E27.656
G1 X119.319 Y77.884 E27.719
G1 X118.803 Y77.107 E27.765
G1 X118.415 Y76.808 E27.790
G1 X117.641 Y76.673 E27.829
G1 X116.995 Y76.815 E27.862
G1 X115.962 Y77.311 E27.919
G1 X115.317 Y77.731 E27.957
G1 X114.682 Y78.375 E28.003
G1 X114.284 Y78.993 E28.039
G1 X113.317 Y80.950 E28.148
G1 X112.907 Y81.593 E28.186
G1 X112.218 Y82.328 E28.236
G1 X111.105 Y83.267 E28.309
G1 X110.154 Y84.296 E28.379
G1 X109.507 Y84.872 E28.422
G1 X107.699 Y86.285 E28.537
G1 X105.762 Y87.596 E28.653
G1 X104.213 Y88.483 E28.742
G1 X103.180 Y88.994 E28.800
G1 X101.502 Y89.639 E28.890
G1 X100.340 Y90.011 E28.950
G1 X99.178 Y90.285 E29.010
G1 X97.887 Y90.424 E29.075
G1 X96.208 Y90.628 E29.159
G1 X94.272 Y90.828 E29.256
G1 X93.368 Y91.084 E29.303
G1 X92.605 Y91.505 E29.347
G1 X91.689 Y92.136 E29.402
G1 X89.365 Y93.560 E29.538
G1 X87.997 Y94.594 E29.624
G1 X86.009 Y96.488 E29.761
G1 X84.737 Y97.941 E29.857
G1 X83.687 Y99.356 E29.945
G1 X83.168 Y100.207 E29.995
G1 X82.724 Y101.287 E30.053
G1 X81.878 Y103.089 E30.152
G1 X81.231 Y104.696 E30.239
G1 X80.675 Y106.565 E30.336
G1 X80.513 Y107.980 E30.407
G1 X80.533 Y109.396 E30.478
G1 X80.690 Y110.555 E30.536
G1 X81.011 Y111.971 E30.608
G1 X81.215 Y113.644 E30.693
G1 X81.714 Y115.446 E30.786
G1 X82.006 Y116.462 E30.839
G1 X82.393 Y117.325 E30.886
G1 X83.132 Y118.535 E30.956
G1 X84.450 Y120.724 E31.084
G1 X86.267 Y123.423 E31.246
G1 X87.025 Y124.456 E31.310
G1 X87.506 Y124.842 E31.341
G1 X88.591 Y125.443 E31.403
G1 X89.624 Y126.066 E31.463
G1 X92.048 Y127.674 E31.608
G1 X93.497 Y128.440 E31.690
G1 X95.046 Y129.077 E31.773
G1 X95.950 Y129.351 E31.821
G1 X98.121 Y129.862 E31.932
G1 X99.952 Y130.152 E32.024
G1 X101.502 Y130.310 E32.102
G1 X103.287 Y130.635 E32.193
G1 X104.342 Y130.762 E32.246
G1 X106.021 Y130.907 E32.330
G1 X107.054 Y130.930 E32.381
G1 X108.345 Y130.799 E32.446
G1 X109.636 Y130.544 E32.512
G1 X111.056 Y130.188 E32.585
G1 X112.476 Y129.903 E32.657
G1 X113.638 Y129.643 E32.716
G1 X114.929 Y129.245 E32.784
G1 X115.943 Y128.833 E32.838
G1 X116.608 Y128.461 E32.876
G1 X117.485 Y127.803 E32.931
G1 X118.249 Y126.902 E32.990
G1 X118.873 Y126.001 E33.045
G1 X119.791 Y124.714 E33.124
G1 X120.610 Y123.883 E33.182
G1 X121.385 Y123.372 E33.228
G1 X123.967 Y122.182 E33.370
G1 X127.840 Y120.882 E33.574
G1 X130.498 Y119.822 E33.716
G1 X131.456 Y119.218 E33.773
G1 X133.855 Y116.862 E33.941
G1 X135.436 Y115.060 E34.060
G1 X136.104 Y114.339 E34.109
G1 X136.878 Y113.805 E34.156
G1 X137.782 Y113.458 E34.205
G1 X139.590 Y112.905 E34.299
G1 X141.010 Y112.368 E34.375
G1 X142.172 Y111.843 E34.438
G1 X144.230 Y110.684 E34.556
G1 X145.270 Y109.947 E34.620
G1 X146.037 Y109.525 E34.663
G1 X147.195 Y108.753 E34.733
G1 X148.498 Y107.785 E34.814
G1 X151.855 Y105.713 E35.011
G1 X155.046 Y104.119 E35.189
G1 X156.116 Y103.388 E35.253
G1 X157.536 Y102.462 E35.338
G1 X158.956 Y101.247 E35.431
G1 X160.635 Y100.316 E35.527
G1 X162.830 Y99.265 E35.648
G1 X163.604 Y99.020 E35.689
G1 X164.637 Y98.988 E35.740
G1 X165.283 Y98.859 E35.773
G1 X166.057 Y98.457 E35.817
G1 X167.090 Y97.698 E35.881
G1 X168.123 Y96.834 E35.948
G1 X168.633 Y96.138 E35.991
G1 X168.898 Y95.530 E36.024
G1 X169.079 Y94.465 E36.078
G1 X169.077 Y93.178 E36.142
G1 X168.935 Y92.406 E36.181
G1 X168.640 Y91.908 E36.210
G1 X168.033 Y91.247 E36.255
G1 X166.331 Y90.089 E36.358
G1 X165.730 Y89.831 E36.390
G1 X164.687 Y89.574 E36.444
G1 X163.604 Y89.498 E36.498
G1 X162.184 Y89.553 E36.569
G1 X161.151 Y89.804 E36.622
G1 X159.602 Y90.557 E36.708
G1 X158.182 Y91.065 E36.783
G1 X156.632 Y91.474 E36.863
G1 X155.987 Y91.706 E36.897
G1 X154.825 Y92.054 E36.958
G1 X153.017 Y92.509 E37.051
G1 X151.855 Y92.892 E37.112
G1 X149.531 Y93.747 E37.235
G1 X148.627 Y93.985 E37.282
G1 X147.336 Y94.245 E37.348
G1 X146.432 Y94.267 E37.393
G1 X145.400 Y94.152 E37.445
G1 X144.883 Y93.977 E37.472
G1 X143.979 Y93.459 E37.524
G1 X143.334 Y92.936 E37.565
G1 X142.739 Y92.277 E37.610
G1 X142.203 Y91.376 E37.662
G1 X141.590 Y90.089 E37.733
G1 X141.067 Y88.544 E37.814
G1 X141.001 Y87.901 E37.847
G1 X141.102 Y86.227 E37.930
G1 X141.317 Y85.455 E37.970
G1 X141.914 Y84.313 E38.035
G1 X142.481 Y82.752 E38.117
G1 X142.932 Y81.851 E38.168
G1 X143.463 Y81.234 E38.208
G1 X144.027 Y80.049 E38.274
G1 X144.621 Y79.405 E38.317
G1 X144.948 Y78.633 E38.359
G1 X145.341 Y77.861 E38.402
G1 X146.401 Y76.316 E38.496
G1 X147.203 Y75.544 E38.552
G1 X147.398 Y74.900 E38.585
G1 X147.757 Y73.870 E38.639
G1 X147.780 Y73.117 E38.677
;segType:Perimeter
G0 X148.152 Y72.821 F5400
G1 F750 X147.883 Y70.910 E38.773
G1 X147.631 Y70.266 E38.808
G1 X147.104 Y69.623 E38.849
G1 X146.045 Y68.820 E38.916
G1 X143.979 Y67.909 E39.028
G1 X143.076 Y67.762 E39.074
G1 X141.655 Y67.766 E39.145
G1 X141.139 Y67.890 E39.171
G1 X140.364 Y68.148 E39.212
G1 X139.977 Y68.335 E39.234
G1 X139.460 Y68.711 E39.265
G1 X138.298 Y69.724 E39.342
G1 X136.362 Y71.800 E39.484
G1 X132.359 Y75.385 E39.752
G1 X131.122 Y76.702 E39.842
G1 X128.873 Y78.747 E39.994
G1 X127.155 Y80.178 E40.105
G1 X125.646 Y81.246 E40.198
G1 X124.484 Y81.907 E40.264
G1 X123.580 Y82.159 E40.311
G1 X122.934 Y82.150 E40.343
G1 X122.289 Y81.891 E40.378
G1 X121.925 Y81.593 E40.401
G1 X121.193 Y80.821 E40.455
G1 X120.610 Y79.797 E40.513
G1 X120.017 Y78.375 E40.590
G1 X119.475 Y77.346 E40.648
G1 X118.966 Y76.702 E40.689
G1 X118.415 Y76.381 E40.721
G1 X117.512 Y76.280 E40.766
G1 X116.995 Y76.393 E40.793
G1 X115.575 Y77.056 E40.871
G1 X115.188 Y77.312 E40.894
G1 X114.370 Y78.118 E40.951
G1 X113.896 Y78.879 E40.996
G1 X113.019 Y80.692 E41.097
G1 X112.615 Y81.336 E41.134
G1 X112.089 Y81.908 E41.173
G1 X110.800 Y83.009 E41.258
G1 X110.320 Y83.524 E41.293
G1 X109.573 Y84.296 E41.347
G1 X107.441 Y85.994 E41.483
G1 X105.768 Y87.128 E41.583
G1 X103.438 Y88.460 E41.717
G1 X102.147 Y88.988 E41.787
G1 X100.340 Y89.620 E41.882
G1 X98.790 Y89.952 E41.961
G1 X95.563 Y90.301 E42.123
G1 X93.626 Y90.558 E42.221
G1 X92.981 Y90.828 E42.256
G1 X92.335 Y91.203 E42.293
G1 X91.431 Y91.837 E42.348
G1 X89.495 Y93.000 E42.461
G1 X88.203 Y93.911 E42.540
G1 X87.429 Y94.571 E42.590
G1 X85.802 Y96.138 E42.703
G1 X84.427 Y97.683 E42.806
G1 X83.384 Y99.099 E42.894
G1 X82.781 Y100.116 E42.953
G1 X82.308 Y101.287 E43.016
G1 X81.564 Y102.832 E43.102
G1 X80.792 Y104.763 E43.205
G1 X80.278 Y106.565 E43.299
G1 X80.136 Y107.723 E43.357
G1 X80.141 Y109.396 E43.440
G1 X80.404 Y111.070 E43.525
G1 X80.630 Y111.971 E43.571
G1 X80.781 Y113.387 E43.642
G1 X80.918 Y114.030 E43.675
G1 X81.270 Y115.189 E43.736
G1 X81.444 Y115.961 E43.775
G1 X81.691 Y116.733 E43.816
G1 X82.106 Y117.634 E43.865
G1 X82.587 Y118.407 E43.910
G1 X83.506 Y119.951 E44.000
G1 X84.309 Y121.238 E44.076
G1 X84.767 Y121.882 E44.115
G1 X86.228 Y124.070 E44.246
G1 X86.720 Y124.714 E44.287
G1 X87.381 Y125.229 E44.329
G1 X88.462 Y125.816 E44.390
G1 X89.395 Y126.387 E44.445
G1 X91.560 Y127.844 E44.575
G1 X92.981 Y128.632 E44.656
G1 X94.013 Y129.051 E44.711
G1 X94.788 Y129.400 E44.754
G1 X95.407 Y129.605 E44.786
G1 X97.628 Y130.156 E44.901
G1 X99.049 Y130.422 E44.973
G1 X101.502 Y130.700 E45.096
G1 X103.309 Y131.028 E45.188
G1 X104.342 Y131.148 E45.239
G1 X106.150 Y131.306 E45.330
G1 X107.441 Y131.295 E45.394
G1 X108.990 Y131.070 E45.472
G1 X110.152 Y130.818 E45.532
G1 X111.443 Y130.479 E45.598
G1 X113.122 Y130.169 E45.683
G1 X114.155 Y129.902 E45.737
G1 X115.317 Y129.521 E45.798
G1 X116.220 Y129.139 E45.847
G1 X116.737 Y128.854 E45.876
G1 X117.770 Y128.090 E45.940
G1 X118.544 Y127.172 E46.000
G1 X119.168 Y126.258 E46.055
G1 X120.085 Y124.971 E46.134
G1 X120.700 Y124.328 E46.179
G1 X121.382 Y123.813 E46.221
G1 X122.547 Y123.252 E46.286
G1 X124.354 Y122.453 E46.384
G1 X127.453 Y121.425 E46.547
G1 X129.906 Y120.494 E46.678
G1 X130.810 Y120.108 E46.727
G1 X131.656 Y119.565 E46.777
G1 X133.134 Y118.165 E46.879
G1 X134.270 Y116.991 E46.960
G1 X135.933 Y115.060 E47.088
G1 X136.464 Y114.545 E47.124
G1 X137.308 Y114.030 E47.174
G1 X138.557 Y113.609 E47.239
G1 X139.590 Y113.312 E47.293
G1 X140.235 Y113.076 E47.327
G1 X141.914 Y112.414 E47.417
G1 X142.946 Y111.875 E47.476
G1 X144.496 Y110.983 E47.565
G1 X145.448 Y110.297 E47.623
G1 X146.562 Y109.670 E47.687
G1 X147.853 Y108.781 E47.765
G1 X148.543 Y108.238 E47.809
G1 X149.789 Y107.435 E47.883
G1 X151.210 Y106.596 E47.965
G1 X152.055 Y106.050 E48.016
G1 X155.341 Y104.411 E48.199
G1 X156.374 Y103.683 E48.262
G1 X157.665 Y102.869 E48.338
G1 X158.680 Y101.931 E48.407
G1 X159.473 Y101.391 E48.455
G1 X161.112 Y100.515 E48.547
G1 X163.302 Y99.485 E48.668
G1 X163.862 Y99.371 E48.697
G1 X164.637 Y99.387 E48.735
G1 X165.283 Y99.272 E48.768
G1 X165.928 Y99.007 E48.803
G1 X166.315 Y98.759 E48.826
G1 X167.736 Y97.706 E48.914
G1 X168.588 Y96.911 E48.972
G1 X169.078 Y96.138 E49.018
G1 X169.317 Y95.495 E49.052
G1 X169.485 Y94.208 E49.117
G1 X169.427 Y92.792 E49.188
G1 X169.204 Y92.020 E49.228
G1 X168.936 Y91.633 E49.251
G1 X168.252 Y90.916 E49.301
G1 X166.864 Y89.960 E49.385
G1 X166.057 Y89.531 E49.430
G1 X165.283 Y89.278 E49.471
G1 X164.508 Y89.157 E49.510
G1 X162.959 Y89.108 E49.587
G1 X161.538 Y89.258 E49.659
G1 X161.022 Y89.429 E49.686
G1 X159.413 Y90.217 E49.775
G1 X157.407 Y90.902 E49.881
G1 X156.632 Y91.069 E49.920
G1 X155.987 Y91.301 E49.955
G1 X154.825 Y91.662 E50.015
G1 X153.017 Y92.105 E50.108
G1 X152.242 Y92.352 E50.149
G1 X149.229 Y93.435 E50.309
G1 X147.336 Y93.869 E50.405
G1 X146.045 Y93.874 E50.470
G1 X145.270 Y93.731 E50.509
G1 X144.754 Y93.487 E50.538
G1 X144.108 Y93.079 E50.576
G1 X143.361 Y92.406 E50.626
G1 X142.781 Y91.633 E50.674
G1 X142.111 Y90.346 E50.746
G1 X141.492 Y88.673 E50.835
G1 X141.362 Y88.029 E50.868
G1 X141.429 Y87.514 E50.894
G1 X141.477 Y86.227 E50.958
G1 X141.736 Y85.455 E50.999
G1 X142.232 Y84.554 E51.050
G1 X142.892 Y82.752 E51.146
G1 X143.205 Y82.137 E51.181
G1 X143.850 Y81.361 E51.231
G1 X144.062 Y80.821 E51.260
G1 X144.320 Y80.306 E51.289
G1 X145.007 Y79.534 E51.340
G1 X145.359 Y78.633 E51.388
G1 X145.638 Y78.118 E51.418
G1 X146.406 Y76.960 E51.487
G1 X146.817 Y76.445 E51.520
G1 X147.285 Y76.059 E51.550
G1 X147.641 Y75.544 E51.581
G1 X147.819 Y74.771 E51.621
G1 X148.039 Y74.257 E51.649
G1 X148.175 Y73.742 E51.675
G1 X148.155 Y72.860 E51.719
;segType:HShell
G0 F2400 E47.219
G0 F5400 X146.906 Y74.771
G0 F2400 E51.719
G1 F750 X93.584 Y127.932 E55.476
G1 X93.265 Y127.674 E55.496
G1 X147.233 Y73.870 E59.298
G1 X147.172 Y73.355 E59.324
G1 X92.817 Y127.546 E63.153
G1 X92.498 Y127.288 E63.174
G1 X147.241 Y72.712 E67.030
G1 X147.180 Y72.197 E67.056
G1 X92.179 Y127.031 E70.931
G1 X91.861 Y126.773 E70.951
G1 X147.119 Y71.682 E74.844
G1 X146.929 Y71.296 E74.866
G1 X91.412 Y126.645 E78.777
G1 X91.093 Y126.387 E78.797
G1 X146.869 Y70.781 E82.726
G1 X146.550 Y70.524 E82.747
G1 X90.775 Y126.130 E86.676
G1 X90.456 Y125.872 E86.697
G1 X146.360 Y70.138 E90.635
G1 X145.912 Y70.009 E90.658
G1 X90.008 Y125.743 E94.597
G1 X89.689 Y125.486 E94.617
G1 X145.593 Y69.751 E98.555
G1 X145.274 Y69.494 E98.576
G1 X89.370 Y125.229 E102.514
G1 X88.922 Y125.100 E102.537
G1 X144.826 Y69.365 E106.476
G1 X144.378 Y69.237 E106.499
G1 X88.603 Y124.842 E110.428
G1 X88.284 Y124.585 E110.449
G1 X144.059 Y68.979 E114.378
G1 X143.656 Y68.806 E114.400
G1 X87.880 Y124.412 E118.329
G1 X87.622 Y124.094 E118.350
G1 X143.010 Y68.874 E122.252
G1 X142.623 Y68.684 E122.273
G1 X87.364 Y123.776 E126.166
G1 X87.106 Y123.458 E126.186
G1 X141.848 Y68.881 E130.043
G1 X141.202 Y68.949 E130.075
G1 X86.848 Y123.140 E133.905
G1 X86.589 Y122.822 E133.925
G1 X135.263 Y74.295 E137.354
G0 X145.547 Y76.702 F5400
G1 F750 X94.032 Y128.060 E140.983
G1 X94.481 Y128.189 E141.006
G1 X144.446 Y78.375 E144.526
G0 X143.732 Y79.663 F5400
G1 F750 X94.800 Y128.447 E147.974
G1 X95.248 Y128.575 E147.997
G1 X142.889 Y81.079 E151.353
G0 X142.046 Y82.494 F5400
G1 F750 X95.696 Y128.704 E154.618
G1 X96.144 Y128.833 E154.642
G1 X141.848 Y83.267 E157.861
G0 X141.393 Y84.296 F5400
G1 F750 X96.592 Y128.961 E161.018
G1 X97.040 Y129.090 E161.041
G1 X140.937 Y85.326 E164.133
G1 X140.610 Y86.227 E164.181
G1 X97.488 Y129.219 E167.219
G1 X98.065 Y129.219 E167.248
G1 X140.671 Y86.742 E170.249
G1 X140.474 Y87.514 E170.289
G1 X98.513 Y129.348 E173.245
G1 X98.961 Y129.476 E173.268
G1 X140.534 Y88.029 E176.197
G1 X140.595 Y88.544 E176.223
G1 X99.409 Y129.605 E179.125
G1 X99.986 Y129.605 E179.153
G1 X140.656 Y89.059 E182.018
G1 X140.846 Y89.445 E182.040
G1 X100.435 Y129.734 E184.887
G1 X101.012 Y129.734 E184.916
G1 X141.036 Y89.831 E187.735
G1 X141.096 Y90.346 E187.761
G1 X101.460 Y129.862 E190.553
G1 X102.037 Y129.862 E190.582
G1 X141.286 Y90.732 E193.347
G1 X141.476 Y91.118 E193.369
G1 X102.485 Y129.991 E196.116
G1 X103.062 Y129.991 E196.144
G1 X141.666 Y91.505 E198.864
G1 X141.856 Y91.891 E198.885
G1 X103.510 Y130.120 E201.587
G1 X103.958 Y130.249 E201.610
G1 X142.046 Y92.277 E204.293
G1 X142.364 Y92.534 E204.314
G1 X104.536 Y130.249 E206.979
G1 X105.113 Y130.249 E207.007
G1 X142.554 Y92.921 E209.645
G1 X142.873 Y93.178 E209.666
G1 X105.561 Y130.377 E212.294
G1 X106.138 Y130.377 E212.323
G1 X143.063 Y93.564 E214.924
G1 X143.382 Y93.822 E214.945
G1 X106.715 Y130.377 E217.528
G1 X107.292 Y130.377 E217.557
G1 X143.701 Y94.079 E220.122
G1 X144.149 Y94.208 E220.145
G1 X107.870 Y130.377 E222.701
G1 X108.576 Y130.249 E222.737
G1 X144.468 Y94.465 E225.265
G1 X144.916 Y94.594 E225.288
G1 X109.282 Y130.120 E227.799
G1 X110.117 Y129.862 E227.842
G1 X145.364 Y94.723 E230.325
G1 X145.812 Y94.851 E230.349
G1 X110.824 Y129.734 E232.814
G1 X111.530 Y129.605 E232.849
G1 X146.389 Y94.851 E235.305
G1 X146.967 Y94.851 E235.334
G1 X112.236 Y129.476 E237.781
G1 X113.072 Y129.219 E237.824
G1 X147.544 Y94.851 E240.253
G1 X148.250 Y94.723 E240.289
G1 X113.778 Y129.090 E242.717
G1 X114.613 Y128.833 E242.761
G1 X148.956 Y94.594 E245.180
G1 X149.792 Y94.336 E245.224
G1 X121.000 Y123.040 E247.252
G0 X122.094 Y122.526 F5400
G1 F750 X150.627 Y94.079 E249.262
G1 X151.592 Y93.693 E249.314
G1 X123.188 Y122.011 E251.315
G1 X124.152 Y121.625 E251.367
G1 X152.427 Y93.435 E253.359
G1 X153.392 Y93.049 E253.411
G1 X125.117 Y121.238 E255.403
G1 X125.952 Y120.981 E255.446
G1 X154.098 Y92.921 E257.429
G1 X154.933 Y92.663 E257.473
G1 X126.788 Y120.724 E259.455
G1 X127.623 Y120.466 E259.499
G1 X155.640 Y92.534 E261.473
G1 X156.604 Y92.148 E261.525
G1 X128.717 Y119.951 E263.489
G1 X129.552 Y119.694 E263.533
G1 X157.310 Y92.020 E265.488
G1 X158.146 Y91.762 E265.532
G1 X136.197 Y113.644 E267.078
G0 X137.291 Y113.129 F5400
G1 F750 X158.981 Y91.505 E268.606
G1 X159.946 Y91.118 E268.658
G1 X138.255 Y112.743 E270.186
G1 X138.962 Y112.614 E270.222
G1 X161.039 Y90.604 E271.777
G1 X162.004 Y90.217 E271.829
G1 X139.926 Y112.228 E273.384
G1 X140.891 Y111.842 E273.436
G1 X162.581 Y90.217 E274.964
G1 X163.287 Y90.089 E275.000
G1 X141.984 Y111.327 E276.501
G0 X143.078 Y110.812 F5400
G1 F750 X163.864 Y90.089 E277.965
G1 X164.312 Y90.217 E277.989
G1 X144.688 Y109.783 E279.371
G0 X146.298 Y108.753 F5400
G1 F750 X164.890 Y90.217 E280.681
G1 X165.338 Y90.346 E280.704
G1 X148.166 Y107.466 E281.914
G0 X149.776 Y106.436 F5400
G1 F750 X165.786 Y90.475 E283.042
G1 X166.105 Y90.732 E283.062
G1 X151.257 Y105.535 E284.108
G0 X152.609 Y104.763 F5400
G1 F750 X166.553 Y90.861 E285.090
G1 X166.872 Y91.118 E285.111
G1 X153.703 Y104.248 E286.039
G0 X154.925 Y103.604 F5400
G1 F750 X167.191 Y91.376 E286.903
G1 X167.510 Y91.633 E286.923
G1 X156.665 Y102.446 E287.687
G0 X159.178 Y100.515 F5400
G1 F750 X167.829 Y91.891 E288.296
G1 X168.148 Y92.148 E288.317
G1 X160.401 Y99.871 E288.863
G0 X161.495 Y99.356 F5400
G1 F750 X168.337 Y92.534 E289.345
G1 X168.527 Y92.921 E289.366
G1 X162.588 Y98.842 E289.785
G1 X163.424 Y98.584 E289.828
G1 X168.459 Y93.564 E290.183
G1 X168.649 Y93.950 E290.204
G1 X164.130 Y98.455 E290.523
G1 X164.707 Y98.455 E290.552
G1 X168.451 Y94.723 E290.815
G1 X168.383 Y95.366 E290.848
G1 X165.543 Y98.198 E291.048
G0 F5400 X159.171 Y100.896
G0 X134.777 Y115.060
G1 F750 X130.775 Y119.050 E291.330
G0 F5400 X120.670 Y123.622
G0 X118.806 Y125.229
G1 F750 X115.578 Y128.447 E291.557
G0 X116.930 Y127.674 F5400
G1 F750 X117.575 Y127.031 E291.602
G0 X108.925 Y86.168 F5400
G1 F750 X81.812 Y113.199 E293.513
G1 X81.812 Y112.623 E293.541
G1 X106.601 Y87.909 E295.288
G0 X105.310 Y88.621 F5400
G1 F750 X81.683 Y112.176 E296.952
G1 X81.683 Y111.601 E296.981
G1 X103.890 Y89.462 E298.545
G1 X102.986 Y89.787 E298.593
G1 X81.554 Y111.154 E300.103
G1 X81.425 Y110.708 E300.126
G1 X101.953 Y90.241 E301.572
G1 X101.179 Y90.438 E301.612
G1 X81.296 Y110.261 E303.013
G1 X81.296 Y109.685 E303.042
G1 X100.275 Y90.764 E304.379
G1 X99.629 Y90.832 E304.411
G1 X81.167 Y109.239 E305.712
G1 X81.167 Y108.663 E305.741
G1 X98.855 Y91.029 E306.987
G1 X98.338 Y90.968 E307.013
G1 X81.167 Y108.088 E308.222
G1 X81.296 Y107.384 E308.258
G1 X97.564 Y91.165 E309.404
G1 X96.918 Y91.234 E309.436
G1 X81.425 Y106.680 E310.528
G1 X81.683 Y105.847 E310.571
G1 X96.273 Y91.302 E311.599
G1 X95.627 Y91.370 E311.632
G1 X81.812 Y105.143 E312.605
G0 X83.103 Y102.129 F5400
G1 F750 X93.561 Y91.703 E313.342
G1 X94.336 Y91.506 E313.381
G1 X82.587 Y103.219 E314.209
G1 X82.329 Y104.052 E314.253
G1 X94.981 Y91.438 E315.144
G0 X91.754 Y92.930 F5400
G1 F750 X83.620 Y101.039 E315.717
G0 X84.136 Y99.949 F5400
G1 F750 X90.463 Y93.641 E316.163
G0 F5400 X103.694 Y88.981
G0 X109.965 Y84.725
G0 X113.960 Y81.148
G1 F750 X117.834 Y77.286 E316.436
G1 X118.221 Y77.476 E316.457
G1 X81.941 Y113.645 E319.013
G1 X82.071 Y114.092 E319.036
G1 X118.608 Y77.665 E321.610
G1 X118.867 Y77.983 E321.631
G1 X82.200 Y114.539 E324.214
G1 X82.329 Y114.985 E324.237
G1 X118.996 Y78.430 E326.820
G1 X119.254 Y78.748 E326.840
G1 X82.458 Y115.432 E329.433
G1 X82.587 Y115.879 E329.456
G1 X119.383 Y79.194 E332.048
G1 X119.512 Y79.641 E332.071
G1 X82.716 Y116.325 E334.664
G1 X82.845 Y116.772 E334.687
G1 X119.770 Y79.959 E337.288
G1 X119.900 Y80.406 E337.311
G1 X83.103 Y117.090 E339.903
G1 X83.233 Y117.537 E339.927
G1 X120.158 Y80.724 E342.528
G1 X120.287 Y81.170 E342.551
G1 X83.491 Y117.855 E345.143
G1 X83.749 Y118.173 E345.164
G1 X120.545 Y81.488 E347.756
G1 X120.803 Y81.806 E347.777
G1 X83.878 Y118.620 E350.378
G1 X84.136 Y118.938 E350.398
G1 X121.061 Y82.124 E353.000
G1 X121.449 Y82.314 E353.021
G1 X84.395 Y119.256 E355.632
G1 X84.524 Y119.702 E355.655
G1 X121.707 Y82.632 E358.274
G1 X122.094 Y82.821 E358.296
G1 X84.782 Y120.020 E360.924
G1 X85.040 Y120.338 E360.945
G1 X122.482 Y83.010 E363.582
G1 X122.869 Y83.199 E363.604
G1 X85.169 Y120.785 E366.260
G1 X85.427 Y121.103 E366.280
G1 X123.515 Y83.131 E368.964
G1 X124.031 Y83.192 E368.989
G1 X85.686 Y121.421 E371.691
G1 X85.944 Y121.739 E371.711
G1 X124.935 Y82.866 E374.458
G0 X126.097 Y82.283 F5400
G1 F750 X86.202 Y122.057 E377.269
G1 X86.460 Y122.375 E377.289
G1 X128.292 Y80.670 E380.236
G0 F5400 X123.655 Y82.734
G0 X114.606 Y79.929
G1 F750 X116.930 Y77.612 E380.400
; ------------------------------------
; Layer #1
; ------------------------------------
G21 ; mm
G90 ; abs
G92 E0 ; reset extr
M106 S51
;segType:Support
G0 F2400 E-4.500
G0 F600 Z0.600
G0 F5400 X150.200 Y78.400
G0 F2400 E0.000
G1 F1350 X155.600 Y78.400 E0.269
G1 X155.600 Y76.600 E0.359
G1 X150.200 Y76.600 E0.629
G1 X150.200 Y74.800 E0.718
G1 X155.600 Y74.800 E0.988
G1 X155.600 Y73.000 E1.078
G1 X150.200 Y73.000 E1.347
G0 F2400 E-3.153
G0 F5400 X150.781 Y73.000
G0 F5400 X150.200 Y80.200
G0 F2400 E1.347
G1 F1350 X155.600 Y80.200 E1.616
G1 X155.600 Y82.000 E1.706
G1 X150.200 Y82.000 E1.976
G1 X150.200 Y83.800 E2.066
G1 X155.600 Y83.800 E2.335
G1 X155.600 Y85.600 E2.425
G1 X150.200 Y85.600 E2.694
G1 X150.200 Y87.400 E2.784
G1 X152.000 Y87.400 E2.874
G1 X152.000 Y89.200 E2.964
G1 X150.200 Y89.200 E3.053
;segType:Loop
G0 F2400 E-1.447
G0 F5400 X150.782 Y89.200
G0 F5400 X150.158 Y93.997
G0 F2400 E3.053
G1 F900 X148.240 Y94.495 E3.152
G1 X147.078 Y94.659 E3.211
G1 X145.916 Y94.635 E3.269
G1 X144.883 Y94.401 E3.322
G1 X144.108 Y94.015 E3.365
G1 X143.334 Y93.486 E3.412
G1 X142.486 Y92.663 E3.470
G1 X142.000 Y91.891 E3.516
G1 X141.096 Y89.960 E3.622
G1 X140.693 Y88.673 E3.690
G1 X140.615 Y87.901 E3.728
G1 X140.713 Y86.099 E3.818
G1 X140.973 Y85.197 E3.865
G1 X141.512 Y84.168 E3.923
G1 X142.094 Y82.623 E4.006
G1 X142.492 Y81.722 E4.055
G1 X143.188 Y80.821 E4.112
G1 X143.673 Y79.791 E4.168
G1 X144.318 Y79.019 E4.218
G1 X144.660 Y78.247 E4.261
G1 X145.076 Y77.474 E4.304
G1 X146.000 Y76.059 E4.389
G1 X146.820 Y75.109 E4.451
G1 X147.363 Y73.742 E4.525
G1 X147.380 Y73.227 E4.550
G1 X147.239 Y71.811 E4.621
G1 X146.949 Y70.816 E4.673
G1 X146.562 Y70.285 E4.706
G1 X145.699 Y69.623 E4.760
G1 X144.774 Y69.108 E4.813
G1 X143.850 Y68.745 E4.862
G1 X142.946 Y68.543 E4.909
G1 X141.784 Y68.556 E4.967
G1 X140.881 Y68.838 E5.014
G1 X140.364 Y69.107 E5.043
G1 X139.848 Y69.494 E5.075
G1 X139.124 Y70.138 E5.123
G1 X137.266 Y72.153 E5.260
G1 X133.521 Y75.521 E5.512
G1 X131.456 Y77.596 E5.658
G1 X129.390 Y79.504 E5.798
G1 X127.840 Y80.791 E5.898
G1 X126.808 Y81.556 E5.962
G1 X125.646 Y82.322 E6.032
G1 X124.871 Y82.685 E6.075
G1 X123.838 Y82.950 E6.128
G1 X122.934 Y82.959 E6.173
G1 X122.289 Y82.809 E6.206
G1 X121.772 Y82.554 E6.235
G1 X120.924 Y81.851 E6.290
G1 X120.251 Y80.950 E6.346
G1 X119.780 Y80.049 E6.396
G1 X119.205 Y78.762 E6.467
G1 X118.708 Y77.861 E6.518
G1 X118.307 Y77.346 E6.551
G1 X117.899 Y77.178 E6.573
G1 X117.382 Y77.200 E6.599
G1 X116.350 Y77.601 E6.654
G1 X115.704 Y77.977 E6.691
G1 X115.188 Y78.461 E6.726
G1 X114.807 Y79.019 E6.760
G1 X114.062 Y80.435 E6.840
G1 X113.313 Y81.722 E6.914
G1 X112.486 Y82.623 E6.975
G1 X110.669 Y84.358 E7.101
G1 X108.861 Y85.931 E7.220
G1 X107.828 Y86.704 E7.284
G1 X105.892 Y87.972 E7.400
G1 X104.342 Y88.879 E7.490
G1 X103.309 Y89.367 E7.547
G1 X101.631 Y90.021 E7.636
G1 X100.340 Y90.379 E7.703
G1 X99.049 Y90.639 E7.769
G1 X97.370 Y90.816 E7.853
G1 X95.950 Y91.015 E7.925
G1 X94.272 Y91.202 E8.009
G1 X93.651 Y91.376 E8.041
G1 X92.876 Y91.762 E8.084
G1 X91.948 Y92.471 E8.143
G1 X90.554 Y93.307 E8.224
G1 X89.391 Y94.079 E8.293
G1 X87.816 Y95.232 E8.391
G1 X86.138 Y96.853 E8.507
G1 X84.851 Y98.327 E8.605
G1 X83.943 Y99.604 E8.683
G1 X83.297 Y100.612 E8.743
G1 X82.836 Y101.673 E8.800
G1 X82.152 Y103.089 E8.879
G1 X81.490 Y104.714 E8.966
G1 X81.109 Y106.178 E9.042
G1 X80.927 Y107.079 E9.088
G1 X80.893 Y108.495 E9.158
G1 X81.048 Y110.040 E9.236
G1 X81.404 Y111.842 E9.327
G1 X81.565 Y113.387 E9.405
G1 X81.704 Y114.159 E9.444
G1 X82.095 Y115.704 E9.524
G1 X82.374 Y116.605 E9.571
G1 X83.028 Y117.892 E9.643
G1 X84.588 Y120.458 E9.793
G1 X85.572 Y121.882 E9.879
G1 X86.783 Y123.676 E9.987
G1 X87.300 Y124.323 E10.028
G1 X87.816 Y124.708 E10.060
G1 X89.882 Y125.932 E10.180
G1 X91.689 Y127.143 E10.289
G1 X92.825 Y127.803 E10.354
G1 X94.117 Y128.447 E10.426
G1 X95.821 Y129.093 E10.517
G1 X96.293 Y129.219 E10.541
G1 X97.937 Y129.605 E10.626
G1 X99.694 Y129.889 E10.715
G1 X101.244 Y130.048 E10.792
G1 X102.276 Y130.183 E10.844
G1 X104.471 Y130.532 E10.955
G1 X105.892 Y130.669 E11.026
G1 X107.441 Y130.685 E11.104
G1 X108.732 Y130.544 E11.168
G1 X110.023 Y130.277 E11.234
G1 X111.314 Y129.946 E11.301
G1 X112.993 Y129.627 E11.386
G1 X113.896 Y129.370 E11.433
G1 X115.058 Y128.976 E11.494
G1 X115.962 Y128.590 E11.543
G1 X116.608 Y128.210 E11.580
G1 X117.382 Y127.596 E11.630
G1 X118.153 Y126.645 E11.691
G1 X118.999 Y125.357 E11.768
G1 X119.577 Y124.600 E11.815
G1 X120.610 Y123.598 E11.887
G1 X121.256 Y123.204 E11.925
G1 X123.967 Y121.955 E12.074
G1 X125.377 Y121.496 E12.148
G1 X127.195 Y120.871 E12.243
G1 X129.777 Y119.839 E12.382
G1 X130.810 Y119.310 E12.440
G1 X131.456 Y118.827 E12.480
G1 X134.038 Y116.218 E12.663
G1 X135.155 Y114.931 E12.748
G1 X135.973 Y114.030 E12.809
G1 X136.620 Y113.548 E12.849
G1 X137.395 Y113.198 E12.892
G1 X139.977 Y112.363 E13.027
G1 X141.268 Y111.860 E13.096
G1 X142.301 Y111.337 E13.154
G1 X143.843 Y110.426 E13.243
G1 X145.012 Y109.580 E13.315
G1 X146.170 Y108.882 E13.383
G1 X147.465 Y107.998 E13.461
G1 X148.627 Y107.015 E13.537
G1 X151.080 Y105.461 E13.682
G1 X152.242 Y104.798 E13.749
G1 X154.954 Y103.482 E13.899
G1 X155.858 Y102.967 E13.951
G1 X157.149 Y102.073 E14.029
G1 X157.923 Y101.340 E14.083
G1 X158.956 Y100.550 E14.147
G1 X161.538 Y99.154 E14.294
G1 X162.700 Y98.606 E14.358
G1 X163.604 Y98.379 E14.404
G1 X165.154 Y98.356 E14.482
G1 X165.784 Y98.069 E14.516
G1 X167.069 Y97.168 E14.595
G1 X167.865 Y96.451 E14.648
G1 X168.372 Y95.752 E14.691
G1 X168.668 Y94.980 E14.732
G1 X168.758 Y94.079 E14.778
G1 X168.687 Y93.049 E14.829
G1 X168.510 Y92.549 E14.856
G1 X168.252 Y92.152 E14.879
G1 X167.607 Y91.521 E14.924
G1 X166.703 Y90.864 E14.980
G1 X165.928 Y90.376 E15.026
G1 X165.024 Y90.060 E15.073
G1 X163.992 Y89.925 E15.125
G1 X162.830 Y89.916 E15.183
G1 X161.840 Y90.089 E15.233
G1 X160.118 Y90.921 E15.329
G1 X158.698 Y91.427 E15.404
G1 X157.536 Y91.745 E15.464
G1 X156.503 Y92.060 E15.518
G1 X154.696 Y92.583 E15.612
G1 X153.404 Y92.902 E15.678
G1 X152.113 Y93.283 E15.745
G1 X151.210 Y93.640 E15.794
G1 X150.195 Y93.985 E15.847
G0 X150.029 Y93.628 F5400
G1 F900 X148.111 Y94.129 E15.946
G1 X147.078 Y94.277 E15.998
G1 X145.916 Y94.254 E16.056
G1 X145.012 Y94.028 E16.103
G1 X144.238 Y93.619 E16.147
G1 X143.463 Y93.054 E16.194
G1 X142.708 Y92.277 E16.248
G1 X142.256 Y91.505 E16.293
G1 X141.469 Y89.831 E16.385
G1 X141.091 Y88.673 E16.446
G1 X140.981 Y87.901 E16.485
G1 X141.078 Y86.227 E16.569
G1 X141.244 Y85.584 E16.602
G1 X141.641 Y84.811 E16.645
G1 X142.043 Y83.940 E16.693
G1 X142.471 Y82.752 E16.756
G1 X142.889 Y81.851 E16.806
G1 X143.431 Y81.207 E16.848
G1 X143.786 Y80.435 E16.890
G1 X144.080 Y79.920 E16.919
G1 X144.625 Y79.324 E16.960
G1 X144.927 Y78.633 E16.997
G1 X145.476 Y77.603 E17.056
G1 X146.418 Y76.187 E17.140
G1 X147.120 Y75.415 E17.193
G1 X147.754 Y73.870 E17.276
G1 X147.773 Y73.355 E17.302
G1 X147.631 Y71.811 E17.379
G1 X147.373 Y70.781 E17.432
G1 X147.086 Y70.266 E17.461
G1 X146.735 Y69.880 E17.487
G1 X145.658 Y69.114 E17.553
G1 X144.897 Y68.722 E17.596
G1 X143.888 Y68.335 E17.650
G1 X142.946 Y68.154 E17.698
G1 X141.784 Y68.163 E17.756
G1 X141.139 Y68.316 E17.789
G1 X140.493 Y68.572 E17.823
G1 X139.848 Y68.972 E17.861
G1 X138.815 Y69.859 E17.929
G1 X137.024 Y71.811 E18.061
G1 X132.893 Y75.544 E18.339
G1 X131.585 Y76.900 E18.433
G1 X129.023 Y79.276 E18.608
G1 X127.195 Y80.771 E18.725
G1 X125.516 Y81.926 E18.827
G1 X124.742 Y82.314 E18.870
G1 X123.838 Y82.565 E18.917
G1 X122.934 Y82.576 E18.962
G1 X122.418 Y82.439 E18.989
G1 X121.901 Y82.151 E19.018
G1 X121.131 Y81.465 E19.070
G1 X120.648 Y80.821 E19.110
G1 X120.163 Y79.920 E19.161
G1 X119.463 Y78.375 E19.246
G1 X118.956 Y77.474 E19.297
G1 X118.544 Y77.005 E19.328
G1 X118.028 Y76.790 E19.356
G1 X117.382 Y76.794 E19.388
G1 X116.866 Y76.944 E19.415
G1 X116.234 Y77.217 E19.450
G1 X115.575 Y77.562 E19.487
G1 X114.933 Y78.118 E19.529
G1 X114.557 Y78.633 E19.561
G1 X113.178 Y81.207 E19.707
G1 X112.654 Y81.851 E19.748
G1 X111.453 Y83.009 E19.831
G1 X110.410 Y84.031 E19.904
G1 X109.397 Y84.940 E19.972
G1 X107.699 Y86.294 E20.080
G1 X105.762 Y87.573 E20.196
G1 X104.213 Y88.487 E20.286
G1 X103.180 Y88.990 E20.343
G1 X101.502 Y89.650 E20.433
G1 X100.211 Y90.011 E20.500
G1 X99.049 Y90.255 E20.559
G1 X97.370 Y90.428 E20.643
G1 X95.821 Y90.648 E20.722
G1 X94.272 Y90.809 E20.799
G1 X93.626 Y90.962 E20.832
G1 X92.722 Y91.373 E20.882
G1 X91.560 Y92.240 E20.954
G1 X90.400 Y92.921 E21.021
G1 X89.413 Y93.564 E21.080
G1 X87.627 Y94.851 E21.190
G1 X85.879 Y96.520 E21.310
G1 X84.847 Y97.667 E21.388
G1 X83.814 Y99.079 E21.475
G1 X82.910 Y100.468 E21.557
G1 X82.457 Y101.545 E21.616
G1 X81.619 Y103.289 E21.712
G1 X81.102 Y104.623 E21.784
G1 X80.925 Y105.406 E21.824
G1 X80.715 Y106.116 E21.861
G1 X80.538 Y107.079 E21.910
G1 X80.509 Y108.624 E21.987
G1 X80.680 Y110.297 E22.070
G1 X80.900 Y111.198 E22.117
G1 X81.125 Y112.743 E22.195
G1 X81.216 Y113.773 E22.246
G1 X81.718 Y115.832 E22.352
G1 X81.991 Y116.733 E22.399
G1 X82.393 Y117.582 E22.446
G1 X83.548 Y119.565 E22.560
G1 X84.588 Y121.192 E22.657
G1 X86.862 Y124.456 E22.855
G1 X87.429 Y124.940 E22.892
G1 X88.720 Y125.691 E22.967
G1 X90.140 Y126.585 E23.050
G1 X91.559 Y127.546 E23.136
G1 X93.368 Y128.554 E23.239
G1 X94.634 Y129.090 E23.308
G1 X95.821 Y129.503 E23.371
G1 X97.881 Y129.991 E23.476
G1 X99.694 Y130.279 E23.568
G1 X101.502 Y130.457 E23.658
G1 X104.471 Y130.919 E23.808
G1 X105.633 Y131.025 E23.867
G1 X105.892 Y131.053 E23.880
G1 X107.441 Y131.071 E23.957
G1 X108.732 Y130.935 E24.022
G1 X110.023 Y130.673 E24.087
G1 X111.960 Y130.201 E24.187
G1 X112.993 Y130.026 E24.239
G1 X114.026 Y129.745 E24.292
G1 X115.188 Y129.352 E24.354
G1 X116.350 Y128.849 E24.417
G1 X116.995 Y128.449 E24.455
G1 X117.765 Y127.803 E24.505
G1 X118.415 Y126.980 E24.557
G1 X119.792 Y124.971 E24.679
G1 X120.839 Y123.941 E24.752
G1 X121.514 Y123.524 E24.792
G1 X124.354 Y122.234 E24.947
G1 X125.775 Y121.781 E25.022
G1 X127.693 Y121.110 E25.123
G1 X130.164 Y120.109 E25.256
G1 X130.939 Y119.708 E25.300
G1 X131.689 Y119.179 E25.345
G1 X133.988 Y116.862 E25.508
G1 X135.909 Y114.674 E25.653
G1 X136.749 Y113.942 E25.709
G1 X137.524 Y113.570 E25.752
G1 X139.719 Y112.873 E25.867
G1 X140.752 Y112.494 E25.922
G1 X141.983 Y111.971 E25.988
G1 X143.979 Y110.825 E26.103
G1 X145.400 Y109.814 E26.190
G1 X146.303 Y109.281 E26.243
G1 X147.831 Y108.238 E26.335
G1 X149.144 Y107.154 E26.420
G1 X151.080 Y105.945 E26.534
G1 X152.372 Y105.186 E26.608
G1 X155.083 Y103.867 E26.759
G1 X155.987 Y103.365 E26.810
G1 X157.343 Y102.446 E26.892
G1 X158.569 Y101.324 E26.975
G1 X159.473 Y100.721 E27.029
G1 X161.668 Y99.541 E27.154
G1 X162.959 Y98.924 E27.225
G1 X163.604 Y98.763 E27.258
G1 X165.283 Y98.738 E27.342
G1 X165.928 Y98.463 E27.377
G1 X167.060 Y97.683 E27.445
G1 X167.855 Y97.039 E27.497
G1 X168.459 Y96.396 E27.541
G1 X168.871 Y95.624 E27.584
G1 X169.068 Y94.980 E27.618
G1 X169.150 Y93.950 E27.669
G1 X169.043 Y92.792 E27.727
G1 X168.668 Y92.020 E27.770
G1 X168.123 Y91.430 E27.810
G1 X167.222 Y90.732 E27.867
G1 X166.057 Y89.988 E27.936
G1 X165.198 Y89.703 E27.981
G1 X164.121 Y89.554 E28.036
G1 X162.959 Y89.520 E28.094
G1 X161.797 Y89.680 E28.152
G1 X161.280 Y89.899 E28.180
G1 X159.731 Y90.650 E28.266
G1 X158.182 Y91.178 E28.348
G1 X157.020 Y91.477 E28.407
G1 X156.374 Y91.690 E28.441
G1 X155.083 Y92.067 E28.508
G1 X153.792 Y92.394 E28.575
G1 X151.984 Y92.905 E28.669
G1 X150.822 Y93.367 E28.731
G1 X150.066 Y93.617 E28.771
;segType:Perimeter
G0 X150.173 Y93.183 F5400
G1 F900 X148.240 Y93.713 E28.871
G1 X147.207 Y93.884 E28.923
G1 X145.916 Y93.874 E28.987
G1 X145.270 Y93.729 E29.020
G1 X144.754 Y93.479 E29.049
G1 X143.979 Y92.975 E29.095
G1 X143.226 Y92.277 E29.146
G1 X142.757 Y91.633 E29.186
G1 X141.987 Y90.089 E29.272
G1 X141.484 Y88.673 E29.347
G1 X141.350 Y88.029 E29.380
G1 X141.420 Y87.386 E29.412
G1 X141.448 Y86.356 E29.464
G1 X141.594 Y85.712 E29.497
G1 X141.953 Y85.069 E29.533
G1 X142.320 Y84.296 E29.576
G1 X142.778 Y83.009 E29.644
G1 X143.181 Y82.108 E29.693
G1 X143.905 Y81.207 E29.751
G1 X144.089 Y80.692 E29.778
G1 X144.367 Y80.187 E29.807
G1 X144.754 Y79.799 E29.835
G1 X145.012 Y79.452 E29.856
G1 X145.229 Y78.890 E29.886
G1 X145.609 Y78.118 E29.929
G1 X146.691 Y76.475 E30.027
G1 X147.368 Y75.801 E30.075
G1 X147.676 Y75.029 E30.116
G1 X148.042 Y74.257 E30.159
G1 X148.170 Y73.613 E30.192
G1 X148.036 Y71.940 E30.275
G1 X147.877 Y71.039 E30.321
G1 X147.641 Y70.395 E30.355
G1 X147.390 Y70.009 E30.378
G1 X146.949 Y69.545 E30.410
G1 X145.916 Y68.804 E30.474
G1 X144.883 Y68.285 E30.531
G1 X143.850 Y67.919 E30.586
G1 X143.076 Y67.773 E30.625
G1 X141.784 Y67.770 E30.690
G1 X141.139 Y67.905 E30.723
G1 X140.493 Y68.146 E30.757
G1 X139.719 Y68.568 E30.801
G1 X138.620 Y69.494 E30.873
G1 X136.847 Y71.425 E31.003
G1 X132.618 Y75.250 E31.288
G1 X131.366 Y76.573 E31.379
G1 X129.290 Y78.504 E31.520
G1 X127.711 Y79.861 E31.624
G1 X126.033 Y81.118 E31.729
G1 X124.742 Y81.906 E31.804
G1 X123.967 Y82.156 E31.845
G1 X123.063 Y82.214 E31.890
G1 X122.418 Y82.026 E31.924
G1 X121.901 Y81.656 E31.955
G1 X121.127 Y80.835 E32.012
G1 X120.610 Y79.942 E32.063
G1 X120.023 Y78.633 E32.135
G1 X119.490 Y77.603 E32.192
G1 X119.092 Y76.960 E32.230
G1 X118.818 Y76.702 E32.249
G1 X118.157 Y76.407 E32.285
G1 X117.382 Y76.398 E32.324
G1 X116.866 Y76.521 E32.350
G1 X115.704 Y77.027 E32.413
G1 X115.200 Y77.346 E32.443
G1 X114.671 Y77.813 E32.478
G1 X114.239 Y78.375 E32.514
G1 X113.176 Y80.435 E32.629
G1 X112.792 Y81.079 E32.667
G1 X112.000 Y81.980 E32.727
G1 X111.185 Y82.709 E32.781
G1 X109.636 Y84.206 E32.889
G1 X107.441 Y86.001 E33.030
G1 X105.246 Y87.436 E33.161
G1 X103.438 Y88.462 E33.265
G1 X101.889 Y89.098 E33.348
G1 X100.727 Y89.489 E33.409
G1 X99.178 Y89.859 E33.489
G1 X97.499 Y90.030 E33.573
G1 X95.950 Y90.244 E33.651
G1 X94.272 Y90.417 E33.735
G1 X93.626 Y90.551 E33.768
G1 X92.981 Y90.799 E33.803
G1 X92.210 Y91.247 E33.847
G1 X91.379 Y91.891 E33.900
G1 X90.140 Y92.616 E33.971
G1 X89.107 Y93.292 E34.033
G1 X87.687 Y94.294 E34.119
G1 X86.912 Y94.969 E34.171
G1 X85.750 Y96.086 E34.251
G1 X84.422 Y97.554 E34.350
G1 X83.398 Y98.970 E34.437
G1 X82.523 Y100.374 E34.520
G1 X82.153 Y101.287 E34.569
G1 X81.572 Y102.446 E34.633
G1 X81.063 Y103.604 E34.697
G1 X80.715 Y104.583 E34.748
G1 X80.505 Y105.535 E34.797
G1 X80.291 Y106.178 E34.831
G1 X80.151 Y107.079 E34.876
G1 X80.114 Y108.495 E34.947
G1 X80.287 Y110.297 E35.037
G1 X80.617 Y111.713 E35.110
G1 X80.782 Y113.258 E35.187
G1 X80.920 Y114.288 E35.239
G1 X81.125 Y114.931 E35.273
G1 X81.456 Y116.347 E35.345
G1 X81.727 Y117.119 E35.386
G1 X82.135 Y117.926 E35.431
G1 X83.397 Y120.080 E35.556
G1 X84.072 Y121.126 E35.618
G1 X85.987 Y123.941 E35.788
G1 X86.525 Y124.670 E35.833
G1 X87.171 Y125.254 E35.877
G1 X88.849 Y126.217 E35.973
G1 X89.882 Y126.879 E36.034
G1 X91.031 Y127.674 E36.104
G1 X92.851 Y128.742 E36.209
G1 X94.659 Y129.523 E36.308
G1 X95.821 Y129.903 E36.369
G1 X96.854 Y130.159 E36.422
G1 X97.876 Y130.377 E36.474
G1 X99.694 Y130.665 E36.566
G1 X101.502 Y130.839 E36.656
G1 X103.438 Y131.153 E36.754
G1 X104.471 Y131.305 E36.806
G1 X105.892 Y131.437 E36.877
G1 X107.312 Y131.461 E36.948
G1 X108.732 Y131.326 E37.019
G1 X110.023 Y131.071 E37.085
G1 X111.314 Y130.736 E37.152
G1 X113.509 Y130.301 E37.263
G1 X115.188 Y129.771 E37.351
G1 X116.350 Y129.282 E37.414
G1 X117.124 Y128.835 E37.459
G1 X117.899 Y128.239 E37.507
G1 X118.587 Y127.417 E37.561
G1 X119.529 Y126.001 E37.646
G1 X120.202 Y125.100 E37.702
G1 X121.256 Y124.119 E37.774
G1 X121.901 Y123.762 E37.810
G1 X123.192 Y123.204 E37.881
G1 X124.354 Y122.636 E37.945
G1 X125.775 Y122.190 E38.019
G1 X127.711 Y121.520 E38.122
G1 X130.552 Y120.373 E38.274
G1 X131.068 Y120.094 E38.304
G1 X131.843 Y119.578 E38.350
G1 X133.134 Y118.304 E38.441
G1 X134.405 Y116.991 E38.532
G1 X136.319 Y114.803 E38.677
G1 X136.878 Y114.330 E38.713
G1 X137.653 Y113.945 E38.757
G1 X140.364 Y113.054 E38.899
G1 X142.043 Y112.385 E38.989
G1 X142.946 Y111.892 E39.040
G1 X144.108 Y111.219 E39.107
G1 X145.270 Y110.378 E39.179
G1 X146.432 Y109.671 E39.247
G1 X148.111 Y108.529 E39.348
G1 X149.144 Y107.637 E39.416
G1 X150.177 Y106.990 E39.477
G1 X151.339 Y106.242 E39.546
G1 X152.630 Y105.483 E39.621
G1 X155.341 Y104.176 E39.771
G1 X156.116 Y103.755 E39.815
G1 X157.278 Y102.983 E39.884
G1 X157.794 Y102.595 E39.917
G1 X158.917 Y101.545 E39.993
G1 X159.989 Y100.867 E40.057
G1 X160.893 Y100.427 E40.107
G1 X161.926 Y99.836 E40.166
G1 X163.346 Y99.180 E40.244
G1 X163.733 Y99.128 E40.264
G1 X165.154 Y99.154 E40.335
G1 X165.670 Y99.029 E40.361
G1 X166.186 Y98.768 E40.390
G1 X167.348 Y97.969 E40.460
G1 X167.994 Y97.456 E40.501
G1 X168.769 Y96.654 E40.557
G1 X169.199 Y95.881 E40.601
G1 X169.440 Y95.109 E40.642
G1 X169.543 Y94.136 E40.690
G1 X169.451 Y92.792 E40.758
G1 X169.207 Y92.148 E40.792
G1 X168.898 Y91.663 E40.821
G1 X168.123 Y90.906 E40.875
G1 X166.991 Y90.089 E40.944
G1 X166.085 Y89.574 E40.996
G1 X165.154 Y89.288 E41.045
G1 X163.992 Y89.158 E41.103
G1 X163.088 Y89.127 E41.148
G1 X161.797 Y89.274 E41.213
G1 X161.151 Y89.516 E41.248
G1 X159.731 Y90.242 E41.327
G1 X158.182 Y90.782 E41.409
G1 X157.020 Y91.075 E41.469
G1 X155.599 Y91.527 E41.543
G1 X153.146 Y92.181 E41.670
G1 X151.523 Y92.663 E41.754
G1 X150.210 Y93.171 E41.825
G0 F5400 X150.420 Y93.712
G0 F5400 X148.023 Y92.764
G0 X143.649 Y91.951
G0 X141.462 Y91.544
;segType:HShell
G1 F900 X129.455 Y79.573 E42.670
G1 X129.197 Y79.891 E42.691
G1 X153.340 Y103.961 E44.392
G1 X153.857 Y103.901 E44.418
G1 X144.561 Y94.633 E45.073
G1 X145.335 Y94.830 E45.112
G1 X154.115 Y103.583 E45.731
G1 X154.631 Y103.522 E45.757
G1 X145.981 Y94.898 E46.366
G1 X146.626 Y94.966 E46.399
G1 X154.889 Y103.204 E46.981
G1 X155.406 Y103.144 E47.007
G1 X147.143 Y94.906 E47.589
G1 X147.659 Y94.845 E47.615
G1 X155.664 Y102.826 E48.179
G1 X156.051 Y102.636 E48.200
G1 X148.176 Y94.785 E48.755
G1 X148.563 Y94.595 E48.777
G1 X156.439 Y102.447 E49.331
G1 X156.697 Y102.129 E49.352
G1 X148.950 Y94.406 E49.898
G1 X149.467 Y94.345 E49.924
G1 X157.084 Y101.940 E50.460
G1 X157.343 Y101.622 E50.481
G1 X149.983 Y94.285 E50.999
G1 X150.371 Y94.096 E51.021
G1 X157.601 Y101.304 E51.530
G1 X157.859 Y100.986 E51.550
G1 X150.758 Y93.906 E52.051
G1 X151.274 Y93.846 E52.077
G1 X158.246 Y100.797 E52.568
G1 X158.634 Y100.607 E52.589
G1 X151.662 Y93.657 E53.080
G1 X152.178 Y93.596 E53.106
G1 X159.021 Y100.418 E53.588
G1 X159.279 Y100.100 E53.609
G1 X152.565 Y93.407 E54.082
G1 X153.082 Y93.346 E54.108
G1 X159.666 Y99.911 E54.572
G1 X160.054 Y99.722 E54.593
G1 X153.469 Y93.157 E55.057
G1 X153.986 Y93.096 E55.083
G1 X160.441 Y99.532 E55.538
G1 X160.828 Y99.343 E55.559
G1 X154.373 Y92.907 E56.014
G1 X154.889 Y92.847 E56.040
G1 X161.216 Y99.154 E56.486
G1 X161.603 Y98.964 E56.507
G1 X155.277 Y92.657 E56.953
G1 X155.793 Y92.597 E56.979
G1 X161.990 Y98.775 E57.415
G1 X162.378 Y98.586 E57.437
G1 X156.181 Y92.407 E57.873
G1 X156.568 Y92.218 E57.895
G1 X162.765 Y98.397 E58.331
G1 X163.282 Y98.336 E58.357
G1 X157.084 Y92.158 E58.794
G1 X157.472 Y91.968 E58.815
G1 X163.669 Y98.147 E59.252
G1 X164.314 Y98.215 E59.284
G1 X157.988 Y91.908 E59.730
G1 X158.483 Y91.826 E59.755
G1 X164.939 Y98.262 E60.210
G1 X165.347 Y98.094 E60.232
G1 X158.892 Y91.658 E60.687
G1 X159.279 Y91.469 E60.708
G1 X165.735 Y97.905 E61.163
G1 X166.154 Y97.747 E61.185
G1 X159.699 Y91.312 E61.640
G1 X160.147 Y91.183 E61.663
G1 X166.473 Y97.490 E62.109
G1 X166.767 Y97.208 E62.129
G1 X160.570 Y91.030 E62.566
G1 X160.914 Y90.796 E62.587
G1 X167.111 Y96.975 E63.023
G1 X167.430 Y96.718 E63.044
G1 X161.362 Y90.668 E63.471
G1 X161.603 Y90.333 E63.492
G1 X167.671 Y96.383 E63.919
G1 X167.939 Y96.074 E63.940
G1 X162.129 Y90.282 E64.349
G1 X162.706 Y90.282 E64.378
G1 X168.129 Y95.688 E64.760
G1 X168.318 Y95.302 E64.781
G1 X163.283 Y90.282 E65.136
G1 X163.860 Y90.281 E65.165
G1 X168.379 Y94.787 E65.483
G1 X168.569 Y94.401 E65.505
G1 X164.437 Y90.282 E65.796
G1 X165.144 Y90.411 E65.832
G1 X168.501 Y93.757 E66.068
G1 X168.432 Y93.114 E66.100
G1 X166.237 Y90.925 E66.255
G0 F5400 X145.850 Y94.450
G0 X143.621 Y93.432
G0 X140.946 Y90.454
G1 F900 X129.713 Y79.255 E67.046
G1 X130.100 Y79.066 E67.068
G1 X140.558 Y89.492 E67.804
G1 X140.429 Y88.788 E67.840
G1 X130.359 Y78.748 E68.550
G1 X130.746 Y78.559 E68.571
G1 X140.300 Y88.084 E69.244
G1 X140.300 Y87.508 E69.273
G1 X131.004 Y78.241 E69.928
G1 X131.262 Y77.923 E69.948
G1 X140.300 Y86.933 E70.585
G1 X140.429 Y86.486 E70.608
G1 X131.521 Y77.605 E71.236
G1 X131.779 Y77.287 E71.256
G1 X140.429 Y85.911 E71.866
G1 X140.558 Y85.464 E71.889
G1 X132.166 Y77.097 E72.480
G1 X132.424 Y76.779 E72.500
G1 X140.687 Y85.017 E73.083
G1 X140.946 Y84.699 E73.103
G1 X132.683 Y76.461 E73.685
G1 X132.941 Y76.143 E73.706
G1 X141.075 Y84.253 E74.279
G1 X141.333 Y83.935 E74.299
G1 X133.328 Y75.954 E74.863
G1 X133.586 Y75.636 E74.883
G1 X141.462 Y83.488 E75.438
G1 X141.591 Y83.041 E75.461
G1 X133.845 Y75.318 E76.007
G1 X134.232 Y75.129 E76.029
G1 X141.720 Y82.594 E76.556
G1 X141.979 Y82.276 E76.577
G1 X134.490 Y74.811 E77.104
G1 X134.748 Y74.493 E77.125
G1 X142.108 Y81.830 E77.643
G1 X142.366 Y81.512 E77.663
G1 X135.136 Y74.304 E78.173
G1 X135.394 Y73.986 E78.193
G1 X142.624 Y81.194 E78.703
G1 X142.882 Y80.876 E78.723
G1 X135.781 Y73.796 E79.223
G1 X136.040 Y73.478 E79.244
G1 X143.011 Y80.429 E79.735
G1 X143.270 Y80.111 E79.755
G1 X136.298 Y73.160 E80.247
G1 X136.685 Y72.971 E80.268
G1 X143.399 Y79.664 E80.741
G1 X143.657 Y79.346 E80.761
G1 X136.943 Y72.653 E81.234
G1 X137.202 Y72.335 E81.255
G1 X143.915 Y79.028 E81.728
G1 X144.173 Y78.710 E81.748
G1 X137.460 Y72.017 E82.221
G1 X137.847 Y71.828 E82.243
G1 X144.302 Y78.264 E82.697
G1 X144.669 Y78.054 E82.719
G1 X138.084 Y71.489 E83.182
G1 X138.363 Y71.192 E83.203
G1 X144.690 Y77.499 E83.648
G1 X144.948 Y77.181 E83.669
G1 X138.622 Y70.874 E84.115
G1 X138.912 Y70.588 E84.135
G1 X145.238 Y76.895 E84.581
G1 X145.557 Y76.638 E84.601
G1 X139.231 Y70.331 E85.047
G1 X139.525 Y70.049 E85.067
G1 X145.723 Y76.227 E85.504
G1 X145.937 Y75.865 E85.525
G1 X139.869 Y69.816 E85.952
G1 X140.188 Y69.558 E85.973
G1 X146.256 Y75.608 E86.400
G1 X146.368 Y75.144 E86.424
G1 X140.429 Y69.223 E86.842
G1 X140.955 Y69.172 E86.869
G1 X146.635 Y74.836 E87.269
G1 X146.825 Y74.450 E87.290
G1 X141.403 Y69.043 E87.672
G1 X141.851 Y68.915 E87.696
G1 X147.015 Y74.063 E88.059
G1 X147.076 Y73.548 E88.085
G1 X142.428 Y68.915 E88.413
G1 X143.005 Y68.915 E88.441
G1 X147.137 Y73.034 E88.733
G1 X147.068 Y72.390 E88.765
G1 X143.711 Y69.043 E89.001
G1 X144.676 Y69.430 E89.053
G1 X147.000 Y71.747 E89.217
G0 X128.939 Y80.209 F5400
G1 F900 X153.082 Y104.279 E90.918
G1 X152.565 Y104.340 E90.944
G1 X128.551 Y80.398 E92.635
G1 X128.293 Y80.716 E92.656
G1 X152.307 Y104.658 E94.348
G1 X151.791 Y104.718 E94.374
G1 X127.906 Y80.906 E96.056
G1 X127.647 Y81.224 E96.077
G1 X151.533 Y105.036 E97.759
G1 X151.145 Y105.226 E97.781
G1 X127.260 Y81.413 E99.464
G1 X126.873 Y81.602 E99.485
G1 X150.758 Y105.415 E101.168
G1 X150.371 Y105.604 E101.189
G1 X126.485 Y81.791 E102.872
G1 X126.227 Y82.109 E102.892
G1 X150.112 Y105.922 E104.575
G1 X149.725 Y106.111 E104.597
G1 X125.969 Y82.427 E106.270
G1 X125.582 Y82.617 E106.292
G1 X149.338 Y106.301 E107.965
G1 X149.080 Y106.619 E107.986
G1 X125.194 Y82.806 E109.668
G1 X124.678 Y82.866 E109.694
G1 X148.692 Y106.808 E111.386
G1 X148.305 Y106.997 E111.407
G1 X124.291 Y83.056 E113.099
G1 X123.774 Y83.116 E113.125
G1 X148.047 Y107.315 E114.835
G1 X147.659 Y107.504 E114.857
G1 X123.387 Y83.306 E116.567
G1 X122.612 Y83.109 E116.607
G1 X147.401 Y107.822 E118.353
G1 X147.014 Y108.012 E118.374
G1 X121.838 Y82.912 E120.148
G0 X119.901 Y80.981 F5400
G1 F900 X116.673 Y77.763 E120.375
G1 X116.157 Y77.824 E120.401
G1 X146.626 Y108.201 E122.548
G1 X146.368 Y108.519 E122.568
G1 X115.899 Y78.142 E124.715
G1 X115.511 Y78.331 E124.736
G1 X145.981 Y108.708 E126.883
G1 X145.707 Y109.010 E126.903
G1 X115.237 Y78.633 E129.050
G1 X115.047 Y79.019 E129.071
G1 X145.388 Y109.268 E131.209
G1 X144.940 Y109.396 E131.232
G1 X114.857 Y79.405 E133.351
G1 X114.538 Y79.663 E133.372
G1 X144.621 Y109.654 E135.491
G1 X144.302 Y109.911 E135.511
G1 X114.348 Y80.049 E137.622
G1 X114.159 Y80.435 E137.643
G1 X143.983 Y110.169 E139.744
G1 X143.535 Y110.297 E139.767
G1 X113.969 Y80.821 E141.850
G1 X113.779 Y81.207 E141.872
G1 X143.216 Y110.555 E143.945
G1 X142.897 Y110.812 E143.966
G1 X113.589 Y81.593 E146.031
G1 X113.399 Y81.980 E146.052
G1 X142.578 Y111.070 E148.108
G1 X142.130 Y111.198 E148.131
G1 X113.080 Y82.237 E150.177
G1 X112.761 Y82.494 E150.198
G1 X141.811 Y111.456 E152.244
G1 X141.363 Y111.585 E152.268
G1 X112.442 Y82.752 E154.305
G1 X112.252 Y83.138 E154.326
G1 X141.044 Y111.842 E156.355
G1 X140.596 Y111.971 E156.378
G1 X111.933 Y83.395 E158.397
G1 X111.614 Y83.653 E158.418
G1 X140.148 Y112.099 E160.428
G1 X139.699 Y112.228 E160.451
G1 X111.295 Y83.910 E162.452
G1 X111.106 Y84.296 E162.474
G1 X139.381 Y112.486 E164.465
G1 X138.932 Y112.614 E164.489
G1 X110.787 Y84.554 E166.472
G1 X110.468 Y84.811 E166.492
G1 X138.484 Y112.743 E168.466
G1 X138.036 Y112.872 E168.489
G1 X110.149 Y85.069 E170.454
G1 X109.830 Y85.326 E170.474
G1 X137.588 Y113.000 E172.430
G1 X137.140 Y113.129 E172.453
G1 X109.511 Y85.584 E174.399
G1 X109.192 Y85.841 E174.420
G1 X136.692 Y113.258 E176.357
G1 X136.373 Y113.515 E176.378
G1 X108.873 Y86.099 E178.315
G1 X108.554 Y86.356 E178.335
G1 X136.054 Y113.773 E180.273
G1 X135.735 Y114.030 E180.293
G1 X108.235 Y86.613 E182.230
G1 X107.916 Y86.871 E182.251
G1 X135.416 Y114.288 E184.188
G1 X135.226 Y114.674 E184.210
G1 X107.597 Y87.128 E186.156
G1 X107.149 Y87.257 E186.179
G1 X134.907 Y114.931 E188.135
G1 X134.718 Y115.317 E188.156
G1 X106.830 Y87.514 E190.121
G1 X106.511 Y87.772 E190.142
G1 X134.399 Y115.575 E192.106
G1 X134.080 Y115.832 E192.127
G1 X106.192 Y88.029 E194.091
G1 X105.873 Y88.287 E194.112
G1 X133.890 Y116.218 E196.085
G1 X133.571 Y116.476 E196.106
G1 X105.425 Y88.415 E198.089
G1 X105.106 Y88.673 E198.109
G1 X133.252 Y116.733 E200.092
G1 X133.062 Y117.119 E200.113
G1 X104.787 Y88.930 E202.105
G1 X104.339 Y89.059 E202.129
G1 X132.743 Y117.377 E204.130
G1 X132.424 Y117.634 E204.150
G1 X104.020 Y89.316 E206.151
G1 X103.572 Y89.445 E206.174
G1 X132.105 Y117.892 E208.184
G1 X131.786 Y118.149 E208.205
G1 X103.124 Y89.574 E210.224
G1 X102.805 Y89.831 E210.245
G1 X131.596 Y118.535 E212.273
G1 X131.277 Y118.793 E212.293
G1 X102.357 Y89.960 E214.331
G1 X101.909 Y90.089 E214.354
G1 X130.958 Y119.050 E216.400
G1 X130.510 Y119.179 E216.424
G1 X101.461 Y90.217 E218.470
G1 X101.142 Y90.475 E218.491
G1 X130.191 Y119.436 E220.537
G1 X129.872 Y119.694 E220.558
G1 X100.565 Y90.475 E222.622
G1 X100.117 Y90.604 E222.646
G1 X129.424 Y119.822 E224.710
G1 X128.976 Y119.951 E224.733
G1 X99.668 Y90.732 E226.798
G1 X99.220 Y90.861 E226.821
G1 X128.657 Y120.209 E228.895
G1 X128.209 Y120.337 E228.918
G1 X98.643 Y90.861 E231.001
G1 X98.195 Y90.990 E231.025
G1 X127.761 Y120.466 E233.107
G1 X127.313 Y120.595 E233.131
G1 X97.618 Y90.990 E235.223
G1 X97.170 Y91.118 E235.246
G1 X126.994 Y120.852 E237.347
G1 X126.546 Y120.981 E237.370
G1 X96.593 Y91.118 E239.480
G1 X96.145 Y91.247 E239.504
G1 X126.098 Y121.110 E241.614
G1 X125.650 Y121.238 E241.637
G1 X95.567 Y91.247 E243.756
G1 X95.119 Y91.376 E243.780
G1 X125.202 Y121.367 E245.899
G1 X124.754 Y121.496 E245.922
G1 X94.542 Y91.376 E248.050
G1 X94.094 Y91.505 E248.074
G1 X124.306 Y121.625 E250.202
G1 X123.987 Y121.882 E250.223
G1 X93.646 Y91.633 E252.360
G1 X93.198 Y91.762 E252.383
G1 X123.539 Y122.011 E254.521
G1 X123.091 Y122.139 E254.544
G1 X92.879 Y92.020 E256.672
G1 X92.560 Y92.277 E256.693
G1 X122.772 Y122.397 E258.821
G1 X122.323 Y122.526 E258.844
G1 X92.241 Y92.534 E260.964
G1 X91.922 Y92.792 E260.984
G1 X121.875 Y122.654 E263.094
G1 X121.556 Y122.912 E263.115
G1 X91.474 Y92.921 E265.234
G1 X91.155 Y93.178 E265.254
G1 X121.108 Y123.040 E267.365
G1 X120.789 Y123.298 E267.385
G1 X90.836 Y93.435 E269.495
G1 X90.388 Y93.564 E269.518
G1 X120.470 Y123.555 E271.638
G1 X120.151 Y123.813 E271.658
G1 X90.069 Y93.822 E273.777
G1 X89.750 Y94.079 E273.798
G1 X119.833 Y124.070 E275.917
G1 X119.514 Y124.328 E275.938
G1 X89.431 Y94.336 E278.057
G1 X89.112 Y94.594 E278.077
G1 X119.324 Y124.714 E280.206
G1 X119.005 Y124.971 E280.226
G1 X88.664 Y94.723 E282.364
G1 X88.345 Y94.980 E282.384
G1 X118.815 Y125.357 E284.531
G1 X118.496 Y125.615 E284.551
G1 X88.026 Y95.237 E286.698
G1 X87.707 Y95.495 E286.718
G1 X118.306 Y126.001 E288.874
G1 X118.116 Y126.387 E288.895
G1 X87.388 Y95.752 E291.060
G1 X87.198 Y96.138 E291.081
G1 X117.926 Y126.773 E293.246
G1 X117.607 Y127.031 E293.266
G1 X86.879 Y96.396 E295.431
G1 X86.561 Y96.653 E295.452
G1 X117.418 Y127.417 E297.625
G1 X117.099 Y127.674 E297.646
G1 X86.242 Y96.911 E299.820
G1 X86.052 Y97.297 E299.841
G1 X116.780 Y127.932 E302.006
G1 X116.461 Y128.189 E302.026
G1 X85.733 Y97.554 E304.191
G1 X85.414 Y97.812 E304.212
G1 X116.013 Y128.318 E306.367
G1 X115.694 Y128.575 E306.388
G1 X85.224 Y98.198 E308.534
G1 X85.034 Y98.584 E308.556
G1 X115.246 Y128.704 E310.684
G1 X114.798 Y128.833 E310.707
G1 X84.715 Y98.842 E312.826
G1 X84.396 Y99.099 E312.847
G1 X114.349 Y128.961 E314.957
G1 X114.030 Y129.219 E314.978
G1 X84.206 Y99.485 E317.079
G1 X83.887 Y99.743 E317.099
G1 X113.582 Y129.348 E319.191
G1 X113.134 Y129.476 E319.214
G1 X83.697 Y100.129 E321.288
G1 X83.508 Y100.515 E321.310
G1 X112.686 Y129.605 E323.365
G1 X112.109 Y129.605 E323.394
G1 X83.318 Y100.901 E325.422
G1 X83.128 Y101.287 E325.444
G1 X111.661 Y129.734 E327.454
G1 X111.213 Y129.862 E327.477
G1 X82.938 Y101.673 E329.469
G1 X82.748 Y102.059 E329.490
G1 X110.765 Y129.991 E331.464
G1 X110.317 Y130.120 E331.487
G1 X82.688 Y102.574 E333.434
G1 X82.369 Y102.832 E333.454
G1 X109.740 Y130.120 E335.383
G1 X109.292 Y130.249 E335.406
G1 X82.308 Y103.347 E337.307
G1 X81.989 Y103.604 E337.327
G1 X108.844 Y130.377 E339.219
G1 X108.395 Y130.506 E339.242
G1 X81.928 Y104.119 E341.107
G1 X81.738 Y104.505 E341.128
G1 X107.818 Y130.506 E342.966
G1 X107.241 Y130.506 E342.995
G1 X81.678 Y105.020 E344.795
G1 X81.488 Y105.406 E344.817
G1 X106.664 Y130.506 E346.591
G1 X106.087 Y130.506 E346.619
G1 X81.298 Y105.792 E348.366
G1 X81.237 Y106.307 E348.392
G1 X105.510 Y130.506 E350.101
G1 X104.932 Y130.506 E350.130
G1 X81.047 Y106.693 E351.813
G1 X81.116 Y107.337 E351.845
G1 X104.226 Y130.377 E353.473
G1 X103.520 Y130.249 E353.509
G1 X80.926 Y107.723 E355.101
G1 X80.994 Y108.367 E355.133
G1 X102.814 Y130.120 E356.670
G1 X102.236 Y130.120 E356.699
G1 X81.062 Y109.010 E358.191
G1 X81.131 Y109.654 E358.223
G1 X101.530 Y129.991 E359.660
G1 X100.824 Y129.862 E359.696
G1 X81.199 Y110.297 E361.079
G1 X81.397 Y111.070 E361.118
G1 X100.247 Y129.862 E362.446
G1 X99.540 Y129.734 E362.482
G1 X81.465 Y111.713 E363.755
G1 X81.663 Y112.486 E363.795
G1 X98.834 Y129.605 E365.005
G1 X98.128 Y129.476 E365.041
G1 X81.602 Y113.000 E366.205
G1 X81.799 Y113.773 E366.245
G1 X97.421 Y129.348 E367.345
G1 X96.715 Y129.219 E367.381
G1 X81.868 Y114.416 E368.427
G1 X82.194 Y115.317 E368.475
G1 X95.880 Y128.961 E369.439
G1 X95.044 Y128.704 E369.483
G1 X82.263 Y115.961 E370.383
G1 X82.460 Y116.733 E370.423
G1 X94.080 Y128.318 E371.241
G0 X92.986 Y127.803 F5400
G1 F900 X83.303 Y118.149 E371.924
G0 X84.017 Y119.436 F5400
G1 F900 X91.634 Y127.031 E372.460
G0 X89.766 Y125.743 F5400
G1 F900 X85.247 Y121.238 E372.779
G0 X86.219 Y122.783 F5400
G1 F900 X88.414 Y124.971 E372.933
G0 X119.384 Y79.891 F5400
G1 F900 X117.061 Y77.574 E373.097
G1 X117.577 Y77.513 E373.123
G1 X118.868 Y78.800 E373.214
; ------------------------------------
; Layer #2
; ------------------------------------
G21 ; mm
G90 ; abs
G92 E0 ; reset extr
M106 S102
;segType:Support
G0 F2400 E-4.500
G0 F600 Z0.900
G0 F5400 X150.200 Y78.400
G0 F2400 E0.000
G1 F1575 X155.600 Y78.400 E0.269
G1 X155.600 Y76.600 E0.359
G1 X150.200 Y76.600 E0.629
G1 X150.200 Y74.800 E0.718
G1 X155.600 Y74.800 E0.988
G1 X155.600 Y73.000 E1.078
G1 X150.200 Y73.000 E1.347
G0 F2400 E-3.153
G0 F5400 X150.781 Y73.000
G0 F5400 X150.200 Y80.200
G0 F2400 E1.347
G1 F1575 X155.600 Y80.200 E1.616
G1 X155.600 Y82.000 E1.706
G1 X150.200 Y82.000 E1.976
G1 X150.200 Y83.800 E2.066
G1 X155.600 Y83.800 E2.335
G1 X155.600 Y85.600 E2.425
G1 X150.200 Y85.600 E2.694
G1 X150.200 Y87.400 E2.784
G1 X152.000 Y87.400 E2.874
G1 X152.000 Y89.200 E2.964
G1 X150.200 Y89.200 E3.053
;segType:Loop
G0 F2400 E-1.447
G0 F5400 X150.782 Y89.200
G0 F5400 X149.770 Y94.132
G0 F2400 E3.053
G1 F1050 X148.240 Y94.492 E3.132
G1 X146.949 Y94.660 E3.197
G1 X145.787 Y94.627 E3.255
G1 X144.883 Y94.409 E3.301
G1 X144.108 Y94.031 E3.344
G1 X143.334 Y93.500 E3.391
G1 X142.579 Y92.792 E3.443
G1 X142.106 Y92.148 E3.482
G1 X141.460 Y90.861 E3.554
G1 X141.089 Y89.960 E3.603
G1 X140.683 Y88.673 E3.670
G1 X140.606 Y87.772 E3.715
G1 X140.714 Y86.099 E3.799
G1 X140.961 Y85.197 E3.846
G1 X141.655 Y83.785 E3.924
G1 X142.236 Y82.237 E4.007
G1 X142.640 Y81.465 E4.050
G1 X143.076 Y80.956 E4.084
G1 X143.367 Y80.306 E4.119
G1 X143.704 Y79.663 E4.155
G1 X144.353 Y78.890 E4.206
G1 X144.554 Y78.375 E4.233
G1 X144.939 Y77.603 E4.276
G1 X146.303 Y75.556 E4.399
G1 X146.775 Y74.643 E4.450
G1 X147.207 Y74.053 E4.487
G1 X147.358 Y73.484 E4.516
G1 X147.255 Y72.068 E4.587
G1 X147.102 Y71.296 E4.626
G1 X146.830 Y70.652 E4.661
G1 X146.432 Y70.172 E4.692
G1 X145.680 Y69.623 E4.739
G1 X144.754 Y69.112 E4.791
G1 X143.721 Y68.728 E4.846
G1 X142.817 Y68.547 E4.892
G1 X141.914 Y68.561 E4.938
G1 X141.010 Y68.822 E4.984
G1 X140.242 Y69.237 E5.028
G1 X139.616 Y69.751 E5.068
G1 X138.815 Y70.524 E5.124
G1 X137.395 Y72.148 E5.232
G1 X135.592 Y73.742 E5.352
G1 X133.650 Y75.516 E5.483
G1 X133.039 Y76.316 E5.533
G1 X132.488 Y76.920 E5.574
G1 X131.459 Y77.732 E5.639
G1 X130.035 Y79.108 E5.738
G1 X128.486 Y80.409 E5.839
G1 X127.195 Y81.411 E5.921
G1 X126.033 Y82.210 E5.991
G1 X125.129 Y82.660 E6.041
G1 X124.096 Y82.963 E6.095
G1 X123.063 Y83.031 E6.147
G1 X122.160 Y82.829 E6.193
G1 X121.643 Y82.547 E6.222
G1 X121.127 Y82.134 E6.255
G1 X120.415 Y81.336 E6.308
G1 X119.889 Y80.435 E6.361
G1 X119.337 Y79.276 E6.425
G1 X118.681 Y77.989 E6.497
G1 X118.313 Y77.474 E6.528
G1 X117.899 Y77.293 E6.551
G1 X117.124 Y77.344 E6.589
G1 X116.220 Y77.703 E6.638
G1 X115.578 Y78.118 E6.676
G1 X115.074 Y78.633 E6.712
G1 X113.562 Y81.336 E6.867
G1 X113.055 Y81.980 E6.907
G1 X111.572 Y83.503 E7.014
G1 X108.990 Y85.806 E7.186
G1 X107.957 Y86.582 E7.251
G1 X106.021 Y87.865 E7.367
G1 X104.342 Y88.873 E7.464
G1 X103.568 Y89.240 E7.507
G1 X101.244 Y90.121 E7.631
G1 X99.694 Y90.505 E7.711
G1 X97.370 Y90.765 E7.827
G1 X94.272 Y91.203 E7.983
G1 X93.755 Y91.345 E8.010
G1 X93.110 Y91.624 E8.045
G1 X92.335 Y92.226 E8.094
G1 X90.437 Y93.435 E8.206
G1 X88.743 Y94.594 E8.309
G1 X88.074 Y95.173 E8.353
G1 X87.041 Y95.878 E8.415
G1 X86.396 Y96.469 E8.459
G1 X84.847 Y98.184 E8.574
G1 X83.943 Y99.477 E8.653
G1 X83.039 Y100.873 E8.736
G1 X82.594 Y101.802 E8.787
G1 X82.014 Y102.960 E8.852
G1 X81.631 Y103.862 E8.901
G1 X81.361 Y104.752 E8.947
G1 X80.962 Y106.822 E9.052
G1 X80.921 Y108.367 E9.130
G1 X81.060 Y109.654 E9.194
G1 X81.281 Y110.941 E9.259
G1 X81.449 Y112.486 E9.337
G1 X81.699 Y114.288 E9.428
G1 X82.110 Y116.090 E9.520
G1 X82.505 Y117.119 E9.575
G1 X83.168 Y118.389 E9.646
G1 X84.706 Y120.852 E9.791
G1 X86.646 Y123.684 E9.962
G1 X87.275 Y124.456 E10.012
G1 X87.945 Y124.959 E10.054
G1 X89.365 Y125.800 E10.136
G1 X91.650 Y127.288 E10.272
G1 X93.468 Y128.318 E10.376
G1 X94.369 Y128.704 E10.425
G1 X95.821 Y129.235 E10.502
G1 X96.694 Y129.476 E10.548
G1 X98.403 Y129.875 E10.635
G1 X101.373 Y130.176 E10.784
G1 X103.309 Y130.439 E10.882
G1 X104.600 Y130.656 E10.947
G1 X105.892 Y130.787 E11.012
G1 X107.183 Y130.836 E11.076
G1 X108.861 Y130.687 E11.160
G1 X109.894 Y130.531 E11.212
G1 X111.185 Y130.217 E11.279
G1 X112.218 Y130.016 E11.331
G1 X113.251 Y129.764 E11.384
G1 X114.929 Y129.232 E11.472
G1 X115.899 Y128.833 E11.524
G1 X116.971 Y128.189 E11.587
G1 X117.512 Y127.709 E11.623
G1 X118.153 Y126.902 E11.674
G1 X119.032 Y125.615 E11.752
G1 X119.706 Y124.719 E11.808
G1 X120.610 Y123.846 E11.871
G1 X121.127 Y123.515 E11.901
G1 X123.322 Y122.462 E12.023
G1 X124.225 Y122.065 E12.072
G1 X125.904 Y121.512 E12.160
G1 X127.711 Y120.859 E12.256
G1 X130.164 Y119.837 E12.389
G1 X131.068 Y119.309 E12.441
G1 X131.585 Y118.930 E12.473
G1 X132.296 Y118.149 E12.525
G1 X134.296 Y116.090 E12.669
G1 X135.275 Y114.931 E12.744
G1 X136.233 Y113.920 E12.814
G1 X136.749 Y113.555 E12.845
G1 X137.782 Y113.075 E12.902
G1 X138.944 Y112.684 E12.963
G1 X140.622 Y112.247 E13.050
G1 X141.616 Y111.842 E13.103
G1 X142.301 Y111.395 E13.144
G1 X143.839 Y110.426 E13.235
G1 X145.012 Y109.559 E13.308
G1 X146.284 Y108.753 E13.383
G1 X147.591 Y107.852 E13.462
G1 X149.273 Y106.379 E13.574
G1 X151.339 Y105.080 E13.695
G1 X152.501 Y104.411 E13.762
G1 X155.025 Y103.218 E13.902
G1 X156.628 Y102.317 E13.993
G1 X157.147 Y101.931 E14.026
G1 X158.052 Y101.056 E14.088
G1 X158.827 Y100.420 E14.138
G1 X159.473 Y100.024 E14.176
G1 X160.891 Y99.356 E14.254
G1 X161.926 Y98.742 E14.314
G1 X162.830 Y98.279 E14.365
G1 X163.475 Y98.120 E14.398
G1 X165.412 Y98.113 E14.495
G1 X165.799 Y97.961 E14.516
G1 X166.815 Y97.297 E14.576
G1 X167.736 Y96.537 E14.636
G1 X168.252 Y95.928 E14.676
G1 X168.640 Y95.162 E14.718
G1 X168.828 Y94.336 E14.761
G1 X168.773 Y93.178 E14.818
G1 X168.389 Y92.406 E14.861
G1 X167.994 Y91.941 E14.892
G1 X166.703 Y90.876 E14.975
G1 X165.808 Y90.346 E15.027
G1 X164.766 Y90.056 E15.081
G1 X163.217 Y89.937 E15.159
G1 X162.184 Y90.059 E15.211
G1 X159.860 Y91.185 E15.339
G1 X158.698 Y91.552 E15.400
G1 X157.407 Y91.873 E15.467
G1 X156.245 Y92.218 E15.527
G1 X152.242 Y93.302 E15.734
G1 X151.080 Y93.743 E15.796
G1 X149.808 Y94.122 E15.862
G0 X148.608 Y94.027 F5400
G1 F1050 X147.207 Y94.259 E15.933
G1 X146.045 Y94.274 E15.991
G1 X145.270 Y94.129 E16.030
G1 X144.625 Y93.856 E16.065
G1 X143.595 Y93.178 E16.127
G1 X142.817 Y92.444 E16.180
G1 X142.355 Y91.762 E16.221
G1 X141.844 Y90.732 E16.279
G1 X141.461 Y89.831 E16.328
G1 X141.078 Y88.673 E16.388
G1 X140.975 Y87.901 E16.427
G1 X141.078 Y86.227 E16.511
G1 X141.334 Y85.326 E16.558
G1 X141.914 Y84.202 E16.621
G1 X142.466 Y82.752 E16.698
G1 X142.868 Y81.851 E16.747
G1 X143.463 Y81.124 E16.794
G1 X143.927 Y80.049 E16.853
G1 X144.616 Y79.276 E16.904
G1 X144.931 Y78.504 E16.946
G1 X145.337 Y77.732 E16.989
G1 X146.552 Y75.930 E17.098
G1 X147.016 Y75.029 E17.148
G1 X147.642 Y74.128 E17.203
G1 X147.753 Y73.613 E17.229
G1 X147.632 Y71.940 E17.313
G1 X147.354 Y70.781 E17.373
G1 X147.078 Y70.279 E17.401
G1 X146.732 Y69.880 E17.428
G1 X145.836 Y69.237 E17.483
G1 X144.883 Y68.730 E17.536
G1 X143.850 Y68.360 E17.591
G1 X142.946 Y68.168 E17.637
G1 X142.043 Y68.158 E17.682
G1 X141.268 Y68.305 E17.722
G1 X140.524 Y68.593 E17.761
G1 X139.898 Y68.979 E17.798
G1 X138.870 Y69.880 E17.866
G1 X136.878 Y72.064 E18.014
G1 X133.419 Y75.158 E18.245
G1 X132.920 Y75.801 E18.286
G1 X132.113 Y76.702 E18.346
G1 X131.326 Y77.307 E18.396
G1 X129.799 Y78.762 E18.501
G1 X127.840 Y80.395 E18.628
G1 X125.904 Y81.810 E18.748
G1 X125.000 Y82.287 E18.799
G1 X124.096 Y82.572 E18.846
G1 X123.063 Y82.659 E18.898
G1 X122.289 Y82.453 E18.938
G1 X121.643 Y82.036 E18.976
G1 X120.934 Y81.336 E19.026
G1 X120.276 Y80.306 E19.087
G1 X119.722 Y79.148 E19.151
G1 X119.074 Y77.861 E19.223
G1 X118.674 Y77.237 E19.260
G1 X118.286 Y76.978 E19.283
G1 X117.899 Y76.896 E19.303
G1 X117.124 Y76.929 E19.342
G1 X116.350 Y77.203 E19.383
G1 X115.575 Y77.599 E19.426
G1 X115.110 Y77.989 E19.456
G1 X114.542 Y78.696 E19.502
G1 X113.685 Y80.306 E19.592
G1 X113.055 Y81.336 E19.653
G1 X111.702 Y82.814 E19.753
G1 X109.248 Y85.055 E19.918
G1 X107.957 Y86.078 E20.001
G1 X106.279 Y87.213 E20.102
G1 X104.600 Y88.250 E20.200
G1 X103.438 Y88.865 E20.266
G1 X101.114 Y89.753 E20.390
G1 X99.694 Y90.114 E20.463
G1 X96.854 Y90.431 E20.606
G1 X94.272 Y90.810 E20.736
G1 X93.626 Y90.965 E20.769
G1 X92.981 Y91.222 E20.804
G1 X91.948 Y91.993 E20.868
G1 X89.886 Y93.307 E20.990
G1 X88.591 Y94.198 E21.068
G1 X87.687 Y94.954 E21.127
G1 X86.702 Y95.624 E21.186
G1 X85.879 Y96.396 E21.243
G1 X84.726 Y97.683 E21.329
G1 X84.072 Y98.568 E21.384
G1 X82.707 Y100.644 E21.508
G1 X81.513 Y103.089 E21.644
G1 X81.081 Y104.248 E21.705
G1 X80.715 Y105.907 E21.790
G1 X80.586 Y106.646 E21.827
G1 X80.531 Y108.367 E21.913
G1 X80.672 Y109.654 E21.978
G1 X80.892 Y110.941 E22.043
G1 X81.052 Y112.357 E22.114
G1 X81.319 Y114.416 E22.218
G1 X81.582 Y115.575 E22.277
G1 X81.860 Y116.605 E22.330
G1 X82.120 Y117.248 E22.365
G1 X82.500 Y118.020 E22.408
G1 X83.168 Y119.173 E22.474
G1 X84.459 Y121.224 E22.595
G1 X85.879 Y123.287 E22.720
G1 X86.783 Y124.549 E22.798
G1 X87.422 Y125.100 E22.840
G1 X88.591 Y125.804 E22.908
G1 X89.624 Y126.449 E22.969
G1 X91.284 Y127.546 E23.068
G1 X93.335 Y128.704 E23.185
G1 X94.262 Y129.090 E23.235
G1 X95.685 Y129.605 E23.311
G1 X97.112 Y129.990 E23.385
G1 X98.403 Y130.270 E23.451
G1 X101.373 Y130.563 E23.599
G1 X103.309 Y130.827 E23.697
G1 X104.600 Y131.046 E23.762
G1 X105.762 Y131.152 E23.821
G1 X105.892 Y131.170 E23.827
G1 X107.183 Y131.226 E23.892
G1 X108.861 Y131.075 E23.976
G1 X109.894 Y130.927 E24.028
G1 X110.798 Y130.705 E24.074
G1 X112.218 Y130.409 E24.146
G1 X113.380 Y130.139 E24.206
G1 X115.058 Y129.607 E24.294
G1 X116.032 Y129.219 E24.346
G1 X117.124 Y128.583 E24.409
G1 X117.755 Y128.060 E24.450
G1 X118.278 Y127.417 E24.491
G1 X119.263 Y126.001 E24.577
G1 X119.911 Y125.100 E24.633
G1 X120.826 Y124.199 E24.697
G1 X121.514 Y123.768 E24.737
G1 X124.096 Y122.549 E24.880
G1 X126.786 Y121.625 E25.022
G1 X128.475 Y120.981 E25.112
G1 X130.552 Y120.094 E25.225
G1 X131.197 Y119.706 E25.262
G1 X131.921 Y119.179 E25.307
G1 X132.739 Y118.278 E25.368
G1 X134.554 Y116.411 E25.497
G1 X136.040 Y114.674 E25.611
G1 X136.878 Y113.950 E25.667
G1 X137.911 Y113.448 E25.724
G1 X138.944 Y113.096 E25.778
G1 X140.752 Y112.624 E25.872
G1 X141.755 Y112.228 E25.925
G1 X142.688 Y111.628 E25.981
G1 X143.815 Y110.941 E26.047
G1 X145.529 Y109.697 E26.152
G1 X146.432 Y109.145 E26.205
G1 X147.724 Y108.268 E26.283
G1 X149.402 Y106.791 E26.395
G1 X151.726 Y105.317 E26.532
G1 X152.630 Y104.798 E26.584
G1 X154.825 Y103.754 E26.705
G1 X156.112 Y103.089 E26.777
G1 X157.278 Y102.355 E26.846
G1 X158.827 Y100.930 E26.951
G1 X159.731 Y100.342 E27.005
G1 X161.022 Y99.749 E27.076
G1 X162.700 Y98.773 E27.173
G1 X163.346 Y98.525 E27.207
G1 X163.862 Y98.481 E27.233
G1 X165.541 Y98.498 E27.317
G1 X165.928 Y98.356 E27.337
G1 X166.961 Y97.691 E27.399
G1 X167.807 Y97.039 E27.452
G1 X168.601 Y96.138 E27.512
G1 X169.027 Y95.275 E27.560
G1 X169.204 Y94.594 E27.595
G1 X169.204 Y93.307 E27.659
G1 X169.056 Y92.792 E27.686
G1 X168.787 Y92.277 E27.715
G1 X168.407 Y91.762 E27.747
G1 X167.219 Y90.751 E27.825
G1 X166.206 Y90.089 E27.885
G1 X165.543 Y89.831 E27.921
G1 X164.766 Y89.664 E27.960
G1 X163.217 Y89.546 E28.038
G1 X162.184 Y89.656 E28.090
G1 X161.797 Y89.782 E28.110
G1 X159.989 Y90.705 E28.211
G1 X158.569 Y91.184 E28.286
G1 X156.890 Y91.606 E28.372
G1 X155.728 Y91.958 E28.433
G1 X151.855 Y93.015 E28.633
G1 X150.564 Y93.504 E28.702
G1 X148.646 Y94.019 E28.801
;segType:Perimeter
G0 X148.221 Y93.724 F5400
G1 F1050 X147.207 Y93.878 E28.852
G1 X145.916 Y93.882 E28.917
G1 X145.270 Y93.737 E28.950
G1 X144.754 Y93.489 E28.978
G1 X144.108 Y93.086 E29.016
G1 X143.205 Y92.293 E29.076
G1 X142.793 Y91.762 E29.110
G1 X142.143 Y90.475 E29.182
G1 X141.731 Y89.445 E29.237
G1 X141.351 Y88.158 E29.304
G1 X141.393 Y87.514 E29.336
G1 X141.407 Y86.742 E29.375
G1 X141.591 Y85.712 E29.427
G1 X141.761 Y85.326 E29.448
G1 X142.074 Y84.811 E29.478
G1 X142.456 Y83.910 E29.527
G1 X142.917 Y82.623 E29.595
G1 X143.161 Y82.108 E29.623
G1 X143.592 Y81.614 E29.656
G1 X143.850 Y81.242 E29.679
G1 X144.089 Y80.564 E29.715
G1 X144.308 Y80.178 E29.737
G1 X144.935 Y79.534 E29.782
G1 X145.345 Y78.504 E29.837
G1 X145.658 Y77.960 E29.868
G1 X146.862 Y76.187 E29.975
G1 X147.311 Y75.286 E30.025
G1 X148.041 Y74.257 E30.088
G1 X148.148 Y73.742 E30.115
G1 X148.022 Y71.940 E30.205
G1 X147.774 Y70.781 E30.264
G1 X147.377 Y70.009 E30.307
G1 X146.949 Y69.546 E30.339
G1 X145.956 Y68.850 E30.399
G1 X144.883 Y68.297 E30.459
G1 X144.108 Y68.023 E30.500
G1 X142.946 Y67.777 E30.560
G1 X142.172 Y67.762 E30.598
G1 X141.268 Y67.899 E30.644
G1 X140.493 Y68.171 E30.685
G1 X139.977 Y68.437 E30.714
G1 X139.460 Y68.819 E30.746
G1 X138.448 Y69.751 E30.814
G1 X136.837 Y71.553 E30.935
G1 X133.134 Y74.868 E31.183
G1 X132.532 Y75.672 E31.233
G1 X131.972 Y76.292 E31.275
G1 X131.326 Y76.797 E31.316
G1 X130.552 Y77.470 E31.367
G1 X129.648 Y78.360 E31.430
G1 X127.711 Y79.997 E31.557
G1 X125.646 Y81.516 E31.685
G1 X124.613 Y82.031 E31.742
G1 X123.709 Y82.269 E31.789
G1 X122.934 Y82.278 E31.827
G1 X122.289 Y82.027 E31.862
G1 X121.643 Y81.523 E31.903
G1 X120.998 Y80.771 E31.952
G1 X120.443 Y79.791 E32.008
G1 X119.724 Y78.247 E32.093
G1 X119.074 Y77.088 E32.160
G1 X118.832 Y76.831 E32.177
G1 X118.157 Y76.522 E32.214
G1 X117.382 Y76.501 E32.253
G1 X116.737 Y76.643 E32.286
G1 X115.962 Y76.936 E32.327
G1 X115.446 Y77.209 E32.356
G1 X114.951 Y77.603 E32.388
G1 X114.354 Y78.247 E32.432
G1 X113.950 Y79.019 E32.475
G1 X113.032 Y80.692 E32.571
G1 X112.658 Y81.207 E32.602
G1 X111.342 Y82.623 E32.699
G1 X109.248 Y84.521 E32.840
G1 X107.699 Y85.782 E32.939
G1 X105.246 Y87.410 E33.086
G1 X103.697 Y88.329 E33.176
G1 X102.793 Y88.711 E33.225
G1 X100.727 Y89.475 E33.335
G1 X99.565 Y89.758 E33.395
G1 X97.887 Y89.912 E33.479
G1 X96.466 Y90.121 E33.550
G1 X94.142 Y90.430 E33.667
G1 X93.239 Y90.686 E33.714
G1 X92.597 Y90.990 E33.750
G1 X91.560 Y91.785 E33.815
G1 X90.011 Y92.751 E33.906
G1 X88.462 Y93.803 E33.999
G1 X87.558 Y94.555 E34.058
G1 X86.783 Y95.067 E34.104
G1 X86.396 Y95.361 E34.129
G1 X85.750 Y95.961 E34.173
G1 X84.330 Y97.534 E34.278
G1 X83.399 Y98.842 E34.358
G1 X82.393 Y100.396 E34.451
G1 X81.080 Y103.089 E34.600
G1 X80.676 Y104.248 E34.661
G1 X80.514 Y105.149 E34.707
G1 X80.328 Y105.883 E34.745
G1 X80.199 Y106.555 E34.779
G1 X80.196 Y107.337 E34.818
G1 X80.139 Y108.367 E34.869
G1 X80.286 Y109.654 E34.934
G1 X80.507 Y110.941 E34.999
G1 X80.665 Y112.357 E35.070
G1 X80.908 Y114.288 E35.167
G1 X81.303 Y116.090 E35.259
G1 X81.586 Y116.991 E35.307
G1 X81.997 Y117.892 E35.356
G1 X82.523 Y118.861 E35.411
G1 X83.943 Y121.145 E35.545
G1 X86.111 Y124.328 E35.737
G1 X86.773 Y125.100 E35.788
G1 X87.558 Y125.667 E35.836
G1 X88.720 Y126.332 E35.903
G1 X91.431 Y128.094 E36.064
G1 X93.368 Y129.149 E36.174
G1 X95.305 Y129.896 E36.278
G1 X96.208 Y130.156 E36.325
G1 X97.758 Y130.544 E36.405
G1 X98.532 Y130.679 E36.444
G1 X100.340 Y130.830 E36.534
G1 X102.018 Y131.040 E36.619
G1 X102.535 Y131.099 E36.645
G1 X104.600 Y131.433 E36.749
G1 X106.021 Y131.568 E36.820
G1 X107.183 Y131.616 E36.878
G1 X109.119 Y131.442 E36.975
G1 X110.410 Y131.204 E37.041
G1 X111.314 Y130.974 E37.087
G1 X113.380 Y130.543 E37.193
G1 X115.058 Y130.018 E37.280
G1 X116.350 Y129.504 E37.350
G1 X117.253 Y128.972 E37.402
G1 X117.899 Y128.488 E37.442
G1 X118.584 Y127.674 E37.495
G1 X119.812 Y125.872 E37.604
G1 X120.316 Y125.229 E37.645
G1 X121.256 Y124.369 E37.708
G1 X122.160 Y123.885 E37.760
G1 X124.484 Y122.812 E37.887
G1 X127.453 Y121.800 E38.044
G1 X128.486 Y121.399 E38.099
G1 X130.552 Y120.529 E38.211
G1 X131.714 Y119.855 E38.278
G1 X132.085 Y119.565 E38.301
G1 X132.693 Y118.921 E38.346
G1 X134.784 Y116.733 E38.497
G1 X136.328 Y114.931 E38.615
G1 X137.007 Y114.337 E38.660
G1 X137.911 Y113.855 E38.711
G1 X139.300 Y113.387 E38.784
G1 X140.235 Y113.181 E38.832
G1 X141.139 Y112.897 E38.879
G1 X142.043 Y112.529 E38.928
G1 X142.559 Y112.187 E38.959
G1 X144.108 Y111.225 E39.050
G1 X145.400 Y110.267 E39.130
G1 X146.691 Y109.446 E39.206
G1 X148.071 Y108.495 E39.290
G1 X149.660 Y107.091 E39.396
G1 X152.372 Y105.371 E39.556
G1 X154.179 Y104.455 E39.657
G1 X155.470 Y103.892 E39.727
G1 X157.278 Y102.858 E39.831
G1 X157.632 Y102.574 E39.854
G1 X158.827 Y101.447 E39.936
G1 X159.762 Y100.772 E39.993
G1 X161.280 Y100.054 E40.077
G1 X162.959 Y99.068 E40.174
G1 X163.604 Y98.867 E40.208
G1 X165.670 Y98.881 E40.311
G1 X166.315 Y98.598 E40.346
G1 X167.817 Y97.554 E40.438
G1 X168.617 Y96.782 E40.493
G1 X169.065 Y96.138 E40.532
G1 X169.460 Y95.237 E40.581
G1 X169.597 Y94.594 E40.614
G1 X169.598 Y93.307 E40.678
G1 X169.442 Y92.663 E40.711
G1 X169.172 Y92.148 E40.740
G1 X168.827 Y91.633 E40.771
G1 X168.151 Y90.990 E40.818
G1 X166.703 Y89.913 E40.908
G1 X165.928 Y89.536 E40.951
G1 X164.766 Y89.274 E41.010
G1 X163.217 Y89.153 E41.088
G1 X162.184 Y89.262 E41.140
G1 X161.668 Y89.393 E41.166
G1 X159.989 Y90.284 E41.261
G1 X159.085 Y90.630 E41.309
G1 X151.726 Y92.643 E41.690
G1 X150.564 Y93.105 E41.752
G1 X149.273 Y93.471 E41.819
G1 X148.259 Y93.716 E41.871
G0 F5400 X148.396 Y94.279
G0 F5400 X148.473 Y96.234
G0 X149.328 Y106.307
;segType:HShell
G1 F1050 X165.338 Y90.346 E42.999
G1 X165.657 Y90.604 E43.020
G1 X151.067 Y105.149 E44.047
G0 X152.419 Y104.376 F5400
G1 F1050 X166.105 Y90.732 E45.011
G1 X166.424 Y90.990 E45.032
G1 X153.642 Y103.733 E45.932
G1 X154.606 Y103.347 E45.984
G1 X166.872 Y91.118 E46.848
G1 X167.062 Y91.505 E46.870
G1 X155.958 Y102.574 E47.652
G0 X158.601 Y100.515 F5400
G1 F1050 X167.510 Y91.633 E48.280
G1 X167.700 Y92.020 E48.301
G1 X160.082 Y99.614 E48.838
G0 X161.176 Y99.099 F5400
G1 F1050 X168.019 Y92.277 E49.320
G1 X168.208 Y92.663 E49.341
G1 X162.528 Y98.327 E49.741
G1 X163.363 Y98.069 E49.785
G1 X168.527 Y92.921 E50.149
G1 X168.588 Y93.435 E50.175
G1 X164.069 Y97.941 E50.493
G1 X164.646 Y97.941 E50.522
G1 X168.778 Y93.822 E50.813
G1 X168.580 Y94.594 E50.853
G1 X165.224 Y97.941 E51.089
G1 X166.059 Y97.683 E51.133
G1 X168.512 Y95.237 E51.306
G0 F5400 X160.717 Y99.926
G0 X159.158 Y100.864
G0 X157.599 Y101.802
G0 X146.685 Y108.367
G1 F1050 X164.761 Y90.346 E52.579
G1 X164.312 Y90.217 E52.602
G1 X144.817 Y109.654 E53.976
G0 X143.078 Y110.812 F5400
G1 F1050 X163.735 Y90.217 E55.431
G1 X163.158 Y90.217 E55.460
G1 X141.597 Y111.713 E56.979
G1 X140.632 Y112.099 E57.031
G1 X162.452 Y90.346 E58.568
G1 X161.616 Y90.604 E58.611
G1 X139.797 Y112.357 E60.148
G1 X138.962 Y112.614 E60.192
G1 X160.394 Y91.247 E61.702
G1 X159.558 Y91.505 E61.746
G1 X138.126 Y112.872 E63.255
G1 X137.162 Y113.258 E63.307
G1 X158.594 Y91.891 E64.817
G1 X157.888 Y92.020 E64.853
G1 X130.129 Y119.694 E66.808
G0 X129.035 Y120.209 F5400
G1 F1050 X157.052 Y92.277 E68.782
G1 X156.346 Y92.406 E68.818
G1 X128.071 Y120.595 E70.810
G1 X127.106 Y120.981 E70.862
G1 X155.510 Y92.663 E72.863
G1 X154.675 Y92.921 E72.906
G1 X126.271 Y121.238 E74.907
G1 X125.307 Y121.625 E74.959
G1 X153.840 Y93.178 E76.969
G1 X153.133 Y93.307 E77.005
G1 X124.471 Y121.882 E79.024
G0 X123.378 Y122.397 F5400
G1 F1050 X152.298 Y93.564 E81.062
G1 X151.333 Y93.950 E81.114
G1 X122.413 Y122.783 E83.151
G0 X121.190 Y123.427 F5400
G1 F1050 X150.498 Y94.208 E85.216
G1 X149.663 Y94.465 E85.259
G1 X114.932 Y129.090 E87.706
G1 X114.097 Y129.348 E87.750
G1 X148.956 Y94.594 E90.205
G1 X148.250 Y94.723 E90.241
G1 X113.262 Y129.605 E92.706
G1 X112.426 Y129.862 E92.750
G1 X147.544 Y94.851 E95.224
G1 X146.967 Y94.851 E95.252
G1 X111.720 Y129.991 E97.736
G1 X111.014 Y130.120 E97.771
G1 X146.389 Y94.851 E100.264
G1 X145.812 Y94.851 E100.292
G1 X110.178 Y130.377 E102.803
G1 X109.472 Y130.506 E102.839
G1 X145.364 Y94.723 E105.367
G1 X144.916 Y94.594 E105.390
G1 X108.766 Y130.635 E107.937
G1 X108.188 Y130.635 E107.966
G1 X144.468 Y94.465 E110.522
G1 X144.149 Y94.208 E110.542
G1 X107.611 Y130.635 E113.116
G1 X106.905 Y130.763 E113.152
G1 X143.701 Y94.079 E115.744
G1 X143.382 Y93.822 E115.765
G1 X106.457 Y130.635 E118.366
G1 X105.880 Y130.635 E118.395
G1 X143.063 Y93.564 E121.014
G1 X142.873 Y93.178 E121.036
G1 X105.303 Y130.635 E123.683
G1 X104.855 Y130.506 E123.706
G1 X142.554 Y92.921 E126.362
G1 X142.235 Y92.663 E126.382
G1 X104.277 Y130.506 E129.056
G1 X103.829 Y130.377 E129.080
G1 X142.046 Y92.277 E131.772
G1 X141.727 Y92.020 E131.792
G1 X103.252 Y130.377 E134.503
G1 X102.804 Y130.249 E134.526
G1 X141.666 Y91.505 E137.264
G1 X141.347 Y91.247 E137.284
G1 X102.356 Y130.120 E140.031
G1 X101.779 Y130.120 E140.060
G1 X141.286 Y90.732 E142.843
G1 X141.096 Y90.346 E142.865
G1 X101.331 Y129.991 E145.666
G1 X100.754 Y129.991 E145.695
G1 X140.906 Y89.960 E148.524
G1 X140.717 Y89.574 E148.545
G1 X100.305 Y129.862 E151.392
G1 X99.728 Y129.862 E151.421
G1 X140.656 Y89.059 E154.304
G1 X140.466 Y88.673 E154.325
G1 X99.151 Y129.862 E157.236
G1 X98.703 Y129.734 E157.259
G1 X140.534 Y88.029 E160.206
G1 X140.474 Y87.514 E160.232
G1 X98.126 Y129.734 E163.215
G1 X97.678 Y129.605 E163.239
G1 X140.542 Y86.871 E166.258
G1 X140.610 Y86.227 E166.291
G1 X97.230 Y129.476 E169.347
G1 X96.782 Y129.348 E169.370
G1 X140.808 Y85.455 E172.472
G0 X141.263 Y84.425 F5400
G1 F1050 X96.334 Y129.219 E175.637
G1 X95.886 Y129.090 E175.660
G1 X141.848 Y83.267 E178.898
G1 X142.046 Y82.494 E178.938
G1 X95.437 Y128.961 E182.221
G1 X94.989 Y128.833 E182.245
G1 X142.501 Y81.465 E185.592
G0 X143.474 Y79.920 F5400
G1 F1050 X94.670 Y128.575 E189.030
G1 X94.222 Y128.447 E189.053
G1 X144.317 Y78.504 E192.582
G0 X145.289 Y76.960 F5400
G1 F1050 X93.774 Y128.318 E196.211
G0 X115.768 Y128.833 F5400
G1 F1050 X118.996 Y125.615 E196.439
G0 F5400 X122.361 Y123.153
G0 X131.481 Y118.921
G1 F1050 X131.997 Y118.407 E196.475
G0 X129.841 Y79.701 F5400
G1 F1050 X86.460 Y122.950 E199.531
G1 X86.719 Y123.268 E199.552
G1 X141.073 Y69.078 E203.381
G1 X141.848 Y68.881 E203.421
G1 X86.848 Y123.715 E207.295
G1 X87.235 Y123.904 E207.317
G1 X142.494 Y68.813 E211.210
G1 X143.010 Y68.874 E211.236
G1 X87.364 Y124.351 E215.156
G1 X87.751 Y124.540 E215.177
G1 X143.526 Y68.934 E219.107
G1 X143.930 Y69.108 E219.129
G1 X88.025 Y124.842 E223.067
G1 X88.344 Y125.100 E223.087
G1 X144.378 Y69.237 E227.035
G1 X144.826 Y69.365 E227.058
G1 X88.792 Y125.229 E231.006
G1 X89.111 Y125.486 E231.026
G1 X145.145 Y69.623 E234.974
G1 X145.593 Y69.751 E234.997
G1 X89.430 Y125.743 E238.953
G1 X89.878 Y125.872 E238.977
G1 X145.912 Y70.009 E242.924
G1 X146.231 Y70.266 E242.945
G1 X90.197 Y126.130 E246.892
G1 X90.516 Y126.387 E246.912
G1 X146.550 Y70.524 E250.860
G1 X146.739 Y70.910 E250.881
G1 X90.964 Y126.516 E254.811
G1 X91.154 Y126.902 E254.832
G1 X146.929 Y71.296 E258.761
G1 X147.119 Y71.682 E258.783
G1 X91.602 Y127.031 E262.694
G1 X91.921 Y127.288 E262.714
G1 X147.051 Y72.326 E266.598
G1 X147.241 Y72.712 E266.620
G1 X92.369 Y127.417 E270.485
G1 X92.688 Y127.674 E270.506
G1 X147.172 Y73.355 E274.344
G1 X147.104 Y73.999 E274.376
G1 X93.007 Y127.932 E278.187
G1 X93.455 Y128.060 E278.211
G1 X146.132 Y75.544 E281.922
G0 X127.259 Y81.700 F5400
G1 F1050 X86.202 Y122.632 E284.814
G1 X85.944 Y122.314 E284.834
G1 X125.580 Y82.798 E287.627
G1 X124.677 Y83.124 E287.675
G1 X85.815 Y121.868 E290.412
G1 X85.427 Y121.678 E290.434
G1 X123.902 Y83.321 E293.144
G1 X123.385 Y83.260 E293.170
G1 X85.298 Y121.232 E295.854
G1 X85.040 Y120.914 E295.874
G1 X122.740 Y83.328 E298.530
G1 X122.353 Y83.139 E298.551
G1 X84.782 Y120.596 E301.198
G1 X84.653 Y120.149 E301.221
G1 X121.965 Y82.950 E303.850
G1 X121.578 Y82.760 E303.871
G1 X84.395 Y119.831 E306.491
G1 X84.136 Y119.513 E306.511
G1 X121.320 Y82.442 E309.131
G1 X120.932 Y82.253 E309.152
G1 X83.878 Y119.195 E311.763
G1 X83.749 Y118.748 E311.786
G1 X120.803 Y81.806 E314.396
G1 X120.416 Y81.617 E314.418
G1 X83.491 Y118.430 E317.019
G1 X83.233 Y118.112 E317.040
G1 X120.287 Y81.170 E319.650
G1 X120.029 Y80.852 E319.671
G1 X83.103 Y117.666 E322.272
G1 X82.845 Y117.348 E322.292
G1 X119.770 Y80.534 E324.894
G1 X119.641 Y80.088 E324.917
G1 X82.716 Y116.901 E327.518
G1 X82.587 Y116.454 E327.541
G1 X119.383 Y79.770 E330.134
G1 X119.254 Y79.323 E330.157
G1 X82.458 Y116.008 E332.749
G1 X82.329 Y115.561 E332.772
G1 X119.125 Y78.876 E335.364
G1 X118.867 Y78.558 E335.385
G1 X82.200 Y115.114 E337.968
G1 X82.071 Y114.667 E337.991
G1 X118.608 Y78.240 E340.565
G1 X118.350 Y77.922 E340.586
G1 X81.941 Y114.221 E343.151
G1 X81.941 Y113.645 E343.179
G1 X118.092 Y77.604 E345.726
G1 X117.576 Y77.544 E345.752
G1 X114.090 Y81.019 E345.998
G0 X114.864 Y79.671 F5400
G1 F1050 X116.672 Y77.869 E346.125
G0 X108.925 Y86.168 F5400
G1 F1050 X81.812 Y113.199 E348.035
G1 X81.812 Y112.623 E348.064
G1 X106.730 Y87.781 E349.819
G0 X105.439 Y88.492 F5400
G1 F1050 X81.683 Y112.176 E351.493
G1 X81.683 Y111.601 E351.521
G1 X103.890 Y89.462 E353.086
G1 X103.115 Y89.658 E353.126
G1 X81.554 Y111.154 E354.645
G1 X81.554 Y110.579 E354.673
G1 X102.082 Y90.113 E356.120
G1 X101.179 Y90.438 E356.168
G1 X81.425 Y110.132 E357.559
G1 X81.425 Y109.557 E357.588
G1 X100.404 Y90.635 E358.925
G1 X99.759 Y90.703 E358.957
G1 X81.296 Y109.110 E360.258
G1 X81.296 Y108.535 E360.287
G1 X98.984 Y90.900 E361.533
G1 X98.467 Y90.840 E361.559
G1 X81.296 Y107.959 E362.768
G1 X81.296 Y107.384 E362.797
G1 X97.693 Y91.037 E363.952
G1 X97.047 Y91.105 E363.985
G1 X81.296 Y106.808 E365.094
G1 X81.425 Y106.104 E365.130
G1 X96.402 Y91.173 E366.185
G1 X95.756 Y91.241 E366.217
G1 X81.554 Y105.400 E367.218
G1 X81.812 Y104.567 E367.261
G1 X94.981 Y91.438 E368.189
G1 X94.336 Y91.506 E368.222
G1 X82.071 Y103.734 E369.086
G1 X82.458 Y102.773 E369.137
G1 X93.561 Y91.703 E369.920
G0 X91.625 Y93.058 F5400
G1 F1050 X82.974 Y101.682 E370.529
G0 X83.620 Y100.463 F5400
G1 F1050 X90.204 Y93.899 E370.993
G0 X87.751 Y95.769 F5400
G1 F1050 X85.040 Y98.472 E371.184
; ------------------------------------
; Layer #3
; ------------------------------------
G21 ; mm
G90 ; abs
G92 E0 ; reset extr
M106 S153
;segType:Support
G0 F2400 E-4.500
G0 F600 Z1.200
G0 F5400 X150.200 Y89.200
G0 F2400 E0.000
G1 F1800 X152.000 Y89.200 E0.090
G1 X152.000 Y87.400 E0.180
G1 X150.200 Y87.400 E0.269
G1 X150.200 Y85.600 E0.359
G1 X155.600 Y85.600 E0.629
G1 X155.600 Y83.800 E0.718
G1 X150.200 Y83.800 E0.988
G1 X150.200 Y82.000 E1.078
G1 X155.600 Y82.000 E1.347
G1 X155.600 Y80.200 E1.437
G1 X150.200 Y80.200 E1.706
G1 X150.200 Y78.400 E1.796
G1 X155.600 Y78.400 E2.065
G1 X155.600 Y76.600 E2.155
G1 X150.200 Y76.600 E2.425
G1 X150.200 Y74.800 E2.515
G1 X155.600 Y74.800 E2.784
G1 X155.600 Y73.000 E2.874
G1 X150.200 Y73.000 E3.143
;segType:Loop
G0 F2400 E-1.357
G0 F5400 X150.781 Y73.000
G0 F5400 X147.326 Y73.207
G0 F2400 E3.143
G1 F1200 X147.257 Y72.068 E3.200
G1 X147.115 Y71.296 E3.239
G1 X146.833 Y70.652 E3.274
G1 X146.432 Y70.153 E3.306
G1 X145.683 Y69.623 E3.352
G1 X144.754 Y69.110 E3.405
G1 X144.108 Y68.850 E3.440
G1 X142.946 Y68.596 E3.499
G1 X142.301 Y68.568 E3.531
G1 X141.397 Y68.704 E3.577
G1 X140.543 Y69.108 E3.624
G1 X139.848 Y69.616 E3.667
G1 X138.557 Y70.905 E3.758
G1 X137.545 Y72.068 E3.835
G1 X135.985 Y73.484 E3.940
G1 X134.185 Y75.158 E4.063
G1 X133.403 Y76.316 E4.132
G1 X132.618 Y77.149 E4.190
G1 X131.585 Y77.859 E4.252
G1 X130.294 Y78.988 E4.338
G1 X128.486 Y80.534 E4.456
G1 X127.324 Y81.432 E4.530
G1 X126.033 Y82.319 E4.608
G1 X125.258 Y82.683 E4.650
G1 X124.484 Y82.938 E4.691
G1 X123.709 Y83.069 E4.730
G1 X122.805 Y83.055 E4.775
G1 X122.030 Y82.834 E4.816
G1 X121.295 Y82.366 E4.859
G1 X120.519 Y81.593 E4.914
G1 X120.007 Y80.821 E4.960
G1 X119.190 Y79.191 E5.051
G1 X118.416 Y77.732 E5.133
G1 X118.157 Y77.502 E5.151
G1 X117.899 Y77.421 E5.164
G1 X117.124 Y77.426 E5.203
G1 X116.608 Y77.581 E5.230
G1 X115.833 Y77.965 E5.273
G1 X115.323 Y78.375 E5.305
G1 X114.929 Y78.882 E5.337
G1 X114.471 Y79.791 E5.388
G1 X113.823 Y80.950 E5.454
G1 X113.153 Y81.851 E5.510
G1 X111.831 Y83.253 E5.607
G1 X110.152 Y84.768 E5.719
G1 X108.474 Y86.185 E5.829
G1 X107.449 Y86.871 E5.891
G1 X106.021 Y87.842 E5.977
G1 X104.342 Y88.870 E6.075
G1 X103.568 Y89.231 E6.118
G1 X101.889 Y89.885 E6.207
G1 X100.598 Y90.272 E6.275
G1 X99.307 Y90.503 E6.340
G1 X97.628 Y90.686 E6.424
G1 X96.337 Y90.897 E6.490
G1 X94.788 Y91.087 E6.567
G1 X93.755 Y91.357 E6.621
G1 X93.239 Y91.631 E6.650
G1 X92.593 Y92.248 E6.694
G1 X91.689 Y92.883 E6.750
G1 X88.978 Y94.589 E6.909
G1 X88.074 Y95.436 E6.971
G1 X86.671 Y96.267 E7.053
G1 X85.879 Y96.878 E7.102
G1 X84.847 Y98.065 E7.181
G1 X83.685 Y99.738 E7.283
G1 X82.652 Y101.395 E7.380
G1 X82.026 Y102.574 E7.447
G1 X81.490 Y103.847 E7.515
G1 X81.208 Y105.020 E7.576
G1 X81.024 Y106.436 E7.647
G1 X81.028 Y108.495 E7.750
G1 X81.187 Y109.911 E7.821
G1 X81.426 Y111.070 E7.880
G1 X81.568 Y113.387 E7.996
G1 X81.718 Y114.674 E8.060
G1 X81.968 Y115.832 E8.119
G1 X82.258 Y116.733 E8.167
G1 X82.649 Y117.634 E8.216
G1 X83.163 Y118.664 E8.273
G1 X84.454 Y120.724 E8.394
G1 X85.750 Y122.629 E8.509
G1 X87.041 Y124.410 E8.619
G1 X87.538 Y124.842 E8.652
G1 X91.801 Y127.546 E8.904
G1 X93.210 Y128.318 E8.984
G1 X94.356 Y128.833 E9.046
G1 X95.821 Y129.359 E9.124
G1 X97.758 Y129.894 E9.224
G1 X98.661 Y130.021 E9.270
G1 X100.856 Y130.193 E9.380
G1 X102.793 Y130.441 E9.477
G1 X104.988 Y130.791 E9.588
G1 X106.537 Y130.934 E9.666
G1 X108.086 Y130.933 E9.743
G1 X110.152 Y130.685 E9.847
G1 X111.960 Y130.287 E9.939
G1 X113.509 Y129.886 E10.019
G1 X114.781 Y129.476 E10.086
G1 X116.062 Y128.961 E10.154
G1 X117.122 Y128.318 E10.216
G1 X117.512 Y127.957 E10.243
G1 X118.157 Y127.159 E10.294
G1 X119.023 Y125.872 E10.371
G1 X119.800 Y124.842 E10.436
G1 X120.610 Y124.095 E10.491
G1 X121.385 Y123.622 E10.536
G1 X124.354 Y122.224 E10.700
G1 X125.749 Y121.753 E10.773
G1 X127.453 Y121.122 E10.864
G1 X130.014 Y120.080 E11.002
G1 X130.931 Y119.565 E11.054
G1 X131.585 Y119.087 E11.095
G1 X132.424 Y118.149 E11.158
G1 X134.296 Y116.221 E11.292
G1 X135.405 Y114.931 E11.376
G1 X136.362 Y113.911 E11.446
G1 X136.878 Y113.553 E11.478
G1 X137.911 Y113.059 E11.535
G1 X138.944 Y112.715 E11.589
G1 X139.977 Y112.517 E11.641
G1 X140.881 Y112.237 E11.689
G1 X141.784 Y111.864 E11.737
G1 X142.817 Y111.213 E11.798
G1 X143.592 Y110.597 E11.848
G1 X145.141 Y109.442 E11.944
G1 X146.937 Y108.238 E12.052
G1 X147.802 Y107.594 E12.106
G1 X149.144 Y106.358 E12.197
G1 X150.177 Y105.564 E12.262
G1 X152.242 Y104.289 E12.383
G1 X153.146 Y103.818 E12.434
G1 X155.599 Y102.705 E12.568
G1 X156.716 Y102.059 E12.633
G1 X157.402 Y101.545 E12.675
G1 X158.698 Y100.315 E12.764
G1 X159.473 Y99.803 E12.811
G1 X160.506 Y99.384 E12.866
G1 X162.571 Y98.280 E12.983
G1 X163.346 Y98.026 E13.024
G1 X164.250 Y97.911 E13.069
G1 X165.799 Y97.856 E13.147
G1 X166.166 Y97.683 E13.167
G1 X167.090 Y97.049 E13.223
G1 X168.123 Y96.054 E13.294
G1 X168.479 Y95.495 E13.328
G1 X168.801 Y94.723 E13.369
G1 X168.885 Y94.079 E13.402
G1 X168.844 Y93.435 E13.434
G1 X168.668 Y92.921 E13.461
G1 X168.151 Y92.148 E13.507
G1 X167.090 Y91.141 E13.580
G1 X166.315 Y90.619 E13.627
G1 X165.708 Y90.346 E13.660
G1 X164.508 Y90.064 E13.722
G1 X163.604 Y89.991 E13.767
G1 X162.571 Y90.046 E13.818
G1 X162.184 Y90.177 E13.839
G1 X160.506 Y91.076 E13.934
G1 X159.602 Y91.416 E13.982
G1 X158.311 Y91.787 E14.049
G1 X156.761 Y92.134 E14.128
G1 X154.308 Y92.820 E14.255
G1 X151.984 Y93.421 E14.375
G1 X151.080 Y93.765 E14.423
G1 X149.402 Y94.241 E14.510
G1 X148.240 Y94.503 E14.570
G1 X146.949 Y94.655 E14.635
G1 X145.787 Y94.624 E14.693
G1 X144.883 Y94.416 E14.739
G1 X144.238 Y94.116 E14.774
G1 X143.334 Y93.511 E14.829
G1 X142.333 Y92.534 E14.898
G1 X141.867 Y91.762 E14.943
G1 X141.083 Y89.960 E15.042
G1 X140.676 Y88.673 E15.109
G1 X140.586 Y87.643 E15.160
G1 X140.689 Y86.099 E15.238
G1 X140.930 Y85.197 E15.284
G1 X141.516 Y84.039 E15.349
G1 X142.102 Y82.494 E15.431
G1 X142.510 Y81.593 E15.481
G1 X143.019 Y80.950 E15.522
G1 X143.644 Y79.663 E15.593
G1 X144.367 Y78.773 E15.650
G1 X144.840 Y77.732 E15.707
G1 X145.638 Y76.445 E15.783
G1 X146.153 Y75.029 E15.858
G1 X146.542 Y74.385 E15.896
G1 X147.262 Y73.613 E15.948
G1 X147.324 Y73.246 E15.967
G0 X147.732 Y73.336 F5400
G1 F1200 X147.623 Y71.811 E16.043
G1 X147.359 Y70.781 E16.096
G1 X147.078 Y70.266 E16.125
G1 X146.751 Y69.880 E16.151
G1 X145.834 Y69.237 E16.207
G1 X144.625 Y68.623 E16.274
G1 X143.721 Y68.335 E16.321
G1 X143.076 Y68.222 E16.354
G1 X142.301 Y68.179 E16.393
G1 X141.268 Y68.326 E16.445
G1 X140.635 Y68.593 E16.479
G1 X139.848 Y69.085 E16.526
G1 X138.848 Y70.009 E16.593
G1 X137.266 Y71.769 E16.712
G1 X133.909 Y74.840 E16.939
G1 X133.193 Y75.930 E17.004
G1 X132.230 Y76.934 E17.073
G1 X131.084 Y77.732 E17.143
G1 X128.615 Y79.886 E17.306
G1 X126.808 Y81.299 E17.421
G1 X125.646 Y82.069 E17.490
G1 X124.484 Y82.535 E17.553
G1 X123.709 Y82.690 E17.592
G1 X122.805 Y82.671 E17.637
G1 X122.160 Y82.453 E17.671
G1 X121.385 Y81.907 E17.718
G1 X120.743 Y81.207 E17.766
G1 X120.258 Y80.435 E17.811
G1 X119.448 Y78.801 E17.902
G1 X118.674 Y77.388 E17.983
G1 X118.286 Y77.102 E18.007
G1 X117.770 Y77.014 E18.033
G1 X116.866 Y77.069 E18.078
G1 X116.133 Y77.346 E18.117
G1 X115.317 Y77.827 E18.164
G1 X114.686 Y78.504 E18.210
G1 X114.217 Y79.405 E18.261
G1 X113.577 Y80.564 E18.327
G1 X113.058 Y81.336 E18.374
G1 X111.759 Y82.752 E18.469
G1 X109.636 Y84.669 E18.612
G1 X107.957 Y86.049 E18.721
G1 X105.633 Y87.609 E18.860
G1 X104.600 Y88.251 E18.921
G1 X103.438 Y88.854 E18.986
G1 X101.760 Y89.513 E19.076
G1 X100.469 Y89.904 E19.143
G1 X99.307 Y90.118 E19.202
G1 X97.628 Y90.297 E19.287
G1 X96.337 Y90.509 E19.352
G1 X94.659 Y90.716 E19.436
G1 X93.626 Y90.981 E19.490
G1 X93.049 Y91.247 E19.521
G1 X92.464 Y91.828 E19.562
G1 X91.431 Y92.563 E19.626
G1 X88.849 Y94.172 E19.777
G1 X87.687 Y95.207 E19.855
G1 X86.525 Y95.874 E19.922
G1 X85.645 Y96.525 E19.976
G1 X84.733 Y97.554 E20.045
G1 X83.814 Y98.818 E20.123
G1 X82.396 Y101.030 E20.254
G1 X81.888 Y101.931 E20.306
G1 X81.249 Y103.347 E20.383
G1 X80.958 Y104.248 E20.430
G1 X80.641 Y106.178 E20.528
G1 X80.649 Y106.951 E20.567
G1 X80.635 Y108.495 E20.644
G1 X80.809 Y110.040 E20.721
G1 X81.040 Y111.070 E20.774
G1 X81.174 Y113.258 E20.883
G1 X81.323 Y114.674 E20.954
G1 X81.591 Y115.961 E21.020
G1 X81.877 Y116.857 E21.067
G1 X82.504 Y118.278 E21.144
G1 X82.910 Y119.035 E21.187
G1 X84.459 Y121.481 E21.332
G1 X86.267 Y124.063 E21.489
G1 X86.876 Y124.842 E21.538
G1 X87.555 Y125.357 E21.581
G1 X88.720 Y126.072 E21.649
G1 X90.398 Y127.157 E21.749
G1 X91.880 Y128.060 E21.835
G1 X93.616 Y128.961 E21.933
G1 X95.290 Y129.605 E22.022
G1 X97.083 Y130.120 E22.115
G1 X98.145 Y130.335 E22.169
G1 X101.889 Y130.699 E22.357
G1 X104.084 Y131.049 E22.468
G1 X104.988 Y131.178 E22.513
G1 X106.537 Y131.320 E22.591
G1 X108.086 Y131.319 E22.668
G1 X110.152 Y131.076 E22.772
G1 X112.089 Y130.661 E22.871
G1 X113.122 Y130.406 E22.924
G1 X114.413 Y130.022 E22.991
G1 X115.919 Y129.476 E23.071
G1 X116.866 Y128.976 E23.125
G1 X117.608 Y128.447 E23.170
G1 X118.286 Y127.676 E23.221
G1 X119.895 Y125.357 E23.362
G1 X120.739 Y124.518 E23.421
G1 X121.514 Y124.005 E23.468
G1 X123.063 Y123.255 E23.554
G1 X124.484 Y122.598 E23.632
G1 X126.923 Y121.753 E23.761
G1 X129.519 Y120.730 E23.900
G1 X130.401 Y120.337 E23.948
G1 X131.456 Y119.715 E24.009
G1 X131.956 Y119.308 E24.041
G1 X132.747 Y118.409 E24.101
G1 X134.248 Y116.862 E24.208
G1 X135.835 Y115.060 E24.328
G1 X136.620 Y114.225 E24.385
G1 X137.395 Y113.731 E24.431
G1 X138.686 Y113.193 E24.501
G1 X140.493 Y112.777 E24.594
G1 X141.655 Y112.379 E24.655
G1 X142.172 Y112.117 E24.684
G1 X143.196 Y111.456 E24.745
G1 X143.827 Y110.941 E24.785
G1 X144.883 Y110.142 E24.851
G1 X147.982 Y107.986 E25.040
G1 X149.392 Y106.693 E25.135
G1 X150.306 Y105.967 E25.193
G1 X152.372 Y104.682 E25.315
G1 X153.534 Y104.077 E25.380
G1 X155.728 Y103.095 E25.500
G1 X156.868 Y102.446 E25.565
G1 X157.536 Y101.973 E25.606
G1 X159.214 Y100.434 E25.720
G1 X159.860 Y100.061 E25.757
G1 X160.977 Y99.614 E25.817
G1 X162.442 Y98.792 E25.901
G1 X163.346 Y98.421 E25.950
G1 X164.250 Y98.291 E25.995
G1 X165.928 Y98.243 E26.079
G1 X166.315 Y98.073 E26.100
G1 X167.438 Y97.297 E26.168
G1 X168.381 Y96.396 E26.233
G1 X168.735 Y95.881 E26.264
G1 X169.181 Y94.851 E26.320
G1 X169.286 Y93.822 E26.372
G1 X169.180 Y93.049 E26.411
G1 X168.770 Y92.277 E26.455
G1 X168.252 Y91.650 E26.495
G1 X167.236 Y90.732 E26.563
G1 X166.445 Y90.225 E26.610
G1 X165.809 Y89.960 E26.645
G1 X164.508 Y89.670 E26.711
G1 X163.475 Y89.596 E26.763
G1 X162.442 Y89.666 E26.814
G1 X161.932 Y89.831 E26.841
G1 X160.893 Y90.430 E26.901
G1 X159.860 Y90.912 E26.958
G1 X158.698 Y91.280 E27.019
G1 X156.245 Y91.863 E27.145
G1 X153.663 Y92.598 E27.278
G1 X151.855 Y93.047 E27.371
G1 X150.951 Y93.393 E27.420
G1 X148.756 Y94.008 E27.533
G1 X147.336 Y94.241 E27.605
G1 X146.174 Y94.277 E27.663
G1 X145.400 Y94.166 E27.702
G1 X144.883 Y93.992 E27.729
G1 X143.979 Y93.478 E27.781
G1 X143.205 Y92.839 E27.831
G1 X142.468 Y92.020 E27.886
G1 X142.130 Y91.376 E27.923
G1 X141.457 Y89.831 E28.007
G1 X141.070 Y88.673 E28.068
G1 X140.963 Y87.772 E28.113
G1 X141.078 Y86.099 E28.197
G1 X141.303 Y85.326 E28.237
G1 X141.784 Y84.437 E28.287
G1 X142.477 Y82.623 E28.384
G1 X142.817 Y81.869 E28.425
G1 X143.433 Y81.079 E28.475
G1 X143.642 Y80.564 E28.503
G1 X143.964 Y79.920 E28.539
G1 X144.754 Y78.914 E28.603
G1 X145.229 Y77.861 E28.660
G1 X146.023 Y76.573 E28.736
G1 X146.471 Y75.286 E28.804
G1 X146.820 Y74.692 E28.838
G1 X147.594 Y73.921 E28.893
G1 X147.728 Y73.374 E28.921
;segType:Perimeter
G0 X148.087 Y73.079 F5400
G1 F1200 X148.011 Y71.811 E28.984
G1 X147.781 Y70.781 E29.037
G1 X147.382 Y70.009 E29.080
G1 X147.078 Y69.650 E29.104
G1 X146.303 Y69.060 E29.152
G1 X145.400 Y68.541 E29.204
G1 X144.496 Y68.152 E29.253
G1 X143.592 Y67.906 E29.300
G1 X142.430 Y67.782 E29.358
G1 X141.397 Y67.895 E29.410
G1 X140.881 Y68.043 E29.437
G1 X140.106 Y68.425 E29.480
G1 X139.508 Y68.850 E29.517
G1 X138.428 Y69.871 E29.591
G1 X137.061 Y71.425 E29.694
G1 X134.812 Y73.455 E29.845
G1 X133.521 Y74.696 E29.935
G1 X132.905 Y75.672 E29.992
G1 X132.101 Y76.530 E30.051
G1 X130.939 Y77.330 E30.121
G1 X129.613 Y78.504 E30.210
G1 X126.937 Y80.724 E30.383
G1 X125.387 Y81.774 E30.476
G1 X124.484 Y82.144 E30.525
G1 X123.709 Y82.306 E30.565
G1 X122.676 Y82.270 E30.616
G1 X122.160 Y82.007 E30.645
G1 X121.514 Y81.499 E30.686
G1 X121.042 Y80.950 E30.722
G1 X120.507 Y80.049 E30.775
G1 X119.213 Y77.474 E30.918
G1 X118.956 Y77.088 E30.941
G1 X118.544 Y76.776 E30.967
G1 X118.028 Y76.633 E30.994
G1 X117.124 Y76.639 E31.039
G1 X116.479 Y76.780 E31.072
G1 X115.833 Y77.048 E31.107
G1 X115.317 Y77.326 E31.136
G1 X114.970 Y77.603 E31.158
G1 X114.373 Y78.247 E31.202
G1 X113.917 Y79.148 E31.252
G1 X113.282 Y80.306 E31.318
G1 X112.770 Y81.079 E31.365
G1 X111.595 Y82.366 E31.452
G1 X110.540 Y83.350 E31.524
G1 X108.086 Y85.477 E31.686
G1 X106.408 Y86.592 E31.786
G1 X105.454 Y87.257 E31.844
G1 X103.955 Y88.187 E31.932
G1 X103.051 Y88.599 E31.982
G1 X101.373 Y89.243 E32.071
G1 X100.082 Y89.612 E32.138
G1 X99.436 Y89.716 E32.171
G1 X97.758 Y89.898 E32.255
G1 X94.142 Y90.422 E32.437
G1 X92.981 Y90.808 E32.498
G1 X92.734 Y90.990 E32.514
G1 X92.246 Y91.505 E32.549
G1 X91.302 Y92.182 E32.607
G1 X89.107 Y93.535 E32.736
G1 X88.333 Y94.075 E32.783
G1 X87.960 Y94.465 E32.810
G1 X87.558 Y94.816 E32.836
G1 X86.654 Y95.319 E32.888
G1 X85.492 Y96.119 E32.958
G1 X85.105 Y96.510 E32.986
G1 X83.764 Y98.198 E33.093
G1 X82.485 Y100.129 E33.209
G1 X81.572 Y101.673 E33.298
G1 X80.924 Y103.089 E33.376
G1 X80.586 Y104.181 E33.433
G1 X80.292 Y105.792 E33.515
G1 X80.234 Y106.307 E33.541
G1 X80.277 Y107.208 E33.586
G1 X80.234 Y108.367 E33.644
G1 X80.402 Y109.911 E33.721
G1 X80.586 Y110.766 E33.765
G1 X80.710 Y111.585 E33.806
G1 X80.780 Y113.129 E33.883
G1 X80.930 Y114.674 E33.961
G1 X81.172 Y115.832 E34.020
G1 X81.332 Y116.476 E34.053
G1 X81.721 Y117.506 E34.108
G1 X82.464 Y119.050 E34.193
G1 X83.909 Y121.367 E34.329
G1 X84.696 Y122.526 E34.399
G1 X85.969 Y124.328 E34.509
G1 X86.525 Y125.049 E34.555
G1 X87.300 Y125.660 E34.604
G1 X88.849 Y126.611 E34.695
G1 X90.527 Y127.710 E34.795
G1 X92.077 Y128.622 E34.884
G1 X93.626 Y129.394 E34.971
G1 X95.305 Y130.019 E35.060
G1 X97.628 Y130.664 E35.180
G1 X98.403 Y130.752 E35.219
G1 X101.373 Y131.028 E35.368
G1 X101.760 Y131.078 E35.388
G1 X104.988 Y131.565 E35.551
G1 X106.537 Y131.706 E35.628
G1 X107.699 Y131.725 E35.686
G1 X109.119 Y131.597 E35.757
G1 X110.410 Y131.438 E35.822
G1 X111.702 Y131.115 E35.889
G1 X112.605 Y130.941 E35.934
G1 X114.413 Y130.432 E36.028
G1 X115.575 Y130.028 E36.090
G1 X116.479 Y129.649 E36.138
G1 X117.382 Y129.126 E36.191
G1 X118.028 Y128.601 E36.232
G1 X118.591 Y127.932 E36.276
G1 X119.810 Y126.130 E36.384
G1 X120.416 Y125.357 E36.433
G1 X121.514 Y124.442 E36.505
G1 X124.484 Y123.004 E36.669
G1 X126.549 Y122.307 E36.778
G1 X130.164 Y120.889 E36.972
G1 X130.681 Y120.639 E37.000
G1 X131.585 Y120.106 E37.053
G1 X132.101 Y119.732 E37.084
G1 X132.821 Y118.921 E37.139
G1 X134.790 Y116.862 E37.281
G1 X136.452 Y114.931 E37.408
G1 X137.136 Y114.334 E37.453
G1 X138.040 Y113.850 E37.504
G1 X139.073 Y113.468 E37.559
G1 X140.493 Y113.185 E37.631
G1 X141.655 Y112.797 E37.693
G1 X142.301 Y112.504 E37.728
G1 X143.463 Y111.758 E37.797
G1 X144.108 Y111.224 E37.839
G1 X145.012 Y110.529 E37.895
G1 X146.820 Y109.293 E38.005
G1 X148.111 Y108.398 E38.083
G1 X149.402 Y107.228 E38.170
G1 X150.564 Y106.260 E38.245
G1 X151.984 Y105.368 E38.329
G1 X153.404 Y104.572 E38.410
G1 X154.954 Y103.887 E38.495
G1 X155.987 Y103.402 E38.552
G1 X157.149 Y102.741 E38.618
G1 X157.739 Y102.317 E38.655
G1 X159.085 Y101.055 E38.747
G1 X159.860 Y100.480 E38.795
G1 X161.280 Y99.906 E38.871
G1 X162.055 Y99.438 E38.917
G1 X163.346 Y98.799 E38.988
G1 X164.250 Y98.672 E39.034
G1 X166.057 Y98.632 E39.124
G1 X166.574 Y98.376 E39.153
G1 X167.736 Y97.570 E39.223
G1 X168.769 Y96.562 E39.295
G1 X169.187 Y95.881 E39.335
G1 X169.584 Y94.851 E39.390
G1 X169.678 Y93.822 E39.442
G1 X169.594 Y93.049 E39.481
G1 X169.313 Y92.406 E39.516
G1 X168.791 Y91.633 E39.562
G1 X168.283 Y91.118 E39.598
G1 X167.348 Y90.312 E39.660
G1 X166.445 Y89.780 E39.712
G1 X165.850 Y89.574 E39.744
G1 X164.508 Y89.278 E39.812
G1 X163.346 Y89.201 E39.870
G1 X162.313 Y89.295 E39.922
G1 X161.668 Y89.521 E39.956
G1 X161.280 Y89.765 E39.979
G1 X159.860 Y90.510 E40.059
G1 X158.698 Y90.890 E40.120
G1 X157.665 Y91.157 E40.173
G1 X156.632 Y91.375 E40.226
G1 X151.468 Y92.764 E40.493
