; GCode generated by CraftWare
G28 X0 Y0
G28 Z0

M190 S60 ;set and wait bed temperature
M109 S210 ;set and wait head temperature
; ------------------------------------
; Layer #0
; ------------------------------------
G21 ; mm
G90 ; abs
G92 E0 ; reset extr
M106 S0
;segType:Skirt
G0 F4800 E-1.000
G0 F2400 Z0.200
G0 F4800 X109.131 Y116.656
G0 F4800 E0.000
G1 F600 X109.438 Y116.837 E0.0118
G1 X110.908 Y116.837 E0.0607
G1 X111.337 Y116.776 E0.0751
G1 X114.155 Y114.001 E0.2067
G1 X114.278 Y113.156 E0.2351
G1 X114.400 Y113.035 E0.2408
G1 X114.400 Y112.794 E0.2488
G1 X114.523 Y112.673 E0.2546
G1 X114.645 Y111.828 E0.2830
G1 X114.768 Y111.707 E0.2887
G1 X114.829 Y111.285 E0.3029
G1 X114.952 Y110.923 E0.3156
G1 X115.197 Y110.681 E0.3270
G1 X115.687 Y110.440 E0.3452
G1 X116.177 Y110.923 E0.3681
G1 X116.055 Y111.164 E0.3771
G1 X115.074 Y112.130 E0.4229
G1 X114.891 Y112.431 E0.4346
G1 X114.891 Y112.673 E0.4427
G1 X114.768 Y112.794 E0.4484
G1 X114.768 Y113.759 E0.4805
G1 X114.646 Y113.880 E0.4862
G1 X114.646 Y114.845 E0.5183
G1 X114.523 Y114.966 E0.5240
G1 X114.523 Y117.863 E0.6204
G1 X116.851 Y120.156 E0.7291
G1 X117.035 Y120.337 E0.7376
G1 X117.219 Y120.518 E0.7462
G1 X117.648 Y120.578 E0.7606
G1 X118.138 Y120.578 E0.7769
G1 X118.260 Y120.699 E0.7827
G1 X120.221 Y120.699 E0.8479
G1 X120.589 Y120.578 E0.8607
G1 X120.834 Y120.337 E0.8722
G1 X122.059 Y119.613 E0.9195
G1 X122.304 Y119.371 E0.9310
G1 X124.265 Y119.371 E0.9962
G1 X124.693 Y119.311 E1.0106
G1 X125.061 Y119.190 E1.0234
G1 X125.368 Y119.009 E1.0353
G1 X125.735 Y118.888 E1.0482
G1 X125.980 Y118.647 E1.0596
G1 X126.348 Y118.526 E1.0725
G1 X126.961 Y118.164 E1.0961
G1 X129.534 Y115.630 E1.2163
G1 X130.759 Y116.837 E1.2735
G1 X133.210 Y116.837 E1.3550
G1 X133.517 Y117.018 E1.3668
G1 X133.639 Y117.380 E1.3795
G1 X136.335 Y120.035 E1.5054
G1 X136.641 Y120.216 E1.5172
G1 X141.053 Y120.216 E1.6640
G1 X143.994 Y117.319 E1.8012
G1 X144.177 Y117.018 E1.8130
G1 X144.177 Y116.776 E1.8210
G1 X144.545 Y116.173 E1.8445
G1 X144.790 Y115.449 E1.8699
G1 X145.157 Y114.845 E1.8934
G1 X145.157 Y114.604 E1.9015
G1 X145.280 Y114.483 E1.9072
G1 X145.280 Y112.552 E1.9714
G1 X145.219 Y112.130 E1.9856
G1 X144.484 Y110.923 E2.0326
G1 X141.910 Y108.388 E2.1528
G1 X141.665 Y108.388 E2.1609
G1 X141.543 Y108.268 E2.1666
G1 X141.114 Y108.207 E2.1810
G1 X140.746 Y108.087 E2.1939
G1 X140.317 Y108.026 E2.2083
G1 X140.195 Y107.906 E2.2140
G1 X139.337 Y107.785 E2.2428
G1 X139.215 Y107.664 E2.2486
G1 X138.969 Y107.664 E2.2567
G1 X138.847 Y107.544 E2.2624
G1 X138.418 Y107.483 E2.2768
G1 X138.050 Y107.362 E2.2897
G1 X137.928 Y107.242 E2.2954
G1 X137.928 Y107.000 E2.3035
G1 X137.805 Y106.880 E2.3092
G1 X137.683 Y106.035 E2.3376
G1 X137.560 Y105.914 E2.3433
G1 X137.560 Y105.673 E2.3513
G1 X137.437 Y105.552 E2.3570
G1 X137.437 Y105.311 E2.3651
G1 X137.744 Y105.129 E2.3769
G1 X137.989 Y105.129 E2.3851
G1 X138.112 Y105.009 E2.3908
G1 X138.540 Y104.948 E2.4052
G1 X138.908 Y104.828 E2.4181
G1 X139.337 Y104.767 E2.4325
G1 X139.460 Y104.646 E2.4382
G1 X139.705 Y104.646 E2.4463
G1 X139.827 Y104.526 E2.4521
G1 X140.685 Y104.405 E2.4809
G1 X140.808 Y104.284 E2.4866
G1 X141.053 Y104.284 E2.4947
G1 X141.175 Y104.164 E2.5005
G1 X141.420 Y104.164 E2.5086
G1 X144.116 Y101.508 E2.6345
G1 X144.300 Y101.207 E2.6462
G1 X144.422 Y100.845 E2.6589
G1 X144.422 Y100.603 E2.6670
G1 X144.545 Y100.483 E2.6727
G1 X144.667 Y99.638 E2.7011
G1 X144.790 Y99.517 E2.7068
G1 X144.790 Y99.276 E2.7148
G1 X144.912 Y99.155 E2.7205
G1 X145.035 Y98.310 E2.7489
G1 X145.157 Y98.190 E2.7547
G1 X145.280 Y97.345 E2.7830
G1 X145.403 Y97.224 E2.7888
G1 X145.464 Y96.801 E2.8030
G1 X145.587 Y96.439 E2.8157
G1 X145.648 Y96.017 E2.8299
G1 X145.770 Y95.896 E2.8356
G1 X145.893 Y95.052 E2.8640
G1 X145.893 Y93.603 E2.9122
G1 X145.770 Y93.241 E2.9249
G1 X144.484 Y91.129 E3.0071
G1 X141.910 Y88.595 E3.1273
G1 X141.665 Y88.595 E3.1354
G1 X141.543 Y88.474 E3.1411
G1 X141.114 Y88.413 E3.1555
G1 X140.746 Y88.293 E3.1684
G1 X140.317 Y88.233 E3.1828
G1 X140.195 Y88.112 E3.1885
G1 X139.337 Y87.991 E3.2173
G1 X139.215 Y87.870 E3.2231
G1 X138.969 Y87.870 E3.2312
G1 X138.847 Y87.750 E3.2369
G1 X138.418 Y87.689 E3.2513
G1 X137.683 Y87.448 E3.2771
G1 X137.683 Y85.517 E3.3413
G1 X134.497 Y82.379 E3.4901
G1 X134.190 Y82.198 E3.5019
G1 X133.700 Y81.715 E3.5248
G1 X133.394 Y81.534 E3.5366
G1 X133.149 Y81.292 E3.5480
G1 X132.843 Y81.112 E3.5599
G1 X132.597 Y80.870 E3.5713
G1 X131.985 Y80.508 E3.5950
G1 X130.024 Y80.508 E3.6602
G1 X129.534 Y80.991 E3.6831
G1 X129.228 Y81.172 E3.6949
G1 X128.738 Y81.655 E3.7178
G1 X128.431 Y81.836 E3.7296
G1 X127.941 Y82.319 E3.7525
G1 X127.635 Y82.499 E3.7643
G1 X127.390 Y82.741 E3.7758
G1 X126.655 Y82.982 E3.8015
G1 X126.225 Y83.043 E3.8159
G1 X126.103 Y83.163 E3.8217
G1 X125.858 Y83.163 E3.8298
G1 X125.735 Y83.284 E3.8355
G1 X125.307 Y83.344 E3.8499
G1 X124.939 Y83.465 E3.8628
G1 X124.510 Y83.526 E3.8772
G1 X124.387 Y83.646 E3.8829
G1 X124.142 Y83.646 E3.8911
G1 X124.020 Y83.767 E3.8968
G1 X123.775 Y83.767 E3.9049
G1 X123.652 Y83.888 E3.9107
G1 X123.223 Y83.948 E3.9251
G1 X122.488 Y84.189 E3.9508
G1 X121.263 Y85.396 E4.0080
G1 X120.956 Y85.577 E4.0199
G1 X119.486 Y84.129 E4.0885
G1 X118.996 Y84.129 E4.1048
G1 X118.628 Y84.008 E4.1177
G1 X118.138 Y84.008 E4.1340
G1 X117.770 Y83.888 E4.1468
G1 X117.280 Y83.888 E4.1631
G1 X116.912 Y83.767 E4.1760
G1 X116.422 Y83.767 E4.1923
G1 X116.055 Y83.646 E4.2052
G1 X115.564 Y83.646 E4.2215
G1 X115.197 Y83.526 E4.2344
G1 X114.707 Y83.526 E4.2507
G1 X114.339 Y83.405 E4.2635
G1 X113.849 Y83.405 E4.2798
G1 X113.481 Y83.284 E4.2927
G1 X113.052 Y83.224 E4.3071
G1 X112.807 Y82.982 E4.3186
G1 X112.624 Y82.681 E4.3303
G1 X112.378 Y82.439 E4.3417
G1 X112.194 Y82.137 E4.3535
G1 X109.744 Y79.723 E4.4679
G1 X109.438 Y79.543 E4.4797
G1 X107.477 Y79.543 E4.5450
G1 X104.781 Y82.198 E4.6708
G1 X104.720 Y82.861 E4.6930
G1 X104.597 Y82.982 E4.6987
G1 X104.597 Y83.465 E4.7147
G1 X104.475 Y84.310 E4.7431
G1 X104.475 Y84.551 E4.7512
G1 X104.352 Y84.672 E4.7569
G1 X104.352 Y85.396 E4.7810
G1 X104.230 Y85.517 E4.7867
G1 X104.230 Y86.000 E4.8028
G1 X104.107 Y86.362 E4.8155
G1 X104.107 Y88.534 E4.8877
G1 X106.803 Y91.189 E5.0136
G1 X107.722 Y91.732 E5.0491
G1 X108.090 Y91.853 E5.0619
G1 X109.315 Y92.577 E5.1093
G1 X109.683 Y92.698 E5.1222
G1 X110.295 Y93.060 E5.1458
G1 X110.663 Y93.181 E5.1587
G1 X110.908 Y93.422 E5.1701
G1 X111.276 Y93.543 E5.1830
G1 X111.705 Y93.845 E5.2005
G1 X111.582 Y94.689 E5.2289
G1 X111.460 Y94.810 E5.2346
G1 X111.460 Y95.293 E5.2506
G1 X111.337 Y95.414 E5.2563
G1 X111.215 Y96.258 E5.2847
G1 X111.215 Y98.190 E5.3490
G1 X110.908 Y98.371 E5.3608
G1 X108.457 Y100.785 E5.4752
G1 X107.906 Y101.690 E5.5105
G1 X107.661 Y101.931 E5.5219
G1 X105.823 Y104.948 E5.6394
G1 X105.578 Y105.190 E5.6509
G1 X105.455 Y105.552 E5.6636
G1 X105.210 Y105.793 E5.6750
G1 X104.107 Y107.604 E5.7455
G1 X103.985 Y107.724 E5.7513
G1 X103.985 Y109.656 E5.8155
G1 X105.088 Y111.466 E5.8860
G1 X105.210 Y111.828 E5.8987
G1 X105.455 Y112.069 E5.9101
G1 X105.578 Y112.431 E5.9229
G1 X106.681 Y114.242 E5.9934
G1 X109.131 Y116.656 E6.1078
;segType:HShell
G0 F4800 E5.108
G0 F4800 X123.354 Y112.385
G0 F4800 E6.108
G1 F600 X121.150 Y114.556 E6.2107
G0 X119.694 Y114.453 F4800
G1 F600 X120.534 Y113.625 E6.2499
G0 X121.474 Y113.211 F4800
G1 F600 X119.630 Y115.028 E6.3360
G1 X119.887 Y115.288
G1 X122.414 Y112.798 E6.4540
;segType:Perimeter
G0 X122.280 Y112.366 F4800
G1 F300 X122.263 Y111.714 E6.4757
G1 X121.652 Y110.330 E6.5260
G1 X119.651 Y109.338 E6.6003
G1 X118.369 Y107.291 E6.6807
G1 X116.070 Y105.752 E6.7727
G1 X111.539 Y108.367 E6.9467
G1 X110.347 Y112.743 E7.0975
G1 X107.988 Y108.660 E7.2544
G1 X112.223 Y101.994 E7.5171
G1 X115.805 Y100.578 E7.6452
G1 X115.189 Y96.867 E7.7703
G1 X116.455 Y91.809 E7.9437
G1 X108.074 Y87.466 E8.2577
G1 X108.660 Y83.508 E8.3907
G1 X111.367 Y86.955 E8.5365
G1 X118.485 Y87.945 E8.7755
G1 X121.126 Y94.455 E9.0092
G1 X119.381 Y98.803 E9.1650
G1 X119.357 Y99.084 E9.1744
G1 X119.641 Y99.063 E9.1838
G1 X124.061 Y97.316 E9.3419
G1 X123.632 Y87.918 E9.6548
G1 X128.424 Y86.551 E9.8206
G1 X131.143 Y84.314 E9.9377
G1 X133.827 Y86.445 E10.0517
G1 X132.629 Y88.782 E10.1390
G1 X130.410 Y89.527 E10.2169
G1 X128.176 Y89.527 E10.2912
G1 X126.641 Y92.148 E10.3922
G1 X128.863 Y95.207 E10.5180
G1 X130.543 Y95.207 E10.5738
G1 X134.965 Y90.787 E10.7818
G1 X140.844 Y92.361 E10.9842
G1 X142.031 Y94.417 E11.0632
G1 X140.456 Y100.295 E11.2656
G1 X134.418 Y101.914 E11.4735
G1 X133.064 Y104.256 E11.5634
G1 X134.742 Y110.518 E11.7790
G1 X140.845 Y112.153 E11.9892
G1 X141.500 Y113.288 E12.0328
G1 X140.150 Y116.318 E12.1431
G1 X137.603 Y116.302 E12.2278
G1 X136.568 Y114.508 E12.2967
G1 X134.643 Y112.811 E12.3820
G1 X131.821 Y112.949 E12.4760
G1 X128.082 Y105.789 E12.7446
G1 X122.643 Y105.789 E12.9256
G1 X122.369 Y105.875 E12.9351
G1 X122.500 Y106.129 E12.9446
G1 X125.918 Y109.576 E13.1060
G1 X125.918 Y114.391 E13.2662
G1 X123.734 Y115.465 E13.3471
G1 X121.291 Y115.553 E13.4285
G1 X119.462 Y116.773 E13.5016
G1 X118.444 Y116.661 E13.5357
G1 X118.814 Y113.291 E13.6484
G1 X122.235 Y111.786 E13.7727
G1 X122.694 Y111.316
;segType:Loop
G0 X122.249 Y110.692 F4800
G1 F600 X121.959 Y110.035 E13.7966
G1 X119.930 Y109.029 E13.8719
G1 X118.662 Y107.006 E13.9514
G1 X116.086 Y105.281 E14.0545
G1 X111.197 Y108.104 E14.2422
G1 X110.213 Y111.714 E14.3667
G1 X108.456 Y108.671 E14.4835
G1 X112.492 Y102.317 E14.7339
G1 X116.252 Y100.832 E14.8684
G1 X115.598 Y96.883 E15.0015
G1 X116.920 Y91.600 E15.1827
G1 X108.512 Y87.243 E15.4976
G1 X108.921 Y84.486 E15.5903
G1 X111.152 Y87.328 E15.7105
G1 X118.200 Y88.310 E15.9472
G1 X120.696 Y94.457 E16.1678
G1 X118.986 Y98.709 E16.3203
G1 X118.920 Y99.518 E16.3472
G1 X119.730 Y99.457 E16.3743
G1 X124.473 Y97.584 E16.5439
G1 X124.048 Y88.216 E16.8558
G1 X128.613 Y86.912 E17.0137
G1 X131.148 Y84.828 E17.1228
G1 X133.323 Y86.554 E17.2152
G1 X132.347 Y88.454 E17.2862
G1 X130.344 Y89.127 E17.3565
G1 X127.947 Y89.127 E17.4362
G1 X126.164 Y92.172 E17.5536
G1 X128.660 Y95.607 E17.6948
G1 X130.709 Y95.607 E17.7630
G1 X135.085 Y91.234 E17.9688
G1 X140.582 Y92.706 E18.1580
G1 X141.602 Y94.471 E18.2259
G1 X140.128 Y99.968 E18.4151
G1 X134.154 Y101.570 E18.6209
G1 X132.635 Y104.199 E18.7219
G1 X134.416 Y110.844 E18.9507
G1 X140.582 Y112.497 E19.1630
G1 X141.052 Y113.312 E19.1943
G1 X139.892 Y115.916 E19.2891
G1 X137.834 Y115.902 E19.3576
G1 X136.883 Y114.252 E19.4209
G1 X134.785 Y112.402 E19.5139
G1 X132.059 Y112.536 E19.6047
G1 X128.324 Y105.389 E19.8729
G1 X122.582 Y105.389 E20.0639
G1 X121.797 Y105.637 E20.0913
G1 X122.172 Y106.367 E20.1186
G1 X125.518 Y109.739 E20.2766
G1 X125.518 Y114.142 E20.4230
G1 X123.635 Y115.068 E20.4928
G1 X121.164 Y115.156 E20.5751
G1 X119.364 Y116.359 E20.6471
G1 X118.886 Y116.306 E20.6631
G1 X119.188 Y113.563 E20.7549
G1 X122.812 Y111.969 E20.8866
G1 X122.322 Y110.858 E20.9269
G0 X121.887 Y109.553 F4800
G1 F600 X120.211 Y108.723 E20.9891
G1 X118.955 Y106.721 E21.0678
G1 X116.102 Y104.811 E21.1820
G1 X110.855 Y107.840 E21.3834
G1 X110.079 Y110.683 E21.4815
G1 X108.922 Y108.683 E21.5583
G1 X112.762 Y102.639 E21.7965
G1 X116.699 Y101.086 E21.9373
G1 X116.006 Y96.898 E22.0784
G1 X117.385 Y91.391 E22.2673
G1 X108.950 Y87.021 E22.5832
G1 X109.180 Y85.465 E22.6355
G1 X110.937 Y87.701 E22.7301
G1 X117.917 Y88.675 E22.9645
G1 X120.264 Y94.459 E23.1721
G1 X118.592 Y98.615 E23.3211
G1 X118.482 Y99.951 E23.3657
G1 X119.820 Y99.852 E23.4103
G1 X124.885 Y97.852 E23.5914
G1 X124.462 Y88.512 E23.9024
G1 X128.803 Y87.273 E24.0525
G1 X131.153 Y85.341 E24.1537
G1 X132.818 Y86.662 E24.2244
G1 X132.067 Y88.128 E24.2792
G1 X130.279 Y88.727 E24.3419
G1 X127.719 Y88.727 E24.4270
G1 X125.687 Y92.195 E24.5607
G1 X128.457 Y96.008 E24.7175
G1 X130.875 Y96.008 E24.7979
G1 X135.204 Y91.681 E25.0015
G1 X140.320 Y93.049 E25.1776
G1 X141.172 Y94.525 E25.2343
G1 X139.802 Y99.642 E25.4105
G1 X133.891 Y101.227 E25.6140
G1 X132.205 Y104.143 E25.7260
G1 X134.090 Y111.170 E25.9680
G1 X140.320 Y112.840 E26.1826
G1 X140.605 Y113.335 E26.2016
G1 X139.634 Y115.514 E26.2809
G1 X138.065 Y115.503 E26.3331
G1 X137.197 Y113.996 E26.3910
G1 X134.928 Y111.994 E26.4916
G1 X132.295 Y112.124 E26.5793
G1 X128.566 Y104.988 E26.8471
G1 X122.520 Y104.988 E27.0482
G1 X121.225 Y105.398 E27.0934
G1 X121.844 Y106.605 E27.1385
G1 X125.117 Y109.903 E27.2930
G1 X125.117 Y113.894 E27.4258
G1 X123.535 Y114.672 E27.4844
G1 X121.037 Y114.760 E27.5675
G1 X119.333 Y115.899 E27.6357
G1 X119.561 Y113.834 E27.7048
G1 X123.340 Y112.174 E27.8421
G1 X122.266 Y109.740 E27.9306
G1 X122.051 Y109.634 E27.9385
;segType:HShell
G0 X122.092 Y104.914 F4800
G1 F600 X130.933 Y96.207 E28.3512
G0 X132.608 Y94.557 F4800
G1 F600 X135.293 Y91.913 E28.4766
G1 X135.702 Y92.022
G1 X122.740 Y104.789 E29.0817
G1 X123.260 Y104.789
G1 X136.111 Y92.131 E29.6817
G1 X136.521 Y92.241
G1 X123.781 Y104.789 E30.2764
G1 X124.301 Y104.789
G1 X136.930 Y92.350 E30.8660
G1 X137.340 Y92.459
G1 X124.821 Y104.789 E31.4504
G1 X125.342 Y104.789
G1 X137.749 Y92.569 E32.0296
G1 X138.158 Y92.678
G1 X125.862 Y104.789 E32.6037
G1 X126.383 Y104.789
G1 X138.568 Y92.788 E33.1725
G1 X138.977 Y92.897
G1 X126.903 Y104.789 E33.7362
G1 X127.423 Y104.789
G1 X139.386 Y93.006 E34.2947
G1 X139.796 Y93.116
G1 X127.944 Y104.789 E34.8480
G1 X128.464 Y104.789
G1 X140.196 Y93.234 E35.3956
G1 X140.384 Y93.561
G1 X128.788 Y104.982 E35.9370
G1 X128.965 Y105.321
G1 X140.573 Y93.888 E36.4789
G1 X140.761 Y94.215
G1 X133.838 Y101.034 E36.8021
G0 X135.268 Y100.650 F4800
G1 F600 X140.778 Y95.224 E37.0593
G1 X140.950 Y94.542
G1 X134.553 Y100.842 E37.3579
G0 X135.983 Y100.459 F4800
G1 F600 X140.592 Y95.920 E37.5731
G1 X140.406 Y96.616
G1 X136.698 Y100.267 E37.7461
G1 X137.413 Y100.076
G1 X140.219 Y97.312 E37.8772
G1 X140.033 Y98.007
G1 X138.128 Y99.884 E37.9661
G1 X138.843 Y99.692
G1 X139.847 Y98.703 E38.0130
G1 X139.661 Y99.399
G1 X139.558 Y99.501 E38.0178
G0 F4800 X134.305 Y101.771
G0 X132.882 Y104.232
G0 X134.612 Y110.645
G0 X139.118 Y115.311
G1 F600 X139.808 Y114.632 E38.0499
G0 X140.215 Y113.718 F4800
G1 F600 X138.601 Y115.308 E38.1253
G1 X138.146 Y115.244
G1 X140.269 Y113.152 E38.2244
G1 X139.955 Y112.949
G1 X137.958 Y114.917 E38.3177
G1 X137.769 Y114.589
G1 X139.546 Y112.840 E38.4006
G1 X139.137 Y112.730
G1 X137.581 Y114.262 E38.4732
G1 X137.393 Y113.935
G1 X138.727 Y112.620 E38.5355
G1 X138.318 Y112.511
G1 X137.136 Y113.675 E38.5907
G1 X136.862 Y113.433
G1 X137.909 Y112.401 E38.6396
G1 X137.500 Y112.292
G1 X136.587 Y113.191 E38.6823
G1 X136.313 Y112.949
G1 X137.091 Y112.182 E38.7186
G1 X136.682 Y112.072
G1 X136.038 Y112.707 E38.7487
G1 X135.763 Y112.464
G1 X136.273 Y111.963 E38.7724
G1 X135.864 Y111.853
G1 X135.489 Y112.222 E38.7899
G1 X135.214 Y111.980
G1 X135.455 Y111.744 E38.8011
G1 X135.045 Y111.634
G1 X134.880 Y111.797 E38.8089
G1 X134.332 Y111.824
G1 X134.636 Y111.524 E38.8231
G1 X134.227 Y111.415
G1 X133.784 Y111.851 E38.8438
G1 X133.236 Y111.879
G1 X133.897 Y111.227 E38.8747
G1 X133.788 Y110.822
G1 X132.688 Y111.906 E38.9260
G1 X132.325 Y111.751
G1 X133.680 Y110.416 E38.9893
G1 X133.571 Y110.011
G1 X132.148 Y111.412 E39.0557
G1 X131.971 Y111.074
G1 X133.462 Y109.605 E39.1253
G1 X133.354 Y109.200
G1 X131.794 Y110.735 E39.1981
G1 X131.618 Y110.397
G1 X133.245 Y108.794 E39.2741
G1 X133.136 Y108.389
G1 X131.441 Y110.059 E39.3532
G1 X131.264 Y109.720
G1 X133.027 Y107.983 E39.4355
G1 X132.919 Y107.578
G1 X131.087 Y109.382 E39.5210
G1 X130.910 Y109.043
G1 X132.810 Y107.172 E39.6097
G1 X132.701 Y106.767
G1 X130.733 Y108.705 E39.7016
G1 X130.557 Y108.367
G1 X132.592 Y106.361 E39.7966
G1 X132.484 Y105.956
G1 X130.380 Y108.028 E39.8948
G1 X130.203 Y107.690
G1 X132.375 Y105.550 E39.9962
G1 X132.266 Y105.145
G1 X130.026 Y107.351 E40.1008
G1 X129.849 Y107.013
G1 X132.158 Y104.739 E40.2086
G1 X132.049 Y104.334
G1 X129.673 Y106.674 E40.3195
G1 X129.496 Y106.336
G1 X132.307 Y103.567 E40.4508
G0 X132.996 Y102.376 F4800
G1 F600 X129.319 Y105.998 E40.6224
G1 X129.142 Y105.659
G1 X133.684 Y101.185 E40.8345
G0 X124.880 Y98.068 F4800
G1 F600 X117.398 Y105.437 E41.1838
G1 X117.088 Y105.230
G1 X124.011 Y98.411 E41.5069
G0 X123.142 Y98.754 F4800
G1 F600 X116.779 Y105.022 E41.8040
G1 X116.469 Y104.815
G1 X122.273 Y99.098 E42.0750
G0 X121.404 Y99.441 F4800
G1 F600 X116.159 Y104.607 E42.3199
G0 X115.053 Y105.184 F4800
G1 F600 X120.536 Y99.784 E42.5758
G0 X119.737 Y100.058 F4800
G1 F600 X113.795 Y105.910 E42.8532
G0 X112.538 Y106.636 F4800
G1 F600 X119.174 Y100.100 E43.1630
G1 X118.611 Y100.142
G1 X111.280 Y107.363 E43.5052
G0 X110.463 Y106.630 F4800
G1 F600 X115.321 Y101.845 E43.7320
G0 X114.453 Y102.187 F4800
G1 F600 X111.332 Y105.261 E43.8777
G0 X112.202 Y103.892 F4800
G1 F600 X113.586 Y102.529 E43.9424
G0 X116.189 Y101.503 F4800
G1 F600 X109.593 Y107.999 E44.2503
G0 X110.209 Y109.442 F4800
G1 F600 X109.816 Y109.830 E44.2686
G1 X109.627 Y109.503
G1 X110.401 Y108.741 E44.3048
G1 X110.593 Y108.040
G1 X109.438 Y109.177 E44.3587
G1 X109.249 Y108.850
G1 X118.281 Y99.954 E44.7803
G1 X118.327 Y99.397
G1 X116.862 Y100.840 E44.8487
G1 X116.789 Y100.399
G1 X118.372 Y98.839 E44.9226
G1 X118.570 Y98.132
G1 X116.716 Y99.958 E45.0092
G1 X116.643 Y99.518
G1 X118.912 Y97.283 E45.1152
G0 X119.254 Y96.433 F4800
G1 F600 X116.569 Y99.077 E45.2405
G1 X116.496 Y98.637
G1 X119.595 Y95.584 E45.3852
G0 X119.937 Y94.735 F4800
G1 F600 X116.423 Y98.196 E45.5492
G1 X116.350 Y97.756
G1 X119.947 Y94.213 E45.7171
G1 X119.799 Y93.847
G1 X116.277 Y97.315 E45.8815
G1 X116.221 Y96.857
G1 X119.650 Y93.480 E46.0416
G1 X119.501 Y93.114
G1 X116.392 Y96.177 E46.1868
G1 X116.562 Y95.496
G1 X119.353 Y92.748 E46.3170
G1 X119.204 Y92.382
G1 X116.733 Y94.816 E46.4324
G1 X116.903 Y94.135
G1 X119.055 Y92.016 E46.5329
G1 X118.907 Y91.650
G1 X117.074 Y93.455 E46.6184
G1 X117.244 Y92.774
G1 X118.758 Y91.283 E46.6891
G1 X118.609 Y90.917
G1 X117.415 Y92.094 E46.7449
G0 X110.343 Y87.269 F4800
G1 F600 X110.178 Y87.432 E46.7526
G1 X109.837 Y87.256
G1 X110.116 Y86.981 E46.7657
G1 X109.889 Y86.692
G1 X109.496 Y87.079 E46.7840
G1 X109.171 Y86.887
G1 X109.662 Y86.403 E46.8070
G1 X109.435 Y86.114
G1 X109.260 Y86.287 E46.8152
G0 X111.677 Y88.007 F4800
G1 F600 X111.542 Y88.139 E46.8214
G1 X111.883 Y88.316
G1 X112.132 Y88.070 E46.8331
G1 X112.588 Y88.134
G1 X112.224 Y88.492 E46.8500
G1 X112.565 Y88.669
G1 X113.044 Y88.197 E46.8724
G1 X113.500 Y88.261
G1 X112.907 Y88.846 E46.9001
G1 X113.248 Y89.022
G1 X113.956 Y88.325 E46.9332
G1 X114.412 Y88.388
G1 X113.589 Y89.199 E46.9716
G1 X113.930 Y89.375
G1 X114.868 Y88.452 E47.0154
G1 X115.323 Y88.515
G1 X114.271 Y89.552 E47.0645
G1 X114.612 Y89.729
G1 X115.779 Y88.579 E47.1190
G1 X116.235 Y88.643
G1 X114.953 Y89.905 E47.1788
G1 X115.294 Y90.082
G1 X116.691 Y88.706 E47.2440
G1 X117.147 Y88.770
G1 X115.635 Y90.259 E47.3146
G1 X115.976 Y90.435
G1 X117.603 Y88.833 E47.3905
G1 X117.866 Y89.086
G1 X116.317 Y90.612 E47.4629
G1 X116.658 Y90.788
G1 X118.015 Y89.453 E47.5262
G1 X118.163 Y89.819
G1 X116.999 Y90.965 E47.5805
G1 X117.341 Y91.142
G1 X118.312 Y90.185 E47.6259
G1 X118.461 Y90.551
G1 X117.585 Y91.413 E47.6667
G0 F4800 X119.227 Y99.212
G0 X119.682 Y99.239
G0 X124.215 Y97.415
G0 X124.684 Y89.034
G1 F600 X125.226 Y88.501 E47.6920
G0 X125.958 Y88.292 F4800
G1 F600 X124.707 Y89.525 E47.7504
G1 X124.729 Y90.015
G1 X126.690 Y88.084 E47.8420
G0 X127.422 Y87.876 F4800
G1 F600 X124.751 Y90.506 E47.9667
G1 X124.774 Y90.997
G1 X128.154 Y87.667 E48.1245
G0 X128.886 Y87.459 F4800
G1 F600 X127.801 Y88.527 E48.1751
G1 X128.322 Y88.527
G1 X131.233 Y85.660 E48.3110
G1 X131.521 Y85.888
G1 X128.842 Y88.527 E48.4361
G1 X129.362 Y88.527
G1 X131.809 Y86.117 E48.5504
G1 X132.098 Y86.346
G1 X129.883 Y88.527 E48.6537
G1 X130.485 Y88.447
G1 X132.386 Y86.574 E48.7425
G1 X132.365 Y87.108
G1 X131.274 Y88.182 E48.7934
G0 X127.334 Y88.987 F4800
G1 F600 X124.796 Y91.487 E48.9119
G1 X124.818 Y91.978
G1 X126.625 Y90.198 E48.9963
G0 X125.917 Y91.409 F4800
G1 F600 X124.841 Y92.468 E49.0465
G1 X124.863 Y92.959
G1 X125.523 Y92.309 E49.0773
G1 X125.740 Y92.607
G1 X124.885 Y93.449 E49.1172
G1 X124.908 Y93.940
G1 X125.957 Y92.906 E49.1662
G1 X126.174 Y93.205
G1 X124.930 Y94.431 E49.2243
G1 X124.952 Y94.921
G1 X126.391 Y93.504 E49.2915
G1 X126.608 Y93.803
G1 X124.975 Y95.412 E49.3677
G1 X124.997 Y95.902
G1 X126.826 Y94.101 E49.4531
G1 X127.043 Y94.400
G1 X125.019 Y96.393 E49.5476
G1 X125.042 Y96.883
G1 X127.260 Y94.699 E49.6511
G1 X127.477 Y94.998
G1 X125.064 Y97.374 E49.7637
G1 X125.086 Y97.865
G1 X127.694 Y95.296 E49.8854
G1 X127.911 Y95.595
G1 X117.708 Y105.645 E50.3618
G1 X118.018 Y105.852
G1 X128.128 Y95.894 E50.8338
G1 X128.345 Y96.193
G1 X118.327 Y106.060 E51.3014
G1 X118.637 Y106.267
G1 X128.851 Y96.207 E51.7782
G1 X129.371 Y96.207
G1 X118.947 Y106.474 E52.2649
G1 X119.201 Y106.737
G1 X129.892 Y96.207 E52.7640
G1 X130.412 Y96.207
G1 X121.325 Y105.157 E53.1882
G1 X121.027 Y105.451
G1 X119.400 Y107.054 E53.2642
G1 X119.599 Y107.370
G1 X121.202 Y105.791 E53.3390
G1 X121.376 Y106.132
G1 X119.797 Y107.687 E53.4127
G1 X119.996 Y108.004
G1 X121.551 Y106.473 E53.4853
G1 X121.747 Y106.792
G1 X120.195 Y108.321 E53.5577
G1 X120.426 Y108.606
G1 X122.004 Y107.051 E53.6314
G1 X122.261 Y107.311
G1 X120.772 Y108.778 E53.7009
G1 X121.118 Y108.949
G1 X122.518 Y107.570 E53.7663
G1 X122.776 Y107.829
G1 X121.465 Y109.121 E53.8275
G1 X121.811 Y109.292
G1 X123.033 Y108.088 E53.8846
G1 X123.290 Y108.348
G1 X122.157 Y109.464 E53.9375
G1 X122.458 Y109.680
G1 X123.547 Y108.607 E53.9883
G1 X123.805 Y108.866
G1 X122.616 Y110.037 E54.0438
G1 X122.773 Y110.394
G1 X124.062 Y109.125 E54.1040
G1 X124.319 Y109.384
G1 X122.931 Y110.752 E54.1688
G1 X123.089 Y111.109
G1 X124.576 Y109.644 E54.2382
G1 X124.834 Y109.903
G1 X123.246 Y111.466 E54.3123
G1 X123.404 Y111.823
G1 X124.918 Y110.332 E54.3830
G1 X124.918 Y110.845
G1 X123.562 Y112.181 E54.4463
G0 X124.918 Y113.408 F4800
G1 F600 X124.185 Y114.129 E54.4805
G0 X123.310 Y114.479 F4800
G1 F600 X124.918 Y112.895 E54.5556
G1 X124.918 Y112.383
G1 X122.770 Y114.498 E54.6559
G1 X122.230 Y114.518
G1 X124.918 Y111.870 E54.7813
G1 X124.918 Y111.357
G1 X121.690 Y114.537 E54.9320
; ------------------------------------
; Layer #1
; ------------------------------------
G21 ; mm
G90 ; abs
G92 E0 ; reset extr
M106 S0
;segType:HShell
G0 F4800 E-1.000
G0 F2400 Z0.400
G0 F4800 X124.918 Y113.151
G0 F4800 E0.000
G1 F2400 X123.276 Y111.534 E0.0766
G0 X123.538 Y112.304 F4800
G1 F2400 X124.918 Y113.664 E0.1411
G1 X124.642 Y113.905
G1 X123.178 Y112.462 E0.2094
G1 X122.818 Y112.621
G1 X124.295 Y114.075 E0.2784
G1 X123.948 Y114.246
G1 X122.458 Y112.779 E0.3479
;segType:Perimeter
G0 X122.280 Y112.366 F4800
G1 F1200 X122.263 Y111.714 E0.3696
G1 X121.652 Y110.330 E0.4199
G1 X119.651 Y109.338 E0.4942
G1 X118.369 Y107.291 E0.5745
G1 X116.070 Y105.752 E0.6666
G1 X111.539 Y108.367 E0.8406
G1 X110.347 Y112.743 E0.9914
G1 X107.988 Y108.660 E1.1483
G1 X111.426 Y103.246 E1.3616
G1 X112.223 Y101.994 E1.4109
G1 X115.805 Y100.578 E1.5390
G1 X115.189 Y96.867 E1.6642
G1 X116.455 Y91.809 E1.8376
G1 X109.551 Y88.232 E2.0962
G1 X108.074 Y87.466 E2.1516
G1 X108.660 Y83.508 E2.2846
G1 X111.367 Y86.955 E2.4304
G1 X118.485 Y87.945 E2.6694
G1 X121.126 Y94.455 E2.9031
G1 X119.381 Y98.803 E3.0589
G1 X119.357 Y99.084 E3.0683
G1 X119.641 Y99.063 E3.0777
G1 X124.061 Y97.316 E3.2358
G1 X123.938 Y94.668 E3.3240
G1 X123.632 Y87.918 E3.5487
G1 X128.424 Y86.551 E3.7144
G1 X131.143 Y84.314 E3.8315
G1 X133.827 Y86.445 E3.9456
G1 X132.629 Y88.782 E4.0329
G1 X130.410 Y89.527 E4.1107
G1 X128.176 Y89.527 E4.1850
G1 X126.641 Y92.148 E4.2861
G1 X128.863 Y95.207 E4.4118
G1 X130.543 Y95.207 E4.4677
G1 X134.965 Y90.787 E4.6756
G1 X140.844 Y92.361 E4.8781
G1 X142.031 Y94.417 E4.9570
G1 X140.456 Y100.295 E5.1595
G1 X134.418 Y101.914 E5.3674
G1 X133.064 Y104.256 E5.4573
G1 X134.742 Y110.518 E5.6729
G1 X140.845 Y112.153 E5.8831
G1 X141.500 Y113.288 E5.9267
G1 X140.150 Y116.318 E6.0370
G1 X137.603 Y116.302 E6.1217
G1 X136.568 Y114.508 E6.1906
G1 X134.643 Y112.811 E6.2759
G1 X131.821 Y112.949 E6.3699
G1 X128.082 Y105.789 E6.6385
G1 X122.643 Y105.789 E6.8194
G1 X122.369 Y105.875 E6.8290
G1 X122.500 Y106.129 E6.8385
G1 X125.918 Y109.576 E6.9999
G1 X125.918 Y114.391 E7.1601
G1 X123.734 Y115.465 E7.2410
G1 X121.291 Y115.553 E7.3223
G1 X119.462 Y116.773 E7.3955
G1 X118.444 Y116.661 E7.4295
G1 X118.814 Y113.291 E7.5423
G1 X122.235 Y111.786 E7.6666
G1 X122.694 Y111.316
;segType:Loop
G0 X122.249 Y110.692 F4800
G1 F2400 X121.959 Y110.035 E7.6905
G1 X119.930 Y109.029 E7.7658
G1 X118.662 Y107.006 E7.8452
G1 X116.086 Y105.281 E7.9484
G1 X111.197 Y108.104 E8.1361
G1 X110.213 Y111.714 E8.2606
G1 X108.456 Y108.671 E8.3774
G1 X111.764 Y103.461 E8.5827
G1 X112.492 Y102.317 E8.6278
G1 X116.252 Y100.832 E8.7623
G1 X115.598 Y96.883 E8.8954
G1 X116.920 Y91.600 E9.0765
G1 X108.512 Y87.243 E9.3915
G1 X108.921 Y84.486 E9.4842
G1 X111.152 Y87.328 E9.6044
G1 X118.200 Y88.310 E9.8411
G1 X120.696 Y94.457 E10.0617
G1 X118.986 Y98.709 E10.2141
G1 X118.920 Y99.518 E10.2411
G1 X119.730 Y99.457 E10.2682
G1 X124.473 Y97.584 E10.4377
G1 X124.338 Y94.650 E10.5354
G1 X124.047 Y88.216 E10.7497
G1 X128.613 Y86.912 E10.9076
G1 X131.148 Y84.828 E11.0167
G1 X133.323 Y86.554 E11.1091
G1 X132.347 Y88.454 E11.1801
G1 X130.344 Y89.127 E11.2504
G1 X127.947 Y89.127 E11.3301
G1 X126.164 Y92.172 E11.4475
G1 X128.660 Y95.607 E11.5887
G1 X130.709 Y95.607 E11.6569
G1 X135.085 Y91.234 E11.8626
G1 X140.582 Y92.706 E12.0519
G1 X141.602 Y94.471 E12.1197
G1 X140.128 Y99.968 E12.3090
G1 X134.154 Y101.570 E12.5148
G1 X132.635 Y104.199 E12.6157
G1 X134.416 Y110.844 E12.8446
G1 X140.582 Y112.497 E13.0569
G1 X141.052 Y113.312 E13.0882
G1 X139.892 Y115.916 E13.1830
G1 X137.834 Y115.902 E13.2515
G1 X136.883 Y114.252 E13.3148
G1 X134.785 Y112.402 E13.4078
G1 X132.059 Y112.536 E13.4986
G1 X128.324 Y105.389 E13.7668
G1 X122.582 Y105.389 E13.9578
G1 X121.797 Y105.637 E13.9852
G1 X122.172 Y106.367 E14.0125
G1 X125.518 Y109.739 E14.1705
G1 X125.518 Y114.142 E14.3169
G1 X123.635 Y115.068 E14.3867
G1 X121.164 Y115.156 E14.4690
G1 X119.364 Y116.359 E14.5410
G1 X118.886 Y116.306 E14.5570
G1 X119.188 Y113.563 E14.6488
G1 X122.812 Y111.969 E14.7805
G1 X122.322 Y110.858 E14.8208
G0 X121.887 Y109.553 F4800
G1 F2400 X120.211 Y108.723 E14.8830
G1 X118.955 Y106.721 E14.9616
G1 X116.102 Y104.811 E15.0758
G1 X110.855 Y107.840 E15.2773
G1 X110.079 Y110.683 E15.3754
G1 X108.922 Y108.683 E15.4522
G1 X112.102 Y103.676 E15.6495
G1 X112.761 Y102.639 E15.6904
G1 X116.699 Y101.086 E15.8312
G1 X116.006 Y96.898 E15.9723
G1 X117.385 Y91.391 E16.1612
G1 X108.950 Y87.021 E16.4771
G1 X109.180 Y85.465 E16.5294
G1 X110.937 Y87.701 E16.6240
G1 X117.917 Y88.675 E16.8584
G1 X120.264 Y94.459 E17.0660
G1 X118.592 Y98.615 E17.2150
G1 X118.482 Y99.951 E17.2596
G1 X119.820 Y99.852 E17.3042
G1 X124.885 Y97.852 E17.4853
G1 X124.462 Y88.512 E17.7963
G1 X128.803 Y87.273 E17.9464
G1 X131.153 Y85.341 E18.0476
G1 X132.818 Y86.662 E18.1183
G1 X132.067 Y88.128 E18.1731
G1 X130.279 Y88.727 E18.2358
G1 X127.719 Y88.727 E18.3209
G1 X125.687 Y92.195 E18.4546
G1 X128.457 Y96.008 E18.6114
G1 X130.875 Y96.008 E18.6918
G1 X135.204 Y91.681 E18.8953
G1 X140.320 Y93.049 E19.0715
G1 X141.172 Y94.525 E19.1282
G1 X139.802 Y99.642 E19.3044
G1 X133.891 Y101.227 E19.5079
G1 X132.205 Y104.143 E19.6199
G1 X134.090 Y111.170 E19.8619
G1 X140.320 Y112.840 E20.0765
G1 X140.605 Y113.335 E20.0955
G1 X139.634 Y115.514 E20.1748
G1 X138.065 Y115.503 E20.2270
G1 X137.197 Y113.996 E20.2848
G1 X134.928 Y111.994 E20.3855
G1 X132.295 Y112.124 E20.4732
G1 X128.566 Y104.988 E20.7410
G1 X122.520 Y104.988 E20.9421
G1 X121.225 Y105.398 E20.9873
G1 X121.844 Y106.605 E21.0324
G1 X125.117 Y109.903 E21.1869
G1 X125.117 Y113.894 E21.3196
G1 X123.535 Y114.672 E21.3783
G1 X121.037 Y114.760 E21.4614
G1 X119.333 Y115.899 E21.5296
G1 X119.561 Y113.834 E21.5987
G1 X123.340 Y112.174 E21.7360
G1 X122.266 Y109.740 E21.8244
G1 X122.051 Y109.634 E21.8324
;segType:HShell
G0 X122.274 Y109.521 F4800
G1 F2400 X114.720 Y102.081 E22.1850
G1 X114.348 Y102.228
G1 X118.050 Y105.874 E22.3578
G0 X119.646 Y107.446 F4800
G1 F2400 X121.227 Y109.003 E22.4316
G0 X121.317 Y106.016 F4800
G1 F2400 X116.578 Y101.349 E22.6528
G1 X116.917 Y101.170
G1 X121.053 Y105.243 E22.8459
G1 X121.447 Y105.119
G1 X116.815 Y100.557 E23.0621
G1 X116.713 Y99.944
G1 X121.840 Y104.994 E23.3015
G1 X122.234 Y104.869
G1 X116.612 Y99.331 E23.5640
G1 X116.510 Y98.719
G1 X122.673 Y104.789 E23.8517
G1 X123.194 Y104.789
G1 X118.485 Y100.152 E24.0715
G1 X118.969 Y100.116
G1 X123.714 Y104.789 E24.2930
G1 X124.234 Y104.789
G1 X119.453 Y100.080 E24.5163
G1 X119.920 Y100.027
G1 X124.755 Y104.789 E24.7420
G1 X125.275 Y104.789
G1 X120.292 Y99.880 E24.9746
G1 X120.663 Y99.734
G1 X125.796 Y104.789 E25.2143
G1 X126.316 Y104.789
G1 X121.034 Y99.587 E25.4608
G1 X121.406 Y99.440
G1 X126.836 Y104.789 E25.7143
G1 X127.357 Y104.789
G1 X121.777 Y99.294 E25.9748
G1 X122.149 Y99.147
G1 X127.877 Y104.789 E26.2423
G1 X128.398 Y104.789
G1 X122.520 Y99.000 E26.5166
G1 X122.892 Y98.853
G1 X133.338 Y109.143 E27.0043
G1 X133.525 Y109.839
G1 X128.995 Y105.377 E27.2158
G0 X129.546 Y106.433 F4800
G1 F2400 X133.712 Y110.536 E27.4103
G0 X136.175 Y111.937 F4800
G1 F2400 X139.534 Y115.245 E27.5671
G1 X139.693 Y114.889
G1 X136.890 Y112.128 E27.6980
G1 X137.605 Y112.320
G1 X139.852 Y114.533 E27.8029
G1 X140.011 Y114.177
G1 X138.319 Y112.511 E27.8818
G1 X139.034 Y112.703
G1 X140.169 Y113.821 E27.9348
G1 X140.328 Y113.464
G1 X139.749 Y112.894 E27.9618
G0 X137.693 Y114.457 F4800
G1 F2400 X138.557 Y115.308 E28.0022
G1 X139.080 Y115.311
G1 X135.460 Y111.745 E28.1712
G1 X134.987 Y111.792
G1 X134.745 Y111.553 E28.1825
G1 X134.030 Y111.362
G1 X134.491 Y111.816 E28.2040
G1 X133.996 Y111.841
G1 X130.650 Y108.545 E28.3602
G0 X130.098 Y107.489 F4800
G1 F2400 X133.898 Y111.232 E28.5376
G0 X132.510 Y111.915 F4800
G1 F2400 X132.306 Y111.714 E28.5472
G0 X131.754 Y110.657 F4800
G1 F2400 X133.005 Y111.890 E28.6056
G1 X133.501 Y111.865
G1 X131.202 Y109.601 E28.7129
G0 X133.151 Y108.446 F4800
G1 F2400 X123.263 Y98.707 E29.1745
G1 X123.635 Y98.560
G1 X132.965 Y107.750 E29.6101
G1 X132.778 Y107.053
G1 X124.006 Y98.413 E30.0196
G1 X124.377 Y98.266
G1 X132.591 Y106.357 E30.4031
G1 X132.404 Y105.660
G1 X124.749 Y98.120 E30.7605
G1 X125.090 Y97.943
G1 X132.218 Y104.964 E31.0932
G1 X132.031 Y104.267
G1 X125.066 Y97.407 E31.4184
G1 X125.041 Y96.870
G1 X132.138 Y103.860 E31.7497
G1 X132.327 Y103.533
G1 X125.017 Y96.333 E32.0910
G1 X124.992 Y95.797
G1 X132.516 Y103.207 E32.4422
G1 X132.704 Y102.880
G1 X124.968 Y95.260 E32.8033
G1 X124.943 Y94.723
G1 X132.893 Y102.553 E33.1745
G1 X133.082 Y102.227
G1 X124.919 Y94.187 E33.5556
G1 X124.895 Y93.650
G1 X133.271 Y101.900 E33.9466
G1 X133.460 Y101.574
G1 X124.870 Y93.113 E34.3476
G1 X124.846 Y92.577
G1 X127.913 Y95.598 E34.4908
G0 X128.531 Y96.207 F4800
G1 F2400 X133.649 Y101.247 E34.7297
G1 X133.928 Y101.010
G1 X129.052 Y96.207 E34.9573
G1 X129.572 Y96.207
G1 X134.337 Y100.900 E35.1797
G1 X134.746 Y100.790
G1 X130.093 Y96.207 E35.3970
G1 X130.613 Y96.207
G1 X135.155 Y100.681 E35.6090
G1 X135.564 Y100.571
G1 X131.045 Y96.120 E35.8200
G1 X131.303 Y95.861
G1 X135.973 Y100.461 E36.0380
G1 X136.382 Y100.352
G1 X131.561 Y95.603 E36.2631
G1 X131.819 Y95.345
G1 X136.791 Y100.242 E36.4952
G1 X137.201 Y100.133
G1 X132.078 Y95.087 E36.7344
G1 X132.336 Y94.829
G1 X137.610 Y100.023 E36.9806
G1 X138.019 Y99.913
G1 X132.594 Y94.570 E37.2338
G1 X132.853 Y94.312
G1 X138.428 Y99.804 E37.4941
G1 X138.837 Y99.694
G1 X133.111 Y94.054 E37.7614
G1 X133.369 Y93.796
G1 X139.246 Y99.584 E38.0357
G1 X139.644 Y99.463
G1 X133.627 Y93.538 E38.3166
G1 X133.886 Y93.280
G1 X139.752 Y99.058 E38.5905
G1 X139.861 Y98.652
G1 X134.144 Y93.021 E38.8573
G1 X134.402 Y92.763
G1 X139.969 Y98.246 E39.1172
G1 X140.078 Y97.841
G1 X134.661 Y92.505 E39.3701
G1 X134.919 Y92.247
G1 X140.186 Y97.435 E39.6160
G1 X140.295 Y97.029
G1 X135.177 Y91.989 E39.8550
G1 X135.742 Y92.033
G1 X140.403 Y96.624 E40.0726
G1 X140.512 Y96.218
G1 X136.456 Y92.223 E40.2619
G1 X137.170 Y92.414
G1 X140.621 Y95.812 E40.4230
G1 X140.729 Y95.407
G1 X137.885 Y92.605 E40.5557
G1 X138.599 Y92.796
G1 X140.838 Y95.001 E40.6603
G1 X140.946 Y94.595
G1 X139.313 Y92.987 E40.7365
G0 X140.342 Y93.488 F4800
G1 F2400 X140.027 Y93.177 E40.7512
G0 F4800 X130.614 Y95.374
G0 X128.779 Y95.368
G0 X126.457 Y92.157
G0 X128.084 Y89.370
G0 X132.519 Y86.807
G1 F2400 X131.852 Y86.151 E40.7824
G0 X130.946 Y85.771 F4800
G1 F2400 X132.344 Y87.148 E40.8476
G1 X132.169 Y87.488
G1 X130.663 Y86.005 E40.9179
G1 X130.379 Y86.238
G1 X131.995 Y87.829 E40.9934
G1 X131.691 Y88.042
G1 X130.096 Y86.471 E41.0678
G1 X129.812 Y86.704
G1 X131.303 Y88.172 E41.1374
G1 X130.914 Y88.303
G1 X129.528 Y86.937 E41.2021
G1 X129.245 Y87.171
G1 X130.526 Y88.433 E41.2620
G1 X130.102 Y88.527
G1 X128.961 Y87.404 E41.3152
G1 X128.584 Y87.545
G1 X129.581 Y88.527 E41.3618
G1 X129.061 Y88.527
G1 X128.180 Y87.660 E41.4029
G1 X127.776 Y87.775
G1 X128.540 Y88.527 E41.4386
G1 X128.020 Y88.527
G1 X127.373 Y87.890 E41.4688
G1 X126.969 Y88.005
G1 X127.565 Y88.592 E41.4966
G1 X127.375 Y88.917
G1 X126.565 Y88.120 E41.5345
G1 X126.161 Y88.235
G1 X127.185 Y89.242 E41.5822
G1 X126.994 Y89.568
G1 X125.758 Y88.349 E41.6400
G1 X125.354 Y88.464
G1 X126.804 Y89.893 E41.7077
G1 X126.614 Y90.218
G1 X124.950 Y88.579 E41.7853
G1 X124.675 Y88.820
G1 X126.423 Y90.543 E41.8670
G1 X126.233 Y90.868
G1 X124.699 Y89.357 E41.9386
G1 X124.723 Y89.894
G1 X126.043 Y91.193 E42.0002
G1 X125.852 Y91.518
G1 X124.748 Y90.430 E42.0517
G1 X124.772 Y90.967
G1 X125.662 Y91.843 E42.0933
G1 X125.472 Y92.168
G1 X124.797 Y91.504 E42.1248
G1 X124.821 Y92.040
G1 X126.603 Y93.795 E42.2080
G0 F4800 X124.215 Y97.414
G0 X119.682 Y99.239
G0 X119.227 Y99.212
G0 X118.698 Y91.134
G1 F2400 X116.156 Y88.632 E42.3266
G1 X116.763 Y88.716
G1 X118.351 Y90.280 E42.4008
G0 X118.004 Y89.426 F4800
G1 F2400 X117.369 Y88.801 E42.4304
G0 X109.244 Y86.949 F4800
G1 F2400 X109.172 Y86.878 E42.4337
G0 X109.429 Y86.106 F4800
G1 F2400 X109.305 Y85.983 E42.4395
G1 X109.238 Y86.431
G1 X110.341 Y87.517 E42.4910
G0 X111.438 Y88.085 F4800
G1 F2400 X111.306 Y87.955 E42.4972
G1 X111.913 Y88.040
G1 X112.536 Y88.654 E42.5263
G0 X113.633 Y89.222 F4800
G1 F2400 X112.519 Y88.124 E42.5783
G1 X113.125 Y88.209
G1 X114.731 Y89.790 E42.6533
G0 X115.828 Y90.359 F4800
G1 F2400 X113.731 Y88.293 E42.7512
G1 X114.338 Y88.378
G1 X116.926 Y90.927 E42.8720
G0 X119.044 Y91.989 F4800
G1 F2400 X115.550 Y88.547 E43.0351
G1 X114.944 Y88.462
G1 X119.391 Y92.843 E43.2427
G0 X119.738 Y93.697 F4800
G1 F2400 X117.552 Y91.544 E43.3447
G1 X117.449 Y91.955
G1 X120.032 Y94.499 E43.4653
G1 X119.884 Y94.866
G1 X117.346 Y92.366 E43.5838
G1 X117.243 Y92.778
G1 X119.737 Y95.233 E43.7002
G1 X119.589 Y95.600
G1 X117.140 Y93.189 E43.8145
G1 X117.037 Y93.600
G1 X119.441 Y95.968 E43.9267
G1 X119.293 Y96.335
G1 X116.934 Y94.011 E44.0368
G1 X116.831 Y94.422
G1 X119.146 Y96.702 E44.1449
G1 X118.998 Y97.069
G1 X116.728 Y94.833 E44.2509
G1 X116.625 Y95.244
G1 X118.850 Y97.436 E44.3547
G1 X118.703 Y97.803
G1 X116.522 Y95.655 E44.4565
G1 X116.419 Y96.067
G1 X118.555 Y98.170 E44.5562
G1 X118.407 Y98.537
G1 X116.316 Y96.478 E44.6538
G1 X116.213 Y96.889
G1 X118.359 Y99.002 E44.7540
G1 X118.320 Y99.477
G1 X116.306 Y97.493 E44.8480
G1 X116.408 Y98.106
G1 X118.281 Y99.951 E44.9355
G0 X116.424 Y104.785 F4800
G1 F2400 X113.977 Y102.374 E45.0497
G1 X113.605 Y102.521
G1 X115.845 Y104.727 E45.1543
G1 X115.517 Y104.916
G1 X113.233 Y102.667 E45.2608
G1 X112.877 Y102.829
G1 X115.189 Y105.106 E45.3688
G1 X114.860 Y105.295
G1 X112.677 Y103.144 E45.4707
G1 X112.476 Y103.460
G1 X114.532 Y105.485 E45.5667
G1 X114.204 Y105.674
G1 X112.276 Y103.775 E45.6567
G1 X112.076 Y104.090
G1 X113.876 Y105.864 E45.7408
G1 X113.548 Y106.053
G1 X111.876 Y104.406 E45.8189
G1 X111.675 Y104.721
G1 X113.220 Y106.242 E45.8910
G1 X112.892 Y106.432
G1 X111.475 Y105.036 E45.9571
G1 X111.275 Y105.351
G1 X112.564 Y106.621 E46.0173
G1 X112.236 Y106.811
G1 X111.074 Y105.667 E46.0715
G1 X110.874 Y105.982
G1 X111.908 Y107.000 E46.1198
G1 X111.580 Y107.190
G1 X110.674 Y106.297 E46.1621
G1 X110.474 Y106.613
G1 X111.252 Y107.379 E46.1984
G1 X110.923 Y107.568
G1 X110.273 Y106.928 E46.2288
G1 X110.073 Y107.243
G1 X110.654 Y107.815 E46.2559
G1 X110.544 Y108.219
G1 X109.873 Y107.559 E46.2872
G1 X109.672 Y107.874
G1 X110.433 Y108.623 E46.3227
G1 X110.323 Y109.027
G1 X109.472 Y108.189 E46.3624
G1 X109.272 Y108.505
G1 X110.212 Y109.431 E46.4063
G1 X110.102 Y109.835
G1 X109.444 Y109.187 E46.4370
G0 F4800 X116.076 Y105.571
G0 X118.502 Y107.166
G0 X121.786 Y110.206
G0 X122.457 Y111.829
G0 X119.621 Y115.110
G1 F2400 X119.836 Y115.322 E46.4471
G1 X120.146 Y115.114
G1 X119.672 Y114.648 E46.4692
G1 X119.723 Y114.185
G1 X120.456 Y114.907 E46.5034
G1 X120.766 Y114.700
G1 X119.940 Y113.886 E46.5420
G1 X120.300 Y113.728
G1 X121.141 Y114.556 E46.5813
G1 X121.643 Y114.539
G1 X120.659 Y113.570 E46.6272
G1 X121.019 Y113.412
G1 X122.145 Y114.521 E46.6798
G1 X122.647 Y114.503
G1 X121.379 Y113.253 E46.7390
G1 X121.739 Y113.095
G1 X123.150 Y114.485 E46.8049
G1 X123.601 Y114.416
G1 X122.099 Y112.937 E46.8750
G0 X124.918 Y112.638 F4800
G1 F2400 X122.876 Y110.627 E46.9703
G0 X124.918 Y110.075 F4800
G1 F2400 X116.207 Y101.496 E47.3770
G1 X115.835 Y101.642
G1 X124.918 Y110.588 E47.8010
G1 X124.918 Y111.101
G1 X115.463 Y101.788 E48.2424
G1 X115.092 Y101.935
G1 X124.918 Y111.613 E48.7011
G1 X124.918 Y112.126
G1 X122.476 Y109.721 E48.8151
; ------------------------------------
; Layer #2
; ------------------------------------
G21 ; mm
G90 ; abs
G92 E0 ; reset extr
M106 S0
;segType:HShell
G0 F4800 E-1.000
G0 F2400 Z0.600
G0 F4800 X123.354 Y112.385
G0 F4800 E0.000
G1 F2400 X121.150 Y114.556 E0.1029
G0 X119.694 Y114.453 F4800
G1 F2400 X120.534 Y113.625 E0.1422
G0 X121.474 Y113.211 F4800
G1 F2400 X119.630 Y115.028 E0.2283
G1 X119.887 Y115.288
G1 X122.414 Y112.798 E0.3463
;segType:Perimeter
G0 X122.280 Y112.366 F4800
G1 F1200 X122.263 Y111.714 E0.3679
G1 X121.652 Y110.330 E0.4183
G1 X119.651 Y109.338 E0.4925
G1 X118.369 Y107.291 E0.5729
G1 X116.070 Y105.752 E0.6649
G1 X111.539 Y108.367 E0.8389
G1 X110.347 Y112.743 E0.9898
G1 X107.988 Y108.660 E1.1466
G1 X112.223 Y101.994 E1.4093
G1 X115.805 Y100.578 E1.5374
G1 X115.189 Y96.867 E1.6625
G1 X116.455 Y91.809 E1.8359
G1 X108.074 Y87.466 E2.1499
G1 X108.660 Y83.508 E2.2830
G1 X111.367 Y86.955 E2.4287
G1 X118.485 Y87.945 E2.6677
G1 X121.126 Y94.455 E2.9014
G1 X119.381 Y98.803 E3.0572
G1 X119.357 Y99.084 E3.0666
G1 X119.641 Y99.063 E3.0761
G1 X124.061 Y97.316 E3.2341
G1 X123.632 Y87.918 E3.5470
G1 X128.424 Y86.551 E3.7128
G1 X131.143 Y84.314 E3.8299
G1 X133.827 Y86.445 E3.9439
G1 X132.629 Y88.782 E4.0312
G1 X130.410 Y89.527 E4.1091
G1 X128.176 Y89.527 E4.1834
G1 X126.641 Y92.148 E4.2844
G1 X128.863 Y95.207 E4.4102
G1 X130.543 Y95.207 E4.4660
G1 X134.965 Y90.787 E4.6740
G1 X140.844 Y92.361 E4.8764
G1 X142.031 Y94.417 E4.9554
G1 X140.456 Y100.295 E5.1578
G1 X134.418 Y101.914 E5.3657
G1 X133.064 Y104.256 E5.4557
G1 X134.584 Y109.932 E5.6511
G1 X134.744 Y110.518 E5.6713
G1 X140.845 Y112.153 E5.8813
G1 X141.500 Y113.288 E5.9250
G1 X140.150 Y116.318 E6.0352
G1 X137.603 Y116.302 E6.1200
G1 X136.568 Y114.508 E6.1888
G1 X134.643 Y112.811 E6.2742
G1 X131.821 Y112.949 E6.3682
G1 X128.082 Y105.789 E6.6368
G1 X122.643 Y105.789 E6.8177
G1 X122.369 Y105.875 E6.8273
G1 X122.500 Y106.129 E6.8368
G1 X125.918 Y109.576 E6.9982
G1 X125.918 Y114.391 E7.1584
G1 X123.734 Y115.465 E7.2393
G1 X121.291 Y115.553 E7.3206
G1 X119.462 Y116.773 E7.3938
G1 X118.444 Y116.661 E7.4278
G1 X118.814 Y113.291 E7.5406
G1 X122.235 Y111.786 E7.6649
G1 X122.694 Y111.316
;segType:Loop
G0 X122.249 Y110.692 F4800
G1 F2400 X121.959 Y110.035 E7.6888
G1 X119.930 Y109.029 E7.7641
G1 X118.662 Y107.006 E7.8435
G1 X116.086 Y105.281 E7.9466
G1 X111.197 Y108.104 E8.1344
G1 X110.213 Y111.714 E8.2588
G1 X108.456 Y108.671 E8.3757
G1 X112.492 Y102.317 E8.6261
G1 X116.252 Y100.832 E8.7605
G1 X115.598 Y96.883 E8.8937
G1 X116.920 Y91.600 E9.0748
G1 X108.512 Y87.243 E9.3898
G1 X108.921 Y84.486 E9.4825
G1 X111.152 Y87.328 E9.6027
G1 X118.200 Y88.310 E9.8393
G1 X120.696 Y94.457 E10.0600
G1 X118.986 Y98.709 E10.2124
G1 X118.920 Y99.518 E10.2394
G1 X119.730 Y99.457 E10.2664
G1 X124.473 Y97.584 E10.4360
G1 X124.048 Y88.216 E10.7479
G1 X128.613 Y86.912 E10.9059
G1 X131.148 Y84.828 E11.0150
G1 X133.323 Y86.554 E11.1074
G1 X132.347 Y88.454 E11.1784
G1 X130.344 Y89.127 E11.2487
G1 X127.947 Y89.127 E11.3284
G1 X126.164 Y92.172 E11.4458
G1 X128.660 Y95.607 E11.5870
G1 X130.709 Y95.607 E11.6552
G1 X135.085 Y91.234 E11.8609
G1 X140.582 Y92.706 E12.0502
G1 X141.602 Y94.471 E12.1180
G1 X140.128 Y99.968 E12.3073
G1 X134.154 Y101.570 E12.5130
G1 X132.635 Y104.199 E12.6140
G1 X134.197 Y110.035 E12.8150
G1 X134.418 Y110.844 E12.8429
G1 X140.582 Y112.497 E13.0551
G1 X141.052 Y113.312 E13.0864
G1 X139.892 Y115.916 E13.1812
G1 X137.834 Y115.902 E13.2497
G1 X136.883 Y114.252 E13.3130
G1 X134.785 Y112.402 E13.4061
G1 X132.059 Y112.536 E13.4968
G1 X128.324 Y105.389 E13.7651
G1 X122.582 Y105.389 E13.9561
G1 X121.797 Y105.637 E13.9834
G1 X122.172 Y106.367 E14.0108
G1 X125.518 Y109.739 E14.1687
G1 X125.518 Y114.142 E14.3152
G1 X123.635 Y115.068 E14.3850
G1 X121.164 Y115.156 E14.4672
G1 X119.364 Y116.359 E14.5392
G1 X118.886 Y116.306 E14.5552
G1 X119.188 Y113.563 E14.6470
G1 X122.812 Y111.969 E14.7787
G1 X122.322 Y110.858 E14.8191
G0 X121.887 Y109.553 F4800
G1 F2400 X120.211 Y108.723 E14.8813
G1 X118.955 Y106.721 E14.9599
G1 X116.102 Y104.811 E15.0741
G1 X110.855 Y107.840 E15.2756
G1 X110.079 Y110.683 E15.3736
G1 X108.922 Y108.683 E15.4505
G1 X112.762 Y102.639 E15.6886
G1 X116.699 Y101.086 E15.8294
G1 X116.006 Y96.898 E15.9706
G1 X117.385 Y91.391 E16.1594
G1 X108.950 Y87.021 E16.4754
G1 X109.180 Y85.465 E16.5277
G1 X110.937 Y87.701 E16.6222
G1 X117.917 Y88.675 E16.8566
G1 X120.264 Y94.459 E17.0642
G1 X118.592 Y98.615 E17.2132
G1 X118.482 Y99.951 E17.2578
G1 X119.820 Y99.852 E17.3025
G1 X124.885 Y97.852 E17.4836
G1 X124.462 Y88.512 E17.7945
G1 X128.803 Y87.273 E17.9446
G1 X131.153 Y85.341 E18.0458
G1 X132.818 Y86.662 E18.1165
G1 X132.067 Y88.128 E18.1713
G1 X130.279 Y88.727 E18.2340
G1 X127.719 Y88.727 E18.3192
G1 X125.687 Y92.195 E18.4529
G1 X128.457 Y96.008 E18.6096
G1 X130.875 Y96.008 E18.6900
G1 X135.204 Y91.681 E18.8936
G1 X140.320 Y93.049 E19.0697
G1 X141.172 Y94.525 E19.1264
G1 X139.802 Y99.642 E19.3026
G1 X133.891 Y101.227 E19.5062
G1 X132.205 Y104.143 E19.6182
G1 X133.811 Y110.139 E19.8246
G1 X134.092 Y111.170 E19.8602
G1 X140.320 Y112.840 E20.0747
G1 X140.605 Y113.335 E20.0936
G1 X139.634 Y115.514 E20.1730
G1 X138.065 Y115.503 E20.2252
G1 X137.197 Y113.996 E20.2830
G1 X134.928 Y111.994 E20.3837
G1 X132.295 Y112.124 E20.4714
G1 X128.566 Y104.988 E20.7391
G1 X122.520 Y104.988 E20.9403
G1 X121.225 Y105.398 E20.9854
G1 X121.844 Y106.605 E21.0306
G1 X125.117 Y109.903 E21.1851
G1 X125.117 Y113.894 E21.3178
G1 X123.535 Y114.672 E21.3765
G1 X121.037 Y114.760 E21.4596
G1 X119.333 Y115.899 E21.5278
G1 X119.561 Y113.834 E21.5969
G1 X123.340 Y112.174 E21.7342
G1 X122.266 Y109.740 E21.8226
G1 X122.051 Y109.634 E21.8306
;segType:HShell
G0 X121.325 Y105.157 F4800
G1 F2400 X130.412 Y96.207 E22.2548
G1 X130.933 Y96.207
G1 X122.092 Y104.914 E22.6675
G1 X122.740 Y104.789
G1 X135.702 Y92.022 E23.2727
G1 X136.111 Y92.131
G1 X123.260 Y104.789 E23.8726
G1 X123.781 Y104.789
G1 X136.521 Y92.241 E24.4674
G1 X136.930 Y92.350
G1 X124.301 Y104.789 E25.0570
G1 X124.821 Y104.789
G1 X137.340 Y92.459 E25.6414
G1 X137.749 Y92.569
G1 X125.342 Y104.789 E26.2206
G1 X125.862 Y104.789
G1 X138.158 Y92.678 E26.7946
G1 X138.568 Y92.788
G1 X126.383 Y104.789 E27.3635
G1 X126.903 Y104.789
G1 X138.977 Y92.897 E27.9271
G1 X139.386 Y93.006
G1 X127.423 Y104.789 E28.4856
G1 X127.944 Y104.789
G1 X139.796 Y93.116 E29.0389
G1 X140.196 Y93.234
G1 X128.464 Y104.789 E29.5866
G1 X128.788 Y104.982
G1 X140.384 Y93.561 E30.1279
G1 X140.573 Y93.888
G1 X128.965 Y105.321 E30.6698
G1 X129.142 Y105.659
G1 X133.684 Y101.186 E30.8819
G1 X133.838 Y101.034
G1 X140.761 Y94.215 E31.2051
G1 X140.950 Y94.542
G1 X134.553 Y100.842 E31.5037
G0 X132.995 Y102.377 F4800
G1 F2400 X129.319 Y105.998 E31.6753
G1 X129.496 Y106.336
G1 X132.305 Y103.569 E31.8064
G0 X132.049 Y104.334 F4800
G1 F2400 X129.673 Y106.674 E31.9174
G1 X129.849 Y107.013
G1 X132.158 Y104.739 E32.0252
G1 X132.266 Y105.145
G1 X130.026 Y107.351 E32.1297
G1 X130.203 Y107.690
G1 X132.375 Y105.550 E32.2311
G1 X132.484 Y105.956
G1 X130.380 Y108.028 E32.3293
G1 X130.557 Y108.367
G1 X132.592 Y106.362 E32.4244
G1 X132.701 Y106.767
G1 X130.733 Y108.705 E32.5162
G1 X130.910 Y109.043
G1 X132.809 Y107.173 E32.6049
G1 X132.918 Y107.579
G1 X131.087 Y109.382 E32.6903
G1 X131.264 Y109.720
G1 X133.026 Y107.984 E32.7726
G1 X133.135 Y108.390
G1 X131.441 Y110.059 E32.8517
G1 X131.618 Y110.397
G1 X133.244 Y108.796 E32.9276
G1 X133.352 Y109.201
G1 X131.794 Y110.735 E33.0003
G1 X131.971 Y111.074
G1 X133.461 Y109.607 E33.0699
G1 X133.569 Y110.012
G1 X132.148 Y111.412 E33.1362
G1 X132.325 Y111.751
G1 X133.679 Y110.417 E33.1994
G1 X133.789 Y110.821
G1 X132.688 Y111.906 E33.2508
G1 X133.236 Y111.879
G1 X133.900 Y111.225 E33.2818
G1 X134.228 Y111.414
G1 X133.784 Y111.851 E33.3026
G1 X134.332 Y111.824
G1 X134.637 Y111.524 E33.3168
G1 X135.046 Y111.633
G1 X134.880 Y111.797 E33.3246
G1 X135.214 Y111.980
G1 X135.455 Y111.743 E33.3358
G1 X135.864 Y111.853
G1 X135.489 Y112.222 E33.3534
G1 X135.763 Y112.464
G1 X136.273 Y111.962 E33.3772
G1 X136.682 Y112.072
G1 X136.038 Y112.707 E33.4072
G1 X136.313 Y112.949
G1 X137.091 Y112.182 E33.4436
G1 X137.501 Y112.291
G1 X136.587 Y113.191 E33.4862
G1 X136.862 Y113.433
G1 X137.910 Y112.401 E33.5352
G1 X138.319 Y112.511
G1 X137.136 Y113.675 E33.5904
G1 X137.393 Y113.935
G1 X138.728 Y112.620 E33.6527
G1 X139.137 Y112.730
G1 X137.581 Y114.262 E33.7253
G1 X137.769 Y114.589
G1 X139.546 Y112.840 E33.8083
G1 X139.955 Y112.949
G1 X137.958 Y114.917 E33.9015
G1 X138.146 Y115.244
G1 X140.269 Y113.152 E34.0006
G1 X140.215 Y113.718
G1 X138.601 Y115.308 E34.0760
G1 X139.118 Y115.311
G1 X139.808 Y114.632 E34.1082
G0 F4800 X134.614 Y110.646
G0 X132.882 Y104.232
G0 X134.305 Y101.771
G0 X139.558 Y99.501
G1 F2400 X139.661 Y99.399 E34.1130
G1 X139.847 Y98.703
G1 X138.843 Y99.692 E34.1598
G1 X138.128 Y99.884
G1 X140.033 Y98.007 E34.2488
G1 X140.219 Y97.312
G1 X137.413 Y100.076 E34.3798
G1 X136.698 Y100.267
G1 X140.406 Y96.616 E34.5529
G1 X140.592 Y95.920
G1 X135.983 Y100.459 E34.7680
G1 X135.268 Y100.650
G1 X140.778 Y95.224 E35.0252
G0 X135.293 Y91.913 F4800
G1 F2400 X132.607 Y94.558 E35.1506
G0 X125.086 Y97.865 F4800
G1 F2400 X127.694 Y95.296 E35.2723
G1 X127.477 Y94.998
G1 X125.064 Y97.374 E35.3850
G1 X125.042 Y96.883
G1 X127.260 Y94.699 E35.4885
G1 X127.043 Y94.400
G1 X125.019 Y96.393 E35.5830
G1 X124.997 Y95.902
G1 X126.826 Y94.101 E35.6683
G1 X126.608 Y93.803
G1 X124.975 Y95.412 E35.7446
G1 X124.952 Y94.921
G1 X126.391 Y93.504 E35.8118
G1 X126.174 Y93.205
G1 X124.930 Y94.431 E35.8698
G1 X124.908 Y93.940
G1 X125.957 Y92.906 E35.9188
G1 X125.740 Y92.607
G1 X124.885 Y93.449 E35.9587
G1 X124.863 Y92.959
G1 X125.523 Y92.309 E35.9896
G0 X125.917 Y91.409 F4800
G1 F2400 X124.841 Y92.468 E36.0398
G1 X124.818 Y91.978
G1 X126.625 Y90.198 E36.1242
G0 X127.334 Y88.987 F4800
G1 F2400 X124.796 Y91.487 E36.2426
G1 X124.774 Y90.997
G1 X128.154 Y87.667 E36.4005
G0 X130.485 Y88.447 F4800
G1 F2400 X132.386 Y86.574 E36.4892
G1 X132.098 Y86.346
G1 X129.883 Y88.527 E36.5926
G1 X129.362 Y88.527
G1 X131.809 Y86.117 E36.7069
G1 X131.521 Y85.888
G1 X128.842 Y88.527 E36.8319
G1 X128.322 Y88.527
G1 X131.233 Y85.660 E36.9678
G0 X132.365 Y87.108 F4800
G1 F2400 X131.274 Y88.182 E37.0187
G0 X128.886 Y87.459 F4800
G1 F2400 X127.801 Y88.527 E37.0694
G0 X127.422 Y87.876 F4800
G1 F2400 X124.751 Y90.506 E37.1941
G1 X124.729 Y90.015
G1 X126.690 Y88.084 E37.2856
G0 X125.958 Y88.292 F4800
G1 F2400 X124.707 Y89.525 E37.3440
G1 X124.684 Y89.034
G1 X125.226 Y88.501 E37.3693
G0 F4800 X124.215 Y97.415
G0 X119.682 Y99.239
G0 X119.227 Y99.212
G0 X116.006 Y87.762
G0 X111.275 Y87.112
G0 X109.435 Y86.114
G1 F2400 X109.260 Y86.287 E37.3775
G1 X109.171 Y86.887
G1 X109.662 Y86.403 E37.4004
G1 X109.889 Y86.692
G1 X109.496 Y87.079 E37.4188
G1 X109.837 Y87.256
G1 X110.116 Y86.981 E37.4318
G1 X110.343 Y87.269
G1 X110.178 Y87.432 E37.4396
G0 X111.542 Y88.139 F4800
G1 F2400 X111.677 Y88.007 E37.4458
G1 X112.132 Y88.070
G1 X111.883 Y88.316 E37.4575
G1 X112.224 Y88.492
G1 X112.588 Y88.134 E37.4745
G1 X113.044 Y88.197
G1 X112.565 Y88.669 E37.4968
G1 X112.907 Y88.846
G1 X113.500 Y88.261 E37.5245
G1 X113.956 Y88.325
G1 X113.248 Y89.022 E37.5576
G1 X113.589 Y89.199
G1 X114.412 Y88.388 E37.5960
G1 X114.868 Y88.452
G1 X113.930 Y89.375 E37.6398
G1 X114.271 Y89.552
G1 X115.323 Y88.515 E37.6889
G1 X115.779 Y88.579
G1 X114.612 Y89.729 E37.7434
G1 X114.953 Y89.905
G1 X116.235 Y88.643 E37.8033
G1 X116.691 Y88.706
G1 X115.294 Y90.082 E37.8685
G1 X115.635 Y90.259
G1 X117.147 Y88.770 E37.9390
G1 X117.603 Y88.833
G1 X115.976 Y90.435 E38.0150
G1 X116.317 Y90.612
G1 X117.866 Y89.086 E38.0873
G1 X118.015 Y89.453
G1 X116.658 Y90.789 E38.1506
G1 X116.999 Y90.965
G1 X118.163 Y89.819 E38.2050
G1 X118.312 Y90.185
G1 X117.341 Y91.142 E38.2503
G1 X117.585 Y91.413
G1 X118.461 Y90.551 E38.2912
G1 X118.609 Y90.917
G1 X117.415 Y92.094 E38.3470
G1 X117.244 Y92.774
G1 X118.758 Y91.283 E38.4176
G1 X118.907 Y91.650
G1 X117.074 Y93.455 E38.5032
G1 X116.903 Y94.135
G1 X119.055 Y92.016 E38.6037
G1 X119.204 Y92.382
G1 X116.733 Y94.816 E38.7191
G1 X116.562 Y95.496
G1 X119.353 Y92.748 E38.8493
G1 X119.501 Y93.114
G1 X116.392 Y96.177 E38.9945
G1 X116.221 Y96.857
G1 X119.650 Y93.480 E39.1545
G1 X119.799 Y93.847
G1 X116.277 Y97.315 E39.3190
G1 X116.350 Y97.756
G1 X119.947 Y94.213 E39.4869
G1 X119.937 Y94.735
G1 X116.423 Y98.196 E39.6509
G1 X116.496 Y98.637
G1 X119.595 Y95.584 E39.7956
G0 X119.254 Y96.433 F4800
G1 F2400 X116.569 Y99.077 E39.9209
G1 X116.643 Y99.518
G1 X118.912 Y97.283 E40.0269
G0 X118.570 Y98.132 F4800
G1 F2400 X116.716 Y99.958 E40.1135
G1 X116.789 Y100.399
G1 X118.372 Y98.839 E40.1874
G1 X118.327 Y99.397
G1 X116.862 Y100.840 E40.2558
G0 X116.189 Y101.503 F4800
G1 F2400 X109.593 Y107.999 E40.5637
G0 X110.593 Y108.040 F4800
G1 F2400 X109.438 Y109.177 E40.6176
G1 X109.627 Y109.503
G1 X110.401 Y108.741 E40.6537
G1 X110.209 Y109.442
G1 X109.816 Y109.830 E40.6721
G0 X109.249 Y108.850 F4800
G1 F2400 X118.281 Y99.954 E41.0937
G1 X118.611 Y100.142
G1 X111.280 Y107.363 E41.4360
G0 X110.463 Y106.630 F4800
G1 F2400 X115.321 Y101.845 E41.6628
G0 X114.453 Y102.187 F4800
G1 F2400 X111.332 Y105.261 E41.8085
G0 X112.202 Y103.892 F4800
G1 F2400 X113.586 Y102.529 E41.8731
G0 X112.538 Y106.636 F4800
G1 F2400 X119.174 Y100.100 E42.1829
G1 X119.737 Y100.058
G1 X113.795 Y105.910 E42.4603
G0 X115.053 Y105.184 F4800
G1 F2400 X120.536 Y99.784 E42.7162
G0 X121.404 Y99.441 F4800
G1 F2400 X116.159 Y104.607 E42.9611
G1 X116.469 Y104.815
G1 X122.273 Y99.098 E43.2321
G0 X123.142 Y98.754 F4800
G1 F2400 X116.779 Y105.022 E43.5292
G1 X117.088 Y105.230
G1 X124.011 Y98.411 E43.8523
G0 X124.880 Y98.068 F4800
G1 F2400 X117.398 Y105.437 E44.2016
G1 X117.708 Y105.645
G1 X127.911 Y95.595 E44.6779
G1 X128.128 Y95.894
G1 X118.018 Y105.852 E45.1499
G1 X118.327 Y106.060
G1 X128.345 Y96.193 E45.6176
G1 X128.851 Y96.207
G1 X118.637 Y106.267 E46.0944
G1 X118.947 Y106.474
G1 X129.371 Y96.207 E46.5811
G1 X129.892 Y96.207
G1 X119.201 Y106.737 E47.0801
G1 X119.400 Y107.054
G1 X121.027 Y105.451 E47.1561
G1 X121.202 Y105.791
G1 X119.599 Y107.370 E47.2310
G1 X119.797 Y107.687
G1 X121.376 Y106.132 E47.3047
G1 X121.551 Y106.473
G1 X119.996 Y108.004 E47.3772
G1 X120.195 Y108.321
G1 X121.747 Y106.792 E47.4497
G1 X122.004 Y107.051
G1 X120.426 Y108.606 E47.5234
G1 X120.772 Y108.778
G1 X122.261 Y107.311 E47.5929
G1 X122.518 Y107.570
G1 X121.118 Y108.949 E47.6583
G1 X121.465 Y109.121
G1 X122.776 Y107.829 E47.7195
G1 X123.033 Y108.088
G1 X121.811 Y109.292 E47.7765
G1 X122.157 Y109.464
G1 X123.290 Y108.348 E47.8294
G1 X123.547 Y108.607
G1 X122.458 Y109.680 E47.8803
G1 X122.616 Y110.037
G1 X123.805 Y108.866 E47.9358
G1 X124.062 Y109.125
G1 X122.773 Y110.394 E47.9959
G1 X122.931 Y110.752
G1 X124.319 Y109.384 E48.0607
G1 X124.576 Y109.644
G1 X123.089 Y111.109 E48.1302
G1 X123.246 Y111.466
G1 X124.834 Y109.903 E48.2043
G1 X124.918 Y110.332
G1 X123.404 Y111.823 E48.2750
G1 X123.562 Y112.181
G1 X124.918 Y110.845 E48.3383
G1 X124.918 Y111.357
G1 X121.690 Y114.537 E48.4890
G1 X122.230 Y114.518
G1 X124.918 Y111.870 E48.6145
G1 X124.918 Y112.383
G1 X122.770 Y114.498 E48.7147
G1 X123.310 Y114.479
G1 X124.918 Y112.895 E48.7898
G1 X124.918 Y113.408
G1 X124.185 Y114.129 E48.8240
; ------------------------------------
; Layer #3
; ------------------------------------
G21 ; mm
G90 ; abs
G92 E0 ; reset extr
M106 S255
;segType:HShell
G0 F4800 E-1.000
G0 F2400 Z0.800
G0 F4800 X116.921 Y94.511
G0 F4800 E0.000
G1 F2400 X117.781 Y95.357 E0.0401
G1 X117.678 Y95.768
G1 X116.818 Y94.922 E0.0802
G1 X116.715 Y95.333
G1 X117.575 Y96.179 E0.1203
G1 X117.472 Y96.591
G1 X116.613 Y95.744 E0.1605
G1 X116.510 Y96.156
G1 X117.392 Y97.025 E0.2017
G1 X117.494 Y97.638
G1 X116.407 Y96.567 E0.2524
G1 X116.337 Y97.010
G1 X118.196 Y98.842 E0.3393
;segType:Perimeter
G0 X118.620 Y98.996 F4800
G1 F1200 X119.221 Y99.271 E0.3612
G1 X119.449 Y99.254 E0.3688
G1 X119.883 Y99.082 E0.3844
G1 X124.170 Y97.355 E0.5381
G1 X124.143 Y96.814 E0.5561
G1 X123.743 Y87.998 E0.8496
G1 X128.330 Y86.689 E1.0083
G1 X128.523 Y86.605 E1.0153
G1 X131.143 Y84.452 E1.1281
G1 X133.692 Y86.475 E1.2363
G1 X132.553 Y88.694 E1.3193
G1 X130.393 Y89.420 E1.3951
G1 X128.115 Y89.420 E1.4708
G1 X126.512 Y92.154 E1.5763
G1 X128.809 Y95.314 E1.7062
G1 X130.588 Y95.314 E1.7654
G1 X134.996 Y90.907 E1.9727
G1 X140.772 Y92.455 E2.1716
G1 X141.916 Y94.433 E2.2476
G1 X140.367 Y100.208 E2.4465
G1 X134.348 Y101.820 E2.6537
G1 X132.949 Y104.242 E2.7468
G1 X134.635 Y110.533 E2.9634
G1 X135.002 Y110.697 E2.9768
G1 X140.749 Y112.239 E3.1747
G1 X141.378 Y113.295 E3.2155
G1 X140.084 Y116.203 E3.3214
G1 X137.665 Y116.194 E3.4018
G1 X136.652 Y114.439 E3.4692
G1 X134.682 Y112.701 E3.5566
G1 X131.886 Y112.838 E3.6497
G1 X128.146 Y105.682 E3.9183
G1 X122.385 Y105.682 E4.1099
G1 X122.111 Y105.768 E4.1194
G1 X122.242 Y106.021 E4.1289
G1 X125.811 Y109.621 E4.2975
G1 X125.811 Y114.324 E4.4539
G1 X123.707 Y115.359 E4.5319
G1 X121.258 Y115.447 E4.6134
G1 X119.435 Y116.662 E4.6863
G1 X118.563 Y116.567 E4.7155
G1 X118.913 Y113.365 E4.8226
G1 X122.322 Y111.867 E4.9464
G1 X122.309 Y111.555 E4.9568
G1 X121.736 Y110.250 E5.0042
G1 X119.725 Y109.256 E5.0788
G1 X118.447 Y107.215 E5.1589
G1 X116.131 Y105.664 E5.2517
G1 X115.902 Y105.727 E5.2595
G1 X111.447 Y108.297 E5.4306
G1 X110.310 Y112.468 E5.5744
G1 X108.113 Y108.664 E5.7205
G1 X112.293 Y102.080 E5.9799
G1 X115.926 Y100.646 E6.1098
G1 X115.299 Y96.873 E6.2370
G1 X116.580 Y91.754 E6.4125
G1 X108.229 Y87.426 E6.7254
G1 X108.191 Y87.406 E6.7268
G1 X108.731 Y83.772 E6.8490
G1 X111.309 Y87.057 E6.9878
G1 X118.408 Y88.043 E7.2262
G1 X121.011 Y94.456 E7.4565
G1 X119.189 Y98.994 E7.6191
G1 X119.171 Y99.221 E7.6267
G1 X119.447 Y99.814
;segType:Loop
G0 X120.277 Y99.354 F4800
G1 F2400 X124.584 Y97.619 E7.7811
G1 X124.543 Y96.795 E7.8085
G1 X124.157 Y88.296 E8.0915
G1 X128.465 Y87.066 E8.2405
G1 X128.734 Y86.949 E8.2503
G1 X131.148 Y84.966 E8.3542
G1 X133.186 Y86.583 E8.4407
G1 X132.271 Y88.367 E8.5074
G1 X130.326 Y89.020 E8.5756
G1 X127.887 Y89.020 E8.6568
G1 X126.035 Y92.178 E8.7785
G1 X128.605 Y95.715 E8.9239
G1 X130.754 Y95.715 E8.9954
G1 X135.116 Y91.353 E9.2006
G1 X140.508 Y92.799 E9.3863
G1 X141.486 Y94.488 E9.4512
G1 X140.040 Y99.880 E9.6369
G1 X134.084 Y101.477 E9.8420
G1 X132.520 Y104.186 E9.9460
G1 X134.297 Y110.820 E10.1745
G1 X134.867 Y111.076 E10.1953
G1 X140.489 Y112.583 E10.3888
G1 X140.929 Y113.322 E10.4175
G1 X139.825 Y115.802 E10.5077
G1 X137.896 Y115.794 E10.5719
G1 X136.967 Y114.184 E10.6337
G1 X134.824 Y112.293 E10.7288
G1 X132.123 Y112.425 E10.8187
G1 X128.389 Y105.281 E11.0868
G1 X122.324 Y105.281 E11.2885
G1 X121.539 Y105.529 E11.3159
G1 X121.914 Y106.260 E11.3432
G1 X125.410 Y109.784 E11.5083
G1 X125.410 Y114.075 E11.6511
G1 X123.607 Y114.963 E11.7179
G1 X121.131 Y115.051 E11.8003
G1 X119.336 Y116.248 E11.8721
G1 X119.005 Y116.212 E11.8832
G1 X119.287 Y113.637 E11.9693
G1 X122.734 Y112.123 E12.0945
G1 X122.705 Y111.463 E12.1165
G1 X122.045 Y109.955 E12.1713
G1 X120.004 Y108.947 E12.2470
G1 X118.740 Y106.930 E12.3261
G1 X116.201 Y105.230 E12.4278
G1 X115.748 Y105.354 E12.4434
G1 X111.105 Y108.033 E12.6217
G1 X110.176 Y111.438 E12.7391
G1 X108.580 Y108.675 E12.8452
G1 X112.561 Y102.405 E13.0922
G1 X116.373 Y100.900 E13.2285
G1 X115.707 Y96.889 E13.3638
G1 X117.045 Y91.545 E13.5470
G1 X108.630 Y87.183 E13.8623
G1 X108.991 Y84.750 E13.9441
G1 X111.094 Y87.430 E14.0574
G1 X118.124 Y88.408 E14.2935
G1 X120.578 Y94.459 E14.5106
G1 X118.795 Y98.900 E14.6698
G1 X118.729 Y99.709 E14.6968
G1 X119.541 Y99.648 E14.7239
G1 X120.031 Y99.453 E14.7415
G1 X120.107 Y99.423 E14.7442
G0 X121.367 Y99.345 F4800
G1 F2400 X124.998 Y97.883 E14.8744
G1 X124.943 Y96.775 E14.9113
G1 X124.571 Y88.593 E15.1837
G1 X128.600 Y87.443 E15.3230
G1 X128.945 Y87.293 E15.3356
G1 X131.153 Y85.480 E15.4306
G1 X132.681 Y86.693 E15.4955
G1 X131.991 Y88.040 E15.5458
G1 X130.262 Y88.619 E15.6065
G1 X127.658 Y88.619 E15.6931
G1 X125.559 Y92.201 E15.8312
G1 X128.402 Y96.115 E15.9921
G1 X130.920 Y96.115 E16.0758
G1 X135.235 Y91.800 E16.2788
G1 X140.245 Y93.143 E16.4513
G1 X141.057 Y94.545 E16.5052
G1 X139.714 Y99.554 E16.6777
G1 X133.820 Y101.133 E16.8806
G1 X132.090 Y104.129 E16.9957
G1 X133.959 Y111.107 E17.2360
G1 X134.732 Y111.455 E17.2642
G1 X140.229 Y112.927 E17.4534
G1 X140.480 Y113.349 E17.4698
G1 X139.567 Y115.399 E17.5444
G1 X138.127 Y115.394 E17.5924
G1 X137.281 Y113.928 E17.6486
G1 X134.967 Y111.885 E17.7513
G1 X132.360 Y112.013 E17.8381
G1 X128.631 Y104.881 E18.1058
G1 X122.262 Y104.881 E18.3176
G1 X120.967 Y105.291 E18.3628
G1 X121.586 Y106.498 E18.4079
G1 X125.010 Y109.948 E18.5696
G1 X125.010 Y113.827 E18.6986
G1 X123.508 Y114.566 E18.7543
G1 X121.004 Y114.654 E18.8376
G1 X119.465 Y115.681 E18.8992
G1 X119.660 Y113.910 E18.9584
G1 X123.146 Y112.379 E19.0851
G1 X123.102 Y111.371 E19.1186
G1 X122.354 Y109.660 E19.1807
G1 X120.283 Y108.638 E19.2575
G1 X119.033 Y106.645 E19.3358
G1 X116.271 Y104.797 E19.4463
G1 X115.594 Y104.980 E19.4696
G1 X110.764 Y107.770 E19.6551
G1 X110.042 Y110.408 E19.7461
G1 X109.047 Y108.687 E19.8123
G1 X112.828 Y102.729 E20.0469
G1 X116.820 Y101.154 E20.1897
G1 X116.115 Y96.904 E20.3330
G1 X117.510 Y91.336 E20.5239
G1 X109.067 Y86.960 E20.8402
G1 X109.250 Y85.728 E20.8816
G1 X110.879 Y87.803 E20.9693
G1 X117.839 Y88.773 E21.2030
G1 X120.147 Y94.461 E21.4072
G1 X118.400 Y98.807 E21.5630
G1 X118.291 Y100.143 E21.6076
G1 X119.633 Y100.043 E21.6523
G1 X121.196 Y99.413 E21.7084
;segType:Infill
G0 X121.317 Y100.708 F4800
G1 F3600 X132.636 Y100.708 E22.0848
G1 X132.845 Y100.345 E22.0988
G1 X122.235 Y100.345 E22.4516
G0 X123.153 Y99.983 F4800
G1 F3600 X133.331 Y99.983 E22.7902
G0 X134.685 Y99.620 F4800
G1 F3600 X124.070 Y99.620 E23.1432
G0 X124.988 Y99.258 F4800
G1 F3600 X136.038 Y99.258 E23.5107
G0 X137.392 Y98.895 F4800
G1 F3600 X125.906 Y98.895 E23.8928
G1 X126.264 Y98.533 E23.9097
G1 X138.707 Y98.533 E24.3236
G1 X138.804 Y98.170 E24.3361
G1 X126.247 Y98.170 E24.7537
G1 X126.231 Y97.808 E24.7658
G1 X138.901 Y97.808 E25.1872
G1 X138.998 Y97.445 E25.1996
G1 X126.214 Y97.445 E25.6248
G1 X126.198 Y97.083 E25.6369
G1 X127.573 Y97.083 E25.6826
G1 X127.309 Y96.721 E25.6975
G1 X126.181 Y96.721 E25.7350
G1 X126.165 Y96.358 E25.7471
G1 X127.046 Y96.358 E25.7764
G1 X126.782 Y95.996 E25.7913
G1 X126.149 Y95.996 E25.8124
G1 X126.132 Y95.633 E25.8245
G1 X126.519 Y95.633 E25.8373
;segType:HShell
G0 X126.850 Y96.089 F4800
G1 F2400 X128.134 Y97.353 E25.8973
;segType:Infill
G0 X131.702 Y97.083 F4800
G1 F3600 X139.095 Y97.083 E26.1432
G1 X139.192 Y96.721 E26.1556
G1 X132.064 Y96.721 E26.3927
G1 X132.427 Y96.358 E26.4097
G1 X139.289 Y96.358 E26.6380
G1 X139.386 Y95.996 E26.6504
G1 X132.789 Y95.996 E26.8698
G1 X133.152 Y95.633 E26.8869
G1 X139.483 Y95.633 E27.0974
G1 X139.580 Y95.271 E27.1099
G1 X133.514 Y95.271 E27.3116
G1 X133.877 Y94.908 E27.3287
G1 X139.676 Y94.908 E27.5216
G1 X139.625 Y94.546 E27.5338
G1 X134.239 Y94.546 E27.7129
G1 X134.601 Y94.183 E27.7300
G1 X139.340 Y94.183 E27.8876
;segType:HShell
G0 X139.471 Y93.143 F4800
G1 F2400 X140.732 Y94.385 E27.9464
G1 X140.751 Y94.915
G1 X138.756 Y92.951 E28.0395
G0 X138.827 Y94.046 F4800
G1 F2400 X137.327 Y92.568 E28.1096
G1 X138.041 Y92.760
G1 X140.642 Y95.321 E28.2310
G1 X140.533 Y95.726
G1 X139.682 Y94.888 E28.2707
G1 X139.573 Y95.294
G1 X140.425 Y96.132 E28.3105
G1 X140.316 Y96.538
G1 X139.465 Y95.699 E28.3502
G1 X139.356 Y96.105
G1 X140.207 Y96.943 E28.3899
G1 X140.099 Y97.349
G1 X139.248 Y96.511 E28.4297
G1 X139.139 Y96.916
G1 X139.990 Y97.754 E28.4694
G1 X139.881 Y98.160
G1 X139.031 Y97.322 E28.5091
G1 X138.922 Y97.728
G1 X139.773 Y98.565 E28.5488
G1 X139.664 Y98.971
G1 X138.814 Y98.133 E28.5885
G1 X138.705 Y98.539
G1 X139.555 Y99.377 E28.6282
G1 X139.157 Y99.497
G1 X138.300 Y98.652 E28.6683
G1 X137.890 Y98.762
G1 X138.748 Y99.606 E28.7083
G1 X138.339 Y99.716
G1 X137.481 Y98.871 E28.7483
G1 X137.072 Y98.981
G1 X137.930 Y99.826 E28.7884
G1 X137.521 Y99.935
G1 X136.663 Y99.090 E28.8284
G1 X136.254 Y99.200
G1 X137.111 Y100.045 E28.8684
G1 X136.702 Y100.154
G1 X135.845 Y99.310 E28.9085
G1 X135.435 Y99.419
G1 X136.293 Y100.264 E28.9485
G1 X135.884 Y100.373
G1 X135.026 Y99.529 E28.9886
G1 X134.617 Y99.638
G1 X135.475 Y100.483 E29.0286
G1 X135.065 Y100.592
G1 X134.208 Y99.748 E29.0686
G1 X133.799 Y99.857
G1 X134.656 Y100.702 E29.1087
G1 X134.247 Y100.812
G1 X133.390 Y99.967 E29.1487
G1 X132.993 Y100.089
G1 X133.838 Y100.921 E29.1881
G1 X133.569 Y101.169
G1 X132.804 Y100.416 E29.2238
G1 X132.616 Y100.742
G1 X133.381 Y101.496 E29.2596
G1 X133.192 Y101.822
G1 X132.427 Y101.069 E29.2953
G1 X132.238 Y101.396
G1 X133.003 Y102.149 E29.3310
G1 X132.814 Y102.476
G1 X132.049 Y101.722 E29.3667
G1 X131.861 Y102.049
G1 X132.626 Y102.802 E29.4024
G1 X132.437 Y103.129
G1 X131.672 Y102.376 E29.4381
G1 X131.483 Y102.703
G1 X132.248 Y103.456 E29.4738
G1 X132.059 Y103.783
G1 X131.295 Y103.029 E29.5095
G1 X131.106 Y103.356
G1 X131.880 Y104.118 E29.5456
G1 X132.066 Y104.814
G1 X130.917 Y103.683 E29.5992
G1 X130.791 Y104.071
G1 X132.253 Y105.511 E29.6675
G1 X132.439 Y106.207
G1 X130.977 Y104.767 E29.7358
G1 X131.164 Y105.464
G1 X132.626 Y106.904 E29.8040
G1 X132.813 Y107.600
G1 X131.351 Y106.160 E29.8723
G0 X130.554 Y105.888 F4800
G1 F2400 X128.274 Y103.643 E29.9787
G1 X128.795 Y103.643
G1 X130.002 Y104.832 E30.0351
G0 X129.796 Y106.679 F4800
G1 F2400 X133.559 Y110.386 E30.2107
G1 X133.373 Y109.689
G1 X131.911 Y108.249 E30.2790
G0 X132.999 Y108.296 F4800
G1 F2400 X131.537 Y106.856 E30.3472
G0 X131.658 Y108.001 F4800
G1 F2400 X129.244 Y105.623 E30.4600
G0 X129.315 Y103.643 F4800
G1 F2400 X129.450 Y103.776 E30.4663
;segType:Infill
G0 X129.552 Y103.970 F4800
G1 F3600 X130.764 Y103.970 E30.5066
G1 X130.861 Y104.332 E30.5191
G1 X129.741 Y104.332 E30.5563
G1 X129.930 Y104.694 E30.5699
G1 X130.958 Y104.694 E30.6041
G1 X131.055 Y105.057 E30.6165
G1 X130.120 Y105.057 E30.6477
G1 X130.309 Y105.419 E30.6613
G1 X131.152 Y105.419 E30.6893
G1 X131.249 Y105.782 E30.7018
G1 X130.499 Y105.782 E30.7267
G1 X130.688 Y106.144 E30.7403
G1 X131.347 Y106.144 E30.7622
G1 X131.444 Y106.507 E30.7747
G1 X130.878 Y106.507 E30.7935
G1 X131.067 Y106.869 E30.8071
G1 X131.541 Y106.869 E30.8229
G1 X131.638 Y107.232 E30.8354
G1 X131.256 Y107.232 E30.8481
G1 X131.446 Y107.594 E30.8617
G1 X131.735 Y107.594 E30.8713
;segType:HShell
G1 F2400 X133.186 Y108.993 E30.9395
G0 X132.006 Y110.906 F4800
G1 F2400 X132.901 Y111.787 E30.9813
G1 X133.396 Y111.763
G1 X131.454 Y109.849 E31.0720
G0 X130.901 Y108.793 F4800
G1 F2400 X133.892 Y111.738 E31.2116
G1 X134.387 Y111.714
G1 X134.023 Y111.354 E31.2286
G0 X135.616 Y111.899 F4800
G1 F2400 X138.964 Y115.197 E31.3850
G1 X138.442 Y115.195
G1 X137.983 Y114.742 E31.4064
G0 X138.707 Y113.918 F4800
G1 F2400 X137.045 Y112.281 E31.4840
G1 X137.759 Y112.472
G1 X139.770 Y114.452 E31.5778
G1 X139.928 Y114.096
G1 X138.474 Y112.663 E31.6457
G1 X139.188 Y112.854
G1 X140.087 Y113.739 E31.6877
G1 X140.245 Y113.383
G1 X139.903 Y113.046 E31.7037
G0 X138.821 Y114.030 F4800
G1 F2400 X139.611 Y114.808 E31.7405
G1 X139.452 Y115.165
G1 X136.330 Y112.090 E31.8863
G0 X133.746 Y111.082 F4800
G1 F2400 X130.349 Y107.736 E32.0449
G0 X131.106 Y106.944 F4800
G1 F2400 X127.754 Y103.643 E32.2014
G1 X127.234 Y103.643
G1 X128.289 Y104.682 E32.2506
G1 X127.768 Y104.682
G1 X126.713 Y103.643 E32.2999
G1 X126.193 Y103.643
G1 X127.248 Y104.682 E32.3491
G1 X126.727 Y104.682
G1 X125.672 Y103.643 E32.3984
G1 X125.152 Y103.643
G1 X126.207 Y104.682 E32.4476
G1 X125.686 Y104.682
G1 X124.632 Y103.643 E32.4969
G1 X124.111 Y103.643
G1 X125.166 Y104.682 E32.5461
G1 X124.646 Y104.682
G1 X123.591 Y103.643 E32.5954
G1 X123.070 Y103.643
G1 X124.125 Y104.682 E32.6446
G1 X123.605 Y104.682
G1 X122.550 Y103.643 E32.6939
G1 X122.029 Y103.643
G1 X123.084 Y104.682 E32.7431
G1 X122.564 Y104.682
G1 X121.509 Y103.643 E32.7924
G1 X120.989 Y103.643
G1 X122.089 Y104.726 E32.8438
G1 X121.695 Y104.851
G1 X120.468 Y103.643 E32.9010
G1 X119.948 Y103.643
G1 X121.301 Y104.976 E32.9642
G1 X120.908 Y105.100
G1 X119.503 Y103.717 E33.0298
G1 X119.109 Y103.841
G1 X120.908 Y105.613 E33.1138
;segType:Infill
G0 X118.704 Y103.970 F4800
G1 F3600 X117.267 Y103.970 E33.1616
G1 X117.808 Y104.332 E33.1833
G1 X118.290 Y104.332 E33.1993
;segType:HShell
G0 X118.538 Y104.816 F4800
G1 F2400 X124.810 Y110.995 E33.4921
G1 X124.810 Y110.482
G1 X118.321 Y104.091 E33.7951
G1 X118.715 Y103.966
G1 X122.072 Y107.272 E33.9518
G0 X119.974 Y107.769 F4800
G1 F2400 X120.980 Y108.759 E33.9988
G0 X122.023 Y109.274 F4800
G1 F2400 X115.982 Y103.324 E34.2808
G1 X115.654 Y103.514
G1 X117.646 Y105.476 E34.3738
G0 X116.236 Y104.599 F4800
G1 F2400 X115.326 Y103.703 E34.4163
G1 X114.998 Y103.893
G1 X115.828 Y104.710 E34.4550
G1 X115.439 Y104.839
G1 X114.670 Y104.082 E34.4909
G1 X114.342 Y104.272
G1 X115.110 Y105.029 E34.5268
G1 X114.782 Y105.218
G1 X114.013 Y104.461 E34.5627
G1 X113.685 Y104.650
G1 X114.454 Y105.408 E34.5986
G1 X114.126 Y105.597
G1 X113.357 Y104.840 E34.6345
G1 X113.029 Y105.029
G1 X113.798 Y105.786 E34.6704
G1 X113.470 Y105.976
G1 X111.952 Y104.481 E34.7412
G1 X111.752 Y104.796
G1 X113.142 Y106.165 E34.8061
G1 X112.814 Y106.355
G1 X111.552 Y105.112 E34.8650
G1 X111.352 Y105.427
G1 X112.485 Y106.544 E34.9179
G1 X112.157 Y106.733
G1 X111.152 Y105.743 E34.9649
G1 X110.951 Y106.058
G1 X111.829 Y106.923 E35.0058
G1 X111.501 Y107.112
G1 X110.751 Y106.374 E35.0408
G1 X110.551 Y106.689
G1 X111.173 Y107.301 E35.0699
G1 X110.845 Y107.491
G1 X110.351 Y107.004 E35.0929
G1 X110.151 Y107.320
G1 X110.566 Y107.729 E35.1123
G1 X110.456 Y108.133
G1 X109.951 Y107.635 E35.1359
G1 X109.750 Y107.951
G1 X110.345 Y108.537 E35.1637
G1 X110.235 Y108.941
G1 X109.550 Y108.266 E35.1956
G1 X109.350 Y108.582
G1 X110.124 Y109.344 E35.2318
G1 X110.014 Y109.748
G1 X109.728 Y109.467 E35.2451
G0 F4800 X111.301 Y108.187
G0 X115.831 Y105.560
G0 X116.161 Y105.485
G0 X118.580 Y107.090
G0 X121.870 Y110.126
G0 X122.488 Y111.514
G0 X122.479 Y111.963
G0 X120.069 Y115.038
G1 F2400 X119.770 Y114.744 E35.2591
G1 X119.821 Y114.281
G1 X120.379 Y114.831 E35.2851
G1 X120.689 Y114.624
G1 X120.024 Y113.969 E35.3162
G1 X120.384 Y113.811
G1 X121.036 Y114.454 E35.3466
G1 X121.539 Y114.436
G1 X120.744 Y113.653 E35.3837
G1 X121.104 Y113.495
G1 X122.041 Y114.418 E35.4275
G1 X122.543 Y114.400
G1 X121.464 Y113.337 E35.4779
G1 X121.824 Y113.179
G1 X123.045 Y114.382 E35.5349
G1 X123.520 Y114.337
G1 X122.184 Y113.021 E35.5973
G1 X122.544 Y112.863
G1 X123.867 Y114.166 E35.6591
G1 X124.215 Y113.996
G1 X122.904 Y112.705 E35.7203
G1 X123.263 Y112.547
G1 X124.562 Y113.825 E35.7809
G1 X124.810 Y113.558
G1 X123.333 Y112.103 E35.8499
G1 X123.310 Y111.567
G1 X124.810 Y113.045 E35.9199
G1 X124.810 Y112.533
G1 X123.084 Y110.832 E36.0005
G0 X122.691 Y109.932 F4800
G1 F2400 X124.810 Y112.020 E36.0995
G1 X124.810 Y111.507
G1 X116.925 Y103.741 E36.4676
;segType:Infill
G0 X116.725 Y103.607 F4800
G1 F3600 X130.961 Y103.607 E36.9411
G1 X131.170 Y103.245 E36.9550
G1 X116.184 Y103.245 E37.4534
G0 X116.729 Y102.520 F4800
G1 F3600 X131.589 Y102.520 E37.9477
G1 X131.380 Y102.882 E37.9616
G1 X115.812 Y102.882 E38.4794
G1 X116.119 Y103.245 E38.4952
G1 X114.894 Y103.245 E38.5360
G0 X115.492 Y103.607 F4800
G1 F3600 X113.976 Y103.607 E38.5864
G1 X113.508 Y103.970 E38.6061
G1 X114.864 Y103.970 E38.6512
G0 X114.237 Y104.332 F4800
G1 F3600 X113.279 Y104.332 E38.6830
G1 X113.049 Y104.694 E38.6973
G1 X113.609 Y104.694 E38.7160
;segType:HShell
G0 X112.911 Y104.912 F4800
G1 F2400 X112.152 Y104.166 E38.7514
G1 X112.352 Y103.850
G1 X113.111 Y104.597 E38.7867
G1 X113.311 Y104.281
G1 X112.553 Y103.535 E38.8221
G1 X112.753 Y103.219
G1 X113.511 Y103.966 E38.8575
G1 X113.755 Y103.694
G1 X112.953 Y102.904 E38.8950
G1 X113.318 Y102.750
G1 X114.127 Y103.548 E38.9328
G1 X114.498 Y103.401
G1 X113.689 Y102.604 E38.9706
G1 X114.061 Y102.457
G1 X114.870 Y103.254 E39.0083
G1 X115.241 Y103.107
G1 X114.433 Y102.311 E39.0461
G1 X114.804 Y102.164
G1 X115.613 Y102.961 E39.0838
G1 X115.984 Y102.814
G1 X115.176 Y102.018 E39.1216
G1 X115.548 Y101.871
G1 X116.356 Y102.667 E39.1593
G1 X116.727 Y102.521
G1 X115.919 Y101.725 E39.1970
G1 X116.291 Y101.578
G1 X117.099 Y102.374 E39.2347
G1 X117.470 Y102.227
G1 X116.663 Y101.432 E39.2724
G1 X117.034 Y101.285
G1 X117.841 Y102.080 E39.3101
G1 X118.213 Y101.934
G1 X116.946 Y100.686 E39.3692
G1 X116.845 Y100.074
G1 X118.584 Y101.787 E39.4504
G1 X118.956 Y101.640
G1 X116.743 Y99.461 E39.5537
G1 X116.641 Y98.848
G1 X118.080 Y100.265 E39.6209
G1 X118.119 Y99.791
G1 X116.540 Y98.236 E39.6946
G1 X116.438 Y97.623
G1 X118.158 Y99.316 E39.7749
G0 X117.524 Y97.668 F4800
G1 F2400 X118.325 Y98.456 E39.8122
G1 X118.473 Y98.089
G1 X117.672 Y97.300 E39.8496
G1 X117.819 Y96.933
G1 X118.620 Y97.722 E39.8870
G1 X118.768 Y97.355
G1 X117.967 Y96.566 E39.9244
G1 X118.114 Y96.198
G1 X118.916 Y96.987 E39.9618
G1 X119.063 Y96.620
G1 X118.262 Y95.831 E39.9992
G1 X118.409 Y95.464
G1 X119.211 Y96.253 E40.0367
G1 X119.358 Y95.886
G1 X118.557 Y95.096 E40.0741
G1 X118.704 Y94.729
G1 X119.506 Y95.519 E40.1115
G1 X119.654 Y95.152
G1 X118.718 Y94.230 E40.1552
;segType:Infill
G0 X118.552 Y93.821 F4800
G1 F3600 X118.165 Y93.821 E40.1681
G1 X118.074 Y94.183 E40.1805
G1 X118.699 Y94.183 E40.2013
G1 X118.778 Y94.546 E40.2136
G1 X117.983 Y94.546 E40.2400
G1 X117.893 Y94.908 E40.2525
G1 X118.632 Y94.908 E40.2771
G1 X118.487 Y95.271 E40.2901
G1 X117.802 Y95.271 E40.3128
G1 X117.711 Y95.633 E40.3252
G1 X118.341 Y95.633 E40.3462
G1 X118.196 Y95.996 E40.3592
G1 X117.621 Y95.996 E40.3783
G1 X117.530 Y96.358 E40.3907
G1 X118.050 Y96.358 E40.4080
G1 X117.905 Y96.721 E40.4210
G1 X117.439 Y96.721 E40.4365
G1 X117.402 Y97.083 E40.4486
G1 X117.759 Y97.083 E40.4605
;segType:HShell
G0 X117.024 Y94.099 F4800
G1 F2400 X117.883 Y94.946 E40.5006
G1 X117.986 Y94.534
G1 X117.127 Y93.688 E40.5407
G1 X117.230 Y93.277
G1 X118.089 Y94.123 E40.5808
G1 X118.192 Y93.712
G1 X117.333 Y92.866 E40.6209
G1 X117.436 Y92.455
G1 X118.295 Y93.301 E40.6610
G1 X118.372 Y93.376
G1 X119.801 Y94.784 E40.7278
G1 X119.888 Y94.357
G1 X117.539 Y92.043 E40.8374
G1 X117.642 Y91.632
G1 X119.541 Y93.503 E40.9261
G0 X119.195 Y92.649 F4800
G1 F2400 X115.073 Y88.589 E41.1186
G1 X115.679 Y88.674
G1 X118.848 Y91.795 E41.2665
G0 X116.669 Y90.675 F4800
G1 F2400 X114.467 Y88.505 E41.3693
G1 X113.860 Y88.421
G1 X115.572 Y90.106 E41.4492
G0 X114.474 Y89.537 F4800
G1 F2400 X113.254 Y88.336 E41.5061
G1 X112.648 Y88.252
G1 X113.376 Y88.968 E41.5401
G0 X112.278 Y88.400 F4800
G1 F2400 X112.042 Y88.167 E41.5511
G0 X110.082 Y87.262 F4800
G1 F2400 X109.333 Y86.524 E41.5861
G0 F4800 X111.374 Y87.125
G0 X113.415 Y87.726
G0 X117.497 Y88.927
G1 F2400 X117.808 Y89.233 E41.6006
G0 X118.155 Y90.087 F4800
G1 F2400 X116.891 Y88.843 E41.6596
G1 X116.285 Y88.758
G1 X118.501 Y90.941 E41.7631
G0 F4800 X119.036 Y99.403
G0 X119.491 Y99.430
G0 X124.325 Y97.453
G0 X126.135 Y93.334
G1 F2400 X124.932 Y92.149 E41.8192
G1 X124.908 Y91.613
G1 X125.392 Y92.090 E41.8419
G1 X125.583 Y91.765
G1 X124.883 Y91.076 E41.8745
G1 X124.859 Y90.539
G1 X125.773 Y91.440 E41.9172
G1 X125.964 Y91.115
G1 X124.834 Y90.003 E41.9699
G1 X124.810 Y89.466
G1 X126.154 Y90.790 E42.0327
G1 X126.344 Y90.465
G1 X124.785 Y88.929 E42.1055
G1 X125.038 Y88.666
G1 X126.535 Y90.140 E42.1753
G1 X126.725 Y89.815
G1 X125.442 Y88.551 E42.2353
G1 X125.846 Y88.436
G1 X126.916 Y89.490 E42.2852
G1 X127.106 Y89.165
G1 X126.249 Y88.321 E42.3252
G1 X126.653 Y88.206
G1 X127.297 Y88.840 E42.3553
G1 X127.487 Y88.515
G1 X127.057 Y88.091 E42.3754
G1 X127.461 Y87.976
G1 X127.911 Y88.420 E42.3964
G1 X128.431 Y88.420
G1 X127.864 Y87.862 E42.4229
G1 X128.268 Y87.747
G1 X128.952 Y88.420 E42.4548
G1 X129.472 Y88.420
G1 X128.672 Y87.631 E42.4922
G1 X129.031 Y87.473
G1 X129.993 Y88.420 E42.5370
G1 X130.441 Y88.349
G1 X129.319 Y87.244 E42.5894
G1 X129.603 Y87.011
G1 X130.829 Y88.218 E42.6466
G1 X131.217 Y88.088
G1 X129.887 Y86.778 E42.7087
G1 X130.171 Y86.545
G1 X131.605 Y87.957 E42.7756
G1 X131.914 Y87.750
G1 X130.455 Y86.312 E42.8438
G1 X130.738 Y86.079
G1 X132.089 Y87.409 E42.9068
G1 X132.264 Y87.069
G1 X131.022 Y85.846 E42.9648
G0 F4800 X128.023 Y89.263
G0 X126.328 Y92.163
G0 X128.724 Y95.476
G0 X130.659 Y95.482
G0 X135.253 Y92.063
G1 F2400 X136.682 Y93.471 E43.0315
G1 X137.397 Y93.663
G1 X135.897 Y92.185 E43.1016
G1 X136.612 Y92.377
G1 X138.112 Y93.855 E43.1716
;segType:Infill
G0 X137.987 Y93.821 F4800
G1 F3600 X134.964 Y93.821 E43.2722
G1 X135.326 Y93.459 E43.2892
G1 X136.635 Y93.459 E43.3327
;segType:HShell
G0 X135.967 Y93.280 F4800
G1 F2400 X134.995 Y92.322 E43.3782
G1 X134.737 Y92.580
G1 X135.476 Y93.309 E43.4127
G1 X135.218 Y93.567
G1 X134.478 Y92.838 E43.4472
G1 X134.220 Y93.096
G1 X134.960 Y93.825 E43.4818
G1 X134.702 Y94.083
G1 X133.962 Y93.355 E43.5163
G1 X133.704 Y93.613
G1 X134.443 Y94.342 E43.5508
G1 X134.185 Y94.600
G1 X133.445 Y93.871 E43.5854
G1 X133.187 Y94.129
G1 X133.927 Y94.858 E43.6199
G1 X133.669 Y95.116
G1 X132.929 Y94.387 E43.6545
G1 X132.671 Y94.646
G1 X133.411 Y95.374 E43.6890
G1 X133.152 Y95.633
G1 X132.412 Y94.904 E43.7236
G1 X132.154 Y95.162
G1 X132.894 Y95.891 E43.7581
G1 X132.636 Y96.149
G1 X131.896 Y95.420 E43.7926
G1 X131.638 Y95.679
G1 X132.378 Y96.407 E43.8272
G1 X132.119 Y96.666
G1 X131.380 Y95.937 E43.8617
G1 X131.121 Y96.195
G1 X131.861 Y96.924 E43.8963
G1 X131.603 Y97.182
G1 X130.722 Y96.314 E43.9374
G1 X130.202 Y96.314
G1 X131.257 Y97.353 E43.9866
G1 X130.736 Y97.353
G1 X129.681 Y96.314 E44.0359
G1 X129.161 Y96.314
G1 X130.216 Y97.353 E44.0851
G1 X129.695 Y97.353
G1 X128.640 Y96.314 E44.1344
G0 X127.446 Y95.138 F4800
G1 F2400 X124.957 Y92.686 E44.2506
G1 X124.981 Y93.223
G1 X129.175 Y97.353 E44.4464
G1 X128.655 Y97.353
G1 X125.006 Y93.759 E44.6167
G1 X125.030 Y94.296
G1 X126.120 Y95.370 E44.6676
G1 X126.145 Y95.906
G1 X125.055 Y94.833 E44.7185
G1 X125.079 Y95.369
G1 X126.169 Y96.443 E44.7694
G1 X126.193 Y96.980
G1 X125.103 Y95.906 E44.8203
G1 X125.128 Y96.443
G1 X126.218 Y97.516 E44.8712
G1 X126.242 Y98.053
G1 X125.153 Y96.980 E44.9220
G1 X125.180 Y97.520
G1 X126.266 Y98.589 E44.9727
G1 X126.013 Y98.853
G1 X125.176 Y98.028 E45.0118
G1 X124.806 Y98.176
G1 X125.642 Y98.999 E45.0508
G1 X125.270 Y99.146
G1 X124.437 Y98.325 E45.0897
G1 X124.067 Y98.474
G1 X124.899 Y99.293 E45.1285
G1 X124.528 Y99.440
G1 X123.698 Y98.622 E45.1673
G1 X123.328 Y98.771
G1 X124.156 Y99.586 E45.2059
G1 X123.785 Y99.733
G1 X122.959 Y98.920 E45.2445
G1 X122.589 Y99.068
G1 X123.413 Y99.880 E45.2829
G1 X123.042 Y100.026
G1 X122.220 Y99.217 E45.3213
G1 X121.851 Y99.366
G1 X122.670 Y100.173 E45.3596
G1 X122.299 Y100.320
G1 X121.481 Y99.514 E45.3977
G1 X121.112 Y99.663
G1 X121.927 Y100.467 E45.4358
G1 X121.556 Y100.613
G1 X120.742 Y99.812 E45.4738
G1 X120.373 Y99.960
G1 X121.185 Y100.760 E45.5117
G1 X120.813 Y100.907
G1 X120.003 Y100.109 E45.5495
G1 X119.620 Y100.244
G1 X120.442 Y101.053 E45.5879
G1 X120.070 Y101.200
G1 X119.136 Y100.280 E45.6315
G1 X118.652 Y100.316
G1 X119.699 Y101.347 E45.6803
G1 X119.327 Y101.494
G1 X118.169 Y100.352 E45.7344
;segType:Infill
G0 X117.647 Y102.157 F4800
G1 F3600 X131.798 Y102.157 E46.2051
G1 X132.008 Y101.795 E46.2190
G1 X118.565 Y101.795 E46.6661
G0 X119.482 Y101.432 F4800
G1 F3600 X132.217 Y101.432 E47.0897
G1 X132.426 Y101.070 E47.1036
G1 X120.400 Y101.070 E47.5036
; ------------------------------------
; Layer #4
; ------------------------------------
G21 ; mm
G90 ; abs
G92 E0 ; reset extr
M106 S255
;segType:HShell
G0 F4800 E-1.000
G0 F2400 Z1.000
G0 F4800 X123.592 Y111.126
G0 F4800 E0.000
G1 F2400 X124.463 Y110.268 E0.0407
G1 X124.463 Y110.780
G1 X123.749 Y111.484 E0.0740
G1 X123.907 Y111.841
G1 X124.463 Y111.293 E0.1000
G1 X124.463 Y111.806
G1 X124.064 Y112.199 E0.1186
G0 X124.170 Y113.632 F4800
G1 F2400 X124.463 Y113.343 E0.1323
G0 X123.248 Y114.028 F4800
G1 F2400 X124.463 Y112.831 E0.1890
G1 X124.463 Y112.318
G1 X122.708 Y114.047 E0.2710
G1 X122.168 Y114.066
G1 X123.383 Y112.869 E0.3277
;segType:Perimeter
G0 X122.877 Y112.598 F4800
G1 F1200 X122.861 Y111.946 E0.3494
G1 X122.002 Y109.996 E0.4203
G1 X119.968 Y108.988 E0.4958
G1 X118.703 Y106.967 E0.5751
G1 X116.088 Y105.217 E0.6797
G1 X111.150 Y108.066 E0.8694
G1 X110.195 Y111.575 E0.9903
G1 X108.519 Y108.672 E1.1018
G1 X112.526 Y102.361 E1.3504
G1 X116.312 Y100.865 E1.4858
G1 X115.652 Y96.887 E1.6200
G1 X116.982 Y91.572 E1.8022
G1 X108.570 Y87.212 E2.1173
G1 X108.955 Y84.618 E2.2046
G1 X111.123 Y87.379 E2.3213
G1 X118.163 Y88.359 E2.5577
G1 X120.636 Y94.457 E2.7766
G1 X118.568 Y99.613 E2.9614
G1 X118.545 Y99.895 E2.9708
G1 X118.828 Y99.873 E2.9802
G1 X124.527 Y97.619 E3.1840
G1 X124.101 Y88.256 E3.4958
G1 X128.639 Y86.961 E3.6527
G1 X131.147 Y84.898 E3.7608
G1 X133.255 Y86.570 E3.8503
G1 X132.310 Y88.408 E3.9190
G1 X130.336 Y89.072 E3.9883
G1 X127.916 Y89.072 E4.0688
G1 X126.100 Y92.176 E4.1884
G1 X128.631 Y95.660 E4.3316
G1 X130.732 Y95.660 E4.4015
G1 X134.660 Y91.730 E4.5863
G1 X135.101 Y91.293 E4.6070
G1 X140.546 Y92.752 E4.7945
G1 X141.543 Y94.481 E4.8608
G1 X140.084 Y99.924 E5.0483
G1 X134.119 Y101.523 E5.2537
G1 X132.576 Y104.193 E5.3562
G1 X134.371 Y110.889 E5.5868
G1 X140.545 Y112.541 E5.7994
G1 X140.992 Y113.316 E5.8291
G1 X139.870 Y115.831 E5.9207
G1 X137.866 Y115.849 E5.9874
G1 X136.924 Y114.217 E6.0501
G1 X134.805 Y112.348 E6.1440
G1 X132.089 Y112.482 E6.2345
G1 X128.477 Y105.564 E6.4940
G1 X128.354 Y105.336 E6.5027
G1 X121.553 Y105.336 E6.7289
G1 X121.279 Y105.422 E6.7384
G1 X121.410 Y105.676 E6.7479
G1 X125.463 Y109.763 E6.9393
G1 X125.463 Y114.109 E7.0839
G1 X123.621 Y115.016 E7.1522
G1 X121.146 Y115.104 E7.2345
G1 X119.347 Y116.305 E7.3065
G1 X118.944 Y116.260 E7.3200
G1 X119.237 Y113.602 E7.4089
G1 X122.832 Y112.018 E7.5396
G1 X123.292 Y111.548
;segType:Loop
G0 X122.848 Y110.925 F4800
G1 F2400 X122.309 Y109.701 E7.5841
G1 X120.247 Y108.679 E7.6606
G1 X118.996 Y106.682 E7.7390
G1 X116.104 Y104.746 E7.8548
G1 X110.809 Y107.803 E8.0581
G1 X110.061 Y110.544 E8.1526
G1 X108.987 Y108.683 E8.2241
G1 X112.795 Y102.684 E8.4604
G1 X116.760 Y101.119 E8.6022
G1 X116.061 Y96.902 E8.7443
G1 X117.447 Y91.363 E8.9342
G1 X109.009 Y86.989 E9.2504
G1 X109.215 Y85.595 E9.2973
G1 X110.908 Y87.752 E9.3884
G1 X117.878 Y88.724 E9.6225
G1 X120.205 Y94.459 E9.8284
G1 X118.174 Y99.520 E10.0097
G1 X118.107 Y100.328 E10.0367
G1 X118.918 Y100.268 E10.0637
G1 X124.939 Y97.887 E10.2791
G1 X124.516 Y88.553 E10.5899
G1 X128.828 Y87.322 E10.7390
G1 X131.151 Y85.412 E10.8390
G1 X132.749 Y86.679 E10.9069
G1 X132.029 Y88.081 E10.9593
G1 X130.270 Y88.672 E11.0210
G1 X127.688 Y88.672 E11.1069
G1 X125.623 Y92.199 E11.2428
G1 X128.428 Y96.061 E11.4016
G1 X130.898 Y96.061 E11.4837
G1 X135.219 Y91.739 E11.6870
G1 X140.283 Y93.096 E11.8613
G1 X141.114 Y94.535 E11.9166
G1 X139.757 Y99.597 E12.0909
G1 X133.855 Y101.180 E12.2941
G1 X132.146 Y104.137 E12.4077
G1 X134.045 Y111.215 E12.6515
G1 X140.283 Y112.885 E12.8663
G1 X140.545 Y113.339 E12.8837
G1 X139.609 Y115.434 E12.9600
G1 X138.094 Y115.445 E13.0104
G1 X137.238 Y113.961 E13.0674
G1 X134.947 Y111.939 E13.1690
G1 X132.326 Y112.069 E13.2563
G1 X128.830 Y105.377 E13.5074
G1 X128.592 Y104.936 E13.5241
G1 X121.492 Y104.936 E13.7602
G1 X120.707 Y105.184 E13.7876
G1 X121.082 Y105.914 E13.8149
G1 X125.063 Y109.927 E14.0029
G1 X125.063 Y113.861 E14.1337
G1 X123.521 Y114.619 E14.1909
G1 X121.020 Y114.707 E14.2741
G1 X119.398 Y115.789 E14.3390
G1 X119.609 Y113.874 E14.4030
G1 X123.410 Y112.201 E14.5412
G1 X122.921 Y111.091 E14.5815
G0 X122.812 Y109.853 F4800
G1 F2400 X122.615 Y109.406 E14.5978
G1 X120.526 Y108.371 E14.6753
G1 X119.289 Y106.396 E14.7528
G1 X116.119 Y104.275 E14.8797
G1 X110.467 Y107.539 E15.0967
G1 X109.927 Y109.514 E15.1648
G1 X109.454 Y108.695 E15.1963
G1 X113.063 Y103.009 E15.4203
G1 X117.207 Y101.373 E15.5685
G1 X116.469 Y96.918 E15.7187
G1 X117.912 Y91.154 E15.9163
G1 X112.574 Y88.388 E16.1163
G1 X117.593 Y89.089 E16.2848
G1 X119.774 Y94.461 E16.4776
G1 X117.779 Y99.426 E16.6556
G1 X117.670 Y100.762 E16.7002
G1 X119.008 Y100.662 E16.7448
G1 X125.352 Y98.154 E16.9717
G1 X124.930 Y88.850 E17.2815
G1 X129.018 Y87.684 E17.4228
G1 X131.157 Y85.925 E17.5149
G1 X132.244 Y86.787 E17.5611
G1 X131.748 Y87.755 E17.5972
G1 X130.205 Y88.271 E17.6514
G1 X127.459 Y88.271 E17.7427
G1 X125.146 Y92.223 E17.8950
G1 X128.225 Y96.461 E18.0692
G1 X131.064 Y96.461 E18.1636
G1 X135.339 Y92.185 E18.3647
G1 X140.021 Y93.440 E18.5260
G1 X140.684 Y94.590 E18.5701
G1 X139.431 Y99.271 E18.7313
G1 X133.592 Y100.836 E18.9323
G1 X131.717 Y104.080 E19.0570
G1 X133.719 Y111.541 E19.3139
G1 X133.903 Y111.590 E19.3202
G1 X132.563 Y111.657 E19.3649
G1 X129.184 Y105.189 E19.6076
G1 X128.830 Y104.535 E19.6323
G1 X121.430 Y104.535 E19.8785
G1 X120.135 Y104.945 E19.9236
G1 X120.754 Y106.152 E19.9688
G1 X124.662 Y110.091 E20.1533
G1 X124.662 Y113.612 E20.2704
G1 X123.422 Y114.223 E20.3164
G1 X120.893 Y114.311 E20.4006
G1 X119.891 Y114.980 E20.4407
G1 X119.983 Y114.145 E20.4686
G1 X123.938 Y112.406 E20.6123
G1 X122.885 Y110.019 E20.6990
G0 F4800 X121.110 Y105.352
G0 X121.524 Y105.157
G0 X128.448 Y105.181
G0 X133.690 Y111.611
G0 X135.792 Y112.096
G1 F2400 X140.019 Y113.228 E20.8446
G1 X140.096 Y113.363 E20.8497
G1 X139.349 Y115.035 E20.9107
G1 X138.323 Y115.043 E20.9448
G1 X137.553 Y113.705 E20.9961
G1 X135.772 Y112.133 E21.0751
G0 F4800 X127.159 Y103.985
G0 X118.415 Y100.022
G0 X117.150 Y91.498
G0 X109.669 Y86.882
G1 F2400 X109.446 Y86.767 E21.0835
G1 X109.475 Y86.573 E21.0900
G1 X109.694 Y86.853 E21.1018
;segType:HShell
G0 X113.928 Y88.865 F4800
G1 F2400 X114.004 Y88.790 E21.1054
G1 X114.460 Y88.853
G1 X114.269 Y89.041 E21.1143
G1 X114.610 Y89.218
G1 X114.916 Y88.917 E21.1286
G1 X115.371 Y88.981
G1 X114.951 Y89.395 E21.1482
G1 X115.292 Y89.571
G1 X115.827 Y89.044 E21.1732
G1 X116.283 Y89.108
G1 X115.633 Y89.748 E21.2035
G1 X115.974 Y89.925
G1 X116.739 Y89.172 E21.2392
G1 X117.194 Y89.235
G1 X116.315 Y90.101 E21.2802
G1 X116.656 Y90.278
G1 X117.514 Y89.433 E21.3203
G1 X117.663 Y89.799
G1 X116.997 Y90.455 E21.3514
G1 X117.338 Y90.631
G1 X117.812 Y90.165 E21.3735
G1 X117.961 Y90.531
G1 X117.679 Y90.808 E21.3866
G1 X118.021 Y90.985
G1 X118.109 Y90.897 E21.3907
G1 X118.258 Y91.263
G1 X118.036 Y91.482 E21.4011
G1 X117.865 Y92.162
G1 X118.407 Y91.629 E21.4264
G1 X118.555 Y91.995
G1 X117.695 Y92.843 E21.4665
G1 X117.524 Y93.524
G1 X118.704 Y92.362 E21.5216
G1 X118.853 Y92.728
G1 X117.354 Y94.204 E21.5916
G1 X117.183 Y94.885
G1 X119.002 Y93.094 E21.6765
G1 X119.150 Y93.460
G1 X117.013 Y95.565 E21.7763
G1 X116.842 Y96.246
G1 X119.299 Y93.826 E21.8910
G1 X119.448 Y94.192
G1 X116.672 Y96.926 E22.0205
G1 X116.745 Y97.367
G1 X119.468 Y94.684 E22.1477
G0 X119.127 Y95.533 F4800
G1 F2400 X116.818 Y97.807 E22.2555
G1 X116.891 Y98.248
G1 X118.787 Y96.381 E22.3440
G0 X118.446 Y97.229 F4800
G1 F2400 X116.965 Y98.688 E22.4131
G1 X117.038 Y99.129
G1 X118.105 Y98.077 E22.4629
G0 X117.764 Y98.926 F4800
G1 F2400 X117.111 Y99.569 E22.4934
G1 X117.184 Y100.010
G1 X117.561 Y99.639 E22.5110
G1 X117.515 Y100.196
G1 X117.257 Y100.450 E22.5231
G1 X117.330 Y100.891
G1 X117.470 Y100.754 E22.5296
G1 X117.787 Y100.954
G1 X117.404 Y101.331 E22.5475
G1 X117.099 Y101.631
G1 X112.568 Y106.094 E22.7590
G0 X109.948 Y108.675 F4800
G1 F2400 X109.772 Y108.847 E22.7672
G0 X111.896 Y105.218 F4800
G1 F2400 X114.496 Y102.657 E22.8885
G0 X115.364 Y102.315 F4800
G1 F2400 X111.028 Y106.585 E23.0909
G1 X111.311 Y106.820
G1 X114.251 Y103.924 E23.2282
G0 X115.084 Y104.641 F4800
G1 F2400 X116.626 Y103.123 E23.3002
G0 X116.231 Y101.973 F4800
G1 F2400 X114.343 Y103.833 E23.3884
G0 X113.628 Y103.000 F4800
G1 F2400 X112.763 Y103.851 E23.4287
G0 X113.826 Y105.368 F4800
G1 F2400 X118.350 Y100.912 E23.6399
G1 X118.913 Y100.870
G1 X116.948 Y102.805 E23.7316
;segType:Infill
G0 X116.752 Y102.882 F4800
G1 F3600 X130.978 Y102.882 E24.2048
G1 X130.769 Y103.245 E24.2187
G1 X116.808 Y103.245 E24.6831
;segType:HShell
G0 X116.180 Y104.074 F4800
G1 F2400 X116.935 Y103.330 E24.7183
G1 X117.245 Y103.537
G1 X116.490 Y104.282 E24.7536
G1 X116.799 Y104.489
G1 X117.586 Y103.714 E24.7904
;segType:Infill
G0 X117.349 Y103.607 F4800
G1 F3600 X117.925 Y103.607 E24.8095
;segType:HShell
G0 X118.352 Y103.472 F4800
G1 F2400 X117.109 Y104.697 E24.8676
G1 X117.419 Y104.904
G1 X119.051 Y103.297 E24.9437
G1 X119.571 Y103.297
G1 X117.729 Y105.111 E25.0297
G1 X118.039 Y105.319
G1 X120.091 Y103.297 E25.1256
G1 X120.612 Y103.297
G1 X118.348 Y105.526 E25.2312
G1 X118.658 Y105.734
G1 X121.132 Y103.297 E25.3467
G1 X121.653 Y103.297
G1 X120.219 Y104.709 E25.4137
G1 X119.934 Y104.990
G1 X118.968 Y105.941 E25.4587
G1 X119.278 Y106.148
G1 X120.108 Y105.331 E25.4975
G1 X120.283 Y105.672
G1 X119.533 Y106.410 E25.5325
G1 X119.732 Y106.727
G1 X120.457 Y106.012 E25.5663
G1 X120.651 Y106.333
G1 X119.930 Y107.044 E25.6000
G1 X120.129 Y107.361
G1 X120.909 Y106.593 E25.6364
G1 X121.166 Y106.852
G1 X120.327 Y107.678 E25.6756
G1 X120.526 Y107.995
G1 X121.423 Y107.111 E25.7174
G1 X121.680 Y107.370
G1 X120.769 Y108.268 E25.7600
G1 X121.115 Y108.440
G1 X121.937 Y107.630 E25.7984
G1 X122.195 Y107.889
G1 X121.461 Y108.611 E25.8326
G1 X121.807 Y108.783
G1 X122.452 Y108.148 E25.8627
G1 X122.709 Y108.407
G1 X122.154 Y108.954 E25.8887
G1 X122.500 Y109.126
G1 X122.966 Y108.667 E25.9104
G1 X123.223 Y108.926
G1 X122.804 Y109.339 E25.9300
G1 X122.962 Y109.696
G1 X123.481 Y109.185 E25.9542
G1 X123.738 Y109.444
G1 X123.119 Y110.054 E25.9831
G1 X123.277 Y110.411
G1 X123.995 Y109.704 E26.0166
G1 X124.252 Y109.963
G1 X123.434 Y110.769 E26.0548
G0 F4800 X123.054 Y112.062
G0 X120.565 Y114.107
G1 F2400 X120.142 Y114.523 E26.0745
G0 X121.504 Y113.695 F4800
G1 F2400 X121.089 Y114.104 E26.0939
G1 X121.628 Y114.085
G1 X122.444 Y113.282 E26.1320
G0 F4800 X125.292 Y109.832
G0 X121.261 Y105.781
G0 X121.110 Y105.352
G0 X121.524 Y105.157
G0 X128.448 Y105.181
G0 X137.067 Y114.103
G0 X139.078 Y114.838
G1 F2400 X139.327 Y114.593 E26.1436
G0 X139.735 Y113.679 F4800
G1 F2400 X138.554 Y114.842 E26.1987
G1 X138.291 Y114.588
G1 X139.581 Y113.318 E26.2589
G1 X139.172 Y113.208
G1 X138.103 Y114.261 E26.3088
G1 X137.915 Y113.934
G1 X138.762 Y113.099 E26.3484
G1 X138.353 Y112.989
G1 X137.726 Y113.607 E26.3776
G1 X137.460 Y113.356
G1 X137.944 Y112.880 E26.4002
G1 X137.535 Y112.770
G1 X137.186 Y113.114 E26.4165
G1 X136.911 Y112.872
G1 X137.126 Y112.660 E26.4265
G1 X136.717 Y112.551
G1 X136.637 Y112.629 E26.4303
G0 X133.175 Y111.426 F4800
G1 F2400 X133.416 Y111.189 E26.4415
G1 X133.307 Y110.783
G1 X132.663 Y111.417 E26.4716
G1 X132.486 Y111.079
G1 X133.199 Y110.378 E26.5048
G1 X133.090 Y109.972
G1 X132.310 Y110.741 E26.5413
G1 X132.133 Y110.402
G1 X132.981 Y109.567 E26.5809
G1 X132.872 Y109.161
G1 X131.956 Y110.064 E26.6236
G1 X131.779 Y109.725
G1 X132.764 Y108.756 E26.6696
G1 X132.655 Y108.350
G1 X131.602 Y109.387 E26.7187
G1 X131.425 Y109.049
G1 X132.546 Y107.945 E26.7711
G1 X132.437 Y107.539
G1 X131.249 Y108.710 E26.8265
G1 X131.072 Y108.372
G1 X132.328 Y107.134 E26.8852
G1 X132.220 Y106.728
G1 X130.895 Y108.033 E26.9471
G1 X130.718 Y107.695
G1 X132.111 Y106.323 E27.0121
G1 X132.002 Y105.918
G1 X130.541 Y107.357 E27.0803
G1 X130.364 Y107.018
G1 X131.893 Y105.512 E27.1517
G1 X131.785 Y105.107
G1 X130.187 Y106.680 E27.2263
G1 X130.011 Y106.342
G1 X130.785 Y105.578 E27.2625
G1 X130.608 Y105.240
G1 X129.834 Y106.003 E27.2986
G1 X129.657 Y105.665
G1 X130.432 Y104.902 E27.3348
G1 X130.255 Y104.564
G1 X129.480 Y105.326 E27.3710
G1 X129.302 Y104.989
G1 X130.078 Y104.225 E27.4072
G1 X129.901 Y103.887
G1 X129.121 Y104.655 E27.4435
G1 X128.924 Y104.336
G1 X129.724 Y103.549 E27.4809
G1 X129.459 Y103.297
G1 X128.404 Y104.336 E27.5301
G1 X127.883 Y104.336
G1 X128.938 Y103.297 E27.5794
G1 X128.418 Y103.297
G1 X127.363 Y104.336 E27.6286
G1 X126.843 Y104.336
G1 X127.898 Y103.297 E27.6779
G1 X127.377 Y103.297
G1 X126.322 Y104.336 E27.7271
G1 X125.802 Y104.336
G1 X126.857 Y103.297 E27.7764
G1 X126.336 Y103.297
G1 X125.281 Y104.336 E27.8256
G1 X124.761 Y104.336
G1 X125.816 Y103.297 E27.8749
G1 X125.296 Y103.297
G1 X124.241 Y104.336 E27.9241
G1 X123.720 Y104.336
G1 X124.775 Y103.297 E27.9734
G1 X124.255 Y103.297
G1 X123.200 Y104.336 E28.0226
G1 X122.679 Y104.336
G1 X123.734 Y103.297 E28.0719
G1 X123.214 Y103.297
G1 X122.159 Y104.336 E28.1211
G1 X121.639 Y104.336
G1 X122.693 Y103.297 E28.1704
G1 X122.173 Y103.297
G1 X120.985 Y104.467 E28.2258
G0 X119.706 Y100.601 F4800
G1 F2400 X117.817 Y102.462 E28.3140
;segType:Infill
G0 X117.670 Y102.520 F4800
G1 F3600 X131.188 Y102.520 E28.7636
G1 X131.397 Y102.157 E28.7775
G1 X118.588 Y102.157 E29.2036
;segType:HShell
G0 X118.685 Y102.119 F4800
G1 F2400 X120.575 Y100.258 E29.2918
G0 X121.445 Y99.914 F4800
G1 F2400 X119.554 Y101.776 E29.3801
;segType:Infill
G0 X119.506 Y101.795 F4800
G1 F3600 X131.607 Y101.795 E29.7825
G1 X131.816 Y101.432 E29.7964
G1 X120.424 Y101.432 E30.1753
;segType:HShell
G1 F2400 X122.314 Y99.570 E30.2636
G0 X123.184 Y99.226 F4800
G1 F2400 X121.291 Y101.090 E30.3520
;segType:Infill
G0 X121.343 Y101.070 F4800
G1 F3600 X132.025 Y101.070 E30.7073
G1 X132.235 Y100.708 E30.7212
G1 X122.261 Y100.708 E31.0530
;segType:HShell
G0 X122.159 Y100.747 F4800
G1 F2400 X124.053 Y98.882 E31.1413
G0 X124.922 Y98.539 F4800
G1 F2400 X123.028 Y100.405 E31.2298
;segType:Infill
G0 X123.179 Y100.345 F4800
G1 F3600 X132.444 Y100.345 E31.5380
G1 X132.654 Y99.983 E31.5519
G1 X124.097 Y99.983 E31.8365
;segType:HShell
G0 X123.896 Y100.062 F4800
G1 F2400 X126.561 Y97.438 E31.9608
G1 X126.538 Y96.947
G1 X125.542 Y97.928 E32.0074
G1 X125.520 Y97.438
G1 X126.516 Y96.456 E32.0539
;segType:Infill
G0 X126.882 Y96.721 F4800
G1 F3600 X126.528 Y96.721 E32.0656
G1 X126.545 Y97.083 E32.0777
G1 X127.145 Y97.083 E32.0977
G1 X127.409 Y97.445 E32.1126
G1 X126.561 Y97.445 E32.1408
G1 X126.578 Y97.808 E32.1528
G1 X138.542 Y97.808 E32.5508
G1 X138.445 Y98.170 E32.5633
G1 X126.594 Y98.170 E32.9574
G1 X126.610 Y98.533 E32.9695
G1 X137.403 Y98.533 E33.3285
;segType:HShell
G1 F2400 X135.924 Y100.004 E33.3984
G1 X136.639 Y99.813
G1 X138.138 Y98.336 E33.4684
G1 X138.494 Y97.986
G1 X139.953 Y96.549 E33.5365
G1 X139.767 Y97.245
G1 X137.354 Y99.621 E33.6491
G1 X138.069 Y99.430
G1 X139.581 Y97.941 E33.7197
G1 X139.395 Y98.637
G1 X138.784 Y99.238 E33.7482
G0 X136.709 Y98.719 F4800
G1 F2400 X135.210 Y100.196 E33.8182
G1 X134.495 Y100.387
G1 X135.994 Y98.910 E33.8882
;segType:Infill
G0 X136.049 Y98.895 F4800
G1 F3600 X126.627 Y98.895 E34.2016
;segType:HShell
G1 F2400 X126.502 Y99.033 E34.2075
;segType:Infill
G0 X129.754 Y103.607 F4800
G1 F3600 X130.560 Y103.607 E34.2343
G1 X130.404 Y103.970 E34.2474
G1 X129.944 Y103.970 E34.2627
G1 X130.133 Y104.332 E34.2763
G1 X130.501 Y104.332 E34.2885
G1 X130.598 Y104.694 E34.3010
G1 X130.323 Y104.694 E34.3102
;segType:HShell
G0 X130.825 Y105.539 F4800
G1 F2400 X131.676 Y104.701 E34.3499
G1 X131.567 Y104.296
G1 X130.716 Y105.134 E34.3896
G1 X130.607 Y104.728
G1 X131.778 Y103.576 E34.4442
G0 X131.054 Y102.750 F4800
G1 F2400 X134.565 Y99.293 E34.6081
;segType:Infill
G0 X134.695 Y99.258 F4800
G1 F3600 X125.933 Y99.258 E34.8995
;segType:HShell
G0 X125.633 Y99.376 F4800
G1 F2400 X126.605 Y98.419 E34.9449
G1 X126.583 Y97.928
G1 X124.765 Y99.719 E35.0298
;segType:Infill
G0 X125.015 Y99.620 F4800
G1 F3600 X133.341 Y99.620 E35.3067
;segType:HShell
G0 X133.136 Y99.675 F4800
G1 F2400 X132.429 Y100.372 E35.3397
G0 X133.154 Y101.195 F4800
G1 F2400 X130.390 Y103.918 E35.4688
G1 X130.499 Y104.323
G1 X132.466 Y102.386 E35.5606
G0 X131.742 Y101.561 F4800
G1 F2400 X133.851 Y99.484 E35.6591
G0 X133.780 Y100.579 F4800
G1 F2400 X135.280 Y99.101 E35.7291
;segType:Infill
G0 X131.830 Y97.445 F4800
G1 F3600 X138.638 Y97.445 E35.9555
G1 X138.735 Y97.083 E35.9680
G1 X132.192 Y97.083 E36.1856
G1 X132.555 Y96.721 E36.2027
G1 X138.832 Y96.721 E36.4114
G1 X138.929 Y96.358 E36.4239
G1 X132.917 Y96.358 E36.6239
G1 X133.280 Y95.996 E36.6409
G1 X139.026 Y95.996 E36.8320
G1 X139.122 Y95.633 E36.8445
G1 X133.642 Y95.633 E37.0268
G1 X134.005 Y95.271 E37.0438
G1 X139.219 Y95.271 E37.2173
G1 X139.316 Y94.908 E37.2297
G1 X134.367 Y94.908 E37.3943
G1 X134.729 Y94.546 E37.4114
G1 X139.228 Y94.546 E37.5610
;segType:HShell
G0 X140.139 Y95.853 F4800
G1 F2400 X138.680 Y97.290 E37.6291
G1 X138.866 Y96.595
G1 X140.325 Y95.157 E37.6972
G1 X140.426 Y94.545
G1 X139.051 Y95.899 E37.7614
G1 X139.237 Y95.204
G1 X140.238 Y94.218 E37.8082
G1 X140.050 Y93.891
G1 X139.284 Y94.645 E37.8439
G1 X138.970 Y94.441
G1 X139.829 Y93.595 E37.8840
G1 X139.420 Y93.486
G1 X138.561 Y94.332 E37.9241
G1 X138.152 Y94.222
G1 X139.011 Y93.376 E37.9642
G1 X138.602 Y93.266
G1 X137.743 Y94.113 E38.0043
G1 X137.333 Y94.003
G1 X138.193 Y93.157 E38.0445
G1 X137.783 Y93.047
G1 X136.924 Y93.894 E38.0846
G1 X136.515 Y93.784
G1 X137.374 Y92.938 E38.1247
G1 X136.965 Y92.828
G1 X136.105 Y93.675 E38.1648
;segType:Infill
G0 X136.652 Y93.821 F4800
G1 F3600 X135.454 Y93.821 E38.2047
G1 X135.092 Y94.183 E38.2217
G1 X138.007 Y94.183 E38.3187
;segType:HShell
G0 X135.738 Y92.500 F4800
G1 F2400 X130.458 Y97.699 E38.5651
G1 X130.979 Y97.699
G1 X136.147 Y92.609 E38.8064
G1 X136.556 Y92.719
G1 X131.499 Y97.699 E39.0425
G0 X130.993 Y96.660 F4800
G1 F2400 X129.938 Y97.699 E39.0917
G1 X129.418 Y97.699
G1 X130.473 Y96.660 E39.1410
G1 X129.952 Y96.660
G1 X128.897 Y97.699 E39.1902
G1 X128.377 Y97.699
G1 X129.432 Y96.660 E39.2395
G1 X128.911 Y96.660
G1 X127.856 Y97.699 E39.2887
G1 X127.486 Y97.551
G1 X128.391 Y96.660 E39.3310
G1 X128.018 Y96.515
G1 X127.269 Y97.253 E39.3659
G1 X127.052 Y96.954
G1 X127.801 Y96.216 E39.4009
G1 X127.584 Y95.918
G1 X126.834 Y96.655 E39.4359
G1 X126.617 Y96.357
G1 X127.367 Y95.619 E39.4708
G1 X127.150 Y95.320
G1 X125.498 Y96.947 E39.5480
G1 X125.475 Y96.456
G1 X126.932 Y95.021 E39.6160
G1 X126.715 Y94.722
G1 X125.453 Y95.966 E39.6749
G1 X125.431 Y95.475
G1 X126.498 Y94.424 E39.7248
G1 X126.281 Y94.125
G1 X125.408 Y94.985 E39.7655
G1 X125.386 Y94.494
G1 X126.064 Y93.826 E39.7972
G1 X125.847 Y93.527
G1 X125.364 Y94.003 E39.8198
G1 X125.341 Y93.513
G1 X125.630 Y93.228 E39.8333
G1 X125.413 Y92.930
G1 X125.319 Y93.022 E39.8376
G0 X125.252 Y91.550 F4800
G1 F2400 X125.385 Y91.420 E39.8438
G0 X126.093 Y90.210 F4800
G1 F2400 X125.230 Y91.060 E39.8841
G1 X125.208 Y90.569
G1 X126.801 Y89.000 E39.9585
G1 X126.749 Y88.539
G1 X125.185 Y90.079 E40.0315
G1 X125.163 Y89.588
G1 X126.017 Y88.747 E40.0714
G0 X128.945 Y87.913 F4800
G1 F2400 X128.784 Y88.072 E40.0789
G1 X129.304 Y88.072
G1 X131.195 Y86.210 E40.1672
G1 X131.483 Y86.439
G1 X129.824 Y88.072 E40.2446
G1 X130.434 Y87.984
G1 X131.771 Y86.667 E40.3070
G1 X131.865 Y87.087
G1 X131.224 Y87.719 E40.3370
G0 X125.285 Y88.955 F4800
G1 F2400 X125.141 Y89.097 E40.3437
; ------------------------------------
; Layer #5
; ------------------------------------
G21 ; mm
G90 ; abs
G92 E0 ; reset extr
M106 S255
;segType:HShell
G0 F4800 E-1.000
G0 F2400 Z1.200
G0 F4800 X116.087 Y102.403
G0 F4800 E0.000
G1 F2400 X122.537 Y108.755 E0.3011
G0 X123.233 Y109.441 F4800
G1 F2400 X123.937 Y110.134 E0.3339
G1 X123.629 Y110.344
G1 X124.117 Y110.824 E0.3567
G1 X124.117 Y111.337
G1 X124.025 Y111.247 E0.3610
G0 X123.794 Y113.069 F4800
G1 F2400 X124.039 Y113.310 E0.3724
G0 X122.868 Y113.695 F4800
G1 F2400 X122.714 Y113.543 E0.3796
G1 X123.074 Y113.385
G1 X123.344 Y113.651 E0.3922
G1 X123.691 Y113.480
G1 X123.434 Y113.227 E0.4042
;segType:Perimeter
G0 X123.334 Y112.778 F4800
G1 F1200 X123.318 Y112.126 E0.4259
G1 X122.270 Y109.740 E0.5126
G1 X120.210 Y108.723 E0.5890
G1 X118.957 Y106.721 E0.6675
G1 X116.102 Y104.811 E0.7818
G1 X110.855 Y107.838 E0.9833
G1 X110.080 Y110.681 E1.0813
G1 X108.923 Y108.680 E1.1582
G1 X112.758 Y102.643 E1.3960
G1 X116.701 Y101.086 E1.5370
G1 X116.006 Y96.900 E1.6781
G1 X117.385 Y91.391 E1.8671
G1 X108.949 Y87.019 E2.1831
G1 X109.180 Y85.465 E2.2353
G1 X110.937 Y87.703 E2.3300
G1 X117.916 Y88.674 E2.5643
G1 X120.263 Y94.457 E2.7719
G1 X117.945 Y100.230 E2.9788
G1 X117.922 Y100.512 E2.9882
G1 X118.205 Y100.490 E2.9977
G1 X124.885 Y97.852 E3.2365
G1 X124.460 Y88.513 E3.5474
G1 X128.803 Y87.275 E3.6976
G1 X131.151 Y85.343 E3.7988
G1 X132.815 Y86.664 E3.8695
G1 X132.066 Y88.125 E3.9241
G1 X130.279 Y88.727 E3.9868
G1 X127.717 Y88.727 E4.0720
G1 X125.686 Y92.195 E4.2057
G1 X128.455 Y96.006 E4.3624
G1 X130.875 Y96.006 E4.4429
G1 X135.203 Y91.680 E4.6464
G1 X140.317 Y93.048 E4.8225
G1 X141.172 Y94.530 E4.8794
G1 X139.801 Y99.641 E5.0554
G1 X133.891 Y101.227 E5.2589
G1 X132.205 Y104.145 E5.3710
G1 X134.088 Y111.172 E5.6130
G1 X140.317 Y112.840 E5.8274
G1 X140.603 Y113.335 E5.8465
G1 X139.633 Y115.515 E5.9258
G1 X138.068 Y115.505 E5.9779
G1 X137.195 Y113.994 E6.0359
G1 X134.928 Y111.994 E6.1365
G1 X132.294 Y112.125 E6.2242
G1 X128.566 Y104.988 E6.4919
G1 X120.723 Y104.988 E6.7528
G1 X120.449 Y105.074 E6.7624
G1 X120.580 Y105.328 E6.7719
G1 X125.117 Y109.906 E6.9862
G1 X125.117 Y113.893 E7.1188
G1 X123.535 Y114.672 E7.1775
G1 X121.037 Y114.762 E7.2606
G1 X119.333 Y115.896 E7.3287
G1 X119.560 Y113.838 E7.3976
G1 X123.289 Y112.198 E7.5331
G1 X123.749 Y111.728
;segType:Loop
G0 X123.307 Y111.104 F4800
G1 F2400 X122.578 Y109.445 E7.5934
G1 X120.489 Y108.414 E7.6709
G1 X119.250 Y106.436 E7.7485
G1 X116.117 Y104.340 E7.8738
G1 X110.514 Y107.574 E8.0890
G1 X109.946 Y109.652 E8.1607
G1 X109.391 Y108.691 E8.1976
G1 X113.027 Y102.965 E8.4232
G1 X117.148 Y101.340 E8.5705
G1 X116.414 Y96.916 E8.7197
G1 X117.850 Y91.182 E8.9163
G1 X112.275 Y88.292 E9.1251
G1 X117.632 Y89.038 E9.3050
G1 X119.832 Y94.459 E9.4996
G1 X117.551 Y100.137 E9.7031
G1 X117.484 Y100.945 E9.7301
G1 X118.295 Y100.885 E9.7572
G1 X125.297 Y98.119 E10.0075
G1 X124.876 Y88.811 E10.3174
G1 X128.992 Y87.637 E10.4598
G1 X131.154 Y85.858 E10.5529
G1 X132.310 Y86.774 E10.6020
G1 X131.784 Y87.798 E10.6403
G1 X130.213 Y88.326 E10.6954
G1 X127.488 Y88.326 E10.7861
G1 X125.209 Y92.219 E10.9361
G1 X128.252 Y96.406 E11.1083
G1 X131.041 Y96.406 E11.2010
G1 X135.323 Y92.126 E11.4024
G1 X140.055 Y93.393 E11.5653
G1 X140.743 Y94.584 E11.6110
G1 X139.474 Y99.314 E11.7739
G1 X133.627 Y100.883 E11.9753
G1 X131.775 Y104.088 E12.0984
G1 X133.762 Y111.498 E12.3535
G1 X134.243 Y111.627 E12.3701
G1 X132.531 Y111.712 E12.4271
G1 X128.809 Y104.588 E12.6945
G1 X120.662 Y104.588 E12.9654
G1 X119.877 Y104.836 E12.9928
G1 X120.252 Y105.566 E13.0201
G1 X124.717 Y110.069 E13.2310
G1 X124.717 Y113.644 E13.3499
G1 X123.436 Y114.275 E13.3974
G1 X120.910 Y114.365 E13.4815
G1 X119.824 Y115.089 E13.5249
G1 X119.932 Y114.110 E13.5577
G1 X123.867 Y112.381 E13.7006
G1 X123.380 Y111.270 E13.7410
G0 X123.274 Y110.032 F4800
G1 F2400 X122.887 Y109.150 E13.7730
G1 X120.768 Y108.105 E13.8516
G1 X119.543 Y106.150 E13.9283
G1 X116.133 Y103.869 E14.0648
G1 X111.072 Y106.791 E14.2591
G1 X113.295 Y103.290 E14.3971
G1 X117.596 Y101.594 E14.5508
G1 X117.554 Y101.341 E14.5593
G1 X118.385 Y101.279 E14.5871
G1 X125.709 Y98.387 E14.8490
G1 X125.478 Y93.268 E15.0194
G1 X128.049 Y96.807 E15.1649
G1 X131.207 Y96.807 E15.2699
G1 X135.442 Y92.573 E15.4691
G1 X139.793 Y93.737 E15.6189
G1 X140.313 Y94.639 E15.6535
G1 X139.148 Y98.988 E15.8033
G1 X133.363 Y100.539 E16.0024
G1 X131.346 Y104.031 E16.1366
G1 X133.288 Y111.272 E16.3859
G1 X132.768 Y111.298 E16.4033
G1 X129.051 Y104.188 E16.6701
G1 X120.600 Y104.188 E16.9512
G1 X119.305 Y104.598 E16.9964
G1 X119.924 Y105.805 E17.0415
G1 X124.316 Y110.232 E17.2489
G1 X124.316 Y112.408 E17.3213
G1 X123.347 Y110.198 E17.4016
G0 F4800 X120.279 Y105.004
G0 X120.694 Y104.809
G0 X128.662 Y104.834
G0 X133.799 Y111.588
G0 X135.587 Y111.987
G1 F2400 X140.053 Y113.184 E17.5554
G1 X140.155 Y113.360 E17.5621
